ncols        64
nrows        60
xllcorner    630800.000000000000
yllcorner    5180500.000000000000
cellsize     250.000000000000
NODATA_value -9999
2366.181396484375 2291.17626953125 2191.280029296875 2056.181396484375 1941.1993408203125 1892.48193359375 1904.197998046875 1996.732177734375 2153.978271484375 2323.71044921875 2449.00634765625 2549.469970703125 2650.00830078125 2775.145751953125 2854.171142578125 2892.317138671875 2972.310302734375 3038.4052734375 2998.505126953125 2897.608154296875 2850.896484375 2793.47509765625 2724.086669921875 2663.893798828125 2648.026611328125 2706.983642578125 2817.005615234375 2909.930419921875 2949.774658203125 2801.255615234375 2703.56005859375 2665.729248046875 2662.701416015625 2689.358154296875 2735.84228515625 2757.50146484375 2808.4296875 2953.943603515625 3090.907470703125 3169.117919921875 3156.805908203125 3158.65283203125 3170.8125 3166.9072265625 3156.71630859375 3193.69482421875 3233.613525390625 3356.765380859375 3387.3828125 3279.3564453125 3231.9638671875 3179.08154296875 3125.380615234375 3098.12548828125 3080.032470703125 3072.16357421875 3071.788330078125 3121.1904296875 3102.415283203125 2963.767578125 2848.337158203125 2776.85888671875 2737.872314453125 2746.843994140625 
2389.113525390625 2297.8876953125 2191.41015625 2058.548583984375 1955.3050537109375 1907.39404296875 1918.87939453125 2028.8123779296875 2176.136474609375 2348.421630859375 2469.475830078125 2565.711181640625 2649.705078125 2742.124267578125 2777.202392578125 2814.0029296875 2891.9462890625 3000.697509765625 3031.8330078125 2936.983642578125 2830.464599609375 2776.87890625 2737.470947265625 2705.73876953125 2717.565673828125 2810.699462890625 2957.78662109375 3056.011474609375 3058.952880859375 2895.9609375 2801.38916015625 2763.12646484375 2775.10546875 2834.631103515625 2912.901123046875 2929.31787109375 2973.770751953125 3080.029541015625 3193.6669921875 3299.78369140625 3270.731689453125 3248.355224609375 3241.982177734375 3218.826904296875 3236.595947265625 3297.49609375 3331.78369140625 3436.38671875 3412.625732421875 3320.88818359375 3255.4814453125 3192.287353515625 3149.71240234375 3121.58203125 3096.376953125 3092.416015625 3117.691650390625 3216.787353515625 3167.489013671875 3021.5029296875 2934.455322265625 2836.627197265625 2785.145263671875 2796.98095703125 
2415.224365234375 2328.20849609375 2238.719970703125 2127.275146484375 2041.22900390625 1960.88818359375 1946.954833984375 2046.52880859375 2201.645263671875 2354.3671875 2444.553466796875 2544.02734375 2628.315673828125 2703.345703125 2783.961181640625 2880.047119140625 2926.3671875 3029.3017578125 3071.8466796875 2956.3095703125 2867.776123046875 2835.866943359375 2844.8837890625 2841.53759765625 2828.5322265625 2862.06396484375 2906.937255859375 2977.496826171875 3042.6875 2976.10400390625 2931.634521484375 2935.8857421875 2953.162841796875 3019.425048828125 3127.700927734375 3149.04052734375 3174.137451171875 3222.6904296875 3318.945068359375 3344.404296875 3319.865478515625 3297.472412109375 3281.373291015625 3274.8330078125 3341.46337890625 3414.114013671875 3433.433837890625 3462.014892578125 3453.627685546875 3337.298583984375 3265.616943359375 3211.842529296875 3179.41259765625 3161.752685546875 3135.508544921875 3152.497314453125 3194.07373046875 3311.202880859375 3253.637451171875 3146.845703125 3087.99365234375 2997.9609375 2938.897705078125 2898.072998046875 
2401.377685546875 2351.227294921875 2273.368896484375 2181.64501953125 2094.440185546875 1972.803466796875 1945.0423583984375 2059.8955078125 2238.15283203125 2399.467529296875 2491.08447265625 2597.86865234375 2687.80810546875 2746.6669921875 2918.1484375 3056.56103515625 3085.49169921875 3159.532470703125 3124.677490234375 3000.423583984375 2958.884033203125 2968.223388671875 3021.9599609375 2991.098388671875 2942.337890625 2942.884033203125 2975.3623046875 3042.13623046875 3066.1923828125 3055.952880859375 3070.67333984375 3111.567138671875 3177.281005859375 3244.870849609375 3302.826416015625 3302.4140625 3324.718505859375 3359.560302734375 3395.2265625 3375.26416015625 3368.831787109375 3369.93603515625 3373.332275390625 3397.056640625 3445.608642578125 3501.010009765625 3516.986572265625 3555.559326171875 3497.6865234375 3369.87548828125 3268.344970703125 3230.188232421875 3206.6943359375 3197.68798828125 3164.802001953125 3160.006591796875 3252.847412109375 3261.0654296875 3151.857666015625 3067.389404296875 3033 3032.31494140625 2961.47412109375 2872.31640625 
2315.606201171875 2257.824951171875 2199.612548828125 2153.9228515625 2086.819091796875 1953.7008056640625 1957.6387939453125 2086.8701171875 2267.012939453125 2451.930908203125 2597.388916015625 2721.98193359375 2828.083740234375 2847.977783203125 2982.204345703125 3076.44921875 3153.761474609375 3152.504638671875 3127.387939453125 3070.822021484375 3088.869873046875 3146.992919921875 3166.091552734375 3107.3740234375 3060.883056640625 3078.90478515625 3132.085205078125 3201.541748046875 3177.969970703125 3138.285400390625 3153.845947265625 3187.8427734375 3237.31103515625 3260.390869140625 3267.38623046875 3267.753662109375 3322.329833984375 3420.167724609375 3414.986572265625 3410.109619140625 3441.40234375 3423.758056640625 3429.404541015625 3474.56201171875 3555.8017578125 3626.46337890625 3611.328125 3545.73046875 3451.8046875 3348.928955078125 3286.4521484375 3262.79150390625 3246.328857421875 3182.49951171875 3075.33642578125 3077.90234375 3187.74462890625 3149.8525390625 3042.773193359375 2928.60986328125 2874.63330078125 2875.434326171875 2786.061767578125 2702.5400390625 
2222.663818359375 2179.81787109375 2162.34326171875 2161.0927734375 2087.341796875 1960.95556640625 1979.6964111328125 2101.976318359375 2277.6904296875 2435.201171875 2544.603271484375 2663.81005859375 2799.58056640625 2916.31640625 2956.25 2931.52978515625 3019.590576171875 3077.498291015625 3057.941650390625 3039.336669921875 3044.87060546875 3180.499755859375 3262.1044921875 3231.958740234375 3190.700927734375 3198.0595703125 3286.5751953125 3307.541259765625 3275.0380859375 3267.1328125 3276.853271484375 3222.086669921875 3176.645263671875 3180.35107421875 3209.802001953125 3230.116943359375 3277.795166015625 3371.3642578125 3382.24755859375 3454.54443359375 3524.940185546875 3473.409423828125 3449.2939453125 3509.907470703125 3609.83740234375 3662.120849609375 3593.914306640625 3457.349609375 3369.02685546875 3278.944091796875 3231.7587890625 3275.68310546875 3267.3876953125 3126.78564453125 3025.62060546875 3052.996826171875 3134.46923828125 3027.94921875 2929.654296875 2846.687255859375 2767.302490234375 2704.746337890625 2632.80859375 2578.147705078125 
2202.07373046875 2191.145263671875 2200.7216796875 2194.859619140625 2127.888916015625 2015.9471435546875 1990.0777587890625 2065.513671875 2224.542236328125 2372.97607421875 2457.41943359375 2557.7333984375 2683.31005859375 2815.80517578125 2849.02001953125 2820.85009765625 2885.97802734375 3016.4921875 2993.171875 2990.928466796875 2994.02197265625 3062.505859375 3219.0927734375 3341.9970703125 3311.7841796875 3296.5263671875 3271.60009765625 3234.1240234375 3207.75 3217.926513671875 3219.886962890625 3152.724853515625 3136.744140625 3136.607177734375 3151.014892578125 3186.86572265625 3274.02001953125 3302.67822265625 3303.141845703125 3383.24755859375 3441.25439453125 3402.1982421875 3361.9580078125 3437.81689453125 3550.4013671875 3541.384521484375 3516.35791015625 3471.25 3345.076171875 3251.840087890625 3200.560302734375 3204.72119140625 3221.4697265625 3111.93017578125 3001.325927734375 3005.041259765625 3025.979248046875 2982.411865234375 2877.044677734375 2778.065673828125 2683.959716796875 2574.190673828125 2515.166259765625 2470.947998046875 
2256.700439453125 2281.479736328125 2293.187255859375 2287.887939453125 2217.16552734375 2116.09326171875 2061.130126953125 2064.443115234375 2139.46923828125 2302.649169921875 2423.491943359375 2491.37646484375 2581.606201171875 2704.135986328125 2753.880859375 2737.5732421875 2813.753662109375 2931.892333984375 2922.34814453125 2928.6240234375 2971.434814453125 3031.986083984375 3204.301513671875 3403.68115234375 3428.7685546875 3337.4140625 3229.02587890625 3178.207763671875 3164.03564453125 3155.080810546875 3122.926513671875 3099.170654296875 3094.37353515625 3101.61083984375 3115.24951171875 3145.79541015625 3220.250244140625 3235.080322265625 3264.292724609375 3318.8310546875 3371.9150390625 3281.202392578125 3237.01953125 3277.01708984375 3353.28271484375 3353.10791015625 3378.791259765625 3441.161865234375 3375.603515625 3251.72021484375 3164.436279296875 3108.0556640625 3103.27197265625 3070.370361328125 2963.283447265625 2949.329833984375 2905.580322265625 2865.365966796875 2808.251708984375 2696.721435546875 2575.305419921875 2459.833984375 2395.171630859375 2350.379150390625 
2312.5341796875 2384.4296875 2441.096435546875 2430.840576171875 2334.817138671875 2225.39697265625 2138.22900390625 2085.76953125 2106.287353515625 2249.8115234375 2369.515380859375 2425.865478515625 2488.61669921875 2582.519287109375 2629.7314453125 2648.885498046875 2707.844970703125 2792.7548828125 2851.56298828125 2911.330322265625 2976.111572265625 3068.568603515625 3278.144287109375 3452.017333984375 3446.06396484375 3367.973876953125 3230.6875 3155.923583984375 3132.169189453125 3107.937255859375 3076.81103515625 3058.233642578125 3051.017822265625 3061.081298828125 3075.921875 3104.969482421875 3163.20947265625 3200.110595703125 3246.586181640625 3316.879150390625 3371.830078125 3266.998291015625 3179.802490234375 3163.330322265625 3142.625 3152.0869140625 3201.874755859375 3272.265869140625 3327.0966796875 3267.76611328125 3110.61767578125 3022.262451171875 2988.974609375 3004.0224609375 2940.64501953125 2900.752197265625 2827.244873046875 2743.635986328125 2671.430908203125 2557.779296875 2433.21826171875 2340.21044921875 2274.37109375 2217.7939453125 
2360.6474609375 2478.6650390625 2612.580810546875 2597.474609375 2474.628662109375 2363.885986328125 2238.5390625 2135.54443359375 2091.4345703125 2181.283935546875 2275.0703125 2324.526123046875 2358.656982421875 2422.21923828125 2475.58837890625 2547.23779296875 2650.422119140625 2760.50830078125 2863.335205078125 2968.912353515625 3071.0087890625 3219.937255859375 3372.88818359375 3444.089111328125 3424.035888671875 3358.923095703125 3249.270263671875 3145.22900390625 3099.145263671875 3062.200439453125 3030.298828125 3019.9482421875 3021.7001953125 3020.443115234375 3031.650634765625 3068.549072265625 3130.566162109375 3170.304931640625 3260.767578125 3332.441162109375 3434.406494140625 3346.0078125 3191.151123046875 3101.85595703125 3048.843505859375 3043.8916015625 3053.958251953125 3098.62548828125 3166.070556640625 3149.406005859375 3030.9638671875 2919.06103515625 2866.822265625 2931.99951171875 2941.74755859375 2845.081298828125 2775.134033203125 2687.5810546875 2568.2138671875 2439.66259765625 2320.60302734375 2248.7998046875 2186.359619140625 2101.45556640625 
2423.53173828125 2549.4052734375 2680.033935546875 2621.503173828125 2538.53955078125 2449.873291015625 2325.792236328125 2207.978271484375 2122.548095703125 2134.38427734375 2182.034423828125 2232.342529296875 2283.958251953125 2352.61669921875 2415.628173828125 2470.84033203125 2599.766845703125 2790.072265625 2879.881591796875 2968.21533203125 3168.884521484375 3352.259033203125 3345.75732421875 3347.619140625 3331.362548828125 3285.461181640625 3240.62353515625 3138.770263671875 3064.9794921875 3026.590576171875 2988.2783203125 2975.775390625 2987.114990234375 2990.775146484375 3003.281494140625 3045.193603515625 3095.776611328125 3136.013427734375 3226.28515625 3281.64794921875 3433.727294921875 3424.823486328125 3244.4296875 3108.822998046875 3011.80078125 2986.80810546875 2967.03466796875 2982.7939453125 3077.1962890625 3029.055908203125 2920.307373046875 2815.484619140625 2808.018310546875 2914.707275390625 2929.7783203125 2806.85400390625 2688.78369140625 2594.92529296875 2475.291015625 2350.206787109375 2244.702880859375 2179.08154296875 2114.1748046875 2022.401611328125 
2472.704833984375 2601.762939453125 2705.873779296875 2638.086181640625 2575.32861328125 2501.42236328125 2401.6875 2297.585205078125 2188.915771484375 2156.80517578125 2183.241943359375 2243.0849609375 2319.63427734375 2404.78173828125 2470.005859375 2492.91064453125 2550.016357421875 2702.1953125 2848.718017578125 2993.03515625 3199.925048828125 3307.20654296875 3316.03759765625 3251.556396484375 3217.647705078125 3202.6337890625 3163.706787109375 3108.407470703125 3047.57666015625 3001.70361328125 2949.0908203125 2924.314453125 2947.3916015625 2960.387939453125 2978.185791015625 3025.85986328125 3074.67041015625 3129.66943359375 3204.84521484375 3286.385498046875 3394.8671875 3412.772216796875 3274.658203125 3131.955322265625 3008.424560546875 2946.360595703125 2915.26318359375 2923.79248046875 3007.712158203125 2975.597412109375 2834.59814453125 2725.2587890625 2759.36279296875 2855.181884765625 2815.96728515625 2704.012939453125 2612.012451171875 2521.85009765625 2388.62353515625 2264.359130859375 2165.53466796875 2089.91845703125 2032.7122802734375 1952.596435546875 
2505.016845703125 2623.212646484375 2781.13671875 2755.277099609375 2698.332763671875 2594.736572265625 2491.2236328125 2390.753662109375 2290.614990234375 2226.296875 2270.652099609375 2380.32763671875 2463.799072265625 2578.612060546875 2624.901123046875 2561.286376953125 2577.434814453125 2656.27587890625 2797.59033203125 3015.476806640625 3190.8896484375 3208.576904296875 3284.01611328125 3250.722412109375 3185.974853515625 3145.703369140625 3101.3134765625 3041.502685546875 2980.79150390625 2942.115234375 2911.008544921875 2883.94775390625 2905.90087890625 2917.328857421875 2946.277099609375 3012.2685546875 3058.261474609375 3120.221923828125 3220.05810546875 3324.30810546875 3297.413330078125 3297.42333984375 3232.9765625 3126.26220703125 3011.695556640625 2916.5458984375 2870.908203125 2863.18896484375 2895.2861328125 2897.58349609375 2777.359619140625 2665.18603515625 2686.896240234375 2748.75439453125 2699.64990234375 2621.23779296875 2547.669189453125 2440.60546875 2321.170654296875 2201.81884765625 2089.0419921875 1993.473876953125 1921.1624755859375 1889.491943359375 
2570.6552734375 2616.289306640625 2767.070556640625 2724.17919921875 2665.638671875 2580.298095703125 2491.162109375 2431.66796875 2377.432861328125 2336.071044921875 2425.125 2561.0703125 2637.30126953125 2717.7119140625 2709.1962890625 2664.20166015625 2678.8701171875 2708.556884765625 2758.422119140625 2952.37353515625 3102.3818359375 3116.826904296875 3180.30517578125 3230.757080078125 3163.491943359375 3107.2470703125 3053.388916015625 2977.6298828125 2925.202392578125 2885.831298828125 2840.2392578125 2822.990478515625 2841.832763671875 2882.559814453125 2923.595703125 3017.7197265625 3017.82373046875 3078.7705078125 3184.994140625 3328.0283203125 3266.619384765625 3186.37548828125 3150.282470703125 3066.361083984375 2973.730712890625 2871.726806640625 2804.943115234375 2780.54443359375 2785.0126953125 2805.2080078125 2737.920654296875 2623.533935546875 2600.811279296875 2639.756591796875 2612.541259765625 2556.09521484375 2472.85546875 2380.06591796875 2276.132568359375 2159.20947265625 2019.58203125 1918.2391357421875 1892.522705078125 1972.589111328125 
2620.052490234375 2647.0615234375 2779.151611328125 2710.904541015625 2604.02197265625 2554.888916015625 2514.58740234375 2482.060302734375 2440.898193359375 2463.96826171875 2577.38232421875 2737.140625 2842.44580078125 2816.733154296875 2786.511962890625 2786.99951171875 2783.680908203125 2764.886474609375 2769.303466796875 2918.498779296875 3043.152099609375 3062.0859375 3120.242919921875 3208.176025390625 3150.606689453125 3094.318359375 3049.3427734375 2997.55908203125 2951.06884765625 2901.903076171875 2845.36669921875 2798.939453125 2772.16064453125 2810.205078125 2887.677734375 2970.207763671875 2964.17822265625 3036.687255859375 3171.169921875 3312.753173828125 3242.59716796875 3124.197265625 3089.156005859375 3018.060546875 2962.8310546875 2900.994873046875 2780.294677734375 2705.4521484375 2674.1240234375 2695.19091796875 2659.203369140625 2594.6162109375 2531.120361328125 2542.1201171875 2537.330078125 2496.196533203125 2424.343994140625 2348.791015625 2236.44970703125 2112.0166015625 1979.397216796875 1893.7232666015625 1945.576904296875 2082.976806640625 
2657.092529296875 2683.462158203125 2786.55126953125 2728.46875 2665.123291015625 2625.292236328125 2591.982421875 2547.052490234375 2498.602783203125 2553.542724609375 2683.1328125 2862.476806640625 2890.423095703125 2856.26025390625 2845.215576171875 2833.897216796875 2809.423095703125 2793.33544921875 2794.09326171875 2940.21337890625 3008.058837890625 3030.9375 3107.00927734375 3203.891845703125 3199.961181640625 3119.458984375 3063.389404296875 3020.216064453125 2987.64892578125 2938.849853515625 2877.692626953125 2827.7578125 2754.850830078125 2738.86181640625 2838.166748046875 2900.015380859375 2923.021728515625 3005.52099609375 3133.004150390625 3247.30078125 3148.835693359375 3057.40087890625 3026.459716796875 2989.21435546875 2976.105712890625 2901.04150390625 2777.85009765625 2667.489990234375 2580.56884765625 2567.435302734375 2528.177001953125 2482.54248046875 2430.026611328125 2425.456787109375 2427.279052734375 2405.716796875 2348.753662109375 2285.08544921875 2177.2060546875 2058.1494140625 1939.2847900390625 1901.91748046875 2011.4576416015625 2161.39404296875 
2713.0400390625 2737.987060546875 2813.73388671875 2751.3134765625 2714.335693359375 2686.369873046875 2668.644287109375 2648.3525390625 2609.939453125 2631.8857421875 2740.8125 2859.5888671875 2889.62939453125 2883.157958984375 2859.8720703125 2832.140380859375 2820.765625 2820.617431640625 2828.57080078125 2915.62744140625 2977.38916015625 3016.0244140625 3141.16748046875 3269.35205078125 3297.703125 3211.444580078125 3151.544677734375 3105.6201171875 3080.667236328125 3066.9228515625 2928.94384765625 2826.49658203125 2747.26025390625 2710.309814453125 2767.612060546875 2832.129638671875 2897.45166015625 2974.64208984375 3105.79296875 3195.062255859375 3085.628662109375 2989.565185546875 2932.17578125 2879.02197265625 2860.7802734375 2807.3271484375 2694.478759765625 2573.455322265625 2471.364013671875 2414.288818359375 2373.711669921875 2336.51513671875 2301.746826171875 2277.703125 2261.048095703125 2247.3681640625 2224.927978515625 2173.8544921875 2083.0458984375 1974.1605224609375 1903.8944091796875 1936.2596435546875 2078.765380859375 2222.544677734375 
2776.15380859375 2804.808349609375 2881.99853515625 2805.08984375 2776.321044921875 2780.8935546875 2795.628173828125 2798.290283203125 2733.60498046875 2771.09326171875 2869.330810546875 2905.6328125 2915.181884765625 2913.059326171875 2901.890625 2876.6865234375 2855.415771484375 2845.51904296875 2867.165771484375 2933.06298828125 2988.30029296875 3059.78369140625 3246.165283203125 3375.31982421875 3311.052490234375 3186.4921875 3169.981201171875 3198.366943359375 3211.898681640625 3165.327880859375 2986.28759765625 2854.66259765625 2754.455810546875 2694.439697265625 2709.94921875 2761.726318359375 2843.2666015625 2948.380859375 3069.057373046875 3137.456787109375 3042.18994140625 2950.239501953125 2882.548828125 2786.459228515625 2705.288818359375 2663.0654296875 2553.74609375 2442.382080078125 2354.48876953125 2285.279296875 2230.447265625 2191.8974609375 2172.023193359375 2129.15478515625 2093.2880859375 2082.005126953125 2079.143310546875 2041.5870361328125 1984.2352294921875 1919.73046875 1935.118896484375 2001.8427734375 2150.78515625 2281.74072265625 
2828.069091796875 2882.055419921875 2959.830078125 2893.756591796875 2902.717529296875 2947.479736328125 2954.16015625 2940.0966796875 2877.65283203125 2904.369873046875 2940.2626953125 2942.9990234375 2937.586669921875 2925.772216796875 2912.40185546875 2896.499267578125 2879.18896484375 2880.71240234375 2965.0244140625 3040.181640625 3087.388916015625 3179.300537109375 3352.915771484375 3404.914306640625 3296.496826171875 3168.899658203125 3083.73388671875 3077.751220703125 3116.679443359375 3148.349853515625 3064.644775390625 2904.365478515625 2778.291015625 2686.572265625 2650.900634765625 2693.981689453125 2751.134033203125 2859.668701171875 2964.040771484375 3056.03564453125 3015.990966796875 2923.514404296875 2849.662353515625 2741.03125 2606.941162109375 2512.76904296875 2436.202392578125 2341.203369140625 2266.560791015625 2183.414306640625 2116.37939453125 2079.577392578125 2053.81787109375 2024.9178466796875 2001.831298828125 1992.126953125 1979.6025390625 1960.200439453125 1938.9442138671875 1940.5067138671875 1969.7005615234375 2062.723876953125 2187.359130859375 2297.41357421875 
2881.58935546875 2921.68603515625 3005.381103515625 3035.113037109375 3061.306640625 3063.991943359375 3041.724609375 3005.51806640625 2977.26123046875 2973.746826171875 2969.856201171875 2956.150146484375 2944.44970703125 2930.08056640625 2918.00244140625 2908.593017578125 2904.290283203125 2935.8974609375 3028.310302734375 3132.931884765625 3247.4140625 3286.95654296875 3348.99072265625 3353.76025390625 3253.72412109375 3173.141845703125 3082.56494140625 3025.357666015625 3002.758056640625 3030.2861328125 3047.951171875 2942.867919921875 2813.141845703125 2699.736328125 2613.524658203125 2627.985107421875 2671.935302734375 2742.49951171875 2821.676513671875 2906.063232421875 2907.955810546875 2844.4619140625 2763.613525390625 2637.01123046875 2503.076416015625 2401.133544921875 2330.96240234375 2257.82373046875 2167.94189453125 2087.777099609375 2044.1480712890625 2041.8623046875 2039.491455078125 2038.1114501953125 2044.601806640625 2050.41552734375 2036.125 2025.611083984375 2028.115478515625 2028.10400390625 1985.7747802734375 2058.0146484375 2192.642333984375 2302.27734375 
2955.74658203125 2990.619384765625 3093.829833984375 3179.875244140625 3146.832763671875 3091.474609375 3054.77490234375 3028.05615234375 3010.103515625 2994.258544921875 2979.992919921875 2966.325439453125 2952.0625 2937.451416015625 2930.459228515625 2930.437255859375 2937.5244140625 2989.516357421875 3067.515625 3215.95654296875 3295.92578125 3295.737060546875 3311.91650390625 3297.25390625 3222.703857421875 3166.6357421875 3106.51318359375 3013.71630859375 2956.818115234375 2951.09765625 2944.140380859375 2897.97216796875 2794.512939453125 2701.064697265625 2609.51708984375 2573.02783203125 2595.138671875 2645.48828125 2693.689208984375 2758.754150390625 2801.55029296875 2749.802734375 2661.822021484375 2539.4775390625 2429.979248046875 2333.532470703125 2234.40869140625 2158.173828125 2087.17138671875 2082.853271484375 2130.3525390625 2182.32470703125 2180.255126953125 2182.22265625 2205.244873046875 2221.987060546875 2202.998291015625 2180.335205078125 2194.587158203125 2131.81591796875 2023.4576416015625 2043.611083984375 2188.608642578125 2301.8408203125 
3097.65478515625 3131.84326171875 3211.37939453125 3265.64697265625 3190.420166015625 3114.2138671875 3073.90673828125 3041.935546875 3023.132568359375 3002.846435546875 2986.047119140625 2977.917724609375 2973.009765625 2965.898681640625 2963.28271484375 2959.8046875 2987.728759765625 3116.221923828125 3244.414794921875 3293.439697265625 3277.56982421875 3272.321533203125 3273.224365234375 3282.78125 3266.738525390625 3218.207763671875 3110.19921875 2991.074462890625 2906.448486328125 2877.572021484375 2866.121337890625 2825.63525390625 2750.641357421875 2690.773193359375 2643.841064453125 2586.6328125 2539.84619140625 2551.00390625 2596.137939453125 2642.2255859375 2711.839111328125 2686.0166015625 2594.660400390625 2494.07958984375 2391.3212890625 2279.43505859375 2161.536865234375 2095.48046875 2124.836669921875 2221.648193359375 2331.487060546875 2373.435302734375 2355.845703125 2360.4306640625 2392.367919921875 2408.263427734375 2394.637939453125 2378.93310546875 2339.720458984375 2190.53662109375 2046.74267578125 2036.510009765625 2180.90185546875 2321.184814453125 
3269.3798828125 3307.20068359375 3334.107666015625 3283.2294921875 3195.43212890625 3137.599853515625 3104.128662109375 3066.54052734375 3032.908203125 3009.666259765625 2998.154052734375 2995.27783203125 3000.505126953125 3000.502197265625 3007.3427734375 3001.399169921875 3051.725830078125 3209.6884765625 3320.725341796875 3277.855712890625 3254.273681640625 3242.151123046875 3228.864501953125 3232.378662109375 3283.617919921875 3287.4560546875 3171.76318359375 3042.005859375 2910.09326171875 2841.420654296875 2808.838623046875 2779.92236328125 2745.27197265625 2734.20556640625 2725.289794921875 2672.782958984375 2584.57080078125 2509.00927734375 2497.962158203125 2535.85693359375 2619.61376953125 2632.691162109375 2556.982177734375 2474.425048828125 2372.6650390625 2245.44775390625 2124.917724609375 2167.464599609375 2307.416259765625 2363.293701171875 2483.419921875 2514.843994140625 2507.72412109375 2521.120361328125 2557.583984375 2573.326171875 2571.203125 2522.7724609375 2402.19482421875 2220.343994140625 2067.5791015625 2057.848388671875 2191.058349609375 2367.28173828125 
3449.498779296875 3406.918701171875 3342.6552734375 3263.9912109375 3200.507080078125 3165.4599609375 3136.32861328125 3096.302490234375 3061.8662109375 3031.32275390625 3015.09130859375 3019.4814453125 3029.627197265625 3034.12158203125 3045.708740234375 3039.791015625 3127.2421875 3251.6787109375 3320.295166015625 3254.994384765625 3233.270751953125 3219.330078125 3197.8818359375 3184.6435546875 3209.326171875 3232.539306640625 3132.78955078125 3052.650390625 2940.645751953125 2872.43115234375 2828.861083984375 2804.458984375 2805.452392578125 2810.5986328125 2798.39892578125 2749.953857421875 2663.934814453125 2574.322265625 2476.708740234375 2446.369873046875 2513.0380859375 2566.630126953125 2529.8818359375 2449.65234375 2323.1728515625 2182.962646484375 2150.05859375 2325.922119140625 2474.268310546875 2485.570556640625 2591.050537109375 2647.837158203125 2656.7392578125 2684.7939453125 2726.496337890625 2741.07470703125 2700.92236328125 2570.28076171875 2403.5654296875 2225.895263671875 2087.488525390625 2073.251953125 2217.57275390625 2393.935302734375 
3471.049560546875 3425.324462890625 3354.97412109375 3267.785400390625 3206.92333984375 3182.59130859375 3145.908935546875 3108.069091796875 3086.33349609375 3061.547607421875 3044.233642578125 3047.46435546875 3047.94189453125 3057.78955078125 3076.454833984375 3088.093505859375 3158.604736328125 3218.029052734375 3243.55126953125 3225.4765625 3211.121826171875 3197.989501953125 3177.8115234375 3160.215576171875 3155.142578125 3185.888916015625 3112.9775390625 3028.14892578125 2966.11572265625 2915.00341796875 2886.100830078125 2867.080078125 2860.159423828125 2873.474609375 2889.084228515625 2813.7099609375 2718.66943359375 2629.743896484375 2527.64794921875 2413.545166015625 2406.6689453125 2474.55029296875 2462.69189453125 2347.967529296875 2208.59716796875 2147.911376953125 2258.29541015625 2470.71484375 2606.294677734375 2598.834716796875 2682.850830078125 2797.992919921875 2811.36572265625 2842.6689453125 2855.084716796875 2795.9013671875 2708.615234375 2577.11669921875 2401.653076171875 2226.04736328125 2096.191162109375 2080.924560546875 2244.8427734375 2407.916015625 
3435.43896484375 3425.10986328125 3380.916259765625 3314.54443359375 3256.66552734375 3223.268310546875 3176.814208984375 3138.93505859375 3119.106689453125 3108.751953125 3098.73046875 3081.92236328125 3073.0224609375 3094.470947265625 3106.77880859375 3125.2041015625 3152.8515625 3180.09912109375 3202.139892578125 3215.909912109375 3204.426513671875 3181.858642578125 3159.28173828125 3134.076904296875 3114.8876953125 3118.4248046875 3128.485595703125 3072.406005859375 3019.602294921875 2979.71875 2952.171875 2938.94384765625 2921.113525390625 2950.09619140625 2990.058349609375 2873.511474609375 2762.178466796875 2667.885986328125 2560.568359375 2443.674072265625 2329.13720703125 2322.552734375 2319.313720703125 2208.588623046875 2160.75390625 2248.675048828125 2410.791015625 2603.541015625 2705.01123046875 2699.14794921875 2731.26318359375 2878.009765625 2892.44384765625 2969.8251953125 2917.31640625 2807.0107421875 2704.507080078125 2576.5693359375 2385.148681640625 2215.88720703125 2099.957763671875 2094.915771484375 2278.0869140625 2442.599609375 
3332.15087890625 3396.45947265625 3395.291748046875 3359.671630859375 3314.6708984375 3272.564453125 3222.13232421875 3182.44775390625 3160.546142578125 3149.934814453125 3128.677490234375 3114.88037109375 3123.66552734375 3141.900390625 3136.323974609375 3151.39892578125 3172.76611328125 3199.09814453125 3227.415283203125 3243.929443359375 3230.076904296875 3185.49755859375 3139.579833984375 3110.71142578125 3089.19677734375 3069.74267578125 3054.886474609375 3037.964111328125 3050.165283203125 3054.2890625 3032.65869140625 3044.944091796875 3005.72119140625 3030.552001953125 3005.943115234375 2905.77392578125 2828.22607421875 2720.853515625 2571.324951171875 2449.1484375 2331.7841796875 2220.629150390625 2176.699951171875 2180.119140625 2264.3486328125 2414.729248046875 2560.8876953125 2694.64111328125 2790.125732421875 2787.021240234375 2799.753662109375 2958.482421875 3034.377197265625 3054.2939453125 2980.795654296875 2847.6806640625 2694.919189453125 2559.0634765625 2364.65283203125 2200.3828125 2105.1611328125 2136.322265625 2316.612548828125 2480.287109375 
3188.940185546875 3348.252685546875 3392.259765625 3361.180908203125 3317.66748046875 3280.8291015625 3240.266845703125 3209.415283203125 3181.91455078125 3161.656005859375 3145.02294921875 3138.91748046875 3153.7685546875 3163.11767578125 3160.863525390625 3178.780517578125 3192.9150390625 3220.924560546875 3245.321044921875 3261.07080078125 3274.453125 3216.419189453125 3134.487060546875 3103.972412109375 3079.35498046875 3052.8623046875 3016.17529296875 2959.806396484375 2915.26953125 2939.921875 2968.628173828125 3050.65234375 3063.015869140625 3048.83740234375 2963.39794921875 2900.2578125 2852.133056640625 2746.296875 2587.0263671875 2427.564453125 2307.980224609375 2199.748779296875 2182.448486328125 2307.59619140625 2461.548583984375 2605.59619140625 2727.14990234375 2828.613037109375 2865.6923828125 2871.378173828125 2903.4912109375 3085.098388671875 3209.920166015625 3114.774658203125 3019.8525390625 2863.210693359375 2677.9794921875 2538.53125 2342.77587890625 2177.3125 2103.22314453125 2181.546142578125 2347.797119140625 2483.61328125 
3041.092041015625 3219.31396484375 3343.019775390625 3327.303955078125 3296.57080078125 3272.47412109375 3242.786376953125 3212.6044921875 3186.7763671875 3168.1708984375 3157.71630859375 3155.66748046875 3164.294921875 3172.268798828125 3181.643310546875 3208.043701171875 3210.861083984375 3227.826416015625 3254.1591796875 3274.476318359375 3308.295654296875 3239.845703125 3162.53271484375 3120.111328125 3088.034912109375 3049.94482421875 2996.288818359375 2923.049072265625 2824.560546875 2788.632568359375 2805.42724609375 2914.696044921875 2967.524169921875 2962.54931640625 2923.6904296875 2874.573486328125 2802.79833984375 2708.74951171875 2575.9208984375 2411.75390625 2273.31298828125 2194.645263671875 2266.198974609375 2453.406494140625 2639.92724609375 2766.21484375 2884.352783203125 2926.8271484375 2916.54345703125 2943.69091796875 3015.242431640625 3199.69775390625 3300.87060546875 3140.07275390625 2977.987548828125 2810.44580078125 2652.8017578125 2507.150390625 2304.392578125 2145.08203125 2131.388671875 2222.5693359375 2314.29931640625 2424.98193359375 
2925.073486328125 3040.615234375 3239.170166015625 3293.9814453125 3271.007080078125 3254.374755859375 3224.323974609375 3197.420166015625 3181.4638671875 3169.967529296875 3162.314453125 3166.40673828125 3178.01220703125 3187.81689453125 3221.194091796875 3237.460693359375 3234.623779296875 3269.716064453125 3284.376708984375 3300.099609375 3340.029052734375 3283.129638671875 3211.923095703125 3167.59423828125 3144.701904296875 3077.059326171875 2979.115478515625 2894.45458984375 2828.787841796875 2756.561767578125 2714.4912109375 2772.854736328125 2834.1044921875 2853.7138671875 2839.165771484375 2804.507568359375 2726.196044921875 2631.943359375 2514.118896484375 2367.6220703125 2237.373046875 2228.283935546875 2364.1826171875 2546.448486328125 2725.225341796875 2886.471435546875 3015.63916015625 2990.521728515625 2991.408447265625 3010.772216796875 3058.870361328125 3181.537353515625 3276.33984375 3110.078125 2907.8154296875 2743.129638671875 2595.392578125 2436.119384765625 2251.02734375 2131.850830078125 2192.021484375 2321.534912109375 2378.625 2402.814697265625 
2853.35693359375 2910.836181640625 3112.553466796875 3249.770263671875 3228.5986328125 3220.800048828125 3190.08154296875 3153.010498046875 3138.9404296875 3145.846923828125 3153.163818359375 3168.954833984375 3188.976318359375 3207.852294921875 3260.1884765625 3262.084228515625 3283.810546875 3312.601806640625 3314.93701171875 3330.119384765625 3301.457763671875 3239.22900390625 3203.45654296875 3177.1533203125 3154.708984375 3086.21728515625 3012.609619140625 2937.446044921875 2847.291015625 2729.136474609375 2647.943603515625 2663.966552734375 2723.62890625 2734.5283203125 2709.9658203125 2679.875244140625 2611.291259765625 2507.781494140625 2390.5791015625 2281.801513671875 2233.25732421875 2314.9189453125 2459.062255859375 2612.729248046875 2798.176513671875 2983.629150390625 3099.423583984375 3066.08837890625 3053.391845703125 3067.365478515625 3134.902587890625 3197.319580078125 3201.01171875 3028.303955078125 2851.830078125 2681.791748046875 2517.314208984375 2352.9169921875 2209.255126953125 2149.34033203125 2250.018798828125 2429.0380859375 2533.4052734375 2514.6298828125 
2782.783935546875 2825.14404296875 2968.4111328125 3054.85302734375 3055.8203125 3126.569580078125 3145.037841796875 3114.259521484375 3099.86083984375 3118.99365234375 3151.2314453125 3173.41357421875 3218.811279296875 3277.675048828125 3301.73876953125 3312.70947265625 3330.68603515625 3338.691650390625 3357.109130859375 3328.093017578125 3238.31982421875 3187.467529296875 3143.1875 3069.06005859375 3026.118896484375 2974.654052734375 2933.985107421875 2880.675048828125 2782.784912109375 2674.95654296875 2580.815673828125 2562.502197265625 2609.952880859375 2627.23193359375 2612.76806640625 2568.003173828125 2473.355712890625 2374.525390625 2287.37158203125 2254.082763671875 2305.07666015625 2406.43017578125 2562.057861328125 2702.96435546875 2859.705078125 3047.174072265625 3157.13623046875 3118.18115234375 3096.70458984375 3122.6455078125 3218.125244140625 3246.734130859375 3138.010986328125 2959.3740234375 2787.89599609375 2626.09326171875 2456.8798828125 2292.765625 2179.37939453125 2207.81005859375 2349.804443359375 2504.710205078125 2671.17529296875 2680.775146484375 
2639.80908203125 2714.02099609375 2806.593994140625 2841.255859375 2836.063232421875 2934.77001953125 3075.39990234375 3071.046142578125 3078.08544921875 3096.02294921875 3154.387451171875 3190.343017578125 3262.025634765625 3319.556640625 3336.994140625 3349.13671875 3352.12451171875 3356.5458984375 3356.39990234375 3248.847900390625 3148.1103515625 3092.775634765625 3040.24951171875 2964.25439453125 2909.96484375 2843.749267578125 2786.89453125 2716.544189453125 2629.269775390625 2541.03369140625 2471.66552734375 2441.085693359375 2460.2734375 2481.499267578125 2478.838134765625 2445.606689453125 2378.564697265625 2302.35693359375 2286.348876953125 2342.651611328125 2429.498291015625 2489.404541015625 2601.65673828125 2760.373046875 2896.07568359375 3028.41015625 3174.671630859375 3186.40771484375 3171.927490234375 3197.521240234375 3220.240478515625 3158.837646484375 3043.713134765625 2885.200439453125 2727.52294921875 2564.312744140625 2388.87841796875 2229.45556640625 2180.343994140625 2318.835693359375 2493.440673828125 2612.490478515625 2768.590087890625 2852.56787109375 
2513.817626953125 2570.735595703125 2643.394775390625 2679.676513671875 2693.58447265625 2775.042724609375 2936.957763671875 3010.765625 3049.0947265625 3082.881103515625 3163.6201171875 3212.445068359375 3288.809814453125 3330.928466796875 3370.833740234375 3388.541259765625 3328.505615234375 3252.761474609375 3199.578125 3123.65869140625 3026.173583984375 2963.019775390625 2915.231689453125 2864.003662109375 2796.105224609375 2728.05078125 2650.013427734375 2555.614990234375 2467.24462890625 2413.278076171875 2391.44287109375 2372.259521484375 2360.222900390625 2359.302001953125 2351.59375 2325.3037109375 2304.61767578125 2318.52685546875 2388.66650390625 2478.4462890625 2571.82275390625 2635.62060546875 2690.94580078125 2815.8828125 2922.941162109375 3049.499755859375 3209.800048828125 3206.3818359375 3127.836181640625 3113.8857421875 3081.734375 3001.490234375 2921.86474609375 2814.70751953125 2663.06982421875 2493.34521484375 2325.87109375 2202.936279296875 2248.934326171875 2425.474609375 2621.19921875 2748.838623046875 2874.143798828125 2936.9833984375 
2525.72998046875 2559.51123046875 2585.28369140625 2611.366455078125 2635.923095703125 2702.7607421875 2808.794677734375 2929.584716796875 3028.16455078125 3087.24755859375 3177.181884765625 3227.937744140625 3305.687255859375 3346.841064453125 3381.443603515625 3350.75146484375 3234.74560546875 3143.998779296875 3076.7666015625 3012.82275390625 2969.823486328125 2925.564453125 2859.151611328125 2782.88427734375 2688.7451171875 2595.454833984375 2504.421142578125 2440.271240234375 2416.769287109375 2440.099365234375 2457.224609375 2454.5537109375 2439.6689453125 2411.346923828125 2377.49658203125 2350.936767578125 2370.942138671875 2429.111572265625 2506.83251953125 2595.595947265625 2672.44677734375 2728.193603515625 2790.43115234375 2867.13037109375 2933.47705078125 3041.470947265625 3212.60107421875 3226.75634765625 3129.7138671875 3048.787353515625 2993.063720703125 2920.6337890625 2824.25244140625 2733.802734375 2617.0703125 2435.61279296875 2273.560302734375 2227.622314453125 2362.552001953125 2536.550048828125 2706.633544921875 2858.394775390625 3003.060546875 2996.668701171875 
2588.39404296875 2621.75244140625 2613.1279296875 2623.82421875 2649.905029296875 2691.09423828125 2754.846923828125 2828.2666015625 2976.927001953125 3107.874267578125 3206.7646484375 3246.670166015625 3319.859619140625 3378.423583984375 3352.609130859375 3254.427490234375 3174.531005859375 3113.78369140625 3039.911865234375 2969.431884765625 2916.86376953125 2868.28076171875 2779.925048828125 2678.863037109375 2575.10693359375 2482.87255859375 2442.8525390625 2462.7587890625 2530.992919921875 2587.942626953125 2615.030517578125 2626.680419921875 2611.6904296875 2580.014404296875 2526.082275390625 2442.994140625 2468.359375 2551.271728515625 2614.200439453125 2672.8408203125 2740.845947265625 2803.89013671875 2855.275146484375 2916.22900390625 2967.814208984375 3029.422607421875 3201.46142578125 3301.76220703125 3204.904296875 3109.3271484375 3035.832275390625 2935.655517578125 2814.1337890625 2688.690673828125 2541.36279296875 2377.0244140625 2245.798583984375 2276.280517578125 2432.6689453125 2610.944580078125 2766.594482421875 2928.197265625 3073.33056640625 3045.323486328125 
2646.202392578125 2701.7451171875 2726.127197265625 2701.737548828125 2705.916015625 2728.30908203125 2766.190673828125 2806.844970703125 2890.908203125 3046.12548828125 3230.69287109375 3274.31884765625 3333.170654296875 3354.796630859375 3290.18896484375 3195.5322265625 3106.921875 3038.4287109375 2968.30517578125 2912.57177734375 2839.64404296875 2756.72509765625 2654.486083984375 2561.5498046875 2496.136962890625 2474.47607421875 2528.529296875 2617.78466796875 2680.01171875 2724.25537109375 2761.4345703125 2786.497314453125 2755.725341796875 2703.96142578125 2582.177734375 2482.7724609375 2567.395263671875 2656.8564453125 2715.405517578125 2755.739013671875 2801.28759765625 2860.982177734375 2910.1416015625 2986.890380859375 3053.58837890625 3080.091552734375 3215.62744140625 3351.97314453125 3282.365966796875 3208.4345703125 3101.253662109375 2987.936767578125 2857.0849609375 2719.870849609375 2523.174560546875 2338.194580078125 2255.96484375 2338.74365234375 2486.2998046875 2664.39599609375 2822.488037109375 2994.021728515625 3124.3330078125 3096.556640625 
2697.857421875 2740.056396484375 2828.21240234375 2811.781982421875 2787.989501953125 2794.693603515625 2817.40869140625 2869.741943359375 2918.11181640625 2989.032470703125 3154.85986328125 3279.64794921875 3262.680419921875 3191.96728515625 3130.114013671875 3128.943359375 3062.791748046875 2985.431396484375 2896.313232421875 2814.322265625 2728.640380859375 2642.39111328125 2568.82080078125 2533.51025390625 2536.088134765625 2588.193359375 2676.484130859375 2752.5849609375 2804.50390625 2845.85498046875 2885.5302734375 2860.137451171875 2773.509765625 2651.853515625 2533.07421875 2525.057373046875 2643.861083984375 2728.095458984375 2791.70947265625 2827.94677734375 2851.9287109375 2881.93212890625 2930.43701171875 3035.403564453125 3140.787353515625 3150.5810546875 3225.14697265625 3244.729736328125 3194.85107421875 3160.5927734375 3092.84619140625 3001.18896484375 2883.058349609375 2723.8876953125 2510.863037109375 2314.841552734375 2299.571044921875 2423.74169921875 2549.774658203125 2682.274169921875 2843.826171875 3025.0556640625 3190.82421875 3261.591796875 
2768.3876953125 2805.464599609375 2903.552978515625 2877.618408203125 2864.796142578125 2871.3115234375 2888.256103515625 2945.701904296875 2975.947265625 3062.667724609375 3130.999755859375 3168.38525390625 3118.212646484375 3072.54638671875 3017.145751953125 2983.31201171875 2968.484619140625 2932.442626953125 2849.478759765625 2735.357421875 2635.256103515625 2592.504150390625 2570.324951171875 2584.765380859375 2645.635986328125 2717.903076171875 2797.962646484375 2856.196533203125 2911.255615234375 2947.3828125 2917.613525390625 2820.82861328125 2695.257568359375 2568.7958984375 2516.609130859375 2585.3076171875 2685.850830078125 2776.364013671875 2842.5224609375 2884.7099609375 2900.610107421875 2919.388916015625 2967.16162109375 3044.896728515625 3170.507568359375 3236.80322265625 3190.142333984375 3136.870361328125 3088.26708984375 3045.03564453125 3011.0703125 2953.208251953125 2837.984375 2667.539794921875 2485.89306640625 2308.645751953125 2330.828369140625 2501.309814453125 2660.705322265625 2806.85986328125 2900.7578125 3029.630615234375 3189.0263671875 3276.01416015625 
2826.115966796875 2847.08349609375 2976.589111328125 2987.681884765625 2983.77734375 2985.160400390625 2990.859130859375 3017.475341796875 3034.62646484375 3180.9140625 3226.371337890625 3142.404541015625 3084.92041015625 3049.332763671875 3002.692138671875 2941.52099609375 2872.848876953125 2804.264404296875 2729.579833984375 2667.256591796875 2633.56201171875 2610.51611328125 2620.247314453125 2694.181640625 2767.663330078125 2825.1474609375 2894.4873046875 2951.74462890625 2970.10302734375 2936.43359375 2867.640625 2756.24169921875 2621.82421875 2537.7890625 2564.422119140625 2661.92333984375 2747.780029296875 2814.65673828125 2877.9638671875 2934.00634765625 2986.298828125 2998.89697265625 3040.692626953125 3090.1611328125 3169.749267578125 3209.19970703125 3111.4052734375 3035.8271484375 2981.822021484375 2950.8857421875 2925.05419921875 2879.840576171875 2769.939453125 2609.90087890625 2433.001708984375 2303.982421875 2362.34375 2549.106201171875 2713.016845703125 2858.91259765625 2962.666748046875 3038.05712890625 3096.633056640625 3097.5107421875 
2881.39208984375 2925.60791015625 3106.7861328125 3144.565673828125 3125.794921875 3093.10791015625 3065.6865234375 3072.0205078125 3108.666015625 3279.155517578125 3283.404296875 3184.027099609375 3136.393798828125 3105.884033203125 3049.770751953125 2954.42919921875 2836.39453125 2739.600830078125 2696.499755859375 2674.970703125 2652.35888671875 2664.744384765625 2717.1552734375 2788.61572265625 2865.68505859375 2935.5537109375 2999.22900390625 3012.76025390625 2983.295166015625 2894.270263671875 2796.059326171875 2676.850341796875 2576.329345703125 2560.392822265625 2631.4912109375 2734.34130859375 2810.525146484375 2858.160400390625 2892.23388671875 2943.868896484375 3033.28271484375 3112.641845703125 3174.080078125 3205.89599609375 3181.38623046875 3136.37109375 3044.500732421875 2981.71044921875 2932.9541015625 2909.449951171875 2869.152099609375 2805.1875 2691.851806640625 2549.4794921875 2383.16943359375 2319.28564453125 2423.775146484375 2591.71044921875 2721.52099609375 2817.001708984375 2887.6259765625 2917.0380859375 2927.10546875 2922.33203125 
2969.80517578125 3053.611083984375 3227.353759765625 3240.5517578125 3213.19140625 3168.750244140625 3116.6064453125 3127.00244140625 3199.875244140625 3380.450927734375 3352.921142578125 3256.0751953125 3221.25830078125 3161.03466796875 3090.861083984375 2971.868408203125 2819.898193359375 2731.376220703125 2714.724853515625 2698.3662109375 2718.629638671875 2769.469970703125 2837.8916015625 2902.464111328125 2967.591552734375 3052.654541015625 3061.856689453125 3004.39111328125 2954.78271484375 2878.54833984375 2759.050048828125 2637.908203125 2569.90771484375 2606.18408203125 2687.18505859375 2777.962158203125 2862.2978515625 2905.969970703125 2927.038330078125 2979.611328125 3033.425537109375 3100.290771484375 3224.6337890625 3296.16650390625 3168.996337890625 3068.836181640625 2999.483642578125 2939.678466796875 2881.2060546875 2840.76953125 2778.16162109375 2699.9833984375 2606.3388671875 2486.838623046875 2346.209228515625 2356.01416015625 2459.977783203125 2573.53564453125 2653.943603515625 2715.6435546875 2751.369384765625 2738.097900390625 2729.353271484375 2742.57861328125 
3118.01806640625 3209.155029296875 3349.916015625 3298.771484375 3286.263427734375 3255.90185546875 3180.315185546875 3188.909912109375 3296.638671875 3435.52099609375 3395.102783203125 3281.441162109375 3189.570556640625 3069.80859375 2989.96533203125 2906.355224609375 2785.509765625 2743.9482421875 2733.996826171875 2751.320556640625 2815.21484375 2877.910400390625 2980.252685546875 3036.45361328125 3076.541015625 3093.5029296875 3038.906494140625 2982.669189453125 2925.002197265625 2832.577392578125 2712.153564453125 2616.505615234375 2594.372314453125 2664.206298828125 2756.373291015625 2820.52734375 2889.926513671875 2955.898193359375 2997.220947265625 3035.154052734375 3073.03076171875 3129.630859375 3214.17578125 3253.53857421875 3141.059814453125 3015.394775390625 2925.135009765625 2868.988525390625 2799.122314453125 2732.230712890625 2666.74658203125 2599.33837890625 2531.9716796875 2444.13818359375 2342.994384765625 2343.02978515625 2407.258056640625 2463.6494140625 2502.776611328125 2545.47998046875 2553.2265625 2541.293701171875 2542.74560546875 2571.924072265625 
3247.1083984375 3362.080078125 3413.53515625 3371.97509765625 3410.901123046875 3326.46630859375 3247.968505859375 3280.68115234375 3347.240966796875 3354.19775390625 3323.69091796875 3244.376953125 3145.839111328125 3041.564697265625 2936.770263671875 2845.293212890625 2774.5908203125 2765.968505859375 2758.83642578125 2820.912109375 2909.111328125 2984.221923828125 3056.418701171875 3125.586181640625 3162.393798828125 3109.953125 3023.554931640625 2948.38330078125 2897.478759765625 2808.11181640625 2688.25048828125 2620.627685546875 2634.20703125 2701.2978515625 2792.562255859375 2864.87060546875 2907.56640625 2962.705322265625 3033.6767578125 3104.775634765625 3145.126953125 3201.52099609375 3234.507568359375 3167.90283203125 3084.2470703125 2991.989013671875 2888.85009765625 2791.53466796875 2715.82763671875 2652.00146484375 2590.020263671875 2540.59375 2522.474609375 2487.549072265625 2381.277587890625 2363.720458984375 2414.627197265625 2447.328125 2460.252197265625 2489.94921875 2531.14794921875 2573.925537109375 2573.5517578125 2548.69091796875 
3371.6806640625 3459.329833984375 3469.991455078125 3508.567626953125 3510.302490234375 3385.956787109375 3325.350341796875 3296.897216796875 3254.898681640625 3233.136962890625 3224.052001953125 3197.15869140625 3142.4892578125 3055.157958984375 2959.1572265625 2848.1171875 2799.356201171875 2795.375244140625 2800.39990234375 2877.68017578125 2999.584228515625 3085.076904296875 3138.0927734375 3180.914306640625 3141.670166015625 3081.06884765625 3014.982177734375 2947.141845703125 2891.558837890625 2792.238037109375 2674.395751953125 2637.499267578125 2674.572021484375 2725.617919921875 2809.528076171875 2896.346435546875 2955.029296875 2981.996826171875 3025.9345703125 3079.87060546875 3150.360595703125 3246.666259765625 3235.616943359375 3130.2099609375 3026.789306640625 2924.29931640625 2835.364501953125 2725.70361328125 2648.0205078125 2590.745361328125 2572.0517578125 2593.9970703125 2643.29345703125 2584.5517578125 2430.784912109375 2409.927001953125 2497.9345703125 2585.845703125 2628.706298828125 2658.5478515625 2697.737060546875 2745.420166015625 2770.17333984375 2704.7734375 
3331.01708984375 3420.64013671875 3480.626220703125 3622.035888671875 3559.7578125 3408.657470703125 3318.466552734375 3241.146240234375 3171.18798828125 3145.592529296875 3127.587646484375 3085.717041015625 3042.86376953125 3007.106201171875 2938.61669921875 2865.330810546875 2835.955322265625 2828.115966796875 2851.703125 2941.9482421875 3088.79296875 3194.50439453125 3225.59912109375 3219.1064453125 3105.22119140625 3035.546875 2984.23828125 2930.44921875 2872.357421875 2755.93359375 2668.043701171875 2658.80078125 2711.034423828125 2775.7568359375 2854.239990234375 2921.507568359375 2991.687255859375 3015.34375 3039.12109375 3095.39599609375 3150.566650390625 3221.012939453125 3178.141357421875 3089.987548828125 2994.036376953125 2880.011474609375 2765.964111328125 2660.949462890625 2603.1015625 2610.94580078125 2684.279541015625 2753.412109375 2743.626220703125 2610.299072265625 2457.149169921875 2461.352294921875 2563.641845703125 2689.428955078125 2790.947509765625 2866.4072265625 2916.3974609375 2939.6142578125 2968.61083984375 2872.13037109375 
3282.879150390625 3375.94482421875 3441.20458984375 3594.9765625 3576.009765625 3411.9970703125 3305.5029296875 3217.631591796875 3147.04150390625 3102.62841796875 3069.519287109375 3016.822021484375 2966.85693359375 2937.56689453125 2899.201416015625 2872.72705078125 2854.0703125 2861.692138671875 2926.9404296875 3022.361572265625 3157.880859375 3219.462158203125 3198.220458984375 3154.47802734375 3087.42333984375 3018.248046875 2971.377197265625 2909.026611328125 2817.105712890625 2713.423828125 2673.725830078125 2688.4013671875 2759.44580078125 2838.580078125 2892.406005859375 2955.657470703125 3018.15869140625 3049.623779296875 3065.8720703125 3152.3515625 3201.170166015625 3172.922119140625 3095.76953125 3012.212890625 2930.147216796875 2828.997314453125 2707.378662109375 2631.52294921875 2636.758544921875 2734.600830078125 2832.5732421875 2807.1669921875 2682.0673828125 2539.781982421875 2496.698974609375 2565.296875 2665.657470703125 2741.7041015625 2839.980224609375 2946.94775390625 3057.629638671875 3120.919189453125 3134.364013671875 3001.529296875 
3223.457763671875 3325.177978515625 3425.96044921875 3518.92919921875 3525.581298828125 3385.3046875 3318.751708984375 3216.375 3139.509033203125 3094.60302734375 3051.0556640625 3000.8916015625 2958.029052734375 2928.416748046875 2904.9970703125 2889.450439453125 2898.781982421875 2965.431884765625 3072.114501953125 3110.48828125 3179.902099609375 3168.05517578125 3142.047119140625 3097.7900390625 3052.001708984375 3013.945068359375 2959.385986328125 2873.056640625 2760.63525390625 2706.3701171875 2705.82421875 2733.4267578125 2813.847412109375 2877.28466796875 2942.453857421875 3021.066162109375 3062.79248046875 3089.10791015625 3100.62548828125 3218.108642578125 3258.78466796875 3167.9541015625 3084.357177734375 2983.874267578125 2898.171875 2794.42333984375 2689.155029296875 2651.440185546875 2738.99609375 2880.2763671875 2880.05126953125 2742.709228515625 2608.072265625 2563.063232421875 2624.794189453125 2723.47607421875 2839.5947265625 2859.93408203125 2902.533447265625 2966.44384765625 3042.548583984375 3132.6689453125 3162.387939453125 3030.20849609375 
3091.715576171875 3245.45947265625 3384.459716796875 3444.326416015625 3439.720703125 3348.166259765625 3303.20166015625 3245.3583984375 3163.783935546875 3109.343505859375 3049.277587890625 3015.43603515625 2975.958251953125 2953.620361328125 2948.986572265625 2971.213623046875 3022.75341796875 3117.34228515625 3156.753662109375 3126.014404296875 3108.8330078125 3078.34765625 3096.917236328125 3042.92138671875 2997.776611328125 2963.7568359375 2891.90869140625 2794.7119140625 2733.307861328125 2735.666015625 2747.4404296875 2792.4208984375 2855.3095703125 2943.1142578125 3032.458984375 3082.725341796875 3114.23095703125 3121.980712890625 3131.806396484375 3212.74658203125 3308.71875 3243.97705078125 3095.53369140625 2974.00341796875 2890.89208984375 2780.776611328125 2689.714599609375 2708.607421875 2838.868896484375 2947.004150390625 2841.30908203125 2702.1767578125 2622.91796875 2651.753173828125 2772.99365234375 2880.070068359375 3007.0830078125 3039.412841796875 3046.021240234375 3079.04541015625 3146.46484375 3182.75146484375 3090.495361328125 2984.328369140625 
3058.912841796875 3269.31396484375 3352.761962890625 3363.06982421875 3405.3720703125 3384.3525390625 3304.812744140625 3249.119384765625 3195.8369140625 3149.64892578125 3102.158935546875 3066.7392578125 3044.166015625 3050.940185546875 3078.975830078125 3115.216796875 3159.0673828125 3155.80810546875 3080.459716796875 3003.905517578125 2961.7353515625 2935.6064453125 2989.51123046875 2974.355712890625 2920.04833984375 2873.15380859375 2805.69287109375 2753.69580078125 2745.83203125 2767.8154296875 2799.75732421875 2852.505615234375 2928.208251953125 3046.657470703125 3109.516357421875 3147.308349609375 3161.16064453125 3158.22705078125 3166.81640625 3242.654052734375 3321.906005859375 3248.7890625 3120.113037109375 3022.73681640625 2910.14111328125 2786.079833984375 2723.443359375 2807.13916015625 2941.290283203125 2952.03466796875 2798.466064453125 2707.02001953125 2675.090576171875 2747.73876953125 2854.9638671875 2954.710205078125 3054.15576171875 3176.3349609375 3270.960205078125 3267.404052734375 3275.081787109375 3227.360107421875 3099.564453125 3019.3828125 
3022.57568359375 3198.0419921875 3260.683837890625 3278.54345703125 3315.110595703125 3341.245361328125 3237.0654296875 3171.11279296875 3147.212890625 3131.6005859375 3123.258544921875 3101.984130859375 3112.18212890625 3142.534423828125 3140.25537109375 3092.824462890625 3100.239013671875 3054.130615234375 2988.753173828125 2905.654052734375 2835.228515625 2801.98974609375 2871.25634765625 2912.432861328125 2869.123779296875 2814.89404296875 2764.22314453125 2764.0966796875 2774.07275390625 2811.320068359375 2862.950439453125 2905.784912109375 2992.1357421875 3136.761474609375 3170.9267578125 3202.423095703125 3216.6474609375 3205.8740234375 3213.493408203125 3237.976318359375 3191.814453125 3137.140625 3087.778564453125 3014.546142578125 2911.011962890625 2796.2822265625 2794.18798828125 2926.81494140625 3024.744384765625 2932.8486328125 2784.467041015625 2732.807373046875 2729.30224609375 2817.177490234375 2913.81201171875 2980.494873046875 3092.817138671875 3234.656494140625 3399.19482421875 3435.00537109375 3397.730224609375 3278.7626953125 3172.15478515625 3099.051513671875 
2967.256591796875 3074.101318359375 3146.121337890625 3205.892822265625 3242.239013671875 3254.259521484375 3146.8447265625 3066.288330078125 3014.4345703125 2977.22265625 2989.970458984375 2984.54638671875 3031.19091796875 3068.765869140625 3058.871826171875 3020.12890625 2987.56640625 2946.2646484375 2905.352783203125 2844.25927734375 2768.151123046875 2706.525146484375 2742.57470703125 2816.95947265625 2807.361328125 2786.60205078125 2774.10400390625 2794.598388671875 2821.509033203125 2858.105712890625 2900.19677734375 2949.530029296875 3035.8916015625 3175.35498046875 3232.140869140625 3269.301025390625 3314.37060546875 3287.771484375 3258.009033203125 3196.55029296875 3108.597412109375 3050.211669921875 2999.563720703125 2949.3603515625 2870.489990234375 2802.147216796875 2844.25927734375 2982.230712890625 3078.052734375 2956.157470703125 2817.484619140625 2781.874755859375 2793.56103515625 2876.5771484375 2992.8740234375 3077.06005859375 3157.05224609375 3252.134521484375 3341.569580078125 3348.477783203125 3364.447265625 3354.007568359375 3271.941162109375 3196.55224609375 
2969.015625 3036.656005859375 3088.328125 3141.85498046875 3198.2939453125 3217.9306640625 3114.58203125 3031.12890625 2971.91259765625 2900.5986328125 2859.572021484375 2834.42529296875 2853.036865234375 2895.909423828125 2926.346923828125 2945.922607421875 2924.696533203125 2861.050537109375 2820.970947265625 2793.615234375 2728.655029296875 2621.48876953125 2658.901611328125 2754.501953125 2759.803955078125 2769.39013671875 2813.858642578125 2848.47119140625 2877.129150390625 2891.394287109375 2950.946044921875 3023.376953125 3077.967529296875 3171.0263671875 3285.82958984375 3358.592529296875 3402.35888671875 3295.51513671875 3240.214111328125 3170.998291015625 3113.224853515625 3057.621337890625 2976.83203125 2909.2236328125 2844.2763671875 2835.286865234375 2888.484619140625 2979.53759765625 3062.057373046875 2966.792236328125 2867.0126953125 2863.862060546875 2879.533447265625 2945.095947265625 3024.227783203125 3080.1826171875 3139.23291015625 3210.330078125 3245.33251953125 3265.0458984375 3296.220703125 3343.539794921875 3343.720458984375 3281.96142578125 
2984.08349609375 3086.977294921875 3138.13818359375 3178.973876953125 3251.6845703125 3220.940185546875 3109.920166015625 3036.073974609375 2962.95849609375 2875.4267578125 2797.2021484375 2748.829345703125 2707.00048828125 2722.78173828125 2770.744140625 2837.029541015625 2853.4169921875 2784.392578125 2745.156982421875 2683.76513671875 2636.98486328125 2557.280029296875 2635.594482421875 2721.12158203125 2777.7822265625 2827.74951171875 2899.078369140625 2929.324462890625 2933.00537109375 2943.860107421875 3076.81396484375 3157.830322265625 3164.967041015625 3224.178466796875 3306.769775390625 3389.014404296875 3315.28369140625 3152.861328125 3122.110107421875 3149.6865234375 3155.00048828125 3113.932861328125 3013.873291015625 2914.310791015625 2868.414794921875 2905.60009765625 2978.99072265625 3033.364990234375 3101.925537109375 3055.848388671875 2927.167724609375 2920.160888671875 2951.01416015625 3001.98095703125 3060.254150390625 3106.282470703125 3139.818115234375 3179.436279296875 3222.03564453125 3259.181884765625 3297.153076171875 3352.85400390625 3399.908203125 3351.9951171875 
3049.768310546875 3168.549560546875 3203.706787109375 3213.521240234375 3251.48681640625 3235.83642578125 3165.8720703125 3079.6025390625 2988.432373046875 2903.8466796875 2839.2724609375 2780.729736328125 2690.240966796875 2630.9765625 2613.707763671875 2670.642333984375 2754.03173828125 2703.5576171875 2652.15478515625 2597.862060546875 2550.90380859375 2505.68603515625 2601.751953125 2769.126708984375 2888.40966796875 2970.627685546875 2993.16845703125 2992.720703125 2981.2060546875 2998.16015625 3141.626220703125 3252.98828125 3296.553955078125 3318.881591796875 3341.954833984375 3365.660400390625 3224.2841796875 3054.196044921875 2985.993896484375 2993.6884765625 3022.43359375 3073.3134765625 3056.771240234375 2963.02587890625 2919.676025390625 2956.57275390625 3051.616943359375 3095.666748046875 3149.885009765625 3116.539794921875 2986.88525390625 2971.59375 2985.745361328125 3029.537109375 3098.65966796875 3124.96923828125 3139.689453125 3173.93603515625 3227.76611328125 3302.932373046875 3386.777587890625 3482.105712890625 3457.975341796875 3350.69482421875 
3110.927978515625 3119.814208984375 3109.55224609375 3096.48974609375 3150.57763671875 3281.45458984375 3289.269775390625 3146.538330078125 3026.148681640625 2940.811767578125 2889.1162109375 2846.072998046875 2771.64306640625 2688.56591796875 2584.170654296875 2543.049072265625 2645.137939453125 2704.084716796875 2616.350830078125 2552.177001953125 2479.862060546875 2461.03271484375 2590.16162109375 2855.635009765625 3046.74609375 3082.64453125 3037.842041015625 3028.59716796875 3024.706298828125 3058.54833984375 3171.640625 3264.313232421875 3306.490966796875 3350.991455078125 3344.58056640625 3259.32275390625 3100.398681640625 2966.98046875 2905.401611328125 2859.194091796875 2851.846923828125 2922.59814453125 3017.294921875 2989.302978515625 2962.9716796875 3010.21435546875 3132.9892578125 3177.74755859375 3195.07568359375 3169.120849609375 3061.189208984375 3035.554931640625 3035.25244140625 3098.107421875 3188.397705078125 3238.028076171875 3208.981201171875 3227.23583984375 3295.494384765625 3392.400146484375 3476.95947265625 3464.326416015625 3320.048095703125 3195.17724609375 
3030.257568359375 3001.672119140625 3012.708984375 3032.9599609375 3142.13916015625 3321.762451171875 3313.487548828125 3124.116455078125 2948.871826171875 2865.400146484375 2823.617919921875 2752.287841796875 2715.399658203125 2667.60595703125 2573.4052734375 2488.418212890625 2566.36474609375 2716.953857421875 2623.724609375 2535.52490234375 2456.54736328125 2424.719970703125 2550.1787109375 2808.79736328125 3059.603515625 3122.336181640625 3089.58642578125 3077.647216796875 3076.992431640625 3096.59716796875 3153.26708984375 3183.519287109375 3162.854736328125 3225.649169921875 3263.51025390625 3152.728271484375 2996.212646484375 2910.18994140625 2854.2294921875 2797.07373046875 2745.431884765625 2764.322509765625 2875.6142578125 2993.14404296875 3025.6640625 3080.32763671875 3149.3544921875 3203.243896484375 3248.036376953125 3250.0869140625 3146.576416015625 3099.86181640625 3112.410888671875 3172.827880859375 3279.62939453125 3397.375 3375.705322265625 3318.44921875 3355.108642578125 3415.649169921875 3378.72265625 3311.974609375 3177.457275390625 3074.55712890625 
2891.14990234375 2916.142333984375 2941.246337890625 3008.82275390625 3184.18603515625 3257.904541015625 3224.02490234375 3116.23388671875 2955.1171875 2835.797607421875 2753.01806640625 2666.809326171875 2594.653076171875 2539.382080078125 2482.6552734375 2442.697021484375 2478.5732421875 2616.50927734375 2563.719970703125 2469.362548828125 2415.818359375 2391.19970703125 2485.452880859375 2735.974365234375 2975.963134765625 3125.0234375 3163.31982421875 3143.9326171875 3128.36865234375 3063.22705078125 3017.292236328125 3026.706298828125 3050.56396484375 3093.77734375 3198.941650390625 3169.7509765625 3010.17724609375 2883.821044921875 2788.06689453125 2713.7099609375 2664.35400390625 2653.930419921875 2747.73681640625 2916.89111328125 3070.869384765625 3144.635498046875 3197.578125 3247.42333984375 3298.544189453125 3327.813232421875 3254.72314453125 3186.156494140625 3211.869384765625 3311.250244140625 3374.98486328125 3423.55322265625 3426.93505859375 3435.492919921875 3442.460693359375 3379.121337890625 3221.650146484375 3156.384765625 3045.072021484375 2981.818115234375 
2792.18115234375 2851.81982421875 2900.43896484375 3023.69140625 3203.39697265625 3162.4462890625 3102.25927734375 3033.232666015625 2978.328125 2856.94677734375 2714.71533203125 2634.03564453125 2566.328125 2510.988525390625 2418.62451171875 2346.571044921875 2398.13916015625 2542.655517578125 2468.408447265625 2347.204345703125 2320.69580078125 2344.02685546875 2428.95458984375 2661.918701171875 2879.43359375 3007.1953125 3080.220458984375 3047.60009765625 3035.14404296875 2946.4560546875 2870.031494140625 2859.0634765625 2916.98974609375 2969.020263671875 3100.478759765625 3125.1611328125 3004.372314453125 2843.725341796875 2725.575439453125 2633.076416015625 2592.199462890625 2586.190185546875 2678.121337890625 2837.6201171875 3030.51708984375 3188.8916015625 3261.416015625 3292.580322265625 3330.93701171875 3380.93994140625 3408.0078125 3351.562255859375 3293.616455078125 3320.116943359375 3349.43701171875 3367.188720703125 3371.3828125 3366.96630859375 3340.73388671875 3275.306640625 3136.94140625 3043.54638671875 2940.951904296875 2921.0068359375 
2751.784423828125 2824.739990234375 2887.7314453125 3040.62255859375 3210.85107421875 3157.1484375 3052.91064453125 2980.355712890625 2917.04443359375 2848.953369140625 2728.220458984375 2626.803466796875 2546.190673828125 2489.082275390625 2365.18798828125 2267.9716796875 2319.013916015625 2463.986572265625 2402.03955078125 2270.483642578125 2229.39892578125 2287.681396484375 2380.19482421875 2594.455322265625 2785.25390625 2869.931640625 2960.329833984375 2980.244140625 2942.611328125 2882.030029296875 2810.05078125 2759.256103515625 2774.001708984375 2833.115234375 2978.773681640625 3066.17529296875 3042.730712890625 2866.774169921875 2711.059326171875 2601.296630859375 2537.974853515625 2541.42529296875 2649.55224609375 2828.369873046875 3011.423095703125 3156.287109375 3197.13037109375 3186.368896484375 3234.57763671875 3311.113525390625 3450.59375 3504.681640625 3388.820068359375 3327.528564453125 3332.2197265625 3337.91064453125 3293.482177734375 3217.62744140625 3169.219970703125 3113.362548828125 3028.636962890625 2947.292724609375 2872.723876953125 2841.8564453125 
