ncols        379
nrows        209
xllcorner    596080.3487547617
yllcorner    5180399.9998778952
cellsize     250.0000000000
NODATA_value -9999
1331.463379 1255.861938 1218.442139 1204.447388 1186.727173 1159.455444 1172.548096 1263.409546 1364.334229 1462.041382 1580.685181 1644.007812 1553.890625 1671.172363 1834.944580 1964.001709 2085.834717 2063.626465 2011.622314 1853.310303 1866.227905 2046.155273 2255.692871 2301.521240 2113.280273 1889.968628 1712.521118 1565.877197 1427.521606 1456.962158 1604.244019 1755.747925 1889.022583 2050.550781 2168.938232 2082.387939 1956.052124 1714.469116 1511.455566 1415.043091 1432.812378 1508.043213 1554.301758 1554.766724 1565.729736 1506.674438 1440.225098 1407.774902 1354.283813 1290.035522 1232.987427 1237.606567 1274.421997 1356.254395 1413.237061 1421.243530 1476.012573 1607.202637 1763.397095 1879.878418 1870.899902 1818.389282 1796.831177 1812.389893 1958.867432 2151.877197 2307.600342 2411.870850 2472.128174 2507.571045 2479.935303 2502.765625 2488.548096 2321.677490 2328.358643 2257.617920 2258.425049 2208.444336 2086.605225 1943.890747 1869.296021 1741.795288 1645.552490 1728.967773 1902.827271 2043.248413 2098.807129 2234.636475 2328.145020 2280.900146 2319.004150 2398.035156 2505.113525 2434.134521 2432.900146 2447.061523 2397.424805 2349.004150 2570.057373 2522.802002 2397.076416 2443.753174 2336.840332 2226.086426 2168.362061 2135.946289 2047.312378 1927.926147 1819.822266 1686.500610 1647.974243 1660.329346 1585.937744 1500.199463 1487.083130 1494.899658 1535.622681 1631.031128 1664.757080 1750.468018 1722.063599 1873.960571 2071.669189 2246.368896 2235.491211 2124.387207 2009.377075 1842.376343 1668.950195 1498.787354 1377.661499 1315.393799 1260.177490 1192.132690 1108.125122 1066.937378 1028.919067 977.604187 941.183105 896.244934 847.526794 798.770874 778.592407 759.917297 765.955627 736.957458 804.142761 905.207520 975.146118 1061.861816 1121.428833 1183.585693 1217.138672 1315.282227 1407.721558 1412.100586 1365.922607 1452.405762 1561.446289 1652.294678 1651.501099 1577.282593 1446.011230 1290.289062 1053.198608 933.147827 884.669922 815.080322 764.421631 738.008484 728.427795 699.318542 684.836182 705.660950 725.315613 731.525696 730.970764 732.784180 732.778809 744.520813 828.622498 939.166870 1058.044556 1187.624634 1269.696777 1316.674438 1386.436401 1437.536255 1491.701660 1542.150146 1605.304077 1674.418457 1725.349976 1794.256958 1781.679199 1746.312866 1717.771118 1682.026855 1661.015503 1658.403442 1646.281494 1607.959961 1574.406372 1563.844727 1563.107300 1562.836426 1560.450439 1568.901123 1606.669800 1613.213623 1642.736572 1696.832886 1748.875366 1822.905396 1883.240967 1972.395264 2109.983398 2238.371826 2394.302002 2552.735352 2667.031738 2581.883545 2588.575928 2497.096680 2437.628906 2416.317139 2392.940918 2408.704102 2425.246582 2433.811523 2439.849609 2463.709717 2536.184814 2436.297363 2369.882812 2317.120117 2141.768555 2012.456909 2065.440430 2139.256348 2164.877441 2216.669434 2262.798584 2316.012207 2358.520996 2446.868408 2501.525146 2483.905029 2454.148438 2506.304688 2503.177002 2536.476807 2621.690918 2601.142334 2484.112549 2363.393555 2318.828857 2392.443115 2555.817383 2650.612793 2477.453857 2265.602295 2206.198730 2323.556396 2398.540771 2245.803223 2357.406006 2374.949707 2394.168213 2243.664062 2151.169434 2072.339355 2007.816650 2019.288574 1993.726440 1880.271729 1849.501953 1838.378906 1816.456421 1782.489502 1736.892822 1721.183350 1641.004761 1581.874756 1509.953613 1413.615723 1313.406982 1204.952881 1094.992920 1004.068604 915.722839 848.261108 883.559326 935.127502 1012.217590 1049.980835 1063.216919 1040.397217 1010.227661 1087.183228 1102.171997 1062.466064 1025.399170 1005.772644 991.404846 967.434265 991.928711 1009.935181 1043.021851 1078.380615 1119.562500 1153.044800 1168.661133 1179.840942 1176.209106 1156.711060 1125.919678 1205.232300 1248.762451 1271.200317 1285.538818 1274.870605 1238.357788 1232.817139 1235.546631 1210.986816 1181.383667 1153.285522 1131.425293 1095.523682 1058.008423 1006.946411 958.335571 908.065430 869.939453 872.124634 856.653503 828.957947 741.415833 686.756042 775.368896 838.480103 812.531372 813.581604 909.903198 951.237732 973.714111 991.693665 1002.905212 1016.342163 1037.613159 1066.199463 1104.788818 1150.839722 1212.531250 1279.064453 1319.519043 1415.498413 1533.472900 1636.539185 1659.206909 1676.312012 1695.147949 1749.892822 1811.246948 1842.852783 1844.218872 1834.511108 1875.873413 1907.720703 1943.795410 1981.828247 2019.069214 2097.576172 2163.385498 2223.333252 2226.269775 2177.443115 2171.201416
1460.650635 1465.151855 1438.300537 1371.535889 1346.913086 1279.998291 1214.879883 1372.535889 1517.341431 1658.453003 1772.576416 1828.955688 1718.411865 1638.488892 1763.593140 1972.533813 2163.489990 2246.682861 2105.928467 1954.049805 1946.782959 2133.038574 2289.597900 2271.015869 2152.757080 1938.534546 1697.448608 1522.770630 1437.575684 1518.251099 1659.258667 1787.044800 1924.377441 2119.264893 2132.464600 1945.463257 1804.749512 1604.682373 1453.822021 1505.014893 1607.026489 1690.466309 1749.638184 1742.215698 1780.909058 1702.736328 1595.355347 1533.595703 1494.488892 1449.072266 1368.501831 1299.390259 1278.254883 1267.521729 1313.493042 1358.986084 1465.072266 1586.753052 1711.135620 1727.207764 1705.795410 1652.464478 1676.697266 1849.598022 2018.956421 2141.697266 2244.549805 2304.123047 2293.284424 2359.935547 2305.415771 2389.805908 2431.723633 2408.760254 2417.455322 2289.976074 2215.245117 2146.885498 2074.297119 2068.802979 2068.724365 1961.237427 1860.095337 1888.086914 1945.377197 2031.254517 2111.973389 2180.554688 2323.295166 2432.900391 2478.542236 2518.674561 2552.552002 2342.883545 2299.825195 2447.463135 2514.836182 2450.896484 2436.662109 2491.949463 2446.798096 2451.565674 2375.585938 2235.295166 2172.819580 2109.522461 2113.366699 2080.782715 1947.774414 1740.823486 1571.100708 1504.670898 1467.792847 1413.231079 1367.827515 1322.614502 1335.244019 1365.380249 1458.599609 1519.351318 1622.550537 1844.395996 2046.159790 2130.192871 2197.950195 2089.321289 1919.263306 1746.049072 1607.268799 1469.673462 1360.558228 1308.757446 1259.523193 1206.273804 1113.925537 1049.054321 1006.010742 982.555115 947.513672 903.103699 855.631226 796.810730 771.900452 753.455994 752.229431 731.874329 778.481873 896.985962 963.652832 1003.415588 997.142761 1062.180542 1160.247437 1248.793335 1297.320435 1268.660889 1295.657715 1405.618774 1532.773071 1559.143799 1536.365601 1474.127808 1319.456177 1127.716675 943.912964 856.466858 791.197876 744.836121 723.659363 720.825195 707.119019 687.215820 698.769958 695.521362 696.485596 720.455566 744.060974 725.647583 742.917297 771.060120 891.491150 1030.137695 1204.437744 1362.848145 1425.840942 1490.621948 1528.167969 1541.164307 1554.542236 1585.140381 1649.654785 1676.801514 1717.353394 1752.013794 1726.578247 1692.950439 1684.955322 1652.867798 1633.685059 1600.151123 1530.208374 1524.136108 1542.473877 1561.850342 1579.066284 1624.397461 1657.198975 1632.370239 1645.334229 1644.889648 1659.446777 1646.133911 1682.567017 1732.963379 1774.022217 1854.040161 1957.365601 2089.212646 2270.723145 2427.174805 2517.025635 2473.940918 2586.092529 2527.466309 2436.764160 2388.413330 2344.597168 2332.306152 2377.446045 2371.139648 2347.491943 2331.226074 2375.969238 2340.880615 2228.819580 2170.040039 2070.893311 1969.843140 1962.482544 2002.475220 2053.997070 2093.725586 2133.242676 2163.266602 2221.043701 2294.627686 2407.625732 2461.641602 2511.036865 2586.484131 2642.401367 2690.619385 2743.073975 2647.492676 2495.899414 2432.098633 2415.284668 2530.481201 2658.782959 2570.807373 2509.470215 2379.635498 2298.972412 2396.538574 2482.830322 2328.601807 2456.239502 2560.947021 2505.436768 2322.482422 2229.845947 2167.895020 2085.675537 2142.883057 2067.673340 1989.308960 1984.559082 1961.124634 1928.564453 1883.104248 1839.613159 1735.016602 1599.516968 1513.893555 1462.238647 1387.652710 1277.811157 1155.269409 1055.702881 935.090698 865.165161 935.436768 1011.244690 1053.573120 1123.148926 1170.141602 1162.483276 1082.616089 1028.307007 1174.095581 1236.819702 1207.750854 1142.893555 1106.252686 1086.143433 1028.019775 1091.261597 1130.565063 1154.273926 1180.116089 1211.311279 1245.677856 1276.912720 1288.455933 1281.372803 1226.429321 1190.822388 1289.590942 1331.426880 1364.482544 1381.079956 1360.046753 1318.808960 1318.496582 1334.603027 1298.535156 1274.287842 1255.245605 1218.756470 1158.740723 1095.907959 1034.451294 974.159119 928.072998 914.598755 891.124084 858.756042 811.665039 774.585876 696.346924 779.758911 853.540161 841.169922 814.312561 911.851440 955.385559 999.092041 1020.148376 1022.780396 1040.338013 1087.463013 1151.623657 1223.789062 1281.731323 1336.856201 1404.334351 1447.610352 1509.858398 1593.208740 1714.986572 1781.341309 1787.499146 1802.690918 1831.642090 1865.183594 1899.760620 1890.940430 1877.173828 1925.479248 1992.975708 2036.364624 2078.449219 2148.560303 2213.593262 2188.665771 2213.700195 2272.065186 2287.769043 2309.929199
1612.589966 1594.825562 1544.578979 1470.006104 1388.948730 1304.150269 1252.265503 1349.593994 1457.749756 1645.221924 1796.633057 1895.687012 1925.807861 1790.003906 1758.659546 1926.562744 2102.981934 2233.810791 2193.712158 2057.017578 2029.244263 2193.097656 2224.066895 2068.891602 2020.210083 1902.513550 1649.146973 1484.182129 1464.072754 1625.867065 1814.397095 1900.429077 1992.749878 2166.963867 2079.172363 1887.612549 1762.911255 1543.612793 1485.308594 1657.385986 1719.849365 1798.667969 1879.236084 1895.824219 1939.269653 1884.904175 1805.893799 1742.115112 1644.538818 1569.728516 1483.643677 1400.955566 1344.342529 1310.999512 1275.770752 1301.798584 1380.133545 1503.242310 1558.947998 1543.708374 1543.741333 1545.535767 1660.212402 1762.442993 1886.262573 2022.492676 2162.317871 2107.423340 2158.265381 2140.543213 2134.504883 2204.809326 2252.235352 2262.016602 2282.419434 2273.514160 2232.520508 2197.846191 2215.019775 2220.008301 2142.864502 2056.727539 2028.625000 2057.398926 2052.021240 2064.152588 2107.387695 2172.521240 2257.340576 2414.536621 2445.813721 2362.315674 2398.842041 2307.337646 2203.393799 2229.306885 2251.440918 2237.543945 2245.101807 2284.669434 2314.814941 2361.971191 2401.522705 2323.897705 2267.478516 2268.533447 2237.752441 2132.311768 1976.156128 1777.890503 1611.085938 1521.027100 1530.906982 1561.551025 1547.633057 1430.038330 1311.646240 1232.889404 1283.591675 1320.671997 1470.114258 1653.585693 1826.175903 1992.204590 2063.197998 1949.429688 1810.350708 1683.972900 1548.557373 1431.154785 1347.665894 1292.214844 1249.175537 1168.059814 1092.484741 1030.373291 988.594055 977.128418 934.799805 887.174988 832.963257 777.708313 760.930054 742.865723 733.795898 726.898376 781.325439 889.774475 946.740601 960.928467 952.828674 987.333313 1064.334106 1124.589233 1161.414062 1190.072144 1297.639893 1394.653809 1424.830688 1409.886719 1389.858398 1323.887939 1184.885254 997.871948 865.114075 793.509277 740.100586 694.994812 695.287476 692.663330 688.635559 697.154602 711.152771 721.709106 722.224243 704.375427 711.677734 717.989441 717.999695 766.730408 915.588623 1125.497192 1356.383301 1486.413330 1540.911133 1551.835693 1530.709717 1545.020874 1555.788818 1553.543579 1539.489990 1504.435791 1540.053711 1561.756470 1565.209229 1562.932495 1592.157471 1582.873779 1541.484741 1513.539185 1526.620972 1569.109741 1616.204956 1673.998169 1730.150513 1782.314819 1803.426025 1796.769043 1837.437622 1870.252930 1858.172974 1818.481323 1752.706299 1768.205811 1752.943604 1754.146240 1827.058838 1942.610107 2141.576416 2257.880127 2397.868896 2390.417236 2526.075195 2485.592529 2407.480713 2353.735107 2300.541748 2291.764893 2315.398193 2312.874512 2281.677002 2242.366943 2222.191162 2189.299561 2110.651611 2010.303345 1929.673462 1878.848877 1862.970093 1867.142578 1889.550537 1921.570435 1953.261108 1988.864258 2052.021484 2153.970703 2218.738281 2281.177734 2384.704102 2446.887939 2478.609375 2513.140137 2586.490967 2613.645020 2551.522705 2494.349609 2461.568604 2546.815186 2614.367676 2478.445557 2413.013428 2377.636230 2308.229736 2373.571777 2480.399658 2382.511963 2497.237061 2559.132324 2491.896240 2364.920898 2301.917969 2231.915527 2164.911621 2116.313721 2050.094482 1988.182983 1925.129150 1892.958984 1876.843140 1832.919678 1775.326782 1671.183960 1535.401123 1388.249390 1341.683472 1277.761963 1193.319336 1096.104614 998.267334 893.270630 956.510254 1028.646851 1082.895386 1159.467896 1238.652954 1294.215332 1267.740234 1129.655884 1042.706421 1174.730103 1323.180298 1325.940308 1260.364258 1226.975098 1194.840942 1137.227661 1094.688354 1226.373657 1264.055176 1281.067261 1313.614502 1358.047974 1388.279541 1393.488892 1370.859497 1284.402710 1243.007324 1362.634033 1420.886108 1439.824829 1461.537964 1447.965332 1403.453369 1400.808716 1400.714111 1391.338501 1356.069336 1293.682129 1212.941528 1131.546265 1069.237671 1009.508728 981.238403 970.525208 929.005737 890.449219 869.745972 848.296631 761.380066 697.837585 804.317261 799.637207 805.326416 854.634033 918.703918 948.945068 1000.054260 1028.803589 1036.716309 1087.989014 1171.114624 1239.624390 1332.644165 1408.989502 1462.485840 1513.750732 1562.245239 1644.670044 1728.657349 1775.742920 1857.726562 1933.951660 1919.439819 1908.265503 1924.021851 1905.060669 1906.033691 1957.626343 2002.871338 2041.644775 2112.658691 2165.932373 2224.058105 2192.175537 2221.495605 2299.735107 2356.184082 2390.028809 2417.731934
1801.453003 1752.382690 1667.705200 1562.693359 1424.069458 1318.361694 1246.355225 1302.275024 1395.165161 1550.195312 1683.922485 1813.168335 1932.702759 2004.833496 1900.899170 1876.896851 2005.619141 2185.927734 2233.938721 2123.272705 2136.927734 2272.340576 2186.688965 1985.180786 1857.893921 1799.155640 1575.394775 1474.481567 1546.352173 1733.978760 1887.933838 2079.559082 2190.019531 2188.534668 2096.685059 1933.309204 1718.751221 1522.536743 1565.469360 1791.971558 1851.354980 1905.187988 1985.843262 2040.575684 2015.946167 1911.446655 1823.736816 1707.515747 1545.895020 1421.911621 1376.075928 1380.476440 1449.537964 1442.995117 1362.653687 1308.443848 1310.662598 1354.139160 1394.297485 1401.829956 1422.161621 1458.846924 1536.958618 1619.989136 1741.485962 1914.546753 2015.315796 1953.669312 1981.762573 1972.401123 2029.949097 2095.063721 2145.017822 2194.081055 2224.216553 2345.026611 2314.515625 2341.919922 2323.122803 2259.721191 2260.347168 2191.435303 2162.667969 2152.670410 2163.465576 2207.917725 2230.479248 2235.942871 2274.145996 2373.706299 2397.648926 2296.850586 2217.075439 2163.862305 2109.559326 2066.250977 2118.169678 2170.109375 2220.782227 2235.625732 2273.011719 2340.688721 2502.765869 2484.795410 2317.964600 2209.325684 2130.039551 2078.237793 1988.506836 1844.051514 1660.033203 1614.209717 1695.573975 1756.739380 1707.403076 1568.326294 1452.460327 1314.274902 1189.106445 1202.231934 1368.756592 1534.267456 1716.864014 1856.139648 1888.157715 1840.534668 1753.225464 1644.373535 1524.046021 1412.530151 1331.096924 1254.581177 1182.609863 1112.295654 1060.808960 1016.266541 971.655823 941.201233 893.052124 870.849060 815.279602 779.469543 751.189819 741.842651 726.315613 726.093933 809.117004 907.792664 964.495789 940.953796 918.633057 932.910034 966.330566 1008.071472 1080.068359 1198.444702 1316.026123 1329.034058 1283.230713 1234.530151 1185.423706 1124.481201 1039.177002 891.099548 812.386353 769.128235 714.912231 703.795898 707.404968 710.866943 720.315735 723.214050 734.015991 730.323425 736.311462 739.569031 741.748413 751.263367 731.081604 757.859558 926.987610 1177.612793 1339.348145 1437.877563 1514.316406 1541.533936 1551.857178 1523.616455 1486.314941 1416.763916 1341.213013 1323.478394 1341.099121 1328.955322 1340.773071 1355.003296 1398.444580 1417.994141 1421.983398 1503.829712 1583.413696 1644.800903 1703.982788 1809.975830 1883.647705 1950.917847 1956.857300 1986.593018 2037.098267 2048.767578 2002.804688 1976.126709 1917.435669 1901.853149 1810.829712 1740.117676 1760.550659 1814.221313 1953.287720 2153.609131 2302.273193 2280.965088 2408.468750 2415.462891 2318.888672 2270.677734 2270.520264 2270.503906 2276.820068 2241.896973 2207.913086 2169.790771 2099.924072 2031.397583 1986.259644 1948.800171 1921.417969 1901.049316 1877.443604 1856.809814 1824.473999 1806.492554 1804.841553 1827.779419 1884.144287 1977.250366 2059.602295 2181.053711 2268.043701 2344.658447 2333.178467 2335.694824 2392.306152 2473.116699 2548.921631 2586.596680 2600.108154 2671.947998 2720.081543 2593.262695 2512.288330 2471.971436 2448.738525 2478.256836 2498.195068 2471.082031 2528.963867 2430.236328 2379.941895 2301.414551 2200.843994 2136.165771 2082.915527 1996.234497 1936.191772 1874.083862 1784.726440 1743.923584 1725.826660 1659.442749 1603.890259 1516.674194 1401.968506 1298.092773 1205.236816 1152.794189 1074.427979 1002.995300 923.461548 933.623047 1040.556152 1094.409546 1161.295898 1257.616821 1350.208862 1411.376953 1346.430664 1187.509399 1080.169678 1177.484375 1357.765991 1412.789429 1370.426392 1338.793823 1290.766113 1233.856812 1141.725708 1210.281006 1296.975952 1332.691284 1386.718140 1450.374878 1474.379150 1472.788940 1417.645508 1353.861450 1295.855957 1360.845459 1479.830322 1506.994263 1518.392090 1508.902832 1493.291748 1480.798340 1466.965942 1420.096802 1346.471924 1257.770874 1167.617920 1099.400513 1085.115601 1065.108887 1050.964966 1004.602173 960.850769 922.667480 895.986694 858.551514 747.151672 685.195740 748.601990 788.432556 840.266907 886.604919 924.272278 955.909912 984.637817 1018.553467 1049.398804 1169.472656 1267.723267 1320.452637 1424.874268 1516.500244 1578.506958 1642.990601 1713.260742 1790.178467 1872.765625 1916.499390 1936.857056 2009.989624 2010.454590 1994.481689 1992.492188 1992.056396 2004.812256 1991.531006 1995.883301 1998.174683 2059.470947 2133.300781 2200.491699 2206.061035 2230.767578 2292.660645 2363.897217 2442.804688 2474.577881
2012.359741 1911.568726 1803.428833 1711.004150 1557.052002 1389.653931 1304.908691 1262.410889 1342.538940 1477.374268 1609.467896 1749.329224 1919.956787 2091.338379 2050.349365 1926.836792 1979.238770 2186.307861 2358.842529 2284.400391 2363.418213 2370.116943 2119.273682 1978.572998 1829.773926 1663.705322 1515.092407 1525.488159 1658.094482 1844.907837 2041.573120 2255.133545 2414.750488 2273.803223 2093.286865 1905.256348 1695.352417 1548.211670 1630.185547 1871.241943 1998.596680 2031.735352 2122.130615 2074.111328 1940.282227 1816.463745 1666.258667 1524.928223 1431.474976 1421.487793 1484.936279 1551.272827 1636.640015 1676.560303 1526.578491 1426.229736 1339.621948 1330.560181 1436.720825 1515.744629 1525.495239 1506.640747 1462.820679 1498.852173 1599.068726 1714.571655 1781.789917 1785.396729 1842.621460 1995.571045 2134.535889 2108.064941 2154.792480 2265.829346 2336.815186 2391.284180 2475.817627 2429.593994 2333.867676 2327.098145 2380.193359 2290.182373 2250.375977 2210.805176 2210.661621 2300.624756 2423.363281 2407.838867 2388.687256 2301.941162 2271.745361 2291.887207 2243.438965 2138.596436 2013.614746 1963.852905 2055.404785 2136.613770 2178.835693 2223.376221 2274.244629 2370.447754 2545.064209 2564.096924 2379.409912 2245.960693 2148.918213 2086.648193 1990.921021 1826.774170 1717.145996 1728.546387 1820.835571 1920.585205 1861.220459 1726.642212 1581.461792 1478.928467 1323.691772 1149.103027 1288.384277 1515.873413 1699.501099 1847.011108 1854.870728 1794.634766 1699.635986 1588.664673 1477.331299 1384.945923 1298.657959 1229.616089 1144.958008 1078.235107 1048.408813 999.512634 945.328613 913.138062 886.899780 842.106384 783.902649 733.786255 721.345398 719.126099 719.208801 719.973145 796.839600 879.196472 891.103516 882.844849 877.550354 883.751770 897.491760 931.160889 993.250061 1089.007690 1161.237793 1147.094727 1088.102905 1039.730469 1015.253967 1002.514771 953.435181 836.009094 775.029724 735.402771 703.624817 709.190552 728.126404 733.387085 731.739685 732.659607 758.505920 779.903748 740.585815 756.786560 774.343140 758.511169 716.029785 777.319519 954.100708 1086.821777 1175.627441 1270.036499 1340.267212 1372.177856 1413.648193 1413.419678 1340.793213 1247.423828 1238.843628 1297.993652 1348.163818 1403.432251 1440.976318 1452.774170 1447.876343 1462.036255 1509.173706 1574.177979 1673.678589 1750.674561 1803.439575 1853.005615 1966.010864 2076.697021 2094.070068 2089.330078 2130.726562 2187.231445 2084.521973 1997.109741 1962.994019 1949.029175 1879.238525 1790.991455 1757.514648 1787.032349 1845.322754 2011.479614 2122.431396 2161.816895 2282.000732 2310.887451 2264.809570 2242.915283 2245.009033 2226.783936 2219.349365 2175.790039 2114.414062 2047.990356 1995.255371 1979.414429 1988.035400 2019.149780 2063.785645 2069.859375 2041.543701 1997.625244 1969.523560 1913.266968 1856.693604 1798.680664 1799.297363 1863.465698 1987.136597 2109.610107 2184.977295 2240.239746 2255.971191 2245.818359 2272.649170 2341.430176 2384.163086 2450.051025 2500.032959 2543.078613 2603.748535 2573.944336 2588.562500 2592.198975 2577.536133 2557.164551 2502.800049 2425.994385 2352.006592 2275.152832 2231.913330 2200.109863 2150.221436 2040.432129 1929.441895 1834.051147 1775.089600 1756.697510 1672.969360 1603.513550 1579.089233 1510.478027 1430.029419 1355.414429 1256.387695 1175.402710 1091.432129 1027.661987 951.255859 919.595825 954.264893 1018.011658 1086.010376 1158.333496 1229.520874 1333.668335 1446.792114 1516.266846 1402.980835 1247.751099 1130.643677 1168.031006 1374.542114 1472.650757 1458.561768 1432.462158 1374.866577 1319.194946 1252.920898 1224.922974 1233.606201 1259.978516 1368.430908 1481.031738 1551.152344 1549.957886 1495.041382 1416.085205 1383.472046 1414.132935 1451.659790 1555.325562 1582.661377 1573.589966 1561.067139 1550.206055 1482.388550 1394.237427 1297.469360 1203.466187 1157.003418 1163.092407 1150.109619 1131.238159 1097.303955 1047.260864 1013.664673 949.391968 903.849976 834.523804 741.569519 686.921631 695.734131 720.864319 807.296692 882.386902 932.901306 954.750305 976.320374 1014.635986 1094.045654 1203.410278 1317.565918 1387.991455 1453.065063 1552.865845 1646.691284 1722.025024 1797.098877 1875.321045 1954.234985 2036.974609 2094.248779 2135.463867 2113.791504 2107.900146 2090.319092 1978.417114 1859.638184 1833.780884 1831.108643 1822.891968 1870.978760 1940.492554 2011.070923 2058.924561 2126.701416 2206.623779 2272.650391 2345.454834 2402.616699
2215.834473 2138.015869 2013.462891 1871.719604 1706.157593 1585.975098 1436.942749 1288.422729 1350.237549 1540.330322 1731.769775 1872.952026 1994.140259 2126.474854 2159.579102 2010.986694 2050.853027 2202.723389 2376.509033 2466.494385 2534.958008 2368.384277 2122.426025 1921.154541 1792.121704 1603.530029 1514.324341 1583.655640 1719.728516 1869.095093 2081.270508 2306.398193 2387.735596 2168.314697 2013.881714 1846.948242 1675.091919 1588.721680 1678.959229 1858.795288 2063.431885 2200.077393 2155.325928 1983.688843 1817.069580 1676.965088 1534.925171 1444.104126 1479.784668 1571.596069 1606.565308 1717.479248 1805.219238 1829.461792 1712.363892 1575.743896 1441.910767 1344.290771 1392.210815 1629.078125 1741.528320 1704.221924 1624.038208 1536.534180 1514.347656 1540.175903 1585.422607 1672.791992 1874.406128 2008.233521 2159.915527 2194.202148 2261.392090 2310.901611 2405.358154 2474.028320 2575.536377 2535.749023 2469.743408 2455.155029 2395.092285 2326.197998 2248.622070 2266.876953 2339.784668 2424.865723 2506.765137 2471.155029 2414.710938 2289.489502 2206.099854 2176.229492 2208.910156 2070.775635 1885.446045 1904.614258 2021.959595 2146.800049 2258.900879 2367.213379 2399.642822 2458.707275 2538.398193 2556.224854 2476.731934 2338.939941 2223.711914 2130.678711 2025.807251 1917.000732 1847.351929 1857.846802 1963.343018 2050.638428 1928.089233 1850.847046 1790.101318 1603.106445 1370.765503 1164.067993 1208.986816 1395.619019 1648.406982 1799.586914 1780.625000 1715.298218 1611.406006 1488.939453 1388.045166 1303.366699 1223.174927 1143.877441 1077.007690 1029.559937 991.839111 943.559692 910.067627 865.712097 833.324524 796.616089 736.548645 716.404907 715.800720 715.302551 715.413452 715.958191 746.230469 775.010742 775.117310 789.766052 815.096069 832.446411 847.356201 854.932068 878.321594 899.070374 917.357300 923.471558 922.146973 924.293152 934.273804 945.495117 897.040100 809.948120 742.117920 722.369202 700.426208 717.098938 730.476929 736.714417 744.325439 748.500977 772.858826 823.558594 774.562439 744.749695 759.320801 740.970215 721.146301 740.284302 801.412415 911.418396 1018.151123 1110.710815 1164.732178 1207.304565 1237.811523 1213.072632 1195.120605 1270.885986 1420.200806 1525.081543 1572.052856 1648.697876 1684.993774 1689.419189 1689.133789 1680.584229 1706.288696 1766.380737 1813.954956 1913.957520 1940.436279 1901.440063 1965.728760 2085.360840 2163.876709 2176.788818 2185.123291 2188.753418 2076.019287 2005.269897 2031.908447 2081.019287 2003.674194 1908.173706 1845.223755 1831.330200 1809.513428 1865.855957 1951.719971 2018.325684 2099.076416 2152.362549 2165.373291 2156.360840 2174.321777 2153.270752 2124.708740 2071.748535 2023.921021 2010.549194 2035.528320 2066.390381 2109.297607 2163.823975 2237.571289 2180.000977 2155.417236 2142.295166 2136.979492 2057.726562 1994.775635 1907.187012 1791.109131 1793.538818 1925.166382 2053.692871 2100.710938 2145.769531 2203.576904 2206.128418 2195.230469 2200.008789 2241.027588 2292.784180 2301.861816 2351.542725 2386.163574 2366.713379 2432.282471 2458.676514 2483.475098 2480.777832 2432.588379 2327.139893 2285.472656 2161.099121 2095.379395 2101.262939 2127.053467 2051.429688 1928.241211 1795.553467 1661.678711 1588.588745 1595.634399 1504.984863 1426.450806 1393.701782 1298.141968 1217.006836 1120.605225 1049.400879 996.908813 957.953430 946.493713 997.709045 1060.680420 1105.548950 1148.299194 1218.191895 1298.288696 1413.000000 1548.204712 1609.950562 1487.799927 1342.205078 1199.924561 1146.730713 1315.979492 1489.571045 1520.913818 1495.389282 1455.280273 1432.059326 1365.817017 1334.947632 1352.505005 1291.778931 1316.247070 1451.453247 1585.371216 1600.189819 1562.058960 1476.446655 1510.998413 1521.541260 1494.801147 1558.761475 1642.541748 1648.402954 1608.590088 1528.072754 1432.473267 1336.585327 1261.445068 1243.985229 1236.502930 1238.500244 1231.288818 1193.532349 1145.361816 1101.158447 1036.392700 968.261536 905.033936 809.055786 733.251099 685.765869 741.963684 753.768066 735.341553 867.389526 938.725342 958.214294 983.164124 1017.503113 1100.240845 1204.016846 1304.941406 1361.787109 1449.149536 1555.865967 1657.547241 1737.101929 1820.404541 1901.569214 1979.649292 2098.199707 2208.352051 2229.042236 2165.159424 2057.282471 1944.295166 1789.418335 1693.104004 1667.345215 1676.197266 1702.158936 1730.980835 1778.089966 1853.031250 1955.752930 2046.046143 2105.098389 2191.047119 2292.996826 2325.575928
2254.357178 2327.701172 2204.265137 2064.822266 1837.363403 1655.261353 1518.424072 1318.502075 1373.057983 1552.992676 1755.675903 1859.242798 1937.863647 2071.502930 2179.253662 2126.602783 2159.025146 2214.627441 2271.985107 2349.122803 2451.066406 2268.984131 2084.265137 1904.894409 1750.025024 1577.815552 1537.837524 1693.693604 1860.193726 1884.299194 2001.188843 2194.278320 2311.351318 2149.200439 1933.656738 1793.614746 1709.400879 1636.629517 1758.708618 1991.899048 2156.796875 2218.626465 2037.853760 1871.259521 1742.327515 1603.118652 1469.479858 1475.518799 1594.993652 1745.548706 1737.992798 1842.698486 1965.630615 1926.244995 1866.048340 1776.258057 1642.102783 1419.476074 1387.366821 1609.361572 1800.875488 1886.005859 1878.069092 1763.995850 1682.401245 1616.095215 1579.464111 1596.000000 1718.826660 1870.916626 2050.572998 2103.517090 2132.091553 2197.853760 2305.661377 2445.221436 2647.088623 2528.485596 2466.072998 2422.826416 2346.916504 2328.499512 2323.398193 2376.310547 2535.744385 2442.848389 2370.673096 2298.225830 2337.046631 2318.386230 2148.476562 2030.717651 1965.014404 1859.556519 1768.739624 1883.774902 2083.874023 2300.314941 2404.291992 2321.250977 2252.452148 2326.232422 2358.629395 2375.300537 2535.728027 2433.176514 2269.528320 2160.848145 2079.413086 2032.493042 1993.249756 2066.449951 2121.153809 2138.609131 2051.796387 2015.152222 1814.820435 1576.787109 1409.450928 1246.444824 1114.427979 1328.496460 1584.882568 1666.840332 1623.362793 1546.119141 1439.474243 1345.321655 1263.171875 1195.175415 1121.620117 1045.502197 993.166687 958.005066 930.901123 883.381836 845.830505 803.120605 762.867188 730.581909 717.357666 716.723816 716.285950 715.602478 714.654358 715.783630 723.780273 727.573975 728.449280 728.468140 723.798340 764.598694 790.072388 820.136230 822.977234 823.925781 827.662476 832.151306 843.133667 864.115173 888.222534 882.541748 815.189026 746.009216 710.986084 697.181274 702.492493 726.425720 748.035828 761.838196 765.563782 768.815491 806.556213 820.388977 820.290833 828.806091 775.437256 751.061768 727.170959 735.445557 757.980347 791.952454 891.535034 974.807190 1046.410767 1101.298706 1128.552246 1183.480957 1311.060425 1413.021484 1480.600464 1526.314453 1563.945068 1620.542725 1704.406982 1757.340332 1789.532593 1813.127808 1840.691284 1883.012085 1906.541504 1982.352783 2052.179932 1987.698120 1996.602051 2052.936523 2099.605957 2156.289062 2269.303955 2183.290283 2058.076416 2062.982422 2109.001709 2250.761719 2190.280029 2068.036133 1997.495239 1922.083130 1837.567749 1831.105835 1876.942993 1923.045410 1974.823975 2016.644287 2037.304321 2050.206543 2059.945068 2057.122559 2033.153198 2024.007202 2051.620117 2091.881836 2129.195557 2143.176270 2162.429443 2245.264893 2317.704834 2256.099854 2244.512939 2274.922852 2193.794922 2098.117188 2053.791992 1943.690063 1799.162964 1740.538818 1843.950928 1945.593506 1961.328979 2033.200073 2099.473633 2148.063721 2126.663574 2092.224121 2107.862793 2119.280273 2113.094727 2143.953369 2176.187988 2183.582764 2213.430420 2257.212402 2270.345459 2299.904297 2290.752686 2234.419678 2186.673096 2091.458740 1996.997192 1992.371826 2034.721069 1978.080566 1904.863770 1808.491821 1700.679688 1566.394287 1455.949585 1477.779297 1371.067993 1265.070923 1179.396851 1122.150513 1055.322510 988.753967 985.473083 1005.909241 984.905640 1071.221680 1115.926514 1168.855225 1234.489136 1294.647217 1394.045654 1470.162720 1612.167358 1700.738281 1616.560181 1444.228394 1274.723999 1170.569336 1261.249268 1428.017700 1573.644165 1572.962280 1523.663696 1481.768799 1469.578247 1439.739380 1470.686035 1381.969238 1311.334229 1417.325195 1563.015991 1652.431885 1641.854614 1569.742676 1600.265015 1617.846313 1569.357300 1588.036499 1679.529175 1712.520874 1616.855591 1503.458984 1410.163574 1352.978760 1328.424683 1326.811646 1323.552002 1317.622314 1312.138428 1253.849121 1191.646484 1142.679443 1083.656982 1009.574097 940.915710 847.313171 741.695129 685.463806 752.628906 835.090088 725.342407 832.418518 920.355835 945.286194 979.582092 1017.348083 1088.957031 1196.029785 1271.361328 1372.457153 1463.169067 1544.531616 1620.408203 1702.988281 1795.086060 1890.750610 1973.903320 2093.583252 2190.792969 2159.833252 2070.274902 1885.059570 1750.861450 1653.733276 1637.357910 1700.523926 1750.088867 1768.091675 1782.525024 1783.402588 1782.876587 1868.620239 1964.971802 2015.681152 2089.558838 2160.070557 2239.374268
2216.254150 2285.654297 2156.464844 1999.034302 1853.153320 1638.109619 1482.257324 1314.232666 1408.904419 1565.265991 1688.616821 1771.880615 1871.777222 1996.646240 2144.508301 2203.787842 2198.851074 2227.103760 2276.701660 2345.505859 2456.633301 2294.181152 2137.863525 1915.627319 1738.939453 1591.114868 1592.646240 1787.467773 1981.057373 2087.994873 2115.178955 2244.807373 2302.063721 2157.643555 1931.534668 1813.692139 1709.885620 1677.670532 1777.573486 1975.762085 2211.908691 2098.189209 1955.250977 1837.542114 1705.035400 1543.487915 1467.553589 1561.251343 1720.923096 1902.318481 1888.731323 1923.116455 2077.590088 2037.077393 1919.229614 1792.040527 1688.694458 1515.811157 1410.292480 1558.161499 1719.377808 1956.284058 2105.822754 2030.283569 2016.717163 1930.823975 1813.307495 1762.451050 1737.774902 1778.946777 1895.380249 1954.827515 2004.655762 2099.328125 2220.134521 2372.569092 2578.204346 2611.384766 2558.036865 2527.610840 2473.651611 2465.731689 2488.913574 2486.310791 2580.543701 2499.119141 2406.585693 2267.983154 2168.832764 2136.476318 2058.697998 1918.445068 1792.135864 1719.274170 1694.032104 1872.559692 2102.579590 2268.129395 2276.228271 2186.306152 2074.230225 2107.054199 2173.772705 2322.739014 2494.453857 2319.541504 2199.689453 2133.925537 2097.358398 2093.095459 2128.104492 2259.891846 2298.391846 2294.835693 2236.468262 2040.559082 1821.295654 1655.286987 1498.994873 1294.648071 1082.814331 1278.786987 1479.943604 1474.267578 1413.256226 1342.092041 1267.858032 1196.198364 1135.902344 1059.942261 989.827942 919.656494 878.278198 862.863159 822.575195 778.829407 747.675232 731.240356 719.366882 718.131897 717.580933 717.012268 716.034180 715.471069 714.705566 715.913879 723.731079 754.086670 794.448059 821.940369 793.007996 745.433228 737.255554 778.069458 807.038269 814.532654 825.536804 828.766663 832.388611 838.758179 838.374023 811.140930 753.844543 712.564392 706.034851 699.185425 711.301514 741.088684 771.451965 796.016113 799.243286 820.084045 843.687073 836.978882 814.039612 811.108582 808.738586 786.550842 761.892456 730.674805 757.005737 784.093445 844.882324 934.647095 993.392761 1047.967041 1140.860229 1187.143066 1255.299927 1310.117798 1339.918823 1359.810181 1418.241211 1476.697266 1578.294189 1647.345337 1706.057129 1772.513916 1886.669678 1968.859863 1962.544922 2036.743896 2127.066162 2058.636719 2063.311523 2121.218262 2156.100342 2220.957031 2293.083984 2179.059326 2089.005615 2134.906006 2179.067871 2352.117920 2292.323242 2162.694336 2050.027344 1961.533569 1903.011108 1852.525146 1878.197632 1897.717285 1917.885376 1941.712402 1961.039062 1971.618530 1980.810425 1997.222290 2039.162231 2097.376221 2146.973877 2182.776367 2197.912598 2193.415527 2227.820801 2327.696533 2408.838623 2322.909424 2332.760498 2297.385254 2179.264648 2163.285400 2176.215576 2018.294189 1839.786499 1723.772949 1727.369019 1788.162476 1821.956543 1892.287354 1971.191528 2041.602783 2024.297607 1977.897583 1980.051636 1968.116089 1944.322388 1982.656006 1995.348511 2043.815918 2071.644287 2106.917480 2090.023926 2110.925049 2109.214844 2111.260254 2047.243408 1970.379883 1884.124390 1882.995728 1897.983521 1852.604492 1781.349121 1722.463257 1640.683838 1538.307861 1409.005127 1347.466675 1279.743530 1212.534546 1141.163086 1058.762207 1019.080383 1049.580688 1103.439209 1122.818237 1034.034790 1096.553589 1175.089355 1265.767700 1345.158691 1405.861572 1494.807983 1591.728516 1664.934326 1775.116333 1661.379028 1510.026489 1360.420776 1229.663696 1238.623657 1405.241455 1585.277100 1651.187744 1603.362671 1559.946167 1532.270630 1518.906982 1565.157349 1478.151855 1379.477173 1378.437622 1521.568237 1661.586426 1721.207031 1687.311279 1699.870239 1705.272339 1636.105835 1664.518433 1765.120239 1754.316528 1625.253906 1529.443970 1476.407959 1422.291138 1417.571289 1425.050415 1432.367798 1419.767456 1397.267212 1321.245605 1238.137207 1176.709106 1112.920776 1037.665283 972.192078 903.012451 793.553711 701.395020 790.665710 821.707214 713.360474 806.838745 904.642822 939.343323 974.881653 1010.396851 1061.157593 1153.371338 1244.539551 1345.494629 1428.568237 1485.711060 1555.285156 1651.849121 1754.695557 1850.349365 1947.761963 2054.727539 2102.811279 2044.996338 1902.954712 1714.359009 1609.323120 1613.035889 1692.991699 1782.961182 1864.656128 1887.489990 1913.510132 1903.100098 1859.625610 1834.932495 1871.972656 1908.843994 1979.048340 2085.016357 2198.726807
2241.458984 2185.604248 2055.295166 1915.848145 1766.411377 1630.732422 1465.927002 1324.797974 1431.798584 1549.397095 1612.174927 1691.847290 1818.074829 1952.727051 2113.249268 2231.727295 2273.418701 2324.022217 2400.333008 2472.588867 2455.381104 2290.164307 2070.269043 1889.679688 1712.616211 1619.230713 1661.049805 1886.796997 2056.950684 2223.335205 2384.135742 2494.026855 2391.749756 2137.089600 1962.070557 1833.465088 1709.650879 1699.661987 1824.208252 1955.652222 2153.350098 2066.905518 1903.386719 1781.078613 1647.940063 1508.479492 1520.235229 1704.418091 1879.935303 2033.718262 2014.908691 2006.155029 2151.790527 2166.723145 1978.580322 1792.234619 1671.605103 1522.520752 1418.390625 1477.083374 1689.574463 1947.911987 2137.844971 2228.151367 2196.823486 2072.978271 2017.522705 2025.866577 1887.431519 1795.695190 1803.048950 1850.720581 1997.745239 2145.061768 2224.944092 2330.650146 2484.474121 2502.191650 2473.286621 2474.924316 2483.343018 2478.547607 2560.615723 2616.797119 2539.223877 2380.823730 2269.181641 2171.953125 2053.102539 1976.498413 1902.062500 1806.042236 1731.980713 1674.970093 1640.849487 1773.965210 1991.096069 2136.759277 2115.591797 2047.064087 1910.519775 2017.455322 2164.736572 2305.726318 2405.771729 2288.687500 2234.333740 2175.275391 2153.284424 2158.442627 2221.543213 2206.636963 2137.877197 2181.625977 2197.566406 2039.697632 1847.171753 1683.250854 1483.914917 1270.764893 1086.066040 1255.988037 1339.010254 1308.314331 1228.998779 1164.937622 1103.253052 1019.715515 941.324524 852.059143 790.776794 760.230103 741.995422 728.974121 720.715210 719.571777 719.235962 718.637817 717.224426 718.306824 740.051270 764.717163 773.072388 753.153809 756.796143 757.409851 770.920288 793.433228 848.751465 882.705200 876.562805 845.353821 822.541809 775.104065 744.140686 782.360291 823.431274 832.037109 818.158020 812.467346 788.960388 765.678833 728.764587 709.523621 706.830933 724.894836 736.788208 779.294617 817.206970 832.833191 880.053162 918.866211 909.009460 849.229187 820.291077 822.764160 814.860840 801.851868 781.786926 746.557129 736.805725 741.113403 764.873474 902.353088 979.947205 1043.442749 1105.975098 1095.981445 1143.148071 1164.116455 1185.559814 1211.389404 1264.521851 1344.007568 1451.178467 1538.968750 1607.221069 1688.653564 1804.097534 1941.353638 2000.470093 2066.254639 2178.613281 2117.724609 2165.115234 2252.045898 2244.562256 2340.833740 2317.927246 2194.103027 2127.080322 2169.143555 2222.328125 2352.488037 2258.954346 2162.445068 2043.256958 1978.458008 1986.520264 1955.027222 1924.359985 1900.929565 1897.089722 1927.247925 1964.241089 1963.926147 1965.441162 1984.269775 2058.000488 2155.384766 2196.379150 2232.658447 2263.415771 2301.612549 2308.277832 2347.485840 2449.654053 2433.068359 2372.014404 2265.843018 2215.967529 2246.889893 2237.969482 2053.153076 1858.170166 1719.230957 1661.534302 1669.279907 1693.011475 1736.656494 1801.970947 1907.115845 1912.924805 1863.307373 1850.349854 1810.868774 1773.595337 1840.204834 1857.835205 1883.537964 1904.815796 1928.065552 1902.661743 1911.364502 1942.527954 1956.168701 1923.684204 1876.987793 1779.335083 1748.244629 1772.991943 1725.202393 1640.668579 1593.592896 1490.662964 1396.374756 1332.151733 1277.372925 1197.522949 1153.793213 1083.159790 1033.454590 1091.059326 1166.989258 1192.783691 1206.384033 1089.393921 1082.318237 1217.742310 1338.097412 1444.528076 1548.475830 1603.354736 1711.623779 1797.496460 1871.895264 1779.652954 1616.138062 1444.369263 1293.933716 1254.124146 1389.800049 1556.018066 1711.719360 1718.572388 1668.426147 1635.217407 1616.054321 1632.716187 1555.818726 1447.263062 1392.260620 1497.475708 1630.976318 1762.829590 1791.107178 1806.270630 1805.302979 1706.290527 1734.507812 1843.865845 1794.869385 1700.474243 1619.692627 1565.185547 1527.276855 1526.688110 1527.146362 1526.682373 1498.531128 1443.085938 1361.995483 1265.016357 1193.174927 1126.712646 1054.288452 987.668030 946.292358 854.785889 730.557556 742.109192 810.889587 702.686462 743.605103 828.743469 911.069580 962.526306 999.654114 1039.496460 1109.918091 1196.741943 1304.013916 1363.717407 1390.941772 1489.679565 1595.361328 1698.942505 1799.414673 1888.969604 1948.878906 1959.542969 1863.991333 1736.266113 1571.520142 1570.922974 1660.963623 1752.642212 1835.575317 1934.295166 1971.235229 2011.602173 2008.654541 1979.658569 1968.151978 1949.134033 1941.104614 1936.509033 2021.599121 2138.546143
2281.785645 2143.628662 1997.015747 1867.892822 1709.319092 1553.918091 1436.644043 1328.910400 1407.929443 1510.592285 1581.501099 1687.369507 1835.754272 1964.148926 2082.577148 2130.868408 2155.367188 2226.500977 2295.338867 2398.364990 2306.765625 2104.700439 1945.232056 1904.278198 1786.025391 1660.930664 1721.714233 1896.737793 2081.919189 2265.428711 2415.321777 2446.906006 2266.799805 2098.295166 1968.611938 1876.014526 1744.691284 1713.581909 1859.997070 2049.017090 2191.249023 2103.236328 1926.248169 1737.239014 1596.167969 1524.840332 1639.153931 1835.535156 1927.471802 2071.319092 2123.736572 2095.742920 2247.369141 2380.735352 2182.622803 1993.106934 1893.835083 1606.265869 1429.394287 1443.830322 1691.764648 1917.184692 2030.224731 2190.823486 2294.598633 2316.615479 2283.274414 2216.500732 2091.492432 2007.542969 2021.588989 1992.686035 2029.092773 2280.389893 2271.816895 2312.588135 2424.968262 2509.994141 2422.837402 2370.336670 2333.934570 2337.164307 2445.417236 2602.994873 2440.366943 2304.611816 2183.559814 2101.488037 1970.254395 1917.584961 1900.222168 1889.775269 1926.927368 1801.333984 1643.566772 1643.314331 1876.250977 1960.583740 1904.045776 1845.291504 1822.579346 1998.241943 2223.338623 2390.952881 2467.792480 2378.637939 2336.487061 2253.668945 2291.424805 2275.981689 2275.463623 2106.439697 1953.060181 1962.018311 2053.892578 1938.523315 1765.756104 1615.251465 1496.830322 1269.218384 1070.623657 1080.115234 1200.378906 1143.369873 1068.223511 1008.347290 898.069397 805.982483 747.354492 726.566528 724.104309 722.080994 722.164429 721.542908 721.085876 720.812866 721.104980 724.193970 740.351318 781.380493 850.692139 886.629517 891.084412 870.146667 829.019226 802.009888 826.450439 840.141174 865.272949 902.787415 918.773682 881.127258 857.892822 797.192627 744.284363 746.489929 722.945618 755.452637 772.857117 767.581909 733.962036 716.218872 714.672485 728.847107 762.788086 776.927063 831.986938 866.563660 912.959900 923.709229 968.141418 1024.307495 991.190063 890.642761 847.473694 852.065430 846.620178 833.461365 811.919434 772.846252 755.617981 755.252808 762.038635 901.361267 971.652649 996.555786 1014.759888 992.073425 1018.896973 1014.343079 1036.247559 1073.672852 1133.784668 1243.819092 1365.877930 1435.952515 1505.105835 1599.223389 1731.738770 1904.364624 2010.336182 2088.757324 2219.779053 2303.711426 2330.808105 2316.403564 2332.294189 2386.724365 2287.218506 2226.923340 2182.487549 2217.792969 2308.135986 2405.868652 2326.545166 2182.637451 2052.950928 1997.422119 2054.081055 2095.726074 2038.409302 1978.411865 1901.181396 1936.202637 2019.744629 2023.325562 2014.044800 2015.816528 2022.697266 2125.250488 2203.941162 2251.362061 2284.677490 2360.931396 2386.915039 2396.975586 2454.167236 2566.084473 2482.438721 2364.057129 2321.635254 2317.787354 2177.858887 1991.192017 1820.684692 1697.910767 1652.859863 1645.268066 1639.331421 1629.973633 1644.271851 1717.833862 1756.114868 1718.410645 1678.898438 1643.855957 1629.427368 1660.938599 1662.500610 1669.756592 1698.056763 1720.774902 1713.454468 1742.863647 1778.671021 1812.754150 1824.576782 1780.866333 1697.103516 1633.646484 1660.157959 1574.996460 1498.904297 1421.953735 1338.535400 1259.857422 1179.498901 1140.582764 1130.656250 1089.713745 1062.208740 1115.146240 1212.250977 1263.950684 1250.444824 1296.047363 1190.033813 1080.847290 1168.364624 1304.000488 1440.481201 1578.070435 1701.793091 1805.800293 1912.287354 1934.626587 1811.108765 1667.500854 1517.550415 1355.628296 1285.836182 1422.674927 1561.093750 1735.075073 1846.008911 1832.395508 1797.028564 1742.998779 1706.901245 1614.503296 1517.669800 1447.374634 1475.714600 1613.716919 1759.006958 1855.746094 1889.604980 1895.231812 1780.259766 1801.377686 1927.281860 1854.410645 1777.528320 1726.674805 1682.930908 1661.881104 1646.740479 1584.838257 1512.608154 1483.897827 1432.329590 1357.469238 1263.609131 1187.746826 1122.730347 1065.433105 1005.424133 919.290405 859.328613 783.438416 737.755188 838.375183 780.592834 744.863770 753.179260 852.918762 953.632019 994.712524 1031.796387 1080.974731 1147.751587 1201.497437 1272.246826 1372.346313 1460.149902 1549.199829 1656.687744 1731.247681 1800.051636 1818.182007 1774.403076 1637.873047 1528.010620 1506.304443 1600.063843 1702.724731 1796.913330 1889.205444 1996.156372 2076.149902 2111.835938 2119.258057 2083.664551 2093.722900 2101.358398 2073.326416 2024.316284 1994.944946 2112.508789
2307.421143 2172.453857 2016.084961 1909.431763 1767.019409 1607.890747 1444.596191 1339.205811 1402.672241 1510.375854 1598.149902 1740.451904 1877.170654 2003.830566 1996.945679 2000.045532 2069.601807 2161.057373 2254.777100 2362.072754 2289.878662 2157.743164 2082.506836 2015.811157 1864.391846 1746.909668 1790.553589 1980.525146 2127.822510 2313.926270 2564.551758 2449.869629 2220.314453 2111.034668 2006.265747 1911.325195 1770.305908 1724.651123 1877.179199 2123.609863 2148.199951 1988.151978 1870.882568 1693.403320 1559.245239 1598.914551 1803.419678 1979.917114 2018.447876 2113.833008 2235.131348 2248.540283 2425.374756 2544.128662 2425.787109 2252.552002 2055.899170 1733.684082 1440.021606 1447.737305 1655.308105 1808.105469 1930.110962 2080.751221 2187.544189 2358.875488 2529.505859 2486.353516 2336.190674 2244.269775 2130.704102 2069.127930 2154.963867 2325.902100 2372.341797 2398.567139 2519.206543 2581.002197 2434.253174 2368.015869 2344.333252 2301.479980 2402.250732 2577.512695 2486.394287 2307.711426 2225.417969 2127.031982 2054.642334 2016.681519 2043.785889 2090.486816 2106.181641 1919.275024 1671.849609 1546.848022 1629.277588 1710.358643 1664.214722 1701.619141 1842.476685 2022.262451 2186.551270 2389.132812 2530.924805 2505.729004 2409.753418 2349.221924 2343.465332 2260.511475 2163.010498 2032.513428 1830.159790 1755.660645 1841.546875 1788.725952 1695.990601 1638.731201 1456.925049 1247.909790 1048.970459 985.007019 1026.209839 964.680054 886.657532 814.122131 747.779480 726.539429 724.617249 724.584106 724.792175 726.842102 726.130615 727.458862 725.648621 738.476074 776.359741 833.084351 868.900635 904.714294 951.661194 989.715454 997.730042 967.220154 887.799988 858.012329 866.875854 869.805969 865.042419 869.840454 874.868469 843.820251 782.379089 792.806641 822.519043 812.588501 802.077881 781.740540 764.307556 714.551147 712.895386 751.573608 782.472595 814.197754 835.401428 838.149292 901.167053 987.111084 1015.920654 983.302856 1067.575317 1132.884766 1078.185303 980.763367 945.186646 900.401428 887.923889 868.755371 839.782776 805.383179 785.276978 781.823303 767.718750 804.705566 854.757751 872.814819 894.641663 877.380737 863.517517 915.667114 926.492798 959.189453 1034.067627 1143.351440 1260.476807 1342.146118 1414.250488 1534.093994 1691.606445 1858.537842 2007.517090 2113.625977 2188.856934 2281.396240 2376.002197 2428.059082 2434.754395 2379.614502 2301.437012 2266.056152 2267.378662 2287.609619 2409.665039 2480.330322 2351.058350 2205.792236 2076.542969 2030.397339 2138.376221 2232.937012 2124.770020 2034.041626 1934.198486 1945.048950 2075.769531 2096.700195 2090.817383 2071.319824 2037.403809 2105.416992 2240.988525 2294.371826 2312.301270 2401.451660 2474.942139 2507.839355 2568.727783 2703.268799 2663.513428 2533.582764 2428.673096 2221.475830 2076.114990 1915.729370 1748.954590 1695.840820 1714.031982 1728.907349 1705.216309 1646.270386 1585.176880 1567.646851 1572.148315 1558.576050 1536.692505 1520.456421 1526.101685 1500.289185 1494.764404 1475.802368 1508.685669 1522.173340 1541.480347 1571.510010 1593.488037 1625.979980 1675.599121 1666.903564 1603.758057 1516.593018 1507.495728 1409.665649 1335.415527 1271.320068 1194.900879 1142.821045 1117.958740 1117.903198 1116.326660 1127.144287 1176.302979 1278.684814 1360.631714 1376.948364 1314.854370 1377.625977 1298.794189 1164.093994 1126.216187 1258.805664 1388.437622 1519.408813 1677.508301 1842.455322 1960.654419 1965.562744 1848.466919 1710.521362 1560.070923 1405.428833 1326.774536 1449.416748 1603.299438 1725.730591 1896.910767 1994.562866 1940.067627 1860.600952 1786.693604 1690.279419 1606.247559 1530.949829 1486.370728 1578.328491 1725.046753 1871.006226 1939.062622 1921.393555 1851.252563 1896.888428 2025.035034 1971.865234 1906.393799 1875.073730 1848.301025 1798.021240 1686.924683 1564.525391 1453.981201 1404.157837 1370.595581 1313.846558 1240.516235 1168.729492 1089.926880 1022.396118 969.876526 943.824768 949.871948 834.883179 732.931519 855.034424 889.115601 806.413452 762.125488 891.604492 947.089050 975.931091 992.199646 1024.789185 1086.138794 1185.253784 1283.211182 1364.770386 1439.804565 1511.954468 1590.093262 1624.217896 1666.638062 1651.372070 1592.348877 1484.460327 1434.134521 1520.744629 1627.520264 1734.396362 1840.499512 1934.041016 2026.213623 2116.105957 2185.206299 2221.949219 2196.118164 2206.877930 2238.689941 2164.993164 2137.995605 2114.805420 2161.644775
2377.649170 2266.723633 2124.644531 1990.962158 1834.439087 1651.345581 1505.233887 1380.762817 1377.668335 1497.682739 1591.615601 1728.517212 1813.893188 1877.938110 1884.202515 1985.536865 2123.625732 2224.260498 2287.560059 2394.770020 2446.397705 2372.036865 2217.222656 2024.682129 1873.257202 1797.455688 1845.083252 2013.974365 2177.993896 2333.863281 2552.514160 2569.239014 2353.326904 2274.972656 2130.768799 1970.324707 1803.462769 1747.276123 1861.571899 2088.883301 2117.474609 1970.177612 1805.859741 1640.536743 1607.483765 1717.236572 1854.546265 2009.475708 2120.752197 2240.792480 2407.322021 2506.943604 2552.282471 2426.775879 2331.482666 2208.926514 2063.736572 1802.767090 1467.421143 1455.927612 1588.707397 1696.232544 1838.590088 1976.486084 2126.326416 2320.105957 2519.317871 2488.751221 2356.407715 2282.010010 2152.076904 2108.440674 2172.005371 2318.961426 2530.051025 2535.789551 2456.032227 2403.095459 2314.078125 2226.794922 2241.442383 2294.924805 2351.101807 2429.743408 2398.414795 2316.282959 2234.353760 2197.868896 2168.331055 2149.781494 2184.595947 2311.942383 2251.286133 2001.227051 1719.102295 1556.794922 1499.208008 1532.694702 1615.550171 1781.876953 1939.777344 2128.644043 2293.407959 2411.456299 2465.371582 2435.190430 2373.391357 2317.130127 2226.310791 2098.999512 1973.457764 1918.088013 1744.952881 1550.322632 1650.936523 1621.614868 1504.976440 1395.455322 1272.549805 1142.180908 1012.984131 868.286682 849.490051 778.366638 738.802246 728.213501 726.196289 725.368347 724.760437 735.655090 807.325806 827.041382 793.296021 808.238037 856.024353 919.187256 969.272339 987.321411 1012.634460 1047.496826 1106.694336 1157.347534 1142.383911 1091.495605 963.272766 938.916138 885.001038 860.752686 855.047913 854.333984 847.483521 763.307617 864.850037 876.401306 864.205505 865.142517 879.977600 847.933899 859.913940 778.166809 780.764832 830.978577 823.322083 887.326599 925.421509 912.489746 987.818054 1071.294556 1084.527222 1045.413574 1190.707153 1270.463989 1216.131348 1127.283447 1040.006836 949.050354 935.674438 899.732178 860.567078 828.281189 822.797974 816.429077 803.252136 778.986023 757.389343 757.375122 760.244385 771.869690 770.016174 812.801453 839.761047 877.201904 941.735474 1045.677734 1145.883179 1235.659424 1356.003662 1524.503784 1649.643677 1756.243164 1893.228271 1981.887451 2043.792236 2177.060791 2326.763916 2489.773193 2552.387451 2433.532959 2315.990479 2307.526123 2314.694092 2329.713379 2446.071289 2396.287354 2336.538086 2228.626709 2103.466309 2071.104492 2196.292236 2341.639648 2241.815186 2082.456543 1955.512939 1991.029907 2129.394287 2182.459229 2173.281494 2123.394287 2096.714111 2188.735107 2307.015137 2325.391357 2350.159424 2361.777344 2399.488770 2445.993164 2554.594971 2719.032715 2661.904053 2512.836426 2356.335938 2180.296875 2010.668335 1842.119019 1759.438477 1802.522217 1891.185181 1901.376953 1830.754761 1708.272949 1597.001099 1544.856445 1512.273438 1497.438721 1485.487915 1481.540283 1475.734497 1455.110718 1438.111938 1416.315063 1406.100708 1406.195801 1416.199951 1420.835693 1430.637329 1438.446533 1482.737305 1518.314941 1503.034546 1396.486328 1341.773682 1267.609985 1218.089111 1171.133545 1136.224854 1144.692993 1177.539673 1214.110107 1236.598389 1269.423340 1359.418945 1458.811035 1511.871216 1444.349243 1380.808716 1481.337769 1431.008179 1276.051270 1162.755737 1199.720459 1333.899414 1487.483154 1644.228760 1788.767822 1942.050171 1973.810425 1887.462280 1763.876343 1598.815430 1454.785767 1359.532227 1473.270996 1620.485840 1736.470215 1880.280396 2065.241211 2060.039062 1972.963257 1874.532959 1783.507690 1703.815063 1618.104126 1538.235474 1560.086426 1684.197021 1838.377686 1948.298584 1942.287720 1950.322144 2034.371704 2109.543213 2033.356079 2072.935791 2033.255371 1926.389526 1760.679199 1620.465820 1502.426880 1398.817383 1319.029541 1277.052490 1235.056641 1177.248169 1116.949219 1070.766113 1068.265137 1029.568481 1001.212769 940.175476 836.799255 744.785156 843.626831 894.702515 784.815552 763.949890 851.033386 894.624573 875.475098 894.123230 983.487488 1090.338867 1170.856201 1265.587280 1342.196655 1398.737061 1477.096680 1525.756958 1505.894653 1511.978394 1468.197876 1405.437866 1384.986328 1458.345093 1567.401978 1639.964111 1754.128540 1853.880127 1932.672119 2019.670532 2107.052979 2180.520264 2242.621582 2273.253418 2317.907959 2367.504150 2257.047852 2241.456299 2202.763428 2225.665771
2299.317383 2217.320312 2101.305664 1983.452393 1879.205444 1775.494385 1600.547119 1437.894775 1354.917480 1406.435669 1482.743286 1561.037476 1662.404419 1700.266968 1793.238281 1879.867920 2009.092529 2094.683594 2172.932617 2305.725342 2455.270508 2407.818359 2199.426270 1995.430664 1863.032837 1859.543091 1957.022095 2041.907104 2138.438721 2265.453125 2415.941650 2561.412109 2521.029785 2482.607178 2278.577881 2045.034424 1852.713379 1773.954590 1897.382324 2128.912354 2069.700684 1903.767944 1756.934082 1643.022583 1711.561157 1834.636353 1895.458008 1981.352783 2154.612061 2306.179932 2500.924072 2612.616943 2488.344238 2323.979248 2235.434570 2067.251465 1926.464355 1756.642578 1490.499634 1458.068115 1603.497437 1793.003784 1838.222412 1908.567993 2089.910400 2292.676270 2488.363037 2496.133789 2381.699707 2328.707520 2211.561768 2143.619629 2167.794434 2317.696289 2535.439453 2595.283936 2426.158447 2343.047363 2231.807861 2141.316406 2125.955566 2114.355713 2215.496338 2377.737549 2374.373047 2293.565918 2260.476318 2240.282959 2288.177490 2312.283936 2349.350342 2356.675049 2195.590332 1994.528442 1766.134644 1595.406250 1493.595581 1475.756592 1582.317993 1771.332520 1987.721191 2176.513672 2290.631836 2318.810547 2301.604492 2268.227295 2238.932617 2200.656250 2060.473389 1916.758789 1832.302002 1733.908813 1643.203247 1472.525146 1422.829468 1381.944092 1274.949341 1164.044067 1088.581909 1011.666870 923.275818 828.728333 753.062012 730.271790 727.992065 727.191406 726.354675 730.466919 779.878113 862.616943 907.707458 922.334961 920.640198 948.862244 1026.153076 1113.653564 1174.344849 1185.044922 1194.893311 1224.650879 1310.062256 1372.916016 1338.462524 1246.577759 1095.894287 1046.511108 988.838318 978.603333 911.757324 858.130676 818.294250 770.248901 848.670532 874.131836 891.908142 911.970215 927.604919 888.588074 902.918335 854.437073 884.632629 930.050842 922.484558 975.316467 1031.661743 1032.308716 1098.072510 1181.122192 1182.557373 1132.601318 1240.792236 1405.547607 1374.474609 1271.299316 1130.422729 1059.829102 1003.486450 942.471802 870.175842 854.670715 865.327393 859.815369 834.462585 795.498108 769.370789 756.433716 759.031738 763.255615 767.035828 771.036682 778.785339 793.568420 838.652527 940.586060 1022.950378 1154.469604 1283.994141 1403.920044 1508.677124 1610.910522 1726.696655 1844.041870 1962.061890 2122.993896 2299.457031 2466.057129 2553.815186 2455.891602 2396.353027 2353.060303 2338.814453 2403.979736 2544.247314 2448.787842 2368.536377 2226.548340 2111.994873 2109.910889 2255.232422 2421.390625 2270.798828 2086.178223 1994.662842 2066.183838 2211.908691 2304.993408 2302.913086 2217.515381 2194.253174 2244.781006 2399.268799 2515.164307 2438.885254 2431.389648 2467.086182 2509.654785 2622.990234 2604.237549 2489.305908 2379.154785 2214.830811 2101.606934 1933.908813 1812.243042 1850.844116 1951.399902 2081.355957 2091.190430 2053.145996 1910.420166 1690.800049 1553.812012 1521.367676 1512.440063 1520.524658 1541.823486 1541.633423 1532.996216 1520.967285 1485.239136 1468.131470 1438.424316 1379.976807 1342.207520 1319.378296 1297.350830 1314.930786 1337.037109 1328.491211 1280.814941 1250.589844 1187.838989 1151.726196 1151.863892 1202.845215 1257.030029 1319.871826 1345.750488 1434.211182 1498.183716 1567.938965 1657.850342 1610.763916 1470.106323 1471.688599 1593.638428 1564.365356 1387.480591 1255.954712 1185.301758 1300.385986 1445.488525 1585.200195 1741.119385 1882.567261 1987.212158 1924.563599 1781.405640 1627.442871 1484.484619 1381.087402 1472.981689 1615.612549 1765.272705 1901.383423 2072.100586 2132.949463 2056.809326 1947.369385 1857.274902 1769.572266 1675.127075 1591.890991 1563.836548 1656.017578 1784.156006 1928.736572 2003.144897 2018.162842 2139.137939 2261.046631 2155.532959 2111.164795 2012.438232 1831.331055 1672.937256 1541.074219 1429.932983 1365.656128 1341.552490 1303.932861 1273.737549 1225.882568 1179.379395 1151.627808 1135.678589 1090.843018 1037.062256 966.370361 849.564636 767.453491 877.298706 907.288330 846.105957 832.987915 771.063843 793.174805 796.040527 847.031433 926.041199 1025.926270 1124.522827 1220.930298 1299.673340 1349.268921 1404.623413 1424.393555 1375.368286 1340.876953 1319.889404 1388.333740 1473.167480 1540.354736 1607.247070 1693.770752 1770.091797 1842.289307 1915.601929 2003.243164 2087.975830 2171.139648 2261.846191 2309.723633 2359.725830 2422.629639 2387.140869 2322.639160 2306.429932 2253.522217
2239.156738 2172.585693 2086.717285 1973.566040 1883.915283 1787.436768 1620.535645 1462.448853 1400.726196 1453.147217 1428.052368 1448.789429 1511.528687 1599.137695 1703.509277 1823.834717 1955.136963 2068.307129 2183.452148 2318.768799 2490.089844 2400.213379 2239.804199 2029.674194 1895.155151 1917.804321 2040.558228 2250.141846 2366.245117 2378.763184 2468.398193 2516.623047 2376.749512 2309.674805 2224.614502 2161.757080 2027.513062 2001.133423 2021.192627 2199.474854 2109.494141 1920.031006 1735.170044 1648.639648 1717.792725 1888.038208 2047.387451 2064.847412 2131.374023 2314.774902 2508.514648 2456.772461 2362.782471 2241.881104 2124.868164 1978.559204 1786.989502 1655.660645 1508.156128 1478.280151 1688.298950 1924.805176 2045.599121 2059.112793 2130.235107 2333.414307 2493.950684 2417.539551 2345.428223 2301.238037 2231.234863 2166.002197 2201.992432 2334.004395 2503.038086 2627.241455 2466.082031 2327.821045 2252.119873 2182.437744 2082.924805 2034.680420 2160.826416 2354.536865 2433.086182 2330.030518 2342.680176 2420.813232 2454.918701 2464.851074 2433.039551 2314.874756 2115.526855 1919.351440 1761.884277 1699.738159 1565.469482 1439.666870 1477.528076 1724.633911 1963.659790 2149.249512 2126.746826 2140.482666 2108.558350 2122.000244 2079.668213 2060.844971 1945.159180 1800.334961 1647.162109 1568.577759 1491.884033 1355.586670 1209.849976 1172.985840 1098.747437 1011.774170 954.265442 910.354797 831.028870 749.587341 733.158264 729.828918 728.606689 728.123596 728.862244 806.919312 898.619385 929.956543 976.864868 1004.673462 1048.823853 1078.069824 1190.289795 1326.695557 1427.322021 1455.590698 1447.749878 1496.450684 1490.892334 1529.565430 1478.181030 1379.477173 1278.953369 1187.784546 1065.635864 966.973816 887.734802 805.536560 761.750000 778.327942 871.172058 904.399231 924.379944 957.021973 967.852905 949.630737 976.034058 1000.059631 1025.895874 1050.777832 1015.750916 1002.762817 1126.609131 1169.967285 1228.982910 1289.055298 1314.976807 1268.662231 1247.013306 1424.957886 1505.157837 1346.553955 1233.121094 1125.184082 1154.575317 1064.600952 955.420837 902.831909 915.125061 909.468201 900.704285 831.554199 786.736389 766.335754 775.991943 784.028564 779.376953 782.377563 776.908997 788.110168 816.370850 867.150635 950.054443 1066.532349 1163.597656 1269.127808 1418.032837 1548.144897 1690.999390 1814.244629 1931.551025 2092.944092 2284.262451 2428.767334 2555.915039 2529.695312 2442.264404 2400.155762 2435.806396 2527.633301 2573.127686 2416.406738 2278.553955 2183.668701 2125.063721 2196.829346 2367.827881 2355.755127 2225.993408 2083.801270 2032.946655 2126.079102 2281.814209 2435.865479 2397.665039 2312.618164 2301.201904 2327.803711 2428.116211 2499.169678 2555.509521 2641.331787 2662.377930 2668.128418 2702.799805 2530.592041 2359.010986 2221.075439 2118.344238 1998.076294 1862.599243 1864.924194 1966.475098 2094.567871 2237.828125 2276.699463 2121.982666 1928.699829 1684.714233 1558.300171 1555.802979 1580.807495 1653.286011 1719.476318 1743.133301 1753.270874 1728.692993 1672.651978 1651.960938 1584.837402 1526.731812 1445.627075 1384.286499 1315.052490 1249.980225 1222.268311 1207.424072 1206.738647 1200.621338 1174.293457 1198.831787 1286.253540 1401.254761 1462.327759 1550.249268 1499.996216 1585.619507 1691.718628 1751.906982 1778.850220 1645.880371 1530.577148 1543.205200 1656.014404 1595.346680 1445.374146 1318.497803 1215.109009 1274.773682 1414.503174 1558.475708 1694.846436 1851.480225 1997.490234 1938.818726 1782.172729 1641.035645 1517.322144 1415.539673 1457.067261 1591.602417 1760.711182 1915.397583 2077.286133 2163.542236 2123.063232 1999.710815 1895.349731 1802.005737 1746.271606 1666.952637 1585.119141 1641.111450 1770.227539 1912.192139 2036.924316 2118.139160 2232.874512 2324.459473 2155.343994 2036.391235 1919.783081 1758.470825 1602.132690 1495.997803 1460.372192 1448.851807 1418.414551 1404.357056 1366.073975 1309.826904 1256.197021 1214.872559 1177.104126 1141.112915 1086.760620 1010.797791 905.372131 768.152527 838.738953 929.972595 920.539124 936.076477 853.945496 790.913818 790.754028 780.987122 871.606873 975.462524 1076.939575 1163.481445 1232.038696 1281.136230 1315.092041 1303.508057 1247.600098 1263.784790 1375.124023 1472.760742 1555.889526 1620.538208 1672.555054 1724.272827 1810.004517 1885.119629 1954.948975 2004.241577 2073.802979 2147.803955 2224.278076 2304.808105 2373.592773 2427.862305 2491.677246 2419.943848 2457.472656 2372.025879
2142.725586 2070.930176 1963.643677 1873.140137 1810.043945 1684.675903 1544.547363 1416.020508 1440.928955 1592.812744 1583.847656 1529.793823 1480.550903 1572.940796 1742.041992 1822.423706 1937.395752 2101.738037 2227.151855 2345.598633 2458.018066 2446.915283 2294.899170 2109.577881 1954.770630 1991.161743 2096.200928 2290.287598 2482.739258 2630.199463 2717.340332 2555.312988 2400.076416 2292.952148 2182.786865 2099.869385 2066.755615 2068.463135 2158.722656 2330.533203 2152.343506 1916.718872 1737.546265 1670.991089 1764.230103 1990.764893 2255.286621 2336.782959 2295.662354 2381.017090 2427.756104 2290.527832 2217.101318 2125.675293 2004.788818 1889.038452 1816.809570 1663.138916 1524.996338 1522.077026 1739.840942 2035.864502 2282.580811 2230.136719 2186.383789 2283.294678 2425.230713 2496.899414 2506.364502 2415.705811 2328.971191 2275.133545 2306.672363 2352.230225 2447.035645 2571.026611 2416.607666 2319.001953 2272.962402 2237.961914 2084.399170 1994.908936 2123.834961 2319.535645 2449.965820 2482.589355 2507.110107 2441.114014 2382.072266 2345.843994 2275.744629 2203.200928 2089.940674 1996.701294 1946.794678 1879.397949 1680.192505 1465.131958 1422.376465 1646.056274 1889.895508 1991.588745 1938.708740 1974.593384 1926.969971 1917.591064 1907.176758 1881.751831 1786.288696 1683.650635 1536.538940 1420.661011 1341.685791 1244.641235 1112.424561 1046.794189 989.416931 879.394531 784.925171 749.285522 733.954773 731.160339 731.059387 732.842590 730.695374 730.394470 779.829224 911.250549 967.973816 1021.148987 1068.709839 1125.826416 1189.609497 1229.245361 1285.033813 1458.207520 1585.199707 1614.421631 1609.256592 1640.746582 1600.277710 1507.072876 1413.963745 1319.199219 1225.892334 1139.424805 1047.658447 968.381958 867.004761 769.625183 803.087646 854.532715 919.578186 938.831177 960.743347 1008.662720 1036.337646 1057.624390 1058.962769 1101.144897 1123.881836 1156.452026 1098.153198 1040.306641 1150.775757 1290.880859 1354.658203 1399.704102 1420.927490 1409.899292 1330.688599 1404.729492 1557.370605 1472.186890 1296.954224 1244.999146 1325.034546 1231.691650 1131.471558 1044.022705 991.618042 975.241089 986.533508 955.829102 903.700195 887.235657 890.674561 926.506531 918.329773 833.583496 798.211853 787.338013 810.237549 837.313171 928.425964 1101.770874 1224.954834 1358.000244 1491.126831 1607.191406 1711.985229 1832.752563 1940.400635 2064.605957 2210.452148 2336.677979 2496.049072 2569.286865 2575.164795 2545.505615 2545.455322 2493.159668 2459.471191 2363.113770 2256.621338 2191.626709 2205.767578 2331.843018 2390.282959 2241.511719 2126.428955 2043.162231 2088.740479 2180.219971 2365.504150 2543.044922 2433.818848 2317.938721 2317.180420 2318.221680 2339.480469 2415.827637 2516.262207 2624.377930 2664.449219 2707.736816 2690.946045 2501.717773 2338.909912 2179.240479 2020.474854 1928.363892 1867.877441 1917.578735 2081.913330 2226.568115 2371.420410 2320.027832 2128.747803 1919.952148 1658.292114 1586.029907 1602.511230 1702.057129 1813.280151 1893.681763 1949.713257 1940.507690 1927.585938 1872.164917 1836.434570 1767.493774 1691.604004 1602.834595 1535.441528 1437.557251 1312.908569 1217.542114 1192.716919 1186.123901 1199.765991 1254.125244 1346.199097 1464.446655 1613.464600 1653.380981 1698.737427 1660.979614 1719.624756 1844.598633 1931.275513 1832.799927 1689.318848 1636.164185 1621.814209 1695.496582 1632.960327 1473.100952 1343.860474 1239.158569 1299.947144 1425.537720 1562.867065 1682.393921 1813.337524 1989.240234 1941.011108 1793.967407 1662.328613 1552.031860 1455.608521 1480.028442 1575.152344 1712.726929 1845.921021 2009.343994 2176.668701 2128.481445 2021.480347 1919.672607 1874.880127 1837.156128 1719.602539 1609.363770 1647.044434 1745.712036 1892.940918 2058.358398 2220.116699 2338.361572 2333.647217 2156.757568 2023.204102 1888.121094 1716.888794 1613.733276 1578.761475 1570.855957 1565.776978 1542.258789 1555.418701 1524.263550 1446.436035 1358.789185 1270.930176 1204.271118 1157.492188 1095.556152 1015.840332 946.309875 841.413269 776.775146 878.994446 976.927124 979.163025 930.998901 902.694824 904.094177 801.655457 828.937500 928.567932 1035.481445 1120.761475 1162.262817 1200.636230 1198.764771 1185.057983 1242.864746 1338.211670 1436.229980 1512.544922 1591.992065 1659.656982 1731.890259 1783.072998 1854.851318 1946.240845 2031.634888 2090.951416 2122.850098 2171.700928 2231.294678 2307.221436 2390.204346 2471.653564 2557.018555 2546.554932 2531.885498 2495.253662
2035.080444 1946.576904 1865.293579 1798.024414 1738.207397 1620.671143 1461.147339 1401.263550 1495.043823 1644.241577 1717.329590 1648.274780 1577.930420 1548.313477 1640.885254 1755.668701 1904.214111 2049.072266 2138.925537 2229.811523 2315.231201 2431.278809 2403.227295 2195.524170 2076.855713 2079.893555 2162.346680 2273.909912 2441.558105 2632.985596 2745.128662 2584.312744 2515.209717 2444.162354 2268.250488 2165.125244 2173.208740 2248.032227 2382.784912 2340.793457 2121.714600 1929.211426 1746.779541 1709.603760 1878.797363 2160.457520 2371.879639 2464.864746 2425.619385 2553.431885 2443.949219 2302.955811 2182.025146 2131.575928 2066.016357 1987.287598 1852.973877 1673.881958 1541.904907 1576.994751 1799.258179 2022.682007 2257.947266 2254.288330 2203.628418 2241.685059 2346.194092 2490.318604 2649.276367 2610.587891 2449.684082 2378.841309 2450.806641 2490.939453 2524.410645 2591.325439 2473.392090 2465.640381 2439.219971 2334.548584 2049.939697 1944.254639 2085.501465 2222.622070 2349.901611 2458.264893 2524.114502 2458.568604 2312.009033 2247.256348 2157.356934 2056.479980 1980.685425 1966.152588 1934.005615 1831.141479 1659.414917 1454.020020 1375.644653 1566.635254 1774.792236 1785.980347 1755.874634 1798.469238 1758.792603 1728.106079 1695.536011 1677.421387 1643.371948 1533.409790 1454.514282 1327.075928 1200.060303 1057.580688 933.302734 849.089172 803.911560 742.312866 734.391907 733.228882 733.151245 732.995850 739.128296 756.838379 767.828186 796.182373 899.269775 1012.460938 1063.290405 1142.733521 1218.568359 1288.442505 1338.537720 1372.514038 1381.469727 1465.243286 1562.264404 1602.699707 1642.074585 1650.316162 1575.414307 1484.841797 1401.685913 1304.644043 1198.735840 1118.277832 1029.254883 948.256592 877.921082 798.954224 841.959595 920.207336 983.062683 999.488770 1056.058472 1098.102661 1128.282104 1124.437500 1079.026123 1161.342041 1210.235840 1244.447632 1237.284424 1199.704834 1169.034912 1270.813110 1399.810181 1462.880127 1509.649536 1530.122559 1475.432373 1458.820679 1595.425171 1581.334717 1450.999023 1436.519165 1467.633789 1406.032104 1298.985596 1204.305542 1078.503052 1045.023682 1036.845093 1025.565796 979.091370 956.065063 939.186951 938.446533 995.481873 994.252991 904.191223 819.412537 798.009399 816.143005 910.542664 1073.383179 1208.260864 1308.468750 1407.206543 1530.040527 1653.641113 1787.382812 1914.807983 2033.713013 2132.239502 2247.745361 2337.269531 2447.168457 2593.698242 2555.822754 2476.387695 2424.427002 2376.322998 2303.266846 2218.586426 2204.693115 2285.863770 2392.850586 2273.349609 2135.948730 2055.263184 2085.326904 2199.501953 2290.343018 2442.516113 2584.903809 2463.463867 2333.013184 2317.163574 2317.159668 2317.813232 2404.537354 2594.188965 2668.057373 2539.533691 2540.514160 2568.751953 2503.500732 2344.125244 2164.089600 1985.641113 1905.080444 1925.215820 2072.416260 2276.222412 2420.031738 2373.369141 2217.374512 2090.487061 1917.933105 1662.896118 1621.205322 1656.076538 1796.733765 1934.947144 2058.818848 2141.349365 2101.970215 2085.679199 2029.039917 1974.608887 1900.497803 1820.870972 1793.627563 1704.250366 1550.724731 1359.301514 1229.000610 1210.028320 1241.986206 1307.082764 1414.678467 1509.422485 1643.304199 1716.066284 1796.614990 1846.162476 1841.732300 1896.950073 2004.706421 1980.687866 1845.255737 1750.873169 1743.523315 1709.485962 1774.454346 1655.243164 1493.766235 1361.713623 1262.001709 1322.540405 1454.583740 1596.777222 1701.408447 1836.293457 2015.661377 1985.951782 1842.908325 1699.059204 1579.441284 1493.350342 1501.780884 1581.550171 1693.268555 1828.380859 1988.587158 2146.919678 2089.623047 2029.227783 1973.195801 1943.369263 1851.146362 1720.821411 1634.488037 1754.047485 1833.608765 1904.270874 2069.823975 2212.994629 2251.581299 2262.775146 2144.599854 2019.746582 1910.537598 1843.091187 1729.417480 1720.557129 1722.292480 1731.211792 1697.380127 1712.060669 1625.583374 1524.164795 1414.834351 1286.644531 1202.194580 1145.218994 1075.052246 1001.310303 959.484741 896.223145 789.993408 873.356812 981.532898 1010.521423 997.428955 936.761841 863.390930 790.218140 887.703003 973.877380 1052.056519 1086.954956 1091.822266 1086.996582 1135.996460 1215.059570 1294.331787 1398.716309 1481.040527 1562.185791 1633.639648 1712.402344 1786.547852 1847.938721 1930.014282 2013.934448 2111.040283 2182.041748 2223.920166 2236.168701 2276.520996 2323.572754 2360.127441 2399.062012 2444.922852 2450.956787 2390.536377 2399.755127
1913.746460 1831.166626 1777.499390 1717.142334 1634.877319 1500.877686 1426.101562 1478.270020 1584.876831 1731.304565 1839.374634 1789.200317 1719.812622 1635.594116 1601.038330 1709.758911 1848.949341 1940.840454 2052.161865 2151.772705 2251.877441 2378.755859 2427.824463 2349.124023 2281.097656 2269.104248 2295.476318 2420.398193 2494.757812 2585.848633 2710.830811 2659.608398 2555.651611 2435.304688 2334.319092 2290.572998 2428.174805 2520.939697 2455.462646 2285.136230 2088.256104 1904.871216 1755.245361 1806.728027 2003.984009 2212.837646 2396.043701 2604.498535 2714.374268 2731.332520 2582.558838 2537.879639 2499.893066 2409.723389 2240.609863 2064.997803 1885.613037 1689.956543 1549.580811 1691.690430 1908.664917 1990.728638 2140.422607 2206.200195 2211.620117 2249.093506 2338.280762 2409.220947 2575.168945 2615.812256 2538.146973 2489.174805 2459.699463 2450.757812 2475.300049 2501.163574 2606.238281 2640.143066 2488.730713 2246.250488 1982.266113 1896.087036 1989.621582 2148.180908 2213.334717 2295.312012 2461.520020 2572.735352 2447.706055 2303.550537 2227.232178 2140.417236 1978.015625 1866.215332 1770.209839 1683.635620 1601.031250 1483.416016 1340.121704 1431.103760 1598.976562 1596.431152 1602.964233 1631.426636 1587.921631 1539.863892 1529.215698 1469.358765 1468.217529 1379.828979 1305.376343 1187.341431 1048.257690 917.129395 833.410278 763.772583 739.746094 735.290283 735.135498 734.664734 738.674805 767.137756 802.366455 819.604614 890.128784 938.972717 1023.297180 1085.062744 1176.657593 1249.845947 1320.963623 1380.448364 1415.422119 1460.358276 1476.687134 1511.861572 1595.550659 1658.037598 1700.977417 1669.219238 1579.723022 1494.032471 1410.207642 1319.444824 1219.775024 1132.161255 1031.513306 955.050964 864.162659 811.076904 904.632568 982.915039 1044.507935 1102.317139 1167.378296 1183.088745 1178.427734 1183.814331 1145.195068 1166.881592 1284.949585 1317.751465 1348.813110 1349.967285 1258.989380 1300.821045 1452.155762 1541.649902 1612.770996 1624.005127 1585.600952 1514.270752 1673.574463 1704.303345 1627.891846 1633.710205 1648.091553 1543.927490 1410.798706 1260.735718 1221.394897 1201.094116 1138.320068 1084.257202 1036.937988 979.994507 970.956299 928.946838 916.053345 951.765564 956.935303 871.542603 810.644836 822.196838 865.376709 1000.924927 1131.800049 1292.700439 1427.921997 1590.410645 1757.216064 1853.403442 1976.865356 2066.912109 2149.476807 2236.937012 2316.461914 2489.120605 2618.494629 2587.707520 2512.715820 2418.777100 2330.770996 2286.343018 2259.505371 2291.905029 2431.939697 2330.070801 2157.070312 2074.198486 2115.545898 2236.148193 2365.845947 2494.404053 2626.352539 2751.753906 2577.315430 2434.222900 2330.334229 2317.140625 2317.142822 2358.253418 2518.439209 2678.505859 2552.152588 2447.296875 2413.270752 2363.405029 2274.252197 2130.910889 2014.755859 1992.848755 2082.509033 2273.210693 2429.792236 2473.225098 2301.805176 2132.775635 2003.746948 1857.511108 1679.113525 1654.595337 1702.464355 1827.805420 1994.179932 2138.900146 2290.076172 2295.099365 2274.708496 2233.720947 2168.588379 2077.363281 2028.360107 1926.678711 1734.875732 1545.795288 1354.725708 1233.943359 1247.452393 1328.891479 1470.652954 1617.474731 1658.674316 1777.141357 1873.838013 1936.116455 1966.388306 2045.519409 2102.011475 2104.216309 1985.514160 1876.566650 1827.462769 1805.134888 1779.201294 1818.616943 1688.915649 1525.383545 1379.526489 1285.585205 1354.765015 1491.075195 1638.735962 1746.933228 1886.200439 2064.317627 2059.549072 1882.391724 1736.498657 1612.100952 1524.596680 1521.803467 1614.442261 1750.841309 1893.423950 2001.832153 2157.872559 2150.095215 2101.054932 2039.164795 1932.432983 1820.884644 1724.751953 1711.259155 1837.830811 1993.590698 1949.753174 2025.905151 2119.705322 2101.666992 2145.810791 2080.828857 1992.970825 2021.996826 1987.386108 1872.920410 1893.739014 1882.291016 1879.931519 1817.238647 1726.997070 1599.028442 1488.188477 1359.061035 1239.164673 1160.019165 1106.933838 1038.921265 984.718872 918.486572 822.640869 860.420227 967.718323 1006.343445 1023.291260 1013.972778 929.325745 824.389221 839.074402 940.965759 1020.021301 1049.822632 1017.117737 1031.889893 1090.602173 1176.634033 1262.957520 1351.843628 1432.635742 1509.563721 1592.293335 1667.141846 1751.790527 1836.653076 1909.261597 1996.260010 2083.721924 2174.249512 2189.056396 2147.820557 2129.338623 2193.630859 2239.673340 2244.448975 2292.198242 2323.632812 2314.493652 2287.196045 2330.789062
1838.216553 1744.666138 1679.283203 1606.871948 1521.002563 1443.616943 1499.256836 1565.554443 1670.651123 1822.873657 1988.515869 1944.238892 1847.370239 1751.758057 1644.198242 1677.552246 1809.654907 1926.640503 2072.588867 2184.309814 2278.480713 2388.468262 2505.516357 2455.067627 2424.854980 2441.422607 2449.728760 2484.698975 2575.606689 2700.248047 2781.841797 2664.414795 2585.619141 2486.024170 2374.707275 2419.477051 2598.063965 2591.475342 2384.023193 2196.180176 2064.254150 1914.594360 1796.381470 1938.778809 2099.731445 2245.818115 2422.204590 2611.336914 2715.184326 2582.686768 2392.574463 2348.804688 2381.023438 2354.112305 2253.148926 2081.742432 1890.651245 1663.292236 1616.212036 1877.803589 2031.572754 2147.198975 2182.042969 2198.820801 2230.599121 2246.925537 2379.924072 2417.320312 2583.229004 2511.644287 2392.010498 2371.621826 2355.626221 2291.015625 2297.030029 2380.446533 2444.184326 2497.498047 2481.787598 2348.618164 2006.800415 1855.933350 1814.023071 1946.823730 2059.345703 2229.271240 2311.620117 2421.705811 2485.246094 2520.689697 2463.140137 2285.069092 2085.870361 2007.382080 1866.557861 1762.104492 1628.179810 1479.254639 1356.966675 1286.023193 1343.700073 1390.473877 1426.010132 1452.398926 1402.775391 1337.018188 1330.012085 1287.637207 1262.815552 1200.236694 1131.809814 1009.893494 879.717102 807.449829 778.013367 738.521729 737.860352 737.161316 743.791626 790.773438 854.794312 907.048462 903.524475 908.825928 951.479309 1036.041504 1090.078247 1161.157959 1228.812744 1300.767700 1389.500122 1455.762451 1520.236938 1581.554810 1584.388062 1604.194946 1674.369873 1725.687744 1728.244751 1669.347778 1588.075806 1500.435791 1398.707886 1288.051636 1208.326050 1106.170654 1020.468872 930.071472 811.067749 877.565735 944.356750 1029.161865 1125.421753 1204.365112 1226.765015 1226.898804 1223.356689 1236.464478 1263.719238 1230.378296 1348.648560 1405.139282 1423.022705 1423.782227 1333.817017 1351.944092 1534.284424 1647.226685 1737.133545 1756.570312 1668.299194 1588.960449 1745.925659 1840.015015 1821.219849 1793.254761 1675.186890 1566.978149 1449.164062 1359.000732 1347.390625 1338.416992 1262.531860 1203.758423 1157.950806 1082.896606 1065.032104 1039.582153 971.761719 933.394043 918.912903 865.474731 831.109741 838.117126 865.397461 943.276184 1102.128784 1260.745239 1429.409180 1605.831787 1823.751221 2010.993408 2154.842285 2227.025635 2294.352783 2387.357178 2496.677490 2652.855225 2756.332764 2792.325439 2586.684082 2422.401367 2327.488281 2281.459717 2282.305420 2389.342529 2438.197266 2232.856445 2104.410645 2112.853027 2243.318848 2367.885010 2539.810791 2699.498535 2848.905273 2862.060547 2643.439209 2486.353271 2373.707520 2317.122070 2317.120361 2330.812500 2460.052734 2563.443359 2622.778809 2460.059082 2389.840576 2322.819824 2248.691650 2158.518066 2044.670410 2141.604736 2308.656006 2512.184326 2617.445312 2457.791504 2273.469971 2131.892578 1992.014526 1828.153198 1714.591064 1672.540405 1731.784424 1851.883179 1957.775513 2095.230713 2257.007324 2431.273926 2468.378418 2412.570312 2290.079346 2124.702881 2015.855835 1908.202637 1723.142090 1525.616699 1348.561401 1244.523315 1294.479126 1427.739746 1558.814575 1741.502808 1809.012573 1907.364380 2041.941284 2059.836182 2072.170898 2206.649170 2220.337402 2152.882568 2053.712158 1947.327026 1895.858276 1845.068237 1833.491455 1820.130249 1681.939453 1523.957275 1374.211914 1317.869385 1412.044922 1530.048706 1667.649902 1772.366455 1899.378662 2054.828857 2050.237793 1917.097168 1796.223755 1670.841187 1567.579346 1550.774780 1650.810791 1809.841553 1969.134155 2077.492432 2215.577148 2223.817871 2192.020020 2085.283936 1930.985840 1872.277466 1815.258667 1823.090454 1907.336426 2102.763428 2066.285156 2021.068848 1958.124146 1945.746582 1962.928833 1969.256714 1988.278809 2077.322021 2080.770264 1998.024536 2008.029785 1977.961548 1896.370850 1776.467896 1673.415039 1539.207886 1404.406128 1277.535034 1172.535034 1101.053833 1056.242798 1001.956238 940.722595 863.518555 857.385010 960.270691 1005.827454 1032.549805 1059.857300 1052.505981 984.068604 891.277527 824.109436 914.116150 973.425049 977.635864 993.805664 1066.521484 1110.786865 1179.112671 1268.964478 1365.018555 1442.436401 1512.635498 1602.867676 1693.040405 1776.395020 1859.010132 1938.457275 2023.132568 2068.119141 2044.222290 2017.836060 1975.798706 1999.169678 2068.261719 2111.309082 2123.520752 2162.327148 2189.363525 2197.154785 2192.802490 2240.010742
1791.507080 1673.773193 1607.338501 1519.758301 1470.365723 1514.641846 1590.479004 1698.736450 1740.392578 1919.739624 2093.210449 2088.741211 1993.200195 1876.585205 1733.897949 1657.970581 1785.136719 1929.778198 2082.369385 2191.053467 2287.616211 2409.927002 2543.409180 2438.802490 2340.122070 2355.279053 2388.509521 2411.293457 2508.947021 2685.538818 2749.158691 2717.491943 2672.344238 2611.837402 2547.851318 2575.355225 2490.543457 2386.828369 2344.749023 2167.497559 2063.920898 1892.550049 1836.513062 1953.101685 2142.671143 2301.379883 2454.393555 2604.812988 2554.968018 2366.166992 2251.601074 2190.583252 2155.250244 2118.580566 2115.606689 2040.431396 1888.726807 1668.877808 1694.123657 1960.966919 2080.192383 2242.872070 2349.290771 2289.370361 2247.468750 2276.405762 2379.947266 2454.258301 2608.400879 2500.395996 2342.187500 2247.294434 2242.612061 2208.602295 2178.297607 2257.160156 2258.081787 2275.454346 2332.289795 2299.955811 2093.691406 1908.470581 1751.313232 1761.390259 1917.841919 2047.292847 2140.424072 2211.655273 2276.847900 2391.468262 2375.662842 2227.477783 2141.944092 2039.107178 1919.993286 1747.953735 1586.812500 1462.875122 1371.115601 1307.357422 1240.202515 1233.098755 1245.539429 1274.796753 1255.318604 1190.234619 1140.705933 1096.069336 1048.596436 1018.426392 952.659729 897.307861 794.402222 766.614380 745.332214 741.174011 767.328186 820.263367 863.706482 921.429199 960.711304 985.274109 984.357849 1014.011597 1011.223938 1099.976318 1143.159912 1212.324463 1304.206909 1403.041626 1501.570557 1567.567627 1628.501465 1656.445312 1653.329590 1694.499023 1749.816895 1777.485107 1741.141724 1639.764038 1552.938232 1476.469604 1384.917847 1274.968750 1166.572632 1069.392090 971.806763 868.522949 804.608337 893.092957 978.230347 1125.288574 1223.452271 1256.073730 1285.846313 1293.267456 1306.873657 1333.560303 1370.673340 1302.018066 1367.295288 1459.533691 1493.433594 1491.484253 1412.459717 1389.666626 1595.902466 1751.968506 1872.209351 1890.878540 1740.809082 1648.216309 1766.847290 1908.834961 1967.813843 1835.315308 1800.601196 1689.658447 1576.392944 1528.276489 1517.900513 1473.552612 1461.979736 1411.793335 1398.295776 1272.116821 1205.565796 1135.752808 1015.483154 953.788147 903.278198 870.671387 841.300842 839.303467 860.670288 913.572632 1086.013184 1342.243042 1541.108765 1745.606934 1977.140381 2181.512695 2345.810791 2424.599609 2485.872314 2587.751953 2658.203369 2808.036865 2924.880859 2710.090332 2567.793945 2511.971924 2439.563232 2379.398926 2434.439941 2555.529297 2412.070068 2212.906494 2107.278320 2181.285156 2323.503662 2409.756836 2480.805176 2596.543945 2776.076660 2847.342041 2696.665283 2560.863037 2409.330322 2318.689209 2317.104736 2325.392090 2466.737793 2573.074219 2680.385010 2596.629395 2520.035889 2444.959961 2296.536621 2167.185303 2063.575684 2140.403320 2334.613281 2575.302979 2701.673584 2593.980225 2441.717041 2312.792236 2125.629883 1862.100464 1699.397095 1686.082642 1741.432983 1897.483765 2033.040405 2169.685303 2320.916748 2461.209473 2553.320068 2414.698730 2245.927979 2078.210205 1913.810913 1806.248291 1675.401123 1484.128052 1317.784912 1258.316528 1339.001953 1495.609375 1638.022461 1805.218140 1967.252197 2027.687012 2162.051270 2194.643799 2203.469238 2300.819336 2247.542236 2157.331787 2060.463379 1981.956543 1928.613770 1884.498291 1830.896851 1755.052124 1641.105835 1499.092773 1373.442749 1367.114014 1481.076782 1590.403931 1712.076416 1827.221069 1922.207153 2043.620361 2062.623047 1924.218750 1808.811768 1707.151855 1613.398193 1581.648438 1669.519409 1840.008057 2008.802612 2152.532959 2268.855957 2289.507568 2161.315918 2035.455811 1979.412720 2105.123047 2057.894043 1978.595093 1953.983154 2027.616455 2151.842773 2118.330078 1932.420410 1818.810791 1799.225830 1810.635742 1920.135742 2033.881836 2016.472290 1919.203003 1897.827026 1851.888672 1799.667114 1675.230469 1549.929199 1421.440552 1305.376587 1193.486328 1108.852173 1050.642700 1000.851440 946.869812 865.735840 827.809509 917.274902 994.838135 1045.391479 1097.837280 1124.628418 1121.669189 1060.129028 992.392517 900.463989 846.005859 927.834595 944.425171 1011.440674 1042.473999 1085.358032 1155.875366 1249.694458 1344.574097 1436.243530 1513.949097 1603.070435 1690.542236 1772.578491 1843.264282 1902.445068 1937.042603 1892.628784 1834.688965 1837.229858 1847.686768 1880.640625 1914.232056 1969.834839 1994.033447 2013.291138 2021.904785 2046.523926 2066.202393 2115.327393
1690.156738 1588.518799 1511.390747 1506.740479 1567.627563 1617.111084 1628.783325 1732.721558 1847.172852 1946.682739 2092.809814 2245.954590 2168.375732 2021.084961 1831.022461 1671.518799 1699.281738 1852.735596 1996.727661 2114.176514 2240.955811 2365.275146 2533.702393 2463.671631 2304.464355 2265.438721 2296.208008 2376.922852 2481.720703 2660.379395 2679.191650 2617.985352 2595.619629 2517.468750 2523.832275 2554.984375 2489.831299 2370.685059 2226.568848 2095.473633 1975.422607 1869.272217 1928.768188 2124.573486 2166.819336 2335.358887 2618.619141 2755.057617 2614.938477 2400.848877 2233.176025 2126.341553 2086.060791 2013.137207 1929.000732 1882.654541 1831.930786 1665.764038 1770.725708 1931.529297 2084.734375 2300.659180 2501.813477 2477.756104 2355.149658 2415.049561 2473.266113 2465.770508 2594.565186 2491.383057 2348.287354 2200.427979 2121.447266 2133.022217 2092.581787 2112.414551 2085.457520 2083.538086 2149.781982 2225.697510 2194.076172 2036.662598 1816.726196 1689.986694 1727.623657 1845.530518 1921.661743 2026.140503 2181.283936 2295.139648 2369.203125 2285.443848 2134.056885 1971.547363 1792.640869 1636.540161 1543.016724 1507.536865 1495.173828 1422.794067 1343.521362 1282.693604 1209.364136 1155.676025 1118.821899 1089.097900 1036.518311 986.604858 938.320190 888.365479 847.846497 819.121704 798.254761 765.046631 745.835754 809.809814 904.461060 972.016418 1009.252075 1028.158081 1053.377319 1075.923462 1093.362549 1120.547607 1100.324585 1127.990479 1207.222900 1285.639160 1380.815063 1485.307861 1567.318604 1639.504028 1699.382446 1731.334717 1740.923340 1790.023926 1819.533936 1813.749756 1699.203369 1577.639648 1509.711792 1438.884155 1364.147217 1239.763428 1128.570068 1037.497192 950.411743 832.188354 823.333191 921.861511 1026.349609 1174.923096 1245.215210 1319.436157 1370.468872 1402.204102 1433.259521 1443.842163 1469.667236 1403.085205 1354.041138 1489.931030 1601.342407 1596.054810 1511.778076 1426.929810 1581.466309 1762.602539 1925.551636 1968.066895 1816.319946 1709.851196 1801.606934 1945.693481 2038.600586 2010.387817 1980.931030 1846.774536 1756.302612 1716.825073 1717.044189 1672.876953 1601.945190 1629.940918 1613.735229 1521.625000 1483.279907 1307.570557 1100.004761 999.384460 946.544128 949.226501 855.141846 842.589966 846.603638 936.603271 1234.072388 1512.536499 1803.166992 2055.337158 2181.629150 2315.472656 2361.302490 2294.915527 2367.118408 2418.815674 2496.871582 2650.087158 2791.680664 2757.686035 2600.609619 2591.764648 2649.843506 2622.406738 2672.365967 2539.207764 2374.214600 2225.494385 2139.905518 2221.993408 2368.576660 2469.872314 2524.114746 2623.374512 2744.853271 2857.753906 2742.434814 2699.466309 2506.289062 2425.875732 2354.126709 2443.700684 2555.220703 2638.152588 2759.307129 2789.178223 2687.135254 2527.265869 2338.471191 2206.354492 2120.093262 2180.593506 2356.718994 2573.045898 2730.024414 2725.500732 2612.869385 2416.827393 2186.714355 1918.980835 1720.651001 1707.246582 1762.205322 1897.460938 2056.961426 2213.166748 2376.402832 2547.161621 2583.548828 2460.980713 2266.428955 2079.918213 1883.958618 1700.804443 1573.749146 1434.199341 1299.675537 1283.350464 1388.948242 1578.557861 1752.601929 1921.266357 2071.693604 2144.402100 2262.752930 2361.323975 2377.801270 2335.066162 2221.562012 2125.176025 2059.929688 2013.971069 1973.088623 1877.572876 1778.485474 1706.365479 1605.598755 1502.787354 1392.500610 1429.265991 1530.371582 1621.297485 1719.750000 1832.404297 1922.759766 2041.677856 2092.672363 1951.663696 1864.907715 1764.994751 1660.774170 1615.791260 1672.888672 1797.981689 1943.786377 2101.227539 2239.153809 2228.869385 2130.719482 2083.075928 2097.788330 2201.463867 2244.502441 2157.063232 2059.204102 2044.724976 2266.207520 2192.540039 1994.130493 1791.379395 1699.182251 1705.333740 1817.776978 1886.243530 1848.833496 1765.079712 1722.107178 1672.737061 1655.693115 1544.390869 1425.220703 1307.064087 1203.576172 1117.345703 1059.315430 998.960327 917.134644 845.364075 852.381897 908.510498 967.424622 1020.540894 1144.739502 1213.167603 1217.492065 1194.096069 1144.971680 1061.010742 969.364502 849.257385 850.418762 911.614990 934.927795 976.167114 1038.297241 1114.966553 1204.456543 1300.399048 1382.306519 1459.256714 1546.261719 1639.265015 1709.890137 1756.988525 1775.111816 1781.360229 1719.993530 1658.901001 1672.475098 1711.227051 1751.983765 1775.947632 1829.358154 1859.575562 1895.940796 1949.283813 1975.308594 2017.043579 2104.080322
1622.635376 1510.260498 1521.050049 1594.919800 1686.785767 1725.886475 1760.258911 1779.316040 1904.609741 2060.057373 2123.388916 2276.978760 2330.872314 2185.294434 1945.806152 1756.110474 1668.993896 1782.127930 1935.228516 2067.489990 2190.313232 2320.220947 2431.051025 2364.909180 2246.735107 2223.096191 2257.815430 2383.486816 2460.828369 2537.963135 2566.555176 2476.183838 2394.861816 2358.411621 2369.138184 2393.808838 2374.754150 2303.591064 2185.805176 2049.521240 1914.434937 1887.755005 2002.671143 2259.296875 2358.736328 2428.912842 2665.949951 2720.947510 2519.393066 2351.985596 2252.635742 2190.420410 2144.906250 2042.286865 1914.952881 1840.785767 1759.652710 1669.041870 1781.251099 1930.037231 2079.296387 2263.787354 2495.387451 2617.582764 2540.536133 2488.114014 2486.149170 2528.121582 2551.354004 2456.772217 2366.475586 2218.876465 2061.351074 1957.917725 1934.336060 1939.520508 1954.382202 1945.063721 1992.684937 2052.801758 2069.079590 2039.984741 1887.235596 1691.364502 1669.018188 1760.366455 1940.353516 2086.756592 2149.922607 2112.932373 2177.959473 2241.248291 2096.614990 1927.946045 1811.041748 1728.055420 1706.598389 1689.053833 1663.377441 1579.513672 1483.951904 1396.828979 1298.177856 1222.414551 1179.193970 1179.474609 1170.833862 1136.271973 1077.835815 1013.640564 896.844055 802.544922 777.236450 754.454285 781.527832 924.037109 1071.332397 1147.047607 1163.004883 1181.468750 1190.543091 1214.820923 1234.857788 1221.633911 1193.742676 1162.534180 1268.058472 1354.600586 1438.892944 1535.010742 1629.853271 1714.456543 1798.278442 1822.064331 1838.978882 1841.008545 1800.730347 1712.745728 1599.705933 1492.412598 1442.564087 1385.598877 1321.151367 1190.457642 1081.612183 984.683899 893.578857 813.033020 882.841736 970.510986 1062.981812 1196.057861 1291.235352 1386.581543 1456.565918 1530.288818 1576.136841 1578.989990 1551.825317 1470.465942 1387.903320 1481.603271 1645.564087 1726.665283 1654.086182 1510.860107 1572.642700 1757.337402 1911.654663 2036.192505 1904.264893 1782.335205 1859.144897 2027.593140 2164.360840 2213.610596 2154.081787 2039.011353 1930.925537 1889.092285 1933.551270 1813.044434 1746.280273 1830.144531 1830.963745 1752.437256 1691.736816 1502.850708 1289.040161 1157.883789 1114.781860 1059.873657 895.470764 860.242188 884.981018 1112.938354 1313.016846 1571.700195 1883.467773 2089.391113 2008.707642 2056.560303 2186.475830 2125.031006 2171.143066 2243.806885 2391.633789 2486.989014 2631.843262 2818.896484 2762.826416 2722.162109 2742.034180 2687.414307 2696.622559 2539.354004 2380.349609 2264.205078 2191.936523 2252.139648 2358.018799 2446.281006 2547.445801 2628.705566 2740.541992 2864.308838 2781.035156 2706.665283 2555.089111 2443.349365 2451.799316 2503.356689 2550.346191 2596.333496 2768.634277 2790.547607 2639.257080 2516.977051 2398.160889 2232.370117 2205.589844 2263.792969 2334.174072 2462.263916 2635.071289 2674.823486 2640.592773 2417.307861 2212.063721 1994.894287 1758.560791 1721.294189 1775.421387 1881.208496 2040.684570 2227.490967 2372.440186 2548.484375 2519.101807 2416.046875 2265.394531 2095.381348 1902.360352 1711.619995 1538.034180 1384.557861 1313.036133 1329.424561 1456.739624 1666.856201 1833.563354 1956.067871 2068.961426 2201.854980 2305.618652 2424.181885 2420.824463 2327.982666 2226.004395 2140.331299 2094.366943 2040.582520 1943.229980 1848.775391 1757.645874 1690.244751 1592.492065 1521.335693 1428.249756 1471.151367 1570.212036 1657.887695 1732.777710 1834.258301 1949.741699 2067.973389 2130.376953 2014.941406 1926.936523 1820.608276 1706.123047 1634.221558 1668.082275 1787.221313 1915.132080 2024.742188 2164.787354 2234.802979 2187.120361 2142.673584 2128.894531 2207.830322 2244.022461 2150.774902 2097.049561 2131.493896 2338.962646 2237.411377 2032.208008 1824.540039 1683.110840 1627.870361 1681.325195 1769.959229 1718.233276 1626.087524 1564.094604 1520.872559 1497.952759 1431.773682 1312.078857 1217.110840 1130.189087 1070.871460 1014.714172 927.725281 833.840942 847.410645 934.350281 965.710083 979.447632 1040.222534 1189.553589 1308.744751 1310.769531 1273.511719 1217.483521 1136.437622 1030.913818 962.905823 917.853210 865.435181 844.450867 911.859741 990.603210 1082.621582 1158.644653 1239.731567 1319.379028 1408.867188 1492.697266 1572.425415 1630.606445 1649.100220 1632.756714 1623.043457 1560.815918 1519.481323 1547.572021 1600.757690 1658.914795 1722.308594 1806.151001 1854.143677 1900.520386 1978.357300 2040.276123 2073.333496 2163.696533
1539.743164 1512.093750 1626.947388 1721.089966 1775.553223 1836.333496 1921.436523 1925.954468 2010.898438 2126.200195 2209.184814 2264.098633 2373.088379 2242.221680 2022.414429 1812.507690 1678.010498 1741.742432 1860.366333 1997.916382 2126.465820 2232.801270 2313.662354 2278.682861 2176.632324 2159.370850 2236.458252 2337.824219 2391.981934 2449.905518 2530.892822 2480.525635 2349.964111 2256.791992 2247.658203 2227.510254 2214.734619 2133.819580 2041.088501 1959.121826 1907.670532 1957.726562 2123.535156 2295.144531 2496.659668 2620.681152 2705.994629 2656.597412 2457.808105 2366.688721 2326.902344 2245.888916 2159.866699 2041.082520 2020.697388 1995.233154 1885.249634 1731.183228 1802.307983 1998.762451 2164.829102 2297.852051 2452.726318 2613.545410 2617.255127 2542.673584 2520.964600 2453.652588 2381.411865 2323.636963 2257.968994 2139.797363 2005.985596 1865.038574 1823.071655 1834.696289 1844.574219 1844.872437 1819.261963 1810.738892 1807.651978 1799.877075 1766.758301 1652.521851 1619.513062 1681.282104 1823.620117 1899.207031 1944.566772 1953.852661 2042.281128 2125.121826 2064.644287 1987.432983 1965.120728 1926.841309 1904.172974 1880.215942 1845.794312 1792.079102 1698.971069 1526.544922 1349.575684 1201.531738 1181.420776 1258.736572 1221.394653 1196.191162 1144.740356 1058.459351 938.654541 858.291321 763.852356 756.909302 864.647705 1035.089111 1204.786133 1264.166626 1302.411499 1324.897949 1337.252319 1364.406616 1336.614502 1290.338745 1257.272827 1226.360229 1271.350342 1368.992554 1472.599365 1584.294189 1696.038696 1805.872192 1874.312744 1896.743530 1873.581787 1789.842163 1701.939209 1615.627441 1481.355225 1407.656372 1342.170410 1283.512817 1209.846313 1119.704712 1045.866577 924.537659 852.953430 835.332520 933.907410 1051.093506 1128.244385 1233.095093 1321.913452 1439.612305 1545.413940 1642.484009 1721.144409 1728.715820 1647.916138 1535.867920 1437.356445 1493.591064 1644.698486 1814.661743 1757.451782 1600.160889 1632.459961 1822.937500 1992.123169 2107.624268 1976.492432 1857.065430 1934.072632 2112.117920 2289.666260 2385.155273 2335.736572 2194.833496 2058.858398 2072.768066 2055.574463 1932.722290 2016.967651 2020.719116 2016.913940 1944.147461 1849.031372 1723.297852 1621.831299 1470.546875 1318.110962 1114.517578 928.402466 921.113403 900.066895 1000.817810 1159.568726 1368.664917 1536.941284 1681.424072 1794.992310 1763.930664 1869.883911 1964.853516 1958.459595 2094.019043 2223.061035 2356.955811 2482.938965 2643.230469 2779.276611 2674.547119 2584.013916 2551.212646 2496.735352 2513.616699 2394.559082 2331.447998 2248.961426 2259.489746 2364.032715 2527.231934 2629.139160 2691.589355 2832.533447 2917.384766 2768.215332 2683.192871 2573.273193 2530.846924 2635.000000 2686.637695 2647.805420 2674.854004 2842.496826 2810.196045 2699.376221 2659.369629 2543.069336 2390.587646 2432.536377 2383.489014 2383.261719 2460.074463 2617.550781 2539.803711 2565.732178 2475.481445 2274.921387 2059.824707 1831.345947 1733.562500 1798.910889 1956.044556 2154.732422 2344.160645 2498.150391 2482.619873 2363.597168 2270.671875 2182.860352 2027.231812 1903.162476 1722.455933 1511.362549 1357.616455 1335.887451 1375.176270 1484.159546 1657.111084 1800.354858 1905.431274 2017.546997 2146.335449 2277.951172 2428.206787 2482.099854 2388.440918 2271.730713 2189.351074 2117.852539 2042.076782 1946.935303 1859.769409 1782.870605 1691.728394 1599.081665 1515.400757 1445.427124 1520.824341 1613.541870 1691.875854 1774.696899 1860.886475 1991.517578 2156.983643 2193.129883 2053.196289 1934.167969 1817.427734 1708.504761 1651.380249 1676.229370 1736.662964 1823.028442 1927.875854 2046.329590 2200.415527 2331.898193 2278.317871 2187.169434 2222.600098 2207.843506 2152.718994 2164.593994 2245.479004 2427.823975 2344.404297 2120.197510 1866.347412 1709.504883 1600.442749 1566.419312 1642.901245 1641.574829 1533.292725 1436.538696 1408.456665 1366.725586 1326.928833 1221.589844 1148.054443 1086.379517 1023.265686 961.512390 859.543884 831.104187 898.731018 958.029480 966.366760 994.250183 1062.547974 1190.604858 1329.530029 1400.332886 1367.536987 1300.125610 1214.208008 1119.720703 1070.687256 1020.688599 954.151733 908.167175 858.043030 964.979187 1054.436035 1123.707886 1200.563110 1282.683716 1363.505127 1433.745972 1498.704834 1540.925903 1543.072510 1516.381836 1471.941895 1420.728394 1441.541138 1506.385254 1588.121948 1704.305420 1802.756348 1891.852783 1961.465942 1991.975464 2042.333252 2096.857910 2137.901123 2182.499512
1510.674072 1604.514893 1784.697632 1908.380249 1945.057983 2002.628296 2072.330322 2093.341309 2134.107910 2201.014404 2296.600830 2316.026611 2303.444580 2213.981445 2091.403320 1855.680664 1701.674927 1714.498901 1835.229858 1944.746094 2042.864136 2123.553223 2163.301514 2129.552002 2072.356201 2047.548218 2160.396973 2305.197266 2385.715576 2451.083252 2534.274170 2512.852295 2406.661133 2257.341309 2190.945068 2114.864746 2068.129639 2026.733643 1998.485352 2000.723389 2014.332642 2067.395996 2175.890381 2289.896729 2412.688477 2571.481934 2702.949707 2615.187012 2601.021240 2566.377930 2493.754639 2350.979248 2278.419678 2132.508057 2156.595459 2136.595459 2017.812622 1823.362305 1767.422119 1910.867310 2101.656982 2307.721924 2474.713623 2572.494385 2504.412354 2427.409668 2359.606201 2310.023926 2251.221191 2194.664551 2094.882568 1991.786865 1910.715698 1842.107788 1842.849854 1834.068115 1824.740112 1807.399658 1779.753906 1728.014526 1681.389771 1641.422729 1604.836426 1582.054565 1568.213135 1585.844360 1653.449219 1728.437378 1802.312622 1916.818604 2045.349243 2185.062988 2223.042725 2193.527344 2159.837646 2130.913818 2101.803467 2072.546875 1995.038696 1956.682495 1847.901978 1620.537964 1399.314941 1202.342529 1147.944580 1125.812622 983.091248 919.537842 870.200500 803.184021 765.935791 753.356262 769.360229 828.551331 948.972961 1123.144531 1279.931763 1352.270874 1399.843018 1415.619751 1451.076416 1475.926514 1431.832764 1371.675293 1329.151978 1301.165283 1356.404663 1412.417114 1494.336060 1625.732544 1772.912476 1867.790283 1918.286011 1914.254395 1824.041016 1710.934937 1605.683350 1504.877686 1401.047729 1331.855347 1277.078857 1203.835083 1117.139160 1044.445190 944.260742 832.556091 804.566833 900.920837 1025.625000 1113.442383 1185.131104 1307.636230 1409.812012 1555.885132 1678.426025 1768.116699 1835.815430 1805.974243 1697.576538 1607.796143 1511.135254 1530.903076 1671.041016 1850.836670 1822.627686 1669.539307 1713.121338 1884.114380 2069.577393 2179.814209 2008.921143 1916.656006 2012.732056 2197.896973 2371.185547 2486.252930 2352.822998 2181.031494 2135.475098 2225.278564 2140.484131 2095.948730 2235.493896 2206.732178 2200.506836 2140.829102 2029.565918 1913.316650 1828.090454 1699.535034 1398.768311 1148.090698 938.543274 949.529602 940.946350 944.942749 1117.518066 1225.916626 1360.512695 1488.295410 1528.710693 1570.560669 1659.620361 1778.573730 1924.410645 2071.109863 2193.195068 2354.289062 2433.728760 2585.050293 2740.399658 2629.551025 2515.935791 2457.456787 2440.915283 2418.736572 2383.855713 2336.236816 2285.868896 2328.197754 2464.351318 2530.499023 2565.905518 2659.248535 2798.213623 2873.480225 2794.399658 2738.571045 2652.855957 2680.879395 2768.845459 2761.409668 2728.536133 2785.756104 2812.648193 2868.061768 2770.114502 2648.675293 2540.642334 2494.979248 2523.010742 2516.168213 2490.104736 2562.780029 2619.713623 2473.599854 2436.142578 2429.867676 2371.926758 2154.500244 1917.406372 1780.059692 1905.444824 2070.457275 2268.839111 2450.041016 2475.478027 2370.843750 2250.864990 2130.499023 2024.236938 1938.521729 1788.299438 1689.964355 1489.777100 1361.728027 1375.137207 1421.568604 1546.623413 1679.515381 1776.474121 1861.686035 1994.593994 2149.733887 2310.059326 2442.897949 2534.634766 2495.080566 2365.490967 2248.238525 2150.281494 2054.822021 1970.831909 1888.550537 1813.436890 1704.229248 1573.759766 1470.183594 1457.761230 1542.841187 1656.538330 1753.374023 1847.929688 1954.075562 2065.960693 2203.043701 2163.681885 2028.482056 1929.162720 1814.670898 1696.239990 1699.097168 1750.443970 1756.992188 1785.707275 1882.666748 2013.656372 2176.453369 2324.370361 2316.314209 2254.512451 2367.574219 2315.244385 2260.272461 2347.719727 2474.894287 2474.089355 2396.459717 2158.220947 1923.332764 1802.879517 1669.245361 1498.271362 1476.706055 1560.890869 1542.217773 1401.779907 1317.623169 1273.894287 1224.342651 1139.852173 1094.214966 1040.069702 980.770935 889.960510 840.226624 892.808838 935.222778 960.035950 980.755432 1012.509216 1097.870850 1219.830078 1344.498901 1433.578857 1456.050659 1393.277466 1300.659424 1206.402710 1166.576782 1108.485718 1034.312134 950.096802 874.369385 920.815796 1005.549255 1087.353882 1170.094727 1237.012085 1301.676270 1357.594604 1400.889160 1424.337646 1432.646362 1408.436401 1354.998779 1369.526611 1471.351807 1579.451538 1678.565552 1833.141357 1906.891113 1995.040161 2051.590576 2064.298584 2108.563721 2142.252441 2181.868896 2217.085938
1553.170044 1718.694946 1873.718262 2004.975464 2085.710205 2173.330566 2251.314941 2217.557861 2234.409668 2280.022705 2377.986572 2380.731445 2257.708008 2220.083252 2077.223389 1941.312866 1771.709595 1713.457886 1785.256226 1879.541870 1954.874023 1988.493774 1999.165405 1975.909790 1972.178223 2038.185791 2170.999756 2315.320801 2482.996582 2598.390869 2679.535645 2623.735840 2456.368896 2320.715576 2232.514160 2160.436768 2111.796875 2122.995850 2108.629639 2118.524902 2133.369141 2177.252686 2242.419678 2329.522461 2409.093750 2506.087158 2576.334229 2535.707031 2589.226318 2689.705322 2655.181396 2454.956299 2362.170410 2262.375000 2216.529785 2149.505615 2030.967773 1837.923950 1781.990112 1902.948242 2077.944336 2235.173584 2394.240234 2530.646729 2410.781982 2317.143066 2275.095215 2232.179932 2138.867432 2073.449219 1986.148926 1923.839722 1888.037964 1922.014893 1982.799561 2011.357544 1969.136230 1942.157715 1903.165771 1865.027588 1810.882446 1754.000244 1714.928955 1676.218994 1628.624878 1559.215820 1585.475708 1680.763306 1839.738281 1986.341553 2152.275391 2262.393066 2334.234863 2219.365967 2128.976562 2104.364502 2069.167480 2000.990234 1858.494629 1805.279419 1716.201660 1524.083740 1325.953857 1093.885742 1019.937988 912.004211 796.162231 763.704224 755.617737 758.416260 773.624817 801.493591 875.735046 955.466919 1077.318604 1222.598267 1325.642578 1402.083252 1447.634399 1493.477661 1536.240967 1579.964966 1540.691528 1468.694092 1416.548218 1371.172363 1436.786499 1508.859497 1561.822632 1679.135498 1823.602295 1924.483643 1943.240967 1877.054443 1746.713989 1621.966064 1522.661133 1397.363403 1307.804810 1232.679443 1175.842407 1122.760132 1059.006714 974.115234 887.199097 819.241943 871.024048 1001.882996 1077.596680 1133.416260 1261.309814 1401.334229 1496.026855 1649.569824 1780.150513 1866.516724 1929.404419 1886.354980 1791.449463 1657.467163 1552.250732 1580.965454 1734.791382 1916.558228 1881.713867 1752.136719 1748.199585 1905.615112 2108.764648 2237.726318 2068.676514 1979.364624 2099.971436 2325.208740 2452.461426 2407.302734 2308.390137 2233.533447 2217.595215 2312.263428 2173.521240 2194.749023 2377.517822 2381.254639 2270.706055 2202.192627 2099.365479 1942.172607 1785.140503 1684.612427 1388.557007 1173.870239 931.059143 924.931396 963.403870 928.331787 991.594177 1134.935913 1279.174561 1426.903564 1528.721436 1665.418945 1804.417480 1946.115479 2092.400635 2187.996338 2347.469727 2508.691406 2506.465820 2619.434326 2791.141357 2635.920166 2584.372803 2503.560303 2433.294189 2378.510742 2335.916748 2328.008057 2403.053223 2455.287354 2500.548096 2544.712891 2627.241455 2711.828613 2786.564209 2866.000244 2864.899170 2783.910889 2749.607178 2781.528564 2710.470459 2678.524170 2689.678223 2729.923828 2736.326172 2847.480225 2810.382324 2709.379395 2624.236816 2582.055664 2569.616943 2568.377441 2623.044189 2751.915771 2656.074463 2525.302734 2410.087646 2338.942139 2269.276367 2137.048340 1961.548950 1825.312134 1910.051025 2096.373779 2288.334473 2466.271240 2432.881348 2327.455811 2227.357422 2143.308105 2007.294434 1898.092285 1770.696899 1605.428711 1470.036987 1384.657959 1417.084229 1477.971802 1621.114258 1743.935791 1902.134521 1982.217529 2034.018433 2164.243896 2308.220459 2423.183594 2514.389160 2433.570801 2335.575439 2221.138672 2132.039062 2045.395142 1947.820923 1854.031006 1775.752930 1680.477661 1550.405640 1471.745850 1507.648926 1591.487183 1707.852661 1817.547119 1918.851318 2011.820679 2104.583984 2210.056152 2146.291260 2030.001831 1909.090820 1795.461182 1716.738647 1807.310913 1918.651367 1874.610596 1810.762329 1901.347168 2048.647217 2167.990479 2305.099121 2444.628418 2411.386230 2468.075195 2423.523438 2373.239746 2447.956055 2456.412109 2346.304688 2353.401367 2170.875977 2035.432129 1883.006226 1715.630005 1536.288696 1397.143311 1453.138062 1525.562378 1397.718994 1269.705322 1200.829102 1142.953491 1083.741089 1045.885376 982.295227 915.875244 854.780518 880.619141 946.827393 957.465210 975.508667 1015.530396 1055.582275 1133.409668 1234.704712 1346.078247 1421.404297 1488.171631 1492.140747 1402.107544 1359.430542 1286.788330 1197.239868 1113.944214 1012.076721 933.721741 874.366699 951.220032 1033.222534 1119.932495 1190.187500 1239.968384 1269.959595 1290.812866 1300.821533 1321.668091 1290.301270 1291.584473 1380.066528 1492.418091 1593.614258 1713.239014 1838.761597 1996.748779 2089.521729 2139.351807 2139.363770 2193.450195 2236.221680 2277.616943 2305.487061
1596.319946 1697.139404 1798.927490 1932.206421 2101.106934 2206.300537 2315.361084 2391.925537 2368.958984 2394.420166 2439.733154 2364.499268 2297.948730 2237.067383 2123.537598 2087.770264 1916.220093 1778.652344 1755.481079 1812.886108 1855.846069 1874.071777 1888.463013 1927.320312 2027.778442 2135.425781 2274.850342 2394.814453 2558.141357 2748.827881 2781.762939 2713.079834 2615.730957 2460.378418 2345.600098 2246.073486 2222.218994 2218.901123 2214.480225 2201.742432 2190.093262 2234.514404 2285.857178 2370.071045 2445.553955 2502.703369 2439.769531 2419.598877 2521.011963 2563.312744 2727.609375 2605.441650 2479.420898 2362.444824 2266.835938 2189.536377 2070.989258 1865.067627 1812.123169 1932.183105 2132.574951 2250.219727 2373.018555 2501.009521 2456.339600 2381.399658 2353.482666 2222.258789 2092.409668 2037.266235 1966.721191 1928.439087 1961.430298 2028.407593 2111.863770 2176.397705 2151.064209 2112.975586 2069.289795 2045.841797 1954.336670 2013.177979 1943.542603 1858.790771 1780.498657 1647.928711 1529.063599 1530.677979 1583.275757 1692.501221 1790.050049 1932.516357 2034.101807 2066.160889 1908.262695 1891.703125 1857.984253 1808.277832 1717.795044 1575.287964 1551.507690 1305.257690 1094.812012 951.057556 848.283997 768.601746 754.078552 823.452576 853.800964 816.711609 835.260193 894.832520 969.839417 1063.706055 1198.169067 1279.869873 1338.249756 1449.586548 1523.904541 1575.183838 1641.832764 1677.400269 1644.180176 1570.765259 1515.510986 1468.724487 1521.628296 1589.793335 1672.256714 1774.100830 1894.107422 1964.056152 1924.387573 1814.034424 1672.835571 1543.338013 1435.593994 1320.736084 1253.086914 1167.636108 1094.750122 1049.057495 986.114441 902.964355 836.521118 845.215515 959.836792 1047.419800 1097.235474 1176.159058 1337.798828 1471.352905 1596.327881 1733.285034 1848.363281 1950.254517 2026.486572 1971.432007 1822.589966 1687.308594 1587.429688 1629.486816 1806.162720 2001.286255 1990.929565 1837.513550 1788.946167 1892.403442 2074.101074 2246.297607 2140.543945 2072.065674 2195.526855 2387.168457 2419.735840 2347.626709 2303.815186 2297.517578 2346.122070 2428.221924 2325.517090 2360.301514 2449.957031 2372.048828 2220.497070 2069.459717 1978.957031 1777.033081 1658.017700 1547.671021 1421.195312 1237.123779 979.222107 923.160400 927.784546 926.949524 959.455200 1150.713379 1333.487305 1492.196899 1651.845459 1829.610474 2009.473145 2138.157471 2305.201416 2368.018799 2449.226562 2517.328369 2567.761475 2717.511230 2786.331543 2652.908203 2627.370361 2637.660889 2559.465576 2550.092041 2482.506592 2465.704346 2586.286865 2570.865967 2610.532227 2657.769287 2606.462646 2614.421875 2648.783203 2672.370361 2760.024902 2721.548096 2797.598389 2733.726074 2614.648193 2629.859375 2647.959717 2655.001953 2697.757812 2837.483154 2821.248779 2748.072266 2701.143311 2665.757568 2639.324951 2693.469727 2815.996094 2827.373535 2595.509033 2449.432373 2421.046631 2297.620117 2162.718506 2037.179199 1907.069214 1879.177002 1949.322021 2128.940186 2312.084473 2513.082764 2581.850586 2462.634766 2368.012451 2260.375732 2121.059326 2007.274292 1809.810059 1596.841675 1465.316162 1417.995117 1475.657104 1569.964722 1729.643433 1835.622070 1917.316406 2027.560913 2130.497314 2193.710449 2316.490479 2449.204346 2479.214844 2369.294189 2281.956543 2206.956787 2115.649658 2004.884033 1883.910522 1789.802246 1720.799072 1641.106445 1537.571411 1499.594727 1583.052124 1688.500122 1813.225342 1886.394653 1965.208496 2065.272461 2170.518555 2254.091797 2155.962158 2033.544189 1884.358276 1760.463623 1774.168823 1917.409912 2008.959473 1900.521973 1861.356079 1947.495239 2077.813721 2250.030273 2415.439941 2431.690918 2360.703857 2335.738037 2288.928467 2229.728760 2283.479248 2276.356689 2191.953125 2201.930664 2159.018311 2060.574707 1900.399414 1745.280640 1557.687866 1367.262817 1341.521484 1396.530273 1332.988281 1217.280640 1150.703125 1103.753174 1057.024780 1017.789551 968.351746 880.305420 872.828003 930.789368 946.986755 962.495544 984.222412 1026.003052 1073.383179 1120.263306 1209.956421 1305.614380 1386.893677 1480.929932 1557.392456 1559.927124 1500.281128 1396.620850 1296.498413 1193.301392 1088.146973 992.787659 928.003113 894.166199 981.813049 1055.724609 1116.915894 1156.234985 1172.676636 1180.846802 1171.914307 1206.503052 1221.707886 1300.436523 1428.405518 1551.152222 1664.881958 1783.066895 1916.776855 2046.841431 2167.935059 2230.706787 2249.253906 2286.168701 2325.833496 2360.709473 2403.865234
1678.249512 1777.848022 1828.347778 1855.774902 1982.216187 2110.390625 2268.598877 2450.677490 2584.938477 2607.325684 2588.647949 2439.394775 2343.272217 2232.256348 2167.873047 2239.086670 2064.364502 1886.103271 1834.774048 1866.127930 1888.888062 1903.044678 1939.992554 2058.231689 2252.407959 2334.714600 2351.847168 2494.124756 2648.337646 2611.073730 2636.079102 2591.593262 2525.645020 2491.514648 2414.271484 2285.991455 2249.170898 2257.120605 2270.323486 2262.765625 2272.466797 2319.149658 2355.797607 2398.881592 2487.706299 2426.364502 2368.693848 2358.881104 2447.587158 2539.114258 2627.876953 2561.437500 2554.357178 2469.478271 2345.685547 2227.292480 2047.613525 1876.490479 1857.135498 1983.685669 2249.043701 2394.151611 2480.126953 2592.369873 2506.153320 2467.300537 2332.086670 2190.223389 2154.504395 2180.270508 2086.590332 2135.777100 2168.256592 2156.904785 2263.267090 2339.046143 2363.323242 2322.083008 2253.346436 2149.030518 2064.316406 2191.710938 2091.127686 1940.392944 1896.775269 1803.318604 1685.408325 1548.066772 1446.253784 1491.865234 1550.198242 1675.684570 1857.642944 1918.236816 1777.205444 1677.555908 1620.077637 1574.283813 1512.902466 1337.823608 1358.713135 1172.043823 994.170471 892.415833 801.717590 752.049316 777.042725 968.385315 971.447205 910.425964 933.411804 998.740723 1091.242920 1136.483765 1202.159546 1249.987427 1362.572510 1493.760620 1604.919678 1678.079956 1733.013672 1750.026855 1731.123779 1675.773560 1620.013306 1592.390259 1630.964966 1700.787720 1777.262451 1887.022827 1976.520020 1948.829102 1868.651001 1750.257690 1601.368896 1470.211792 1371.285156 1286.261841 1223.821289 1141.672852 1067.742676 1015.213379 950.679321 875.237793 834.858521 913.027466 1008.626038 1064.156982 1155.625977 1256.212280 1400.507080 1542.012085 1683.582520 1806.269165 1934.739136 2036.640381 2100.932617 2039.445923 1878.002808 1726.615356 1622.360229 1670.070190 1828.354248 2006.800293 2059.853027 1892.360107 1840.728882 1942.008911 2124.517090 2295.077148 2199.307617 2131.693848 2209.605713 2365.504150 2497.064697 2439.126953 2396.243896 2433.049561 2488.011230 2522.991943 2443.380859 2394.113525 2359.128906 2250.733154 2113.187256 1958.551636 1825.628052 1750.651733 1698.437500 1559.474854 1391.017578 1230.187500 1051.968262 959.801086 925.367371 924.986511 953.888306 1161.850830 1371.313354 1612.222290 1809.964233 1972.555908 2165.934082 2299.060303 2319.675293 2314.731934 2318.700195 2335.944336 2446.052734 2592.539551 2689.824707 2774.578857 2746.841797 2767.531494 2722.513916 2703.919189 2611.361328 2590.540771 2668.317871 2638.852539 2703.945068 2646.363037 2535.355225 2524.784180 2570.481934 2574.163574 2639.258545 2597.260498 2677.861328 2619.898438 2547.193359 2583.227051 2607.617188 2603.265869 2686.197754 2841.327148 2791.614258 2741.252686 2730.222900 2716.991211 2720.630859 2828.554688 2869.464355 2790.564209 2638.132080 2421.106689 2330.685791 2188.279541 2059.816895 1944.832642 1908.374634 1949.981689 2029.925171 2213.429688 2407.640137 2601.409180 2637.022217 2534.967529 2449.866699 2256.909912 2087.293457 1972.349976 1796.856445 1607.644531 1472.463257 1441.182373 1539.921509 1657.814209 1778.818481 1879.958862 1973.484619 2052.084473 2171.797119 2256.441406 2336.002441 2466.514160 2419.256592 2326.136230 2247.477295 2209.413818 2135.023438 1999.301270 1835.949219 1747.503662 1684.790161 1620.235596 1549.490601 1550.413940 1674.311401 1781.600342 1889.948608 1974.627075 2044.628174 2126.726318 2251.352539 2278.052734 2199.336914 2057.044678 1872.153320 1762.970703 1860.964111 2006.383545 1997.780151 1939.376465 1931.163696 2027.599854 2170.977051 2332.834961 2491.636719 2339.970947 2233.849365 2196.779297 2133.675781 2070.864258 2087.377441 2092.376221 2036.676880 2036.293091 2032.704590 1936.774170 1852.676270 1699.303589 1529.967651 1351.132202 1234.280518 1257.676147 1246.638428 1170.872314 1093.853760 1061.645020 1030.182861 995.203979 957.144226 883.610657 887.364929 934.755554 943.505005 955.398865 983.856934 1056.575073 1149.603882 1176.878540 1166.622559 1249.527832 1352.143433 1455.984253 1564.528809 1625.287842 1594.351196 1493.751221 1384.234985 1277.949219 1150.032471 1057.897339 974.997559 887.780396 932.318909 997.602966 1025.707275 1059.582764 1072.020508 1078.796875 1115.478271 1203.983032 1286.413452 1351.285156 1443.400513 1591.374512 1714.846680 1828.651001 1956.560425 2095.003662 2196.827148 2270.247803 2307.234863 2298.331787 2325.010498 2381.266602 2450.855469
1748.754150 1855.468750 1965.538452 1959.697266 1965.634766 2064.838867 2183.398926 2298.025879 2445.285889 2619.048828 2658.171631 2441.347656 2321.010010 2235.489990 2250.083740 2242.203613 2144.313232 2007.606079 2006.682739 2046.046997 2070.913086 2111.141846 2121.176025 2177.194092 2228.625732 2304.378662 2364.394531 2462.853271 2530.302734 2476.672607 2496.838135 2414.689209 2341.482910 2297.210205 2312.120605 2297.266357 2311.311035 2315.798340 2333.213135 2342.678467 2326.364990 2342.446289 2389.185547 2444.486816 2509.311279 2361.502197 2269.541504 2289.350098 2445.985596 2608.756348 2631.732666 2435.193115 2344.827637 2312.836182 2225.545654 2115.670654 1993.016602 1897.736572 1908.917603 2047.312988 2334.148682 2540.692627 2715.452393 2769.344482 2548.874756 2430.739014 2342.668457 2269.743408 2304.676270 2370.160156 2447.516846 2489.477783 2324.380127 2280.996582 2425.352783 2525.222168 2539.760010 2481.687256 2396.041504 2287.208008 2276.482422 2355.451172 2181.222656 2090.633545 2079.475830 1987.110718 1850.852417 1657.187988 1483.728760 1341.693359 1402.573364 1659.017944 1917.970215 1897.093750 1693.625122 1523.984253 1433.412598 1364.254883 1266.767212 1108.904053 1067.578003 976.168274 857.080139 801.580933 763.012207 756.716553 811.107666 905.106140 964.963867 997.851868 1063.151855 1154.180542 1217.795044 1183.318359 1160.837036 1277.627563 1421.232910 1544.079346 1646.717773 1730.473877 1795.004150 1835.848633 1827.518433 1802.488037 1750.924927 1739.857300 1760.485840 1845.335327 1888.255127 1982.025879 1979.983521 1875.832520 1778.481323 1678.556763 1555.804688 1441.519775 1344.519165 1257.623047 1171.324951 1083.204956 1024.291138 968.645264 905.790771 847.025879 888.806030 972.997009 1027.848999 1105.796387 1223.383545 1334.108032 1467.036865 1621.385620 1775.766724 1900.914795 1998.862671 2094.941406 2162.032227 2119.934814 1963.390381 1780.952393 1663.769897 1719.756958 1906.216553 2101.997070 2112.872070 1929.506592 1901.219604 2017.699829 2198.091309 2349.096924 2285.570312 2219.005371 2254.297607 2387.644043 2534.708984 2579.526855 2531.190674 2497.977539 2496.439697 2455.527344 2399.046387 2299.309570 2215.147949 2133.484619 1989.376465 1863.871338 1832.976440 1859.148682 1782.824829 1574.078857 1368.410400 1228.725708 1058.401367 948.032410 932.017761 926.271667 946.181641 1104.098633 1379.932373 1596.452148 1770.785278 1920.307617 2109.321045 2233.491455 2183.511719 2163.575684 2163.719482 2185.446045 2336.290039 2441.402588 2603.893311 2806.626465 2926.513672 2906.730469 2821.474121 2740.660889 2656.135010 2578.541260 2529.684082 2504.140869 2563.127930 2543.654541 2464.724609 2449.866455 2525.683105 2493.046875 2550.718262 2514.682129 2574.379639 2506.714844 2462.904297 2527.770996 2565.909424 2600.109375 2734.580322 2879.008057 2825.547852 2799.843506 2824.811768 2839.154053 2911.931152 2771.865234 2666.771973 2690.716064 2685.869141 2497.468262 2293.799072 2126.566650 1991.545288 1950.520996 1977.088013 2045.746826 2158.267090 2319.037354 2519.713867 2647.104980 2534.903076 2411.461670 2314.166504 2242.440918 2088.465820 1934.551025 1787.765137 1633.234375 1479.646851 1495.651489 1626.633789 1716.742065 1800.328125 1904.280640 2011.310425 2097.867920 2214.221191 2338.405029 2430.124268 2555.790283 2483.246094 2342.545166 2240.902344 2161.984375 2089.044922 1969.301514 1813.270264 1724.671509 1694.549561 1659.844116 1590.159790 1617.731934 1755.747559 1867.369629 1947.526733 2025.742920 2135.718018 2228.253418 2298.245361 2247.432861 2138.791992 2011.021851 1892.811646 1803.604492 1914.318237 2030.037598 2015.088867 1996.415527 2013.785522 2106.135498 2284.349854 2458.187744 2436.629639 2328.593750 2227.847412 2131.139404 2053.457275 1966.508789 1924.006592 1938.673950 1864.861572 1881.412964 1878.740967 1822.409424 1696.223145 1617.929077 1452.108887 1329.095093 1205.569824 1129.983765 1139.676025 1112.747803 1040.249878 1014.609985 994.429138 966.573425 916.587341 883.754272 901.766113 940.539429 958.785889 979.073486 1031.847900 1126.456543 1227.870972 1259.614868 1222.166626 1226.833252 1325.628052 1432.410400 1533.826660 1624.814941 1644.468262 1570.069946 1453.134033 1312.183960 1188.292847 1088.070923 999.890320 957.058167 883.816528 916.666443 946.363831 988.978271 1035.816895 1098.552734 1194.080078 1278.525024 1361.273682 1453.637085 1549.163208 1630.524902 1733.768433 1842.512085 1960.282837 2079.609619 2173.884766 2234.460205 2228.768311 2225.666504 2273.059326 2331.510010 2402.088379
1789.852051 1894.678101 2018.345459 2105.452148 2081.862305 2074.259033 2133.049805 2238.990723 2340.446289 2459.141113 2576.951416 2434.720459 2338.531982 2295.505127 2308.694824 2205.236816 2219.459229 2149.991943 2216.961182 2319.442139 2273.862305 2314.476318 2246.162842 2209.794922 2225.661133 2273.633545 2354.505371 2471.670166 2382.917725 2386.020508 2348.698242 2254.762695 2149.718262 2093.967041 2146.252441 2256.541748 2364.555420 2460.847412 2397.098633 2408.576172 2428.850586 2438.656738 2463.931641 2475.394775 2455.186279 2262.188721 2142.945068 2188.778076 2317.484131 2476.790771 2638.654297 2468.633545 2296.690186 2215.061035 2137.078369 2056.742432 1966.248657 1948.978882 1973.567017 2040.906128 2264.041748 2484.249023 2695.466797 2851.285889 2683.505371 2689.778320 2608.688232 2557.975342 2639.377441 2654.882080 2669.611572 2623.151123 2494.082520 2607.102539 2628.220459 2588.860596 2625.916992 2669.888916 2621.844727 2557.813477 2548.485840 2500.639160 2392.028320 2208.544434 2256.900635 2057.262695 1859.596069 1782.120605 1641.694824 1454.416992 1310.202148 1584.817139 1835.495605 1829.879272 1604.605835 1419.693726 1259.134155 1046.840088 923.382690 827.878540 825.316589 800.633728 763.256714 753.404846 753.468506 761.252136 878.010193 971.139160 1066.028564 1138.897827 1223.835938 1278.168335 1283.279541 1237.030884 1196.196289 1282.687378 1403.082886 1507.020142 1639.391113 1770.488647 1873.012695 1948.913574 1992.654297 1959.811401 1906.669067 1891.634766 1915.909912 1976.223877 2012.629150 1994.775879 1922.468140 1812.759399 1720.652588 1619.780640 1526.147827 1420.350342 1315.951416 1235.653931 1161.896729 1079.955688 993.394043 929.580566 862.993225 843.818970 924.798279 982.700500 1069.660278 1164.975464 1296.388916 1426.110474 1561.818604 1693.922119 1836.280029 1951.532349 2050.753418 2162.608643 2220.290039 2187.244385 2040.844971 1869.626709 1715.056763 1753.853271 1901.482544 2078.556152 2183.148193 2007.787720 1965.696655 2091.060547 2252.293213 2396.774658 2344.095215 2272.148438 2296.988037 2383.332275 2525.878662 2620.781982 2513.791016 2414.240967 2375.025391 2342.809082 2292.411133 2222.918457 2116.171875 2033.757812 1903.819458 1859.047119 1919.475708 1896.940796 1774.147705 1602.624512 1380.933716 1191.164673 1023.307312 960.503052 943.183533 927.566956 942.879395 1158.215454 1408.692871 1598.708008 1738.136719 1857.721924 1998.881226 2086.156738 2060.646484 2046.200928 2020.784912 2097.052246 2225.069092 2377.770752 2547.980225 2711.434570 2873.580078 2806.078613 2744.566406 2699.505127 2616.486328 2547.287598 2470.365723 2401.205322 2406.158447 2405.701660 2363.495605 2364.152100 2401.378906 2395.104248 2416.750244 2431.512451 2451.489258 2400.214111 2422.505371 2473.254395 2533.909668 2633.474609 2817.908203 2963.734619 2942.752197 2959.623535 2932.002441 2943.476318 2891.302490 2717.033936 2626.113281 2592.257080 2637.898926 2524.660889 2279.269531 2101.125732 2019.413452 2042.419067 2079.729736 2206.724121 2390.855713 2559.962158 2627.670898 2583.808838 2446.821289 2331.774170 2200.465576 2110.252930 2038.519409 1898.894531 1742.618774 1575.340088 1477.244019 1565.516602 1701.489380 1784.485352 1851.449707 1946.869995 2042.631348 2136.937012 2262.652100 2376.690186 2519.287598 2620.833252 2507.978027 2391.617432 2295.902100 2168.448486 2058.633057 1948.941650 1822.580811 1762.226685 1793.284668 1743.798462 1634.569580 1661.687134 1780.993042 1898.879028 1977.686890 2069.275879 2179.319336 2287.565186 2353.664062 2252.830811 2121.000977 2018.054199 1914.708008 1830.746704 1930.412720 2067.350830 2055.992920 2045.120239 2069.509766 2144.608398 2351.633057 2523.650879 2408.431885 2262.417236 2190.596436 2085.750000 2049.884521 1969.244141 1810.458618 1765.595215 1730.921631 1706.078247 1683.294312 1676.446777 1598.077271 1479.198730 1352.964844 1258.394653 1204.308228 1192.159790 1078.947266 1049.665894 1000.072510 974.753418 954.830078 924.858276 888.257080 892.971191 935.912292 955.901062 993.928345 1035.763672 1114.982178 1209.473999 1295.165771 1339.117188 1303.680786 1262.940918 1299.580200 1387.193970 1486.042236 1587.596924 1659.350220 1619.735474 1494.224731 1335.937622 1228.263794 1142.485474 1069.248657 997.067627 922.787964 912.160950 995.032166 1067.402588 1120.654175 1195.412231 1282.193848 1372.609009 1459.380615 1548.397095 1625.626343 1720.211914 1811.575562 1897.043091 1998.477173 2094.532715 2163.540771 2173.103271 2148.013916 2169.231201 2253.843994 2334.029053 2463.512939
1783.458252 1912.513306 2035.244873 2155.384277 2200.342285 2197.416748 2228.869629 2287.585938 2334.254150 2415.339355 2550.342041 2508.888916 2423.444824 2419.750977 2376.194824 2256.216797 2247.668701 2266.118164 2380.157471 2503.503418 2483.662109 2455.918701 2373.641357 2311.632812 2316.408447 2343.872070 2441.119629 2503.961182 2374.423828 2299.366699 2252.968262 2194.343750 2048.707520 1944.215576 2013.503418 2138.347412 2296.548584 2471.546875 2523.877686 2455.093750 2440.806641 2362.923340 2369.205078 2331.394531 2312.060791 2169.358154 2027.890747 2056.803467 2205.189209 2362.036621 2538.807373 2543.766113 2450.638672 2346.221680 2283.046631 2140.678711 2024.200928 2022.806152 2072.534424 2156.014893 2291.715576 2456.518799 2684.811768 2904.592041 2820.948486 2816.032715 2869.329834 2858.544678 2763.928711 2599.346436 2469.801758 2495.336182 2608.634521 2659.317871 2571.905273 2473.973145 2615.037354 2691.233154 2698.581787 2704.309570 2736.480713 2677.079590 2557.996582 2458.465576 2297.816650 2126.480957 2014.841797 1852.201294 1702.667114 1488.968994 1265.476685 1471.150757 1704.412109 1726.264404 1525.035889 1283.551636 1074.246216 903.928528 821.940613 777.375610 770.293640 763.574158 754.990112 774.016052 787.328979 831.820557 991.340759 1092.733765 1137.689575 1230.319458 1344.414307 1388.059570 1345.426880 1292.498779 1238.973145 1271.923584 1375.123169 1500.365234 1645.414062 1808.606812 1937.410522 2080.802490 2159.522461 2092.424316 2055.055176 2007.762207 2044.970093 2102.156006 2047.544800 1963.788208 1873.108276 1774.811157 1685.385010 1580.929443 1487.683350 1407.513672 1316.977295 1232.248779 1156.254395 1082.053345 993.455566 949.297913 893.653687 855.645935 939.582397 1032.389893 1158.543213 1256.908813 1393.510986 1516.686035 1654.506958 1775.143677 1901.123779 1991.155396 2103.251953 2197.461182 2275.435791 2271.311279 2143.682373 1960.604004 1761.807007 1768.495850 1916.729004 2094.306396 2221.424316 2068.023438 2045.170410 2183.484131 2366.097900 2456.320557 2401.406006 2343.495850 2363.718262 2413.261719 2518.963867 2554.000732 2448.604248 2368.997070 2314.224609 2268.365479 2192.650879 2124.986816 2034.367310 1976.629517 1938.714844 1988.466187 1983.223877 1876.479370 1760.384888 1591.415405 1431.147095 1265.820312 1076.550293 977.757629 939.902771 928.725708 973.155151 1402.992432 1669.857422 1832.490112 1927.214722 1905.707520 1966.196777 1998.128052 1941.053955 1908.541992 1906.192505 2050.941650 2201.332520 2312.577881 2493.253418 2710.968018 2892.619385 2886.775879 2789.039062 2702.685547 2590.418213 2504.486084 2438.155273 2374.661865 2290.258057 2278.544922 2259.233887 2231.891602 2255.270752 2299.977051 2325.436523 2358.613525 2336.436768 2311.931152 2381.933350 2448.729248 2539.533447 2721.005127 2853.736328 2913.682129 3020.693848 2972.531250 2929.467773 2874.648193 2761.123291 2678.075439 2602.933594 2522.184814 2513.923828 2475.791504 2290.687256 2134.756104 2078.580566 2133.383301 2206.932129 2320.875000 2509.644531 2673.520752 2576.280518 2487.424561 2400.072266 2249.887207 2130.520752 2039.893677 1939.683472 1833.894897 1683.079590 1512.302368 1528.672485 1665.827148 1800.772461 1928.975952 1974.043579 2005.494141 2050.846924 2146.270996 2298.953369 2444.941895 2588.198975 2603.211426 2524.005615 2419.339355 2307.694824 2229.977051 2075.342773 1943.446655 1848.190430 1839.336060 1927.275879 1893.577759 1735.139648 1680.499390 1774.601929 1881.764526 1980.384277 2089.781250 2203.897949 2299.056641 2360.278320 2257.785156 2140.877441 2028.639038 1920.818115 1871.416504 1988.958374 2113.724609 2102.051758 2104.511475 2126.885498 2216.743652 2396.993408 2443.907959 2300.092529 2172.954590 2077.090820 2033.774048 1942.231323 1885.290161 1738.696533 1655.468262 1627.375366 1595.507812 1544.575562 1507.661255 1446.638428 1364.910156 1308.009033 1283.252808 1266.088867 1179.207886 1071.041748 1006.282104 986.934265 950.197144 902.693359 896.705139 913.595886 931.097778 973.855164 983.578674 1027.751465 1093.578857 1170.288574 1267.827393 1350.538330 1409.091309 1372.930298 1320.197388 1323.978882 1406.374023 1449.588135 1552.573853 1650.452637 1657.305786 1543.621094 1402.002319 1292.349731 1211.747192 1136.991089 1057.908569 983.638184 912.670166 945.426270 1046.732910 1128.280151 1226.583984 1322.642212 1414.705444 1496.205566 1599.379028 1693.700195 1783.182861 1862.072754 1948.142700 2027.898315 2096.017334 2111.039062 2091.990234 2077.391602 2141.375488 2262.516113 2400.718506 2533.323730
1803.971558 1914.370361 2031.551758 2160.583740 2276.698242 2361.477051 2389.318115 2375.798584 2425.003906 2560.820801 2652.552002 2653.421387 2493.085449 2464.822510 2475.327148 2346.866699 2319.785400 2295.679932 2351.502197 2404.428955 2351.698242 2347.174316 2331.416504 2353.807373 2409.702393 2386.379883 2501.255127 2412.695068 2402.681152 2338.730469 2286.475342 2197.168457 2063.916260 1894.674072 1891.483765 2060.034424 2242.498291 2422.979248 2521.464844 2482.783936 2397.328613 2305.446045 2248.497559 2170.230225 2122.327393 2058.043701 1910.539551 1978.384521 2138.053711 2299.510498 2498.360352 2706.736328 2670.828857 2486.524414 2368.226318 2239.339844 2138.437500 2130.522705 2204.235596 2318.464111 2488.974121 2595.216309 2665.184326 2830.301758 2742.618896 2603.790527 2671.898193 2727.343262 2641.953857 2437.608887 2304.962646 2356.750488 2466.024170 2459.447021 2443.359131 2393.948730 2481.420166 2506.792236 2523.036133 2568.945068 2667.005615 2557.461670 2526.450684 2502.392334 2370.354736 2161.849365 1957.883423 1741.940552 1534.816650 1374.147583 1211.718018 1342.305420 1530.115234 1594.311035 1410.345459 1143.844971 925.060852 816.302795 775.229553 758.074646 756.848572 762.947754 804.268616 853.703308 896.630310 991.203247 1110.203125 1160.885132 1197.383179 1238.135742 1378.567139 1456.585083 1422.087524 1357.297852 1319.774170 1310.535156 1392.080811 1519.045166 1659.468628 1786.925903 1912.582520 2075.001465 2205.281006 2201.110107 2113.168213 2063.265137 2155.358154 2146.247070 2044.386841 1945.580811 1843.716675 1735.126465 1658.481323 1557.396851 1472.193359 1398.088501 1313.604004 1226.272095 1146.334717 1070.192993 1000.586060 940.046936 887.201721 860.804504 958.835632 1116.733398 1230.810181 1321.856567 1464.677246 1589.416138 1713.491089 1824.455811 1933.224121 2042.806030 2144.917969 2241.388672 2345.705078 2312.969727 2156.825195 1960.599976 1801.349976 1799.231323 1954.385010 2144.656250 2252.493408 2157.299316 2162.583008 2230.176025 2343.733398 2426.455322 2503.515625 2456.597168 2501.368896 2557.683594 2579.189697 2546.302734 2434.329834 2388.830322 2307.912354 2185.704102 2123.158691 2079.734131 2063.304932 2084.837158 2121.980957 2149.341553 2048.571289 1944.318848 1813.239380 1662.343262 1487.820068 1303.343994 1145.131836 994.915955 937.973633 930.588257 934.500183 1314.975708 1698.654907 1849.417358 1931.436768 1917.727661 1931.468262 1875.256348 1787.667480 1755.170410 1810.352173 1961.860596 2094.655273 2275.156494 2447.759766 2630.158447 2807.460205 2928.200439 2833.965576 2750.934326 2637.436279 2601.918457 2534.636963 2438.242188 2283.018066 2209.047363 2192.490234 2163.285400 2131.135254 2166.783936 2209.501709 2236.685059 2235.870361 2269.425049 2364.242920 2464.083984 2566.173096 2700.041748 2714.847412 2820.929932 2999.649658 2859.620850 2785.390381 2776.140869 2764.511719 2648.733643 2545.438232 2469.135742 2407.349365 2364.624756 2247.837158 2135.774414 2162.326172 2250.267090 2353.919922 2514.954102 2629.315186 2715.181641 2581.978760 2464.002686 2390.169434 2292.683594 2177.638672 2069.385010 1960.990234 1854.542114 1694.851074 1538.806641 1576.561035 1709.168823 1830.531006 2006.079346 2117.124023 2106.224121 2122.935547 2162.773926 2277.841797 2461.270752 2602.763184 2579.475586 2509.802246 2421.938965 2304.506592 2196.998779 2075.102051 2011.024414 1922.060669 1893.934570 2006.615356 1984.076538 1802.983521 1695.866943 1788.899292 1917.040161 2028.408081 2121.854004 2206.399170 2302.938965 2317.211182 2226.087402 2117.818359 2009.757568 1914.401489 1948.681274 2052.083740 2170.770996 2145.473877 2139.844971 2193.795898 2309.060059 2464.313965 2340.907227 2223.463379 2141.657471 1989.926514 1913.199585 1861.322144 1766.964111 1649.674561 1601.158691 1581.392822 1560.597656 1525.955444 1470.598022 1433.258057 1397.675049 1370.479126 1324.304321 1244.806519 1119.317017 1014.980164 977.755188 970.983582 926.577209 900.092651 923.740601 951.037231 972.364502 1035.957764 1029.926270 1083.634766 1154.422607 1212.027466 1304.352295 1405.524292 1453.840088 1434.657715 1373.787842 1369.987793 1435.388306 1498.765015 1537.054443 1614.560791 1677.550049 1639.349731 1512.676392 1383.631348 1296.289062 1213.081787 1141.590088 1034.292114 929.106995 932.402893 1023.031677 1101.804321 1205.838989 1301.873047 1398.487915 1480.245728 1567.154297 1659.665894 1756.328857 1836.020264 1908.545044 1990.507080 2025.720825 1989.484619 1986.328247 2052.725342 2177.993164 2287.569336 2392.747314 2435.229004
1858.083740 1899.543213 2021.155273 2127.547119 2249.757812 2368.214600 2440.614258 2505.136719 2560.781982 2630.610352 2542.111328 2511.552246 2397.459961 2387.825439 2477.311768 2354.881836 2294.374023 2228.062500 2310.228271 2238.285156 2211.230713 2219.219238 2234.281494 2334.046387 2283.914062 2335.670654 2436.340820 2341.612793 2237.140381 2246.492920 2205.534424 2123.111328 2020.795410 1842.703613 1824.743164 2011.799561 2227.020752 2310.277832 2355.433594 2389.539795 2430.800293 2315.083008 2161.018799 2077.447266 1965.540894 1911.320190 1815.061768 1974.688843 2194.104248 2367.114258 2514.404053 2588.436279 2660.914551 2575.761719 2421.595215 2363.300537 2283.797607 2257.045166 2372.083008 2523.162354 2605.950684 2779.050781 2722.149658 2849.530762 2777.586426 2548.395264 2413.719727 2489.023438 2446.721924 2305.374512 2197.657227 2320.920898 2323.816895 2298.262207 2293.153564 2269.742920 2347.686523 2358.213867 2388.309570 2504.879639 2570.043701 2421.832764 2314.416016 2333.414795 2278.660400 2057.227539 1803.305298 1665.173340 1586.171265 1407.749634 1234.667236 1209.949097 1446.910034 1466.821533 1271.964600 986.735352 811.820007 763.561218 758.997437 798.282593 830.208618 890.535034 953.887817 944.319397 1006.428833 1088.258911 1196.004639 1273.835815 1291.211548 1279.829346 1348.693481 1492.933228 1527.584839 1468.409180 1421.584106 1365.925171 1394.410034 1489.440552 1622.677612 1754.514771 1933.179443 2110.782715 2246.804932 2246.797363 2146.088379 2162.931152 2210.227051 2138.519043 2035.307373 1931.537476 1822.375122 1725.833862 1625.425049 1526.056396 1462.045410 1384.043579 1290.758789 1218.193237 1143.539185 1074.144775 986.898865 924.075623 868.786438 864.404236 1000.709106 1186.373779 1283.583984 1379.243164 1522.331299 1642.115112 1748.865723 1860.583374 1970.139038 2098.586670 2183.065186 2279.941162 2361.957275 2321.083496 2179.808105 2012.420898 1844.309082 1864.724121 2005.696533 2151.011230 2263.890137 2234.990723 2222.489258 2227.033447 2272.204102 2367.860352 2510.224121 2605.722900 2631.721191 2693.197266 2579.388672 2492.835938 2441.842773 2368.529541 2238.724121 2155.520508 2207.150146 2230.068848 2281.269287 2306.944580 2285.788086 2226.132812 2134.797852 2001.756714 1894.252808 1786.416870 1651.907715 1481.386963 1251.385986 1099.714844 1000.161316 933.171692 934.792297 1205.300171 1564.842773 1647.118774 1706.636353 1749.546875 1673.541992 1571.132324 1522.965820 1611.613403 1750.253174 1880.033203 2039.963257 2219.570557 2434.639893 2635.945557 2788.585205 2892.879395 2835.911621 2735.855957 2667.921631 2630.524414 2590.502686 2446.613281 2316.887695 2292.726562 2307.712891 2245.006592 2127.734375 2050.822754 2072.690430 2083.236572 2114.327881 2188.833740 2289.469238 2431.190674 2494.739258 2613.067627 2617.182617 2751.467041 2924.644531 2795.139404 2661.829590 2624.803467 2636.816650 2658.640625 2542.425781 2425.561768 2321.216064 2258.154785 2171.468994 2172.996094 2287.276855 2442.832520 2529.648438 2642.793457 2722.577637 2642.225586 2543.177734 2452.136475 2397.760254 2295.433350 2156.627197 2020.528198 1916.126709 1818.735718 1688.896484 1577.464111 1615.123779 1746.160645 1870.793457 2028.757202 2196.160889 2221.458984 2258.475098 2254.563477 2307.103516 2455.401123 2626.046387 2560.465088 2560.941162 2541.550049 2376.562988 2259.185547 2194.160889 2106.719727 2023.434937 1957.224487 2047.211060 2015.151978 1825.499390 1702.812012 1786.795532 1924.704102 2046.394897 2140.760010 2223.000732 2321.873291 2284.056885 2182.886475 2083.629395 1995.378906 1910.170654 1992.419678 2091.666260 2215.325928 2232.197754 2187.266846 2259.494141 2398.442871 2592.087646 2448.144043 2226.701172 2104.655518 1984.114380 1928.232544 1842.205322 1692.525146 1633.218384 1622.593872 1623.411865 1606.086670 1576.748413 1554.790527 1538.133179 1507.335083 1411.298218 1327.838379 1200.065063 1081.414429 990.751587 955.717957 938.749756 912.183533 905.941589 943.830078 992.456238 1046.583618 1096.237183 1091.811035 1137.981689 1235.107300 1308.882202 1359.999023 1436.904053 1501.534546 1480.633667 1435.967651 1412.654053 1438.495483 1516.557495 1578.151611 1585.236450 1658.286377 1696.436523 1603.557861 1483.892456 1379.453247 1286.445435 1201.237671 1077.498291 968.035522 910.774902 996.480713 1076.285889 1156.852783 1248.588379 1334.725464 1414.181274 1487.279907 1578.433594 1680.616333 1769.569702 1860.307739 1925.349609 1924.946411 1915.584106 1989.906982 2087.843262 2181.624023 2265.911377 2346.764404 2365.811279
1987.678223 1941.326416 2018.616577 2071.983154 2179.238770 2297.101562 2381.335205 2435.454102 2509.028320 2527.895996 2417.901123 2361.949463 2297.655029 2304.850342 2408.029297 2321.283447 2225.462402 2140.312744 2216.766357 2179.373291 2061.342041 2039.811768 2141.458008 2194.143311 2171.521240 2291.571777 2290.632568 2312.734131 2183.580078 2064.386719 2007.855225 1964.880005 1866.604736 1747.115601 1772.351807 1981.832397 2141.557617 2140.503662 2199.692139 2243.549805 2333.068115 2293.729248 2171.473633 2114.060059 1956.183228 1773.227051 1786.951294 2004.910400 2183.664795 2349.331299 2391.730713 2379.261230 2438.558594 2506.302979 2568.247314 2544.714111 2447.431396 2426.337646 2528.599121 2613.883301 2742.602051 2855.274414 2861.952637 2784.946777 2711.122070 2556.219727 2318.169434 2291.374268 2280.446533 2168.799561 2145.929443 2245.258545 2160.937500 2113.591309 2136.852539 2159.694336 2238.461426 2287.736328 2331.460693 2434.675049 2400.734619 2287.945068 2157.227783 2160.504395 2207.713867 2040.318848 1923.981567 1871.674561 1709.646484 1484.277222 1246.922974 1135.066162 1272.160767 1225.616333 1073.550415 870.200867 765.198792 759.858337 799.154358 916.905640 938.192200 968.819580 984.811157 1009.809509 1092.373169 1162.259888 1280.023560 1369.016113 1387.816650 1375.337524 1376.665771 1505.997314 1613.215942 1597.209595 1527.063232 1467.057861 1458.527466 1505.092041 1618.965088 1746.333862 1924.625366 2074.956299 2197.770020 2286.291504 2259.496338 2243.019043 2216.111816 2111.968750 2001.331421 1904.410278 1806.369751 1697.133057 1594.492676 1517.533813 1438.772217 1356.962891 1291.993530 1226.157104 1144.687866 1061.300171 978.932007 916.658875 860.989014 887.302856 1030.910034 1208.264160 1350.253052 1430.371704 1549.584595 1674.808838 1776.443237 1890.623413 2004.354858 2097.730469 2173.477051 2266.227295 2337.757080 2347.626221 2234.239990 2079.017578 1908.658325 1922.913208 2038.267334 2150.108154 2257.800781 2360.238525 2326.282959 2266.043457 2286.009766 2399.772217 2525.364258 2655.280762 2724.396240 2612.221191 2521.691162 2433.209229 2378.570312 2292.669922 2202.705566 2273.473633 2358.409668 2333.779297 2445.554199 2510.430908 2410.024658 2281.709961 2157.313232 2043.380249 1980.457886 1864.799072 1706.557495 1520.510376 1324.271484 1180.827393 1006.606934 934.564758 942.642578 1113.156616 1388.622070 1463.019409 1538.549316 1627.720703 1518.271851 1406.423218 1566.925415 1791.082764 1988.690186 2060.384277 2107.184326 2299.607178 2499.503174 2632.611328 2712.132080 2817.119873 2832.648682 2764.717041 2632.633301 2539.774170 2463.340576 2403.718750 2361.196533 2351.525146 2359.357178 2218.310303 2077.824219 1958.383545 1961.756836 1989.720581 2041.912720 2089.918701 2189.709229 2319.418213 2404.331299 2502.991943 2561.968994 2733.454346 2884.697266 2852.190918 2704.673096 2596.251221 2508.939209 2529.629150 2506.273926 2412.164795 2256.991455 2158.294678 2158.166260 2282.296631 2436.557617 2593.502441 2725.963867 2798.017822 2716.814697 2607.397705 2506.648682 2411.932861 2317.850098 2236.958740 2131.172607 2019.983154 1886.768677 1799.562256 1712.357666 1616.476929 1618.869263 1763.822876 1905.218140 2065.528809 2225.383057 2316.768555 2376.325928 2362.760010 2398.469727 2522.517334 2673.087891 2631.079346 2559.672363 2543.911865 2490.177734 2388.021240 2297.260254 2215.038330 2086.364502 2002.062744 2067.302246 2052.979980 1866.654785 1743.211548 1822.546509 1962.835938 2020.654907 2106.706299 2210.229004 2325.324219 2323.421631 2173.117676 2084.373535 1983.259033 1926.722656 2008.483887 2140.578125 2281.756104 2266.364746 2232.793457 2307.886719 2496.630371 2614.223145 2484.871582 2305.497070 2140.129883 1946.123291 1875.692139 1758.861084 1670.000977 1692.864136 1710.241333 1743.749390 1746.532837 1709.945557 1684.340942 1645.961304 1532.376709 1428.742065 1296.531250 1169.214722 1044.770752 959.332153 929.615662 921.210327 911.197266 941.191589 1027.811768 1103.854980 1128.344360 1185.150635 1181.820557 1167.783081 1281.793579 1376.262207 1453.675659 1499.083008 1555.724121 1548.030518 1512.330444 1482.441528 1463.300049 1513.412231 1608.363281 1652.177734 1627.879395 1669.226807 1664.526978 1567.911987 1455.203369 1343.856689 1244.110352 1120.969238 999.121704 912.889160 955.469543 1039.526489 1116.613159 1185.435791 1272.605225 1364.914551 1475.515625 1584.247070 1678.337646 1750.464966 1805.459229 1842.774536 1850.012451 1952.821289 2050.607422 2129.599121 2203.077148 2274.238770 2313.783203 2282.658936
2175.667969 2071.438477 2096.654541 2169.367920 2216.995117 2276.555176 2330.840820 2445.994873 2512.035889 2422.819580 2310.022217 2215.770508 2130.438721 2180.847900 2300.080078 2205.139893 2095.075928 2028.209839 2067.947021 2030.992554 1922.196777 1866.620728 1958.157471 1983.272339 2067.165771 2156.299561 2150.851807 2182.551270 2154.872314 2112.033936 1920.937134 1790.537231 1682.473877 1615.403320 1753.945190 1924.220093 1981.982422 1982.524902 2054.216797 2153.716064 2229.755615 2158.446289 2046.540283 1992.672729 1886.141235 1693.723267 1793.708130 2015.181641 2137.551758 2165.492676 2232.345459 2318.233643 2432.072266 2540.489258 2653.954346 2706.084229 2657.150391 2691.370850 2634.043701 2596.726562 2639.600830 2779.336182 2791.052490 2625.809326 2555.903809 2506.654785 2287.029541 2116.332275 2030.121582 2014.331055 2051.249756 2093.360352 2000.194946 1978.420898 2026.350098 2099.075928 2174.106689 2253.013184 2237.096924 2262.056396 2232.388672 2141.950195 2023.041992 2052.044434 2086.914551 1957.847900 1968.671753 1905.353149 1723.473022 1483.276611 1276.352295 1106.621338 1042.927612 1014.289429 874.017761 773.761292 762.703247 759.247070 792.126465 879.292786 944.957092 1011.112183 1059.454834 1122.917358 1214.833862 1302.857788 1383.082886 1456.585083 1495.394531 1485.214478 1451.159424 1539.239014 1662.710815 1699.383301 1651.105103 1588.380981 1540.665283 1606.722046 1653.888794 1758.728394 1870.428833 2013.922119 2172.201172 2327.044678 2343.702637 2258.605225 2165.344482 2067.143311 1954.762085 1872.599609 1787.376587 1680.573486 1585.604126 1498.496338 1424.771118 1366.000610 1283.266113 1194.095337 1121.499268 1051.942139 983.638733 929.625061 862.951050 895.144348 1052.112793 1239.050903 1406.849976 1503.445312 1584.188110 1695.996704 1779.027222 1860.568726 1953.265503 2034.229248 2129.552246 2213.322754 2275.140137 2325.379639 2274.426514 2131.784912 2007.074219 1959.372314 2033.223389 2140.745117 2245.721191 2372.867676 2461.935059 2400.963867 2366.225098 2406.961426 2487.473877 2608.927002 2654.245850 2542.770508 2472.998535 2440.625488 2382.418457 2275.541504 2255.400146 2341.035645 2381.648193 2387.528320 2486.267822 2597.513672 2490.575684 2359.139160 2201.140869 2062.070557 1958.232300 1821.598022 1644.075684 1459.631836 1287.254761 1117.009766 954.896545 937.445312 943.838806 1002.245972 1136.884277 1247.778687 1390.835327 1349.337769 1299.962036 1463.050781 1690.926147 2000.116455 2200.382812 2271.866943 2261.898682 2386.705322 2502.083496 2525.912109 2597.539307 2711.527832 2665.478516 2734.301758 2675.463379 2525.605957 2479.012939 2430.013672 2406.563965 2412.541016 2360.209717 2176.898438 1994.026611 1909.350220 1957.206665 2028.973511 2069.604248 2056.949219 2137.537842 2244.689941 2317.655518 2424.775146 2534.828369 2670.500000 2824.157715 2902.456299 2820.642334 2678.393555 2520.556152 2457.463135 2445.057861 2351.984131 2250.184814 2162.293945 2236.798340 2392.858643 2548.875732 2681.802979 2768.930420 2809.063721 2737.011719 2628.840820 2526.453613 2413.668213 2289.447754 2204.351318 2127.066162 2030.016235 1893.766602 1782.632446 1706.802124 1602.473267 1629.382446 1770.361938 1935.697388 2111.794434 2235.769287 2355.124512 2450.369385 2472.607178 2517.403564 2623.447021 2689.627197 2600.419434 2521.745850 2473.437744 2423.598389 2388.897461 2324.043213 2244.827881 2180.093506 2086.231689 2116.302490 2006.913452 1828.173462 1759.015015 1872.513672 2015.274780 2126.256104 2176.512451 2226.318115 2283.258301 2291.783936 2212.471191 2123.500244 1993.730225 1974.339233 2064.433594 2146.930176 2264.308105 2307.415283 2285.016357 2351.572021 2542.982422 2454.020508 2358.732422 2223.443359 2064.271240 1910.880615 1780.187866 1713.822998 1726.124756 1800.769531 1862.492310 1903.227783 1887.727539 1823.669067 1730.032715 1619.870239 1498.530762 1380.221802 1252.314697 1125.802490 1004.122742 934.481995 913.347473 910.133179 926.355591 1023.117859 1127.128906 1211.776978 1249.267212 1254.501221 1256.971924 1229.550659 1273.449219 1366.774414 1459.849243 1533.266357 1588.538086 1591.118164 1565.446167 1531.130859 1511.769531 1548.074341 1619.981812 1706.985474 1675.306030 1623.344116 1654.559326 1616.282104 1521.495483 1400.397705 1283.222046 1151.619629 1019.125122 914.707092 965.286743 1018.313293 1091.903320 1191.532837 1278.852661 1356.526611 1444.375366 1538.428955 1624.097168 1685.152588 1712.768433 1756.224976 1868.133301 1976.104492 2056.452637 2136.927490 2217.956055 2263.030273 2221.186279 2190.356689
2285.397949 2193.881348 2148.936523 2155.296875 2203.330322 2256.278320 2306.618408 2393.127930 2403.090088 2396.389160 2284.547119 2132.550293 2021.789062 2085.194336 2154.872803 2165.150879 2032.407593 1926.573975 1882.878540 1860.140381 1806.823242 1718.952148 1770.478149 1880.321411 2004.758423 2006.119263 2040.645752 2062.070068 2019.100464 2100.683105 2017.980225 1836.269287 1630.778442 1591.169922 1746.772583 1806.107300 1827.368652 1893.508179 1968.971802 2054.845215 2099.784912 2087.602539 1940.261475 1851.823730 1804.074463 1639.259155 1725.657837 1864.224487 1994.366821 2170.420898 2321.747803 2440.827637 2566.789551 2663.443848 2770.346680 2702.683350 2559.468750 2559.889648 2489.973633 2420.545166 2552.695068 2684.755859 2614.629883 2462.093506 2304.289062 2275.725342 2221.715332 2095.351562 1923.319092 1859.682495 1954.443237 1967.924927 1862.021362 1883.137695 1927.923706 2008.174438 2084.811768 2092.222412 2075.416504 2075.154785 2114.375732 1983.245605 1902.029175 1888.922974 1826.122437 1752.280396 1786.064331 1784.363159 1698.121826 1579.478882 1375.538574 1162.761230 987.022217 843.337646 776.536133 763.184631 761.654907 761.826111 766.492920 860.683105 1004.450256 1113.801880 1178.764771 1230.944336 1314.166504 1391.017334 1462.414062 1540.542725 1602.910156 1596.944702 1542.011475 1573.446167 1672.520630 1776.808105 1774.099487 1691.199219 1626.893799 1710.438477 1765.398193 1851.531982 1977.183838 2084.213867 2260.492920 2420.008545 2344.980225 2229.191406 2137.708008 2026.411255 1937.681152 1860.369507 1759.961548 1652.732056 1558.533813 1485.984741 1417.416260 1327.990479 1232.278564 1162.052734 1108.022949 1048.457153 986.369873 938.011963 872.791077 922.022278 1082.667358 1242.364136 1367.646118 1460.195923 1535.792236 1638.997803 1712.639282 1790.442505 1871.347412 1926.084595 2018.483521 2100.563477 2165.097412 2226.410889 2285.633301 2211.835938 2116.085693 2003.542969 2034.572144 2134.115967 2232.819824 2364.001953 2480.750000 2519.579346 2505.749268 2475.065430 2498.475342 2610.783936 2562.599609 2484.198242 2469.800537 2430.774902 2338.502686 2288.261963 2387.426514 2412.155029 2413.045898 2520.864258 2583.617920 2615.277588 2504.869385 2365.578125 2188.635010 2043.255615 1914.719238 1791.353638 1659.075806 1500.934937 1315.490112 1071.930176 941.536499 942.338196 959.223511 991.138000 1055.913086 1093.112793 1171.708374 1285.192383 1458.026733 1671.212646 1797.932373 1966.811768 2038.584595 2106.868896 2269.074951 2414.666260 2374.168945 2395.346924 2498.511719 2646.654785 2560.426514 2615.198730 2680.452148 2654.825928 2586.304199 2497.555664 2493.715332 2427.328125 2216.897461 2051.090332 1911.829468 1944.568848 2107.873779 2187.492920 2203.053467 2135.003174 2095.655273 2182.459961 2294.521973 2414.081055 2502.118896 2592.565674 2750.584717 2860.580078 2761.639893 2657.184570 2529.130615 2462.604980 2392.100342 2347.249023 2297.179443 2205.178467 2207.324951 2324.372559 2457.734131 2548.848877 2591.970459 2691.228760 2706.097656 2616.790527 2502.688477 2395.263428 2302.413086 2228.635498 2118.864990 1999.127197 1898.752808 1789.679810 1694.635254 1595.904175 1654.176392 1785.329712 1902.354736 2051.548828 2220.412598 2343.015625 2456.058594 2564.813232 2628.592041 2689.119141 2634.835693 2575.178711 2522.410400 2469.467041 2435.177246 2384.766113 2305.755127 2273.789307 2204.175293 2162.354980 2094.410889 1954.427979 1825.905884 1783.774902 1905.606445 2056.439453 2210.716553 2319.639648 2393.385010 2410.323486 2351.582031 2316.120850 2185.184570 2030.458618 2007.757202 2112.808105 2185.336182 2249.331055 2305.778564 2373.218994 2526.549072 2687.433594 2462.816162 2178.590332 2039.476807 1924.607300 1836.070435 1767.427612 1765.224365 1841.070068 1954.594116 2027.997559 2025.231689 1938.765381 1834.367432 1680.725342 1551.138916 1434.157349 1312.509644 1194.355469 1078.375977 970.459961 916.818176 911.753723 912.928711 980.792664 1102.086914 1221.936890 1305.057739 1349.614258 1324.608887 1332.276855 1309.916260 1296.937622 1340.124390 1415.073486 1498.569092 1574.435547 1632.693359 1640.272339 1589.550781 1560.085083 1586.004517 1635.090454 1722.641846 1708.250854 1630.656006 1603.790405 1601.614136 1553.895386 1461.680054 1309.507812 1172.807983 1026.783203 912.633667 957.716064 1001.121887 1066.773682 1155.550171 1228.678589 1296.816650 1389.089844 1465.228760 1525.256592 1574.888306 1675.083862 1801.595093 1907.292969 1996.897827 2075.010498 2141.649414 2178.594482 2176.792969 2115.959229 2095.900391
2288.908203 2211.653076 2194.535400 2197.181396 2227.403809 2221.908691 2200.991943 2217.695801 2204.631836 2226.418457 2224.191895 2085.016846 1933.398315 1948.811035 1987.155518 2016.033325 1960.840820 1836.861450 1738.868164 1726.171143 1718.112427 1614.436768 1657.601440 1806.763794 1891.065796 1863.757690 1970.321899 1925.811401 1864.700562 1943.789429 1892.562378 1748.729736 1554.856201 1487.775269 1540.444458 1604.385620 1746.266235 1736.164429 1785.955200 1833.773071 1880.615601 1936.177246 1910.991821 1752.981323 1678.946045 1567.854248 1714.223389 1947.932007 2137.160156 2242.700439 2249.119141 2280.717529 2381.544434 2545.354004 2621.526611 2494.491455 2348.434570 2374.447754 2315.586914 2321.566895 2446.067627 2563.148438 2541.677979 2315.609131 2179.082764 2049.158691 1983.591553 1998.588379 1873.065918 1748.991333 1865.572632 1820.572021 1727.209106 1754.477417 1836.852661 1925.417114 1937.584961 1900.408447 1875.485229 1914.291504 1975.185059 1859.897583 1766.223389 1678.221191 1595.950317 1673.711792 1626.687012 1617.076782 1562.843140 1449.816406 1273.042358 1085.000610 902.687927 785.614136 763.730469 764.153748 763.936218 764.890137 768.822937 875.597900 1036.735474 1163.972534 1245.878784 1314.641235 1410.482910 1486.036255 1545.473511 1633.803833 1689.440918 1696.520142 1645.726807 1695.941528 1738.695312 1812.595337 1870.900757 1799.515381 1722.522095 1776.884888 1892.424438 1950.948730 2060.611084 2196.156494 2327.379639 2416.740234 2317.754639 2235.029053 2124.701660 2000.691528 1901.251709 1824.578735 1735.468872 1628.866089 1537.429565 1444.528442 1359.118652 1274.414429 1199.731323 1156.021362 1120.661987 1063.893799 1011.812561 948.795227 880.536804 965.533203 1099.984253 1236.592407 1347.840210 1431.991821 1506.626953 1588.312622 1645.491943 1712.631958 1783.238159 1849.732910 1933.191895 2023.939087 2103.374756 2187.030762 2278.977783 2282.970215 2189.936279 2066.884766 2031.429565 2120.993164 2222.900879 2343.272217 2435.410400 2509.069824 2572.275146 2590.211670 2614.996826 2666.044189 2549.669189 2503.525635 2444.614014 2385.179688 2373.073242 2443.615723 2540.144531 2525.069580 2502.732178 2546.855957 2503.167969 2524.066406 2486.108398 2374.062744 2195.761475 2063.868164 1947.716309 1833.425781 1698.827026 1493.811279 1273.095581 1086.135498 957.565063 947.308472 968.571289 1000.186768 1033.760986 1067.224731 1173.805420 1361.004883 1539.467529 1686.111816 1757.024658 1821.561768 1915.692993 2041.755127 2151.907227 2261.542236 2221.212402 2282.567383 2442.752197 2621.565430 2559.810791 2527.801025 2592.760254 2629.568115 2608.925781 2589.811768 2527.867432 2362.148193 2146.856445 1964.231567 1885.086304 1991.933594 2209.343018 2339.159424 2303.541260 2248.920654 2148.008057 2138.032715 2255.546387 2366.854492 2451.465576 2582.564209 2676.264648 2779.942627 2786.200684 2616.514160 2524.256836 2504.963867 2431.684814 2388.167725 2343.006836 2283.434570 2209.958740 2260.616211 2397.183350 2480.189697 2568.745117 2640.088623 2668.035400 2593.989502 2509.020752 2410.428223 2335.482178 2244.338135 2128.037354 2020.441772 1911.060913 1791.853760 1693.328125 1616.280884 1673.926147 1791.864746 1894.119507 2017.231934 2150.951416 2314.266113 2456.681396 2566.581543 2675.370605 2741.638184 2662.545654 2584.436523 2516.142822 2456.629395 2406.480469 2375.327148 2336.414307 2318.421875 2218.855225 2182.297363 2104.688477 1999.062988 1847.056030 1832.236816 1967.812744 2074.957764 2219.311768 2348.325195 2489.423828 2553.863037 2442.027100 2292.785156 2137.041016 2031.022339 2078.021973 2230.659912 2335.421875 2382.639893 2370.548584 2449.561035 2588.540527 2611.470947 2454.162109 2332.264893 2013.792603 1899.400024 1836.855591 1847.890015 1887.384888 1928.917847 2007.570435 2093.030518 1981.743896 1843.752075 1722.320435 1608.972046 1477.285278 1354.738037 1228.968262 1146.953857 1040.153442 954.038269 916.258484 913.764160 941.374878 1041.224976 1168.465942 1289.720337 1391.993286 1445.741211 1409.017700 1440.758789 1403.427612 1369.560791 1363.796143 1395.044189 1477.725220 1558.939331 1635.955322 1691.642456 1672.425415 1620.157349 1657.988037 1708.085938 1741.579834 1712.408203 1638.688354 1571.108765 1563.688721 1534.261353 1457.872314 1318.799683 1191.658447 1046.967163 935.316833 932.544006 989.020691 1022.666321 1085.820679 1162.852417 1244.761719 1315.600098 1388.111816 1484.582642 1603.518188 1708.200317 1799.332275 1886.850586 1960.975830 2029.424683 2071.388672 2061.421631 2045.962402 2008.123413 1983.593018
2302.657471 2265.279297 2257.351074 2223.315918 2159.149170 2104.269287 2102.408936 2053.735596 2020.329102 2069.121094 2135.581787 2067.765381 1909.161499 1794.673950 1823.543091 1862.170654 1848.851196 1753.703491 1635.662598 1607.864990 1597.895752 1528.647339 1541.053467 1683.322021 1692.458008 1744.286377 1821.628296 1784.957520 1691.575684 1770.502808 1736.820923 1701.489380 1565.584717 1396.970337 1480.717285 1655.197632 1638.185791 1559.968140 1568.442261 1634.505737 1681.197021 1722.813965 1761.868774 1715.888672 1552.859131 1561.872192 1777.700317 1926.062256 1948.919922 2017.869629 2033.217896 2136.873047 2286.020996 2341.254395 2399.799561 2327.696289 2240.459473 2243.356445 2151.990479 2176.746338 2326.560547 2450.047852 2434.203369 2257.884521 2164.406982 2012.602539 1869.469482 1809.055298 1776.197388 1657.709473 1694.535645 1657.741333 1610.770630 1655.520020 1789.255005 1862.866089 1839.773071 1714.927002 1666.192017 1769.429565 1822.505005 1721.870728 1574.805908 1451.642944 1474.060425 1512.636841 1467.289062 1401.983521 1385.483276 1272.704346 1127.277100 947.390137 795.866699 768.728027 768.912476 768.744507 768.085327 767.786377 780.567566 908.056885 1043.641724 1155.472168 1272.349731 1381.350708 1483.544434 1580.855835 1644.676758 1711.851807 1768.540405 1785.503418 1763.887329 1818.871460 1865.298462 1893.839600 1948.034180 1907.661011 1850.797852 1882.540039 2000.908936 2084.712646 2160.805908 2329.105957 2447.248535 2394.401367 2261.104004 2164.665527 2082.056885 1972.110229 1863.709473 1769.192383 1675.451294 1578.788818 1473.039795 1389.291504 1311.332275 1248.873535 1203.318726 1166.384399 1123.570801 1084.554688 1029.236816 946.328735 926.324402 970.812500 1107.074219 1200.756958 1298.943481 1397.975830 1470.823242 1519.920776 1577.492798 1655.189331 1722.868042 1804.593018 1904.308472 2003.591553 2078.787109 2176.712402 2280.501465 2347.723633 2259.973633 2136.451172 2037.897095 2088.109619 2192.691162 2291.857422 2358.289062 2438.889160 2536.893066 2633.779541 2717.146973 2635.404053 2553.848633 2513.955811 2458.390381 2429.032471 2498.179199 2583.055420 2593.470947 2577.020752 2537.318115 2465.568848 2369.312500 2374.299072 2339.593018 2275.206299 2234.731445 2128.221924 2036.818481 1906.629028 1730.564087 1545.160400 1306.278320 1130.397827 988.104919 949.140259 965.526428 989.460999 1014.736694 1034.121460 1135.074951 1311.062134 1464.157837 1497.159180 1589.378052 1691.353638 1783.586670 1868.709351 1958.492920 2008.410278 2084.386475 2249.621338 2426.189453 2558.301025 2517.457764 2430.833008 2424.625488 2455.319580 2441.501953 2434.822998 2384.229004 2241.377930 2086.093750 1916.755737 1881.037231 2014.531372 2245.954590 2459.782715 2429.670166 2340.234131 2258.587402 2151.613281 2171.126221 2263.395264 2369.868408 2479.870850 2576.793701 2662.775879 2728.257324 2686.600586 2601.271240 2562.504150 2489.629883 2418.923096 2359.558594 2349.045654 2262.329346 2229.168945 2393.428955 2575.445312 2652.044189 2687.145020 2663.574951 2573.397217 2513.657471 2432.353271 2339.879639 2244.488770 2121.650879 1993.508423 1882.019531 1790.785278 1693.893188 1606.460693 1648.103271 1739.806885 1847.170044 2025.346802 2179.593506 2326.937744 2441.929443 2538.298828 2633.715820 2742.601807 2682.612061 2567.126953 2495.004639 2460.855713 2411.247803 2377.831299 2395.750732 2390.739502 2275.965820 2207.454346 2143.606445 2024.243286 1902.392090 1876.778320 2052.860596 2144.000488 2255.912354 2419.140869 2502.473633 2481.831787 2364.961670 2222.542725 2101.485840 2064.982422 2160.586182 2349.895752 2481.532959 2526.827637 2519.498779 2514.591797 2652.105469 2669.379150 2446.984375 2258.751709 2052.170166 1940.106201 1896.682739 1945.023560 1975.959961 2015.197388 2071.876709 2087.557617 1934.803467 1767.460815 1624.132690 1535.511841 1474.163330 1366.579468 1232.597046 1104.264526 1007.171082 944.660339 919.828186 925.600281 982.274719 1097.211304 1208.306152 1323.287354 1465.782104 1537.230835 1500.823486 1558.430664 1516.732300 1461.015747 1439.363770 1435.267944 1474.287964 1552.176514 1631.228638 1711.202759 1748.736694 1709.800781 1725.736328 1768.105835 1766.497437 1719.512695 1629.417480 1534.211304 1479.090576 1467.669434 1372.634644 1252.411011 1157.048340 1075.924683 1009.125732 953.677612 970.612488 1010.429871 1057.140381 1138.231323 1224.015503 1332.444946 1429.773315 1525.136963 1619.268799 1700.114624 1781.407959 1856.947144 1918.360229 1972.111206 1955.292603 1946.553223 1932.192139 1931.581299 1911.329590
2296.088135 2259.996826 2222.903320 2156.619385 2069.280273 2001.451538 1993.446533 1930.983521 1883.388428 1921.734985 2009.903931 2015.692383 1895.954346 1733.342041 1703.868896 1715.320557 1741.088501 1657.265991 1566.077148 1516.491577 1504.234497 1450.756592 1464.066528 1588.099854 1538.138062 1571.996826 1629.423828 1579.522827 1550.653564 1591.704346 1559.841675 1543.633667 1470.654541 1399.673706 1402.952271 1474.036377 1413.444946 1403.891357 1411.164062 1456.229858 1488.521362 1540.933838 1557.933472 1561.174927 1431.268799 1520.937256 1608.006958 1660.100586 1723.048340 1805.635864 1876.343750 2040.141846 2116.827393 2166.972900 2232.634033 2201.048340 2129.988281 2088.703857 2035.056641 2133.254150 2275.386719 2263.995117 2259.985596 2125.252441 2036.961304 1945.170654 1812.257812 1680.879639 1580.213745 1540.778564 1526.337036 1506.056030 1489.489990 1575.963745 1665.812988 1718.666260 1749.523193 1665.691650 1498.880249 1528.756592 1598.847534 1566.264160 1445.939209 1300.276367 1303.004395 1326.460449 1299.355103 1231.395752 1186.132812 1097.230469 993.468506 848.360840 768.455811 769.856689 771.556641 771.147461 768.656433 773.220093 819.135742 951.735840 1053.070435 1155.933838 1287.044312 1420.636719 1545.364380 1641.217651 1717.618774 1778.767822 1851.504639 1873.035522 1876.793701 1930.890503 1976.675659 2009.905151 2060.151367 2052.133545 1988.434326 2042.820679 2078.764648 2205.703857 2281.827393 2391.368408 2369.059814 2297.868164 2191.128906 2090.648682 2005.923096 1921.613770 1820.496094 1713.071045 1611.178223 1515.834106 1440.936768 1388.106323 1293.197388 1247.968262 1202.326660 1160.316528 1134.492432 1098.193115 1045.828735 1049.119873 1010.792847 967.435913 1102.737061 1156.153564 1244.017822 1337.147095 1426.012207 1480.952148 1540.604858 1623.659424 1694.200928 1766.543823 1863.043701 1983.955811 2078.044189 2189.995605 2293.635742 2375.221436 2326.166748 2196.399658 2086.547119 2052.165771 2135.766113 2210.133301 2252.573242 2328.162109 2420.822021 2524.609863 2669.253418 2647.367920 2604.114990 2595.789795 2597.557861 2591.965576 2641.584229 2540.466553 2461.089111 2450.760986 2342.519287 2260.892334 2183.906250 2164.694824 2143.382568 2101.671875 2091.426758 2064.374023 1963.248413 1847.985596 1718.771606 1604.019043 1408.382690 1198.685547 1007.811646 950.757446 963.551025 979.791992 1004.751282 1036.606201 1097.643677 1203.586914 1295.835693 1398.030396 1465.502075 1502.331177 1585.342773 1674.619629 1772.118164 1831.234985 1972.650635 2137.548340 2304.355225 2436.477295 2513.304688 2407.241699 2305.674805 2294.169922 2292.991699 2249.391357 2193.037109 2098.002686 1959.997803 1850.904175 1909.594482 2058.158447 2260.036865 2505.869873 2560.126709 2420.441895 2346.982178 2239.332031 2144.443115 2176.118896 2267.406494 2368.705566 2463.171631 2509.687012 2577.576660 2669.407227 2708.979980 2677.481445 2586.607666 2456.991455 2394.024902 2395.364502 2324.766357 2237.984131 2375.270264 2593.923828 2726.107910 2750.737793 2722.651367 2583.600098 2483.433838 2406.816895 2298.668701 2176.228027 2029.547119 1941.515869 1885.930664 1836.640137 1723.503906 1607.857788 1606.879028 1680.111328 1798.995483 1988.829712 2128.176025 2263.817871 2389.521729 2505.694580 2613.531738 2699.082031 2614.671631 2539.420654 2504.231689 2471.129395 2429.898682 2409.231201 2484.077637 2406.526611 2318.336426 2194.611816 2102.357178 2010.143188 1916.717651 1921.273804 2077.873047 2216.442383 2326.141846 2407.353027 2478.306885 2337.634033 2253.334229 2202.140381 2117.126221 2139.401367 2216.189697 2383.549805 2566.371094 2593.032227 2493.900391 2453.439453 2503.252197 2622.683594 2508.166016 2269.786865 2090.438232 2008.423950 1998.680908 2041.248779 2051.299072 2102.580078 2156.257324 2072.084961 1910.981323 1754.178955 1617.571045 1477.803223 1394.160645 1334.483154 1208.943481 1072.156738 962.536682 926.641113 939.012512 960.686768 1016.039551 1135.320435 1240.967896 1363.391113 1527.119141 1630.162109 1599.201050 1668.057129 1652.381348 1578.774780 1535.330444 1501.120605 1508.686523 1557.201416 1636.446289 1722.864502 1797.256958 1800.597778 1779.990723 1763.012939 1743.740967 1700.415527 1636.288330 1544.550903 1427.480957 1348.909546 1273.606079 1200.270142 1140.878418 1097.651001 1051.078857 995.753601 985.497742 1014.104797 1066.764038 1147.627197 1226.410522 1334.369995 1440.964478 1538.146606 1632.447754 1711.777954 1783.105347 1838.160034 1895.315918 1886.562988 1829.382935 1812.843750 1824.381958 1826.642334 1828.526855
2155.372559 2102.190674 2086.089111 2042.534668 1979.539062 1901.440796 1855.191895 1850.957642 1797.656860 1818.651367 1904.546265 1926.286499 1833.329102 1697.977783 1589.936035 1604.569702 1644.822876 1617.577148 1532.253784 1451.352417 1430.395386 1391.218872 1370.751953 1437.391113 1421.611328 1430.693115 1448.854614 1415.193237 1400.386597 1377.827515 1319.487305 1299.662842 1255.546997 1258.151123 1281.718628 1264.520020 1245.603882 1278.497192 1300.610962 1315.409912 1334.816284 1370.039673 1379.282471 1334.757202 1305.528931 1394.258545 1484.964844 1597.897827 1663.582153 1680.653320 1795.972900 1892.757812 1966.239624 2035.679565 2073.276367 2054.786133 2030.032227 1988.822998 1966.345825 2042.705444 2121.520264 2098.778320 2025.489868 1924.602783 1899.554565 1786.165649 1698.031860 1570.175659 1484.654663 1401.239014 1380.292969 1398.596558 1389.800171 1414.088989 1468.639404 1521.943359 1559.085083 1525.619751 1412.572876 1338.792603 1382.302979 1373.059204 1328.777466 1235.645020 1184.028320 1214.332275 1167.259155 1125.756348 1081.273071 1014.884277 916.511230 805.426270 772.110168 771.155701 770.686951 772.472900 775.087402 803.497070 873.698181 970.858521 1085.171997 1205.922485 1299.239136 1422.871094 1549.083740 1650.547852 1746.987915 1850.665894 1940.214600 1970.078369 1985.313232 2040.319458 2089.151611 2115.485352 2134.426514 2164.723633 2108.098877 2177.452637 2242.927490 2332.333984 2401.862305 2416.291260 2305.069336 2205.497803 2117.184814 2025.605225 1951.424194 1873.871094 1759.690308 1661.586914 1569.317261 1478.114868 1419.923096 1360.095215 1281.136475 1211.558838 1173.287842 1150.101318 1130.643188 1114.709351 1109.866455 1162.033081 1090.873779 979.311707 1088.503174 1124.081543 1202.637939 1290.206055 1355.043091 1431.733154 1529.926392 1636.185669 1709.000366 1800.014160 1904.939087 2002.967285 2087.905273 2185.907471 2298.609619 2399.487305 2364.888184 2253.952881 2209.888184 2128.087891 2136.937256 2216.246094 2316.946289 2384.743652 2451.444092 2583.832275 2724.922607 2830.509521 2736.884766 2754.205566 2725.132568 2571.351074 2522.333984 2425.882324 2337.835693 2246.042969 2124.223633 2048.906738 2015.147095 1981.059692 1943.544800 1928.968872 1884.820557 1814.605957 1769.070801 1688.357300 1533.940552 1485.359863 1411.304077 1295.769653 1073.622070 954.141785 972.382690 979.010681 1012.496887 1044.529541 1084.375000 1135.808838 1219.211548 1275.982178 1334.870361 1414.031860 1503.201172 1605.056396 1707.365845 1856.555542 2027.532349 2160.328369 2286.359131 2395.778564 2413.951416 2338.864990 2234.487549 2174.021973 2132.012207 2063.566162 1990.384399 1917.230713 1829.764404 1828.936523 1963.552612 2152.877686 2327.689941 2508.537598 2609.885498 2512.129883 2486.970947 2339.190186 2214.904297 2158.293457 2191.447754 2301.822021 2384.999512 2455.135742 2512.318115 2595.144531 2687.210449 2756.937012 2637.701904 2507.672607 2451.066895 2418.306152 2362.131104 2268.092529 2393.845703 2541.316650 2738.715820 2804.519531 2676.526611 2510.147461 2440.784424 2367.810791 2253.637207 2117.354736 2031.699463 1986.650513 1976.222900 1919.941528 1771.881958 1667.332642 1608.844482 1678.352539 1803.115601 2009.482178 2118.590088 2195.810547 2302.645020 2433.551025 2610.802002 2717.275879 2617.064209 2565.001465 2516.947021 2478.590820 2450.933350 2495.600342 2557.814697 2421.557129 2299.861816 2184.661621 2075.041504 1964.169067 1933.668579 2024.505615 2181.707764 2320.420410 2447.288330 2526.766113 2481.499023 2340.160156 2360.413330 2280.431152 2184.945068 2207.441406 2288.911865 2385.825928 2542.061523 2537.074951 2462.806641 2422.808838 2400.662842 2442.302734 2438.222412 2324.403809 2178.904297 2089.084961 2077.194824 2130.052002 2138.726562 2177.704590 2066.908936 1935.283203 1799.276367 1673.636353 1587.927979 1493.903198 1345.939941 1224.196167 1129.111084 1031.098389 957.187134 945.646118 966.460083 990.233276 1056.230835 1169.951660 1294.488770 1439.353760 1599.076660 1724.363037 1711.174561 1752.203857 1789.903320 1708.146362 1664.208862 1589.618896 1567.468262 1581.312500 1648.768677 1729.117920 1805.679199 1859.429199 1799.536499 1718.447876 1680.723877 1638.840088 1601.145142 1538.737305 1463.949707 1349.681152 1219.331543 1153.523682 1134.009888 1071.265503 1042.592651 1000.684631 1018.547180 1052.484619 1096.912476 1142.498779 1214.094727 1341.503052 1453.508301 1539.053589 1620.289795 1695.859009 1772.996582 1829.011475 1841.585327 1810.411865 1743.691040 1722.754272 1729.921875 1731.556519 1730.131592
1971.167725 1930.078613 1917.537231 1949.238159 1848.119019 1788.109985 1749.214111 1773.443604 1727.120117 1754.638306 1830.003906 1862.220093 1815.818848 1702.141235 1542.818726 1510.916504 1563.317383 1555.245483 1503.445312 1434.586548 1374.452759 1324.963379 1309.824463 1302.635132 1289.686035 1283.202271 1253.402832 1227.000732 1210.961548 1197.502808 1177.661011 1168.916016 1166.359619 1181.189331 1185.796387 1169.385376 1184.594971 1218.088989 1224.160889 1226.723145 1236.219360 1227.953735 1227.017456 1229.385376 1331.511597 1442.900269 1532.532349 1607.530396 1577.498535 1623.245850 1697.047119 1798.151611 1883.970825 1956.744507 2000.870239 1971.778809 1959.288574 1929.923828 1917.300049 1949.378906 1997.985962 2004.549438 1913.578857 1790.084351 1712.123169 1635.179565 1578.951050 1493.970947 1410.114380 1343.430908 1280.240601 1288.766479 1274.127319 1298.738403 1350.284424 1367.771484 1364.084106 1333.663696 1282.608643 1223.824219 1222.777954 1216.382446 1192.836548 1150.881592 1119.648682 1122.523315 1093.100220 1061.912109 1017.386475 956.734253 861.186951 784.545227 777.396790 773.113708 772.674500 782.310303 814.524414 885.853943 969.589966 1067.762451 1178.649414 1298.314819 1411.368774 1501.551147 1606.761353 1670.255859 1767.618164 1906.627197 2044.981567 2085.056396 2078.783447 2140.563477 2191.760498 2185.589355 2198.191406 2249.207031 2236.500000 2318.880371 2407.629639 2463.818848 2428.020264 2336.809570 2234.424561 2129.100098 2062.116211 1985.747559 1922.405762 1807.263428 1691.517456 1607.172241 1545.520386 1491.356689 1402.448364 1304.626831 1224.772217 1178.360962 1158.181641 1165.347046 1169.649048 1173.995972 1192.490845 1271.745117 1115.618042 985.972717 1058.139404 1088.220825 1171.405396 1296.755249 1382.237061 1469.734741 1567.306396 1691.302124 1767.132812 1860.016357 1965.911255 2043.913696 2116.901611 2210.755127 2334.128662 2441.448730 2453.864014 2385.659912 2405.208984 2322.404785 2258.750732 2319.418945 2460.226074 2580.751221 2522.923584 2554.070801 2661.369629 2777.134033 2682.795654 2656.274414 2632.875244 2553.306641 2437.314209 2323.783936 2208.206299 2077.516846 1977.693359 1911.884521 1881.502930 1847.521240 1819.923340 1796.472534 1745.865601 1662.373535 1568.878174 1491.154663 1386.639893 1304.581299 1227.755005 1157.612915 1068.325195 964.881714 978.336670 986.685059 1008.993408 1039.029907 1074.940308 1103.257935 1193.551025 1311.928345 1401.802856 1561.486938 1703.749268 1782.126099 1864.096069 2009.314819 2147.545166 2307.974854 2354.909668 2326.275635 2269.027344 2184.779785 2117.707520 2042.251221 1989.648682 1901.380127 1836.142578 1792.912598 1792.100830 1880.243896 1991.230591 2143.587646 2320.275391 2511.476074 2683.636719 2676.837402 2594.938721 2424.117432 2321.382324 2210.782715 2168.448730 2252.207275 2379.561279 2537.109131 2561.828369 2647.919189 2673.718506 2738.763672 2668.232910 2552.141846 2508.860107 2432.222656 2367.719727 2311.857666 2429.040283 2585.878662 2703.628174 2779.205322 2580.936035 2494.490234 2454.360840 2351.285156 2228.755615 2143.602539 2095.238281 2091.915527 2073.324951 1969.851318 1819.302856 1725.178467 1626.845215 1715.590454 1832.457031 1992.035156 2153.371826 2201.637207 2285.673828 2437.226807 2609.060547 2747.744873 2683.585205 2621.215088 2556.742188 2533.127441 2561.792236 2608.437744 2515.733643 2391.483643 2261.359619 2139.281738 2015.412354 1930.709961 2012.191528 2128.355713 2198.972900 2343.923828 2554.107666 2659.327637 2514.321777 2458.801758 2464.924072 2358.257324 2246.893555 2288.421875 2424.493408 2490.415771 2514.775879 2490.207275 2419.018311 2354.480225 2316.665283 2350.511963 2421.170410 2304.141357 2256.254150 2221.047119 2197.228516 2215.240967 2186.674072 2081.466309 1959.902832 1808.109741 1680.004395 1574.216797 1482.455444 1415.381470 1340.174927 1235.974121 1102.007202 993.131836 949.312500 961.102539 991.883972 1025.260498 1096.490356 1221.401978 1361.671875 1508.591187 1673.979736 1824.000366 1828.281738 1825.121948 1929.085815 1859.675537 1774.317383 1669.197998 1632.377563 1641.836548 1690.391479 1705.686768 1772.887329 1834.995850 1792.681763 1684.559448 1598.322876 1572.520386 1550.407227 1491.520386 1431.666626 1347.958496 1210.860840 1238.729126 1218.356445 1125.461304 1067.950317 999.897583 1010.685669 1057.105347 1109.649048 1158.269653 1274.214722 1378.528320 1465.406128 1546.825806 1640.173828 1716.469727 1760.960449 1789.110229 1774.970947 1716.446899 1658.828613 1644.090698 1637.007935 1642.071655 1629.387085
1782.145874 1767.970581 1768.978882 1837.841675 1785.806519 1705.816162 1648.296143 1677.120483 1652.963623 1647.114624 1685.761230 1704.016968 1689.852417 1634.522705 1538.050171 1422.840210 1467.839844 1479.774902 1438.200317 1391.957886 1356.406982 1311.124634 1264.163818 1250.157471 1233.539185 1219.151855 1183.995850 1173.792480 1172.363159 1171.796509 1169.572754 1166.414917 1164.629883 1165.288818 1169.215698 1164.458984 1158.903320 1165.263306 1172.260864 1162.209229 1169.295288 1155.477417 1160.591675 1206.655396 1285.875488 1384.476196 1461.440308 1503.867065 1476.641846 1531.694580 1613.460938 1714.981812 1820.466797 1893.260376 1925.793701 1907.511841 1882.774292 1864.067383 1853.178833 1897.429565 1935.460205 1975.930908 1962.408325 1870.511108 1779.903809 1682.132080 1595.625732 1492.531006 1373.122681 1276.306396 1203.140381 1189.715576 1202.234497 1200.690430 1247.976685 1223.361572 1188.790649 1155.819702 1111.792358 1086.181885 1088.117920 1073.646851 1062.312256 1059.393433 1049.864502 1050.679199 1037.038452 1015.940735 979.281006 908.759216 811.160889 781.147827 776.849731 775.439819 794.546936 868.063599 919.699768 967.945435 1036.155762 1136.727417 1258.886597 1363.541504 1498.502563 1614.568115 1705.084106 1774.360718 1850.368286 1997.740234 2140.000977 2172.485352 2153.706055 2155.325195 2160.248779 2159.072510 2181.576416 2212.302734 2273.613770 2348.326904 2411.604492 2429.238281 2350.996094 2281.769043 2177.599609 2065.636963 1985.487061 1889.879028 1799.944946 1716.378418 1659.183960 1583.353882 1495.574951 1426.169434 1349.339600 1261.163696 1206.224243 1175.603882 1181.418823 1224.003662 1240.851562 1255.857178 1322.518066 1311.345459 1147.582397 1019.326965 988.714905 1042.929688 1139.701050 1266.226074 1409.313599 1528.432129 1666.825806 1831.643066 1919.163940 2040.089478 2088.897949 2158.496582 2198.419434 2263.530029 2352.231445 2431.158936 2470.863525 2493.548828 2516.144775 2539.369385 2429.167236 2387.519043 2490.035889 2568.945557 2638.271484 2662.693115 2773.783936 2771.734863 2690.246826 2622.951172 2562.651367 2565.010254 2509.473389 2395.029297 2242.061523 2052.318359 1920.679688 1895.313843 1876.715454 1875.403198 1917.741455 1907.481812 1863.718506 1751.310425 1669.968872 1570.713379 1465.291504 1351.869141 1280.543945 1181.024170 1075.866821 983.861633 970.165527 996.286865 1006.482910 1028.517700 1051.281860 1064.489136 1122.660278 1236.410767 1402.583618 1584.864014 1764.563843 1906.638550 2014.678467 2136.924805 2277.970947 2327.307617 2279.302002 2200.410645 2137.426514 2048.717773 1959.931396 1891.700806 1824.481079 1765.142090 1760.256836 1821.225098 1912.319458 1972.570801 2005.199951 2081.812988 2238.812012 2458.656006 2645.840088 2806.507812 2632.981934 2493.375488 2422.002686 2322.956787 2208.762695 2203.143799 2337.127441 2531.977539 2688.305420 2782.993652 2806.061768 2805.865479 2620.809082 2581.931152 2548.039795 2452.502930 2377.465576 2341.213135 2477.069824 2649.136230 2733.375244 2699.797607 2582.509521 2587.685303 2469.611328 2358.170898 2282.012695 2191.531006 2194.006104 2207.680176 2166.934814 2008.401245 1881.284546 1737.133789 1638.364014 1727.756958 1866.353027 1983.149170 2155.560547 2293.083984 2324.373291 2481.775146 2586.718018 2768.063477 2699.678955 2644.203125 2628.708740 2657.790527 2670.449219 2599.095947 2445.498535 2319.475830 2193.193848 2055.623779 1949.892700 2004.177246 2161.790283 2212.462646 2251.906494 2410.215576 2602.798096 2719.851562 2678.805176 2644.078613 2598.086182 2485.479492 2387.163818 2438.792969 2493.029297 2496.706543 2428.033691 2379.143066 2339.181396 2273.995361 2249.561768 2317.922852 2460.684326 2414.937012 2384.338867 2375.252197 2314.925293 2221.926758 2106.825439 1962.355713 1826.457275 1707.291870 1599.086426 1500.747559 1391.584717 1302.900635 1218.836670 1154.820190 1055.527954 978.754761 947.525879 966.322876 996.675110 1051.841187 1140.719971 1259.759155 1390.778809 1539.653442 1727.859741 1886.165771 1999.971436 2036.362061 2096.448730 2076.783691 1898.690063 1753.055542 1704.757812 1721.511719 1783.935791 1741.433472 1704.774048 1754.081543 1735.744751 1636.923950 1572.388184 1525.318848 1488.127930 1432.614624 1359.790649 1290.200439 1233.482300 1319.024048 1281.112549 1201.401733 1101.056641 996.047791 1002.166321 1052.146484 1118.572754 1206.078613 1320.162354 1412.975586 1493.257202 1583.163086 1660.184937 1706.766113 1729.202393 1686.645386 1641.427612 1610.399658 1561.585327 1552.818970 1522.883179 1512.986938 1503.833740
1656.824951 1612.465210 1640.009033 1729.785889 1712.617920 1663.791626 1589.388184 1553.872437 1536.239502 1531.882080 1531.153564 1522.395142 1490.536255 1449.949463 1392.856445 1351.658447 1328.916138 1320.390137 1288.627075 1268.568848 1238.416016 1237.543213 1230.665527 1221.118408 1205.490967 1185.769043 1177.310425 1175.531860 1176.378784 1189.082153 1198.413818 1200.502441 1199.346924 1214.267212 1223.310791 1228.286743 1256.483032 1282.015503 1284.442627 1263.867432 1220.094727 1162.402954 1141.045898 1147.337524 1218.849365 1301.897217 1357.483276 1360.111450 1403.692871 1519.784180 1604.860352 1686.376099 1782.314331 1829.784546 1837.436035 1844.351196 1811.667480 1763.412476 1765.689087 1820.033569 1861.419556 1915.550537 1927.811890 1891.922119 1814.408325 1746.812256 1676.621826 1555.882324 1439.586060 1324.028076 1228.414429 1131.593750 1096.563965 1123.293335 1122.609985 1114.238525 1067.902710 1040.204102 1013.155334 1003.187683 1004.320740 994.606934 984.682007 985.425659 965.236389 984.058838 976.290344 961.608643 939.168640 886.627014 795.067078 782.127991 798.600830 802.608215 871.638123 944.900330 980.830750 1023.009644 1099.760864 1210.321899 1305.315552 1406.048340 1547.695435 1669.031372 1780.820801 1881.370972 1969.155273 2088.456787 2167.186523 2133.056152 2064.252930 2015.901978 1993.516357 2003.109009 2037.738892 2078.530518 2148.829346 2219.062500 2334.444580 2321.089111 2241.639404 2152.292725 2090.683350 1992.642700 1891.323242 1795.944214 1718.848755 1664.466064 1607.466064 1521.820801 1441.020996 1388.357544 1313.611206 1237.680420 1201.531372 1192.464722 1248.077148 1308.592041 1344.553467 1380.643677 1445.734619 1377.805298 1227.439697 1093.126953 990.153931 969.965881 1045.265625 1189.335327 1443.106201 1638.325562 1790.606934 1962.177368 2028.521362 2115.017334 2147.550293 2142.325439 2100.469482 2108.642090 2163.156982 2233.154541 2271.679199 2283.100342 2329.023193 2411.874512 2521.598145 2470.727539 2545.018311 2618.476807 2763.833984 2837.744385 2856.460449 2794.684082 2734.435059 2665.701660 2604.787598 2581.837158 2535.154053 2469.332275 2278.220703 2013.960083 1945.367554 2044.226196 2050.204346 2026.463379 2049.138428 2042.794189 1996.569092 1915.765503 1834.852783 1716.352417 1559.542480 1456.605347 1401.804443 1285.238770 1176.062134 1049.407104 969.654358 996.778503 1009.548401 1019.991150 1033.236450 1039.191040 1065.727905 1194.731323 1352.527588 1496.408813 1647.892822 1821.794312 2021.030396 2226.227539 2299.826172 2201.471436 2132.385742 2068.182617 1989.816406 1898.005127 1803.521240 1763.266235 1728.117310 1755.457764 1840.043945 1937.744385 2058.860840 2109.003418 2094.258301 2067.749268 2172.255859 2408.951416 2606.994141 2776.431152 2789.247803 2629.746338 2450.587646 2383.641357 2273.309814 2208.081543 2291.114258 2454.335693 2722.121094 2924.079590 2949.703613 2768.775391 2614.837158 2640.332275 2642.960205 2503.263428 2413.631592 2368.575928 2494.314697 2694.860840 2798.357910 2732.267578 2658.018311 2638.109375 2490.961670 2491.240234 2467.076660 2386.446777 2349.355225 2322.268799 2198.032471 2055.258057 1920.140381 1747.039673 1629.913330 1688.284058 1861.385620 2044.722656 2155.696533 2298.390625 2387.864990 2543.966309 2593.133545 2731.429688 2660.096924 2619.185059 2583.908691 2545.098389 2499.343018 2492.953613 2371.963135 2231.384277 2105.494629 2002.593750 1996.171997 2130.936279 2321.666748 2320.974854 2392.465088 2583.419434 2706.215332 2696.058594 2609.604248 2559.945557 2471.339844 2398.016357 2387.016113 2359.650391 2330.272705 2331.288818 2322.175049 2284.076904 2219.561035 2147.602539 2230.279297 2383.046631 2516.879883 2534.186279 2397.264648 2307.333740 2218.798584 2121.602539 2022.687134 1925.141357 1830.341187 1748.111084 1643.513184 1554.094360 1458.605957 1327.092285 1220.118652 1123.843384 1026.760132 985.670715 956.255615 961.095764 988.753662 1098.701416 1236.157959 1330.409058 1393.096924 1495.875732 1714.070801 1873.997437 2081.587402 2229.522217 2303.573730 2182.624512 1949.226685 1847.848755 1820.212280 1843.478271 1883.435181 1805.100586 1705.655151 1652.760864 1645.449585 1581.293457 1517.942261 1470.861938 1398.335083 1350.744995 1298.088745 1271.394043 1304.456543 1350.600952 1308.864014 1229.041870 1110.247681 996.649048 994.829834 1064.609009 1142.746460 1256.348511 1363.454956 1466.478394 1545.727173 1588.962158 1631.598633 1652.511353 1646.146484 1567.853760 1489.148193 1485.456177 1467.967041 1449.726929 1421.674805 1410.239868 1396.797607
1653.651245 1538.363281 1597.643677 1644.003662 1601.628174 1530.649170 1501.383301 1440.997314 1421.274292 1406.978638 1381.863403 1337.899048 1317.862671 1284.654663 1245.911987 1248.114624 1258.660522 1239.637207 1205.536255 1196.224976 1194.348999 1199.447510 1200.776611 1195.062256 1185.509277 1188.668091 1214.494995 1245.328491 1254.455933 1279.497070 1302.077148 1337.397217 1375.292725 1405.155396 1364.527222 1394.962524 1439.505859 1474.955322 1476.735474 1444.360352 1365.177002 1297.474854 1209.660522 1132.841187 1150.963745 1213.052490 1248.801147 1283.602539 1410.380005 1503.685669 1578.289551 1657.363525 1718.689941 1741.169800 1753.019043 1741.422119 1707.562744 1671.498047 1656.823608 1712.784668 1770.049805 1827.103149 1832.072754 1822.646362 1759.741089 1687.335693 1630.664673 1535.233643 1451.721191 1375.791260 1270.999390 1174.403687 1076.873047 1057.086060 1061.331909 1044.023804 1020.362366 999.606018 984.142395 960.454468 955.063049 939.442139 921.261353 909.802063 882.826111 904.900330 892.223389 881.469543 832.963928 794.374451 783.271790 796.656982 804.426941 837.138062 928.163391 973.414795 1044.923584 1104.876221 1191.118652 1287.999634 1384.353516 1491.458130 1615.193359 1739.500977 1842.773682 1920.865845 1980.769531 2021.278442 2045.464111 2016.100708 1957.665161 1897.693115 1871.946533 1872.535522 1898.510620 1960.716431 2027.873413 2154.410889 2229.151367 2190.617676 2144.078125 2079.671387 1994.461304 1908.383911 1814.977417 1725.713867 1650.772217 1591.947632 1522.017944 1458.613403 1397.624878 1332.972656 1259.090210 1217.518921 1203.859619 1230.016357 1324.532715 1385.645874 1460.155884 1518.061401 1529.314575 1452.137451 1297.177246 1164.963013 1028.390503 967.750854 1018.819885 1154.864258 1355.632812 1591.142212 1734.665405 1882.923340 1933.695923 1900.753540 1911.035156 1875.358398 1922.753662 2042.650269 2135.672852 2159.249512 2165.353027 2181.986816 2235.560059 2356.110107 2465.521729 2511.257324 2574.767578 2594.739746 2710.341797 2839.230225 2756.322021 2697.107422 2623.384766 2523.768311 2464.089355 2402.897705 2337.078613 2280.556641 2161.285156 1994.864868 2054.651123 2179.870850 2192.762207 2122.983398 2137.362305 2149.685059 2089.883301 2025.615356 1934.372314 1791.126099 1623.854248 1514.308960 1515.842163 1394.818604 1287.480835 1148.937378 1010.403748 978.794678 1016.265747 1030.453613 1040.036255 1042.516724 1056.140503 1122.450439 1297.716431 1460.441162 1621.993042 1829.575806 2028.791382 2224.270996 2207.727051 2065.229248 1967.066528 1903.761963 1819.088623 1736.115967 1668.283691 1670.599487 1718.660034 1811.023682 1947.225708 2086.529785 2207.965332 2223.332520 2168.721680 2105.223145 2145.423828 2320.311279 2521.770264 2689.921387 2830.364990 2653.341309 2525.807129 2470.794922 2347.627441 2259.920410 2268.337402 2408.232422 2653.330566 2885.151123 2885.443115 2708.268311 2694.055908 2711.300049 2667.134521 2541.947266 2426.968262 2385.654053 2523.670654 2666.377686 2847.256592 2802.612305 2751.065186 2674.726807 2605.432861 2616.108154 2623.670654 2588.788574 2486.842773 2369.881348 2236.512451 2080.420166 1924.771362 1747.728638 1625.282837 1672.270142 1871.024292 2055.137695 2183.335205 2319.868408 2477.374023 2601.529785 2685.247314 2750.186523 2689.846436 2619.014893 2564.169678 2505.498047 2413.727539 2338.074463 2278.166992 2158.455322 2059.975342 2016.187866 2107.361084 2204.217773 2393.217529 2488.429199 2551.846191 2685.536377 2659.450928 2516.848389 2427.414551 2355.203125 2281.032227 2216.604004 2188.526611 2203.817871 2175.775879 2157.751709 2145.212158 2185.487061 2104.919189 2038.643066 2176.252930 2357.494141 2383.822021 2444.127197 2413.273926 2334.390869 2235.931641 2130.462158 2024.697144 1959.114136 1919.300171 1811.690552 1690.208740 1558.106689 1416.755859 1306.471802 1192.312988 1079.145874 998.922180 967.631226 964.380981 977.113403 1015.767822 1144.797729 1302.392944 1467.009033 1579.080811 1555.786865 1688.283569 1822.688843 1998.765625 2182.849609 2357.880615 2202.084717 2029.764038 2088.762695 2088.902588 2049.655518 1952.691895 1824.568115 1718.072021 1619.934448 1573.321411 1536.110352 1476.123169 1442.236694 1427.319336 1376.701782 1341.998535 1347.401245 1342.550537 1310.453247 1271.936157 1201.270142 1110.857910 1002.186829 1004.383118 1080.057495 1169.425903 1265.232300 1365.721802 1484.286743 1522.542236 1507.489502 1518.090332 1542.928833 1518.819336 1458.903320 1378.407104 1362.355103 1361.541138 1346.393433 1329.961182 1330.479126 1317.132935
1710.035889 1540.784546 1470.760132 1512.537476 1463.656006 1413.167603 1378.348389 1348.010376 1312.440186 1286.645020 1261.849121 1235.774170 1219.985229 1215.517578 1211.816284 1215.876709 1223.661255 1216.509033 1205.849243 1206.183960 1197.932495 1198.711182 1205.804077 1202.465698 1238.189819 1302.454834 1356.697876 1386.498169 1416.882080 1460.398071 1431.141846 1485.063721 1556.397461 1560.159668 1509.381592 1553.526978 1590.333618 1592.542847 1583.765991 1542.857544 1488.390259 1418.013550 1297.017212 1181.531250 1119.101807 1138.122681 1193.101685 1287.265625 1379.587158 1469.152832 1554.476562 1605.002808 1631.997925 1651.578735 1651.942139 1646.723267 1610.721191 1586.746460 1557.937134 1643.723389 1705.223267 1761.190796 1771.503540 1757.893555 1707.514771 1620.380127 1537.991089 1446.851196 1377.479248 1358.991455 1303.012329 1195.839478 1115.182373 1035.687500 1015.000427 996.730530 971.950745 953.093506 937.943542 913.318542 904.796082 879.189209 839.354004 813.539612 809.613464 804.441101 799.802795 792.295532 784.302063 795.623657 786.737671 805.815979 809.488220 867.218323 935.680664 1003.690308 1081.949585 1168.136353 1305.286621 1394.810791 1494.552490 1578.145386 1669.131592 1763.446655 1821.952026 1857.460815 1869.554565 1896.621094 1946.864990 1947.018555 1894.838867 1820.205444 1778.921631 1762.927002 1774.178101 1862.417480 1985.160767 2112.977051 2128.235352 2078.586670 2033.702393 1942.716675 1864.490112 1795.644653 1719.280151 1642.068359 1565.207397 1502.299194 1439.121338 1385.946899 1354.785889 1310.619751 1260.647339 1225.519165 1238.942871 1288.568970 1363.541260 1445.296997 1509.209106 1603.105469 1588.444946 1514.875122 1376.676514 1214.608398 1076.038330 1009.941223 1004.680176 1097.766724 1266.961548 1429.312988 1513.261108 1610.503418 1689.868774 1712.513672 1765.425171 1838.794556 1975.724487 2142.002197 2238.582275 2246.528564 2242.633301 2241.949463 2283.043701 2379.375732 2410.281006 2462.747070 2508.693115 2595.994385 2737.472412 2809.624268 2696.399170 2634.400879 2584.222900 2500.379883 2429.149170 2335.961670 2227.500488 2158.679443 2040.689575 2045.304932 2159.549316 2286.322510 2254.098145 2188.185303 2224.160889 2271.721924 2183.777344 2052.254395 1917.640503 1784.789795 1641.740234 1586.753174 1655.959229 1596.746094 1425.987793 1252.701660 1105.418701 1003.186707 1008.626282 1041.021851 1051.875122 1053.850220 1061.291138 1085.492676 1201.510254 1398.394043 1593.642578 1773.902588 1997.494629 2108.265625 2136.329102 1994.472656 1825.753784 1761.549561 1688.676270 1624.315918 1657.296753 1742.283325 1799.307007 1891.551636 2074.604248 2250.476074 2329.283203 2298.855713 2275.979248 2167.519531 2159.114746 2266.114258 2448.081299 2649.296631 2850.522949 2793.111572 2670.426758 2531.288086 2419.624268 2298.220215 2272.290527 2383.894775 2603.168457 2860.364014 2907.571289 2820.552734 2837.201172 2831.974854 2674.561768 2532.441162 2427.455322 2425.116211 2553.261719 2677.669189 2856.622559 2904.263916 2842.868896 2779.181152 2732.554688 2695.040527 2667.238037 2621.036377 2490.472412 2328.124023 2180.623291 2056.256836 1883.697510 1709.355225 1627.247803 1703.039795 1927.081543 2055.544434 2137.404297 2257.920898 2386.608154 2529.777588 2647.103027 2777.702393 2700.943848 2592.973145 2491.378174 2476.541992 2386.814941 2272.680176 2158.123291 2060.321045 2039.493896 2103.230225 2198.938232 2257.630371 2437.335449 2638.459961 2661.271729 2627.557129 2525.302734 2389.754883 2273.643799 2208.111328 2129.150879 2032.939819 1992.121826 2031.441406 2001.693115 1983.530151 1992.942749 2033.691895 1979.981445 1956.846313 2134.551025 2274.756104 2242.360352 2294.147705 2250.445801 2211.418945 2173.069336 2113.963379 2028.344971 1955.511230 1865.772217 1763.757080 1658.676147 1522.180786 1367.072754 1227.645874 1131.164551 1033.750732 983.115417 966.785095 987.525269 1006.773682 1069.852051 1197.627930 1363.444580 1542.597412 1684.681885 1651.836670 1796.704956 1891.317993 1968.837280 2215.517822 2411.568848 2307.343750 2321.310791 2270.200195 2305.490479 2113.244141 1925.053223 1791.297852 1695.668335 1592.558350 1540.389526 1504.255493 1493.278687 1522.885498 1525.175903 1460.520996 1435.996582 1395.870605 1316.335449 1243.891968 1195.720215 1148.348511 1098.852661 1001.554321 1005.936768 1074.680542 1162.327881 1268.584106 1360.560547 1432.193848 1437.569824 1375.692505 1371.342041 1406.612549 1389.931763 1351.765259 1277.840454 1255.650757 1252.658936 1243.658203 1236.332275 1243.461548 1231.633301
1688.338867 1564.332764 1459.816162 1396.736572 1370.904785 1312.738525 1289.276855 1268.334595 1263.284912 1246.925171 1231.079590 1224.199951 1218.910034 1219.245117 1220.036621 1219.577637 1233.071533 1247.828857 1287.943848 1296.245850 1265.156250 1262.275146 1242.661865 1294.731934 1380.866333 1449.986206 1508.366211 1546.494141 1541.992310 1580.844971 1567.410400 1637.481445 1678.615723 1662.890625 1645.415161 1666.508301 1706.250610 1711.271729 1700.064697 1659.660889 1603.242310 1510.847412 1367.411133 1237.669434 1147.581299 1121.246826 1177.291138 1260.217285 1329.197021 1425.467773 1518.628418 1541.539062 1543.457764 1547.944458 1566.347656 1559.198364 1532.451416 1498.410034 1510.506836 1604.667969 1653.166138 1687.357910 1704.225952 1680.343384 1640.300049 1578.150391 1482.318115 1395.295654 1313.492798 1267.419678 1233.627075 1130.615601 1056.133911 991.042908 982.719788 998.029358 962.955078 924.167725 892.046692 853.638245 813.592712 807.258301 819.848450 849.993469 855.648438 844.857178 847.579712 829.572571 813.504761 813.811462 790.330505 810.485168 829.484680 918.931519 996.076660 1102.431519 1187.905151 1300.772583 1418.487549 1469.196655 1506.593994 1575.013428 1651.254883 1724.306641 1769.808350 1775.453857 1769.926880 1796.345947 1856.091553 1882.913330 1809.345703 1737.301880 1700.612305 1660.397095 1708.723267 1826.984131 1954.383911 2031.432373 2009.950317 1981.595947 1934.202148 1813.867188 1744.857422 1703.710083 1628.782471 1545.660278 1469.714966 1430.758423 1378.779419 1350.086426 1321.427246 1285.762207 1247.030273 1246.169312 1300.248169 1361.468872 1407.269043 1488.337891 1584.218872 1676.903076 1690.612305 1615.397827 1465.548828 1303.406494 1154.521973 1074.799805 1021.918213 1034.241821 1120.610352 1224.679565 1298.351196 1408.211060 1520.024902 1643.692871 1768.091064 1896.689575 1971.496704 2050.977783 2085.636719 2140.252197 2245.835205 2350.062744 2372.652588 2423.406738 2428.811523 2509.248291 2576.579590 2593.505371 2724.617188 2853.072266 2730.534424 2671.474854 2630.779541 2538.283447 2431.454590 2311.118408 2161.008301 2061.833740 2075.753418 2157.932129 2230.323486 2362.754150 2321.453369 2279.767822 2311.738525 2340.717529 2206.291992 2075.929199 1959.974365 1775.333374 1628.012695 1665.460693 1814.503540 1725.608765 1533.287354 1366.263550 1208.329224 1040.807007 1004.760559 1048.963379 1063.080688 1067.641479 1075.428223 1089.207397 1139.517456 1354.826538 1551.819580 1685.836426 1870.347778 1979.998413 2002.174927 1895.707764 1736.400757 1649.723755 1594.926270 1627.117065 1716.570679 1846.538940 1934.762695 1923.454956 2094.590820 2328.278320 2437.812744 2413.114502 2429.509277 2264.482178 2202.513184 2233.200684 2389.848633 2622.387695 2836.692627 2921.552246 2714.202637 2601.280029 2485.073730 2341.276855 2314.672852 2418.822021 2561.304199 2749.567139 2957.471191 3011.270020 2966.852295 2795.169678 2650.792480 2558.777832 2460.528076 2469.721191 2596.151855 2681.677490 2837.762207 2874.027100 2750.675293 2731.365234 2663.840088 2613.230957 2524.733154 2456.873047 2375.103027 2250.357422 2100.786621 1988.818359 1842.507446 1681.396118 1643.503174 1758.951294 2012.141968 2153.583740 2169.226074 2233.216797 2387.555176 2523.462646 2614.138428 2690.468262 2672.288818 2593.227539 2449.602051 2403.969971 2315.195312 2192.856201 2085.284180 2059.364014 2117.389893 2192.701416 2298.749023 2346.897949 2466.192871 2629.895996 2600.234131 2476.474365 2341.984619 2249.259277 2151.099121 2051.676758 2022.800903 1947.157471 1850.931763 1850.235718 1835.943848 1832.189453 1839.692139 1872.450073 1859.605957 1895.062500 2075.659668 2119.333252 2135.762451 2193.731934 2087.106445 2050.348633 2045.147339 2001.724487 1938.025879 1876.689209 1792.280273 1698.684692 1597.012451 1492.095703 1350.096436 1187.993530 1060.908691 1006.930725 965.622131 969.579468 993.380554 1031.239746 1114.141846 1217.564331 1356.446655 1531.488281 1718.576782 1744.484009 1824.755249 2055.968506 2134.856934 2286.193359 2475.862549 2505.859375 2574.951172 2394.725342 2257.617188 2063.415527 1903.807739 1771.424805 1651.970825 1582.019897 1557.114136 1528.671509 1543.079102 1591.858398 1640.618286 1582.652466 1498.647705 1383.142456 1299.928955 1234.265259 1169.728027 1103.825195 1056.894897 998.767944 1020.370972 1088.535156 1182.008911 1279.841919 1322.498657 1314.001465 1303.293945 1266.677612 1253.154175 1282.171997 1286.881348 1263.201294 1199.473022 1167.078735 1163.140869 1176.800903 1206.040894 1231.480957 1253.834839
1563.761353 1453.720825 1370.443237 1339.619995 1308.578003 1274.185913 1253.417969 1244.486938 1241.634521 1253.963379 1266.054077 1255.073975 1255.178589 1270.773193 1296.217285 1331.466064 1353.765259 1403.233765 1426.319702 1411.835815 1413.644653 1394.659546 1345.237915 1331.045166 1466.055786 1555.631836 1618.553345 1655.784790 1656.149902 1691.537964 1665.127075 1729.623901 1792.377686 1778.498291 1765.940063 1797.369263 1819.639771 1840.489014 1854.324219 1815.881836 1739.214600 1577.429199 1441.799438 1311.629150 1209.188477 1133.729004 1145.275269 1224.660767 1286.485962 1387.227417 1438.441162 1458.118164 1454.522583 1463.444702 1489.121582 1464.729614 1437.247803 1411.067871 1463.449341 1549.889404 1607.590332 1639.730713 1642.832764 1626.950684 1582.919800 1509.943726 1426.638672 1351.241455 1262.674683 1208.064453 1147.185669 1057.079712 994.271545 935.500916 948.463318 932.132812 905.254761 865.540527 836.146362 825.679932 841.742004 882.276062 906.559570 934.882996 940.070984 929.359375 928.686340 926.930420 913.169617 868.148376 803.231934 824.095398 899.562439 985.505798 1093.432373 1209.916748 1290.765137 1342.565063 1377.513794 1382.569092 1419.105835 1487.008789 1557.437134 1630.268799 1684.763550 1697.296265 1702.763794 1722.868652 1762.744019 1807.042725 1746.884399 1653.605835 1602.814941 1578.941162 1687.366089 1806.792969 1896.194702 1913.026489 1880.606689 1837.992920 1789.210205 1713.818115 1653.757324 1610.365479 1535.571655 1457.543701 1418.773682 1394.288574 1362.697388 1353.130005 1309.001587 1270.996338 1256.007690 1293.928345 1337.870728 1403.657715 1475.782959 1556.807251 1688.366211 1784.955322 1817.328491 1726.771973 1567.518066 1437.017456 1284.225708 1168.047974 1123.819946 1089.165771 1059.699829 1084.909790 1139.163086 1182.966553 1332.434692 1501.286743 1601.587891 1721.229980 1795.796021 1870.019409 1904.293091 1985.937622 2105.544678 2240.001465 2362.709229 2482.469482 2479.408203 2555.250244 2646.845703 2639.863770 2740.689453 2851.745605 2710.458008 2601.309570 2529.154541 2453.696533 2370.342773 2273.506836 2133.165039 2095.000000 2196.039795 2284.731689 2334.590088 2432.880127 2379.739746 2366.595703 2454.386230 2373.544189 2211.703857 2130.612549 1964.738770 1739.190430 1649.528687 1770.022705 1899.058350 1788.224609 1676.591553 1588.294189 1380.210449 1107.814697 1006.832031 1054.920532 1072.102539 1102.484741 1124.232422 1146.610962 1137.219727 1280.518433 1468.385376 1586.504517 1686.255859 1852.908447 1853.509399 1705.173950 1591.200317 1568.886353 1611.496460 1694.158936 1814.544312 1983.702393 2039.697144 1957.116089 2017.683350 2248.708740 2478.288086 2583.383789 2598.483643 2371.043945 2259.256348 2250.821533 2355.690918 2582.621826 2806.104736 2954.019287 2884.050781 2754.076904 2545.497070 2398.916992 2334.707031 2409.822021 2538.078369 2720.880615 2984.759521 3009.626709 2792.299316 2705.460938 2668.181641 2560.173828 2495.885742 2537.221436 2671.443848 2708.922363 2744.008545 2850.477539 2734.131348 2675.890869 2596.927002 2500.552002 2412.112793 2331.649170 2240.172607 2139.018311 2025.334106 1915.410767 1806.834595 1682.828857 1675.125122 1806.011963 1989.536377 2190.234131 2284.623535 2283.439453 2367.010254 2574.939941 2664.566895 2688.925537 2763.955811 2589.527588 2458.985107 2383.449463 2265.623779 2133.354980 2096.857422 2154.272461 2212.469727 2260.396240 2361.918701 2491.761230 2540.927979 2545.542725 2453.680420 2338.045654 2201.542480 2103.479980 2004.109253 1921.987305 1903.886353 1859.878662 1772.228027 1727.673950 1737.215088 1745.826172 1739.129639 1728.029175 1744.832275 1828.676147 1994.190552 1970.500854 2065.935059 2171.264160 2041.768677 1928.775513 1931.446533 1879.543457 1817.878174 1738.534302 1669.247559 1617.304443 1531.470337 1411.675903 1280.161011 1108.437134 1000.715332 978.840332 965.376770 967.081299 992.747559 1060.015503 1154.338013 1222.744629 1301.100586 1490.079468 1683.854248 1825.618530 1881.509277 1988.061523 2114.854492 2259.325684 2394.727051 2565.130859 2559.169678 2373.230225 2193.156250 2026.684937 1868.395752 1747.261597 1640.003540 1571.944458 1582.170654 1556.855957 1594.200195 1660.632935 1700.947144 1597.731201 1493.799805 1401.023682 1315.544189 1248.120972 1184.637939 1115.816406 1038.878052 999.611633 1015.445190 1080.493408 1153.869263 1193.734619 1202.746094 1172.502563 1172.663208 1160.051758 1156.693848 1168.613892 1170.561646 1142.051270 1134.688477 1193.989258 1235.819702 1291.673218 1335.568848 1355.632690 1395.084229
1427.521606 1336.210938 1308.683716 1315.021240 1279.533569 1278.559082 1298.441284 1298.069336 1302.601440 1349.613892 1365.625366 1331.421997 1355.059326 1373.340088 1469.287964 1493.163696 1533.452515 1574.736572 1575.605591 1552.326416 1582.326416 1544.611938 1458.657471 1351.453369 1502.655273 1630.647217 1712.645142 1776.632202 1792.767700 1825.265991 1780.163086 1816.611206 1916.187622 1915.574829 1905.771851 1937.989868 1966.280518 1984.362183 1955.022095 1880.015015 1791.554932 1643.526245 1502.516724 1393.743896 1331.802246 1190.845093 1109.114258 1157.739990 1269.676880 1325.079590 1322.876831 1355.970703 1347.109619 1370.610352 1414.961426 1388.602905 1361.715698 1350.450439 1408.549438 1458.024414 1513.955200 1562.593872 1603.629639 1594.436646 1540.041382 1466.165649 1387.210815 1290.689575 1204.156128 1147.766235 1092.958740 1022.239502 944.985535 893.693542 856.055725 858.621460 837.382812 845.030884 860.053589 871.127991 920.945557 958.362732 981.608154 1030.348511 1045.606323 1034.296875 1025.562622 1054.123169 1030.892212 960.440979 863.218811 823.270081 941.568420 1067.477539 1174.630005 1211.669312 1222.095703 1260.458618 1299.333252 1317.243042 1344.566772 1398.320435 1479.259888 1558.190308 1607.696411 1617.454224 1596.018555 1632.135010 1680.956665 1730.202148 1683.672485 1593.391602 1491.579346 1530.203857 1643.057251 1740.471191 1786.955078 1805.299805 1788.779175 1747.201782 1699.383179 1630.337280 1568.936035 1532.499756 1494.675171 1444.667480 1404.913818 1377.473999 1364.145874 1348.639160 1352.130127 1329.187378 1343.010132 1377.602783 1401.574707 1486.213989 1579.407349 1646.741943 1777.545898 1899.526123 1930.203003 1837.244263 1702.090942 1573.116333 1467.502441 1334.112549 1244.365601 1234.285889 1141.074219 1076.154541 1057.437744 1071.765381 1176.814819 1317.874023 1432.873047 1528.444336 1603.197998 1689.289307 1786.179565 1907.968506 1990.676270 2113.726807 2284.057129 2438.310059 2523.871826 2600.799072 2695.213135 2710.026611 2758.261719 2803.156982 2783.390625 2645.792969 2535.420654 2485.835205 2430.765137 2300.040039 2156.746826 2169.271973 2265.604736 2382.052979 2466.290771 2507.212646 2446.113037 2408.500488 2495.142578 2376.912842 2270.916504 2165.286865 1920.627930 1723.764771 1720.632324 1902.558472 2032.763184 1992.006958 1867.211304 1693.976318 1414.808594 1180.945190 1054.360229 1035.622314 1081.272705 1139.312744 1202.301147 1271.718506 1234.885986 1205.471924 1413.396606 1517.076660 1576.932007 1659.293335 1665.613892 1566.640015 1542.456177 1559.432007 1604.715698 1721.493896 1904.360229 2101.712402 2164.458252 2027.119019 1989.979614 2168.000000 2388.028076 2576.982666 2649.684082 2464.432373 2326.031006 2284.849854 2362.561035 2510.586670 2662.938232 2855.566162 2959.925781 2747.051270 2575.136719 2463.610352 2375.265625 2415.378418 2523.809814 2701.937500 2976.834229 2960.351318 2853.352295 2800.950195 2679.602051 2595.701416 2548.601074 2605.169678 2795.236328 2779.528564 2780.733398 2829.684570 2733.166504 2676.348389 2603.720215 2519.156250 2389.139648 2274.951172 2163.877197 2081.537842 2019.389038 1906.482544 1775.989990 1682.269897 1700.550415 1850.188477 1983.619507 2209.829346 2366.816162 2376.642822 2395.096191 2568.518066 2717.997559 2765.400146 2771.932617 2602.748291 2494.386230 2350.673584 2205.800293 2125.224609 2198.248291 2255.559570 2335.677246 2325.406982 2401.541748 2579.629639 2571.180176 2433.266602 2330.676025 2225.762695 2094.345459 2011.051636 1939.699707 1846.755249 1757.437134 1734.427856 1651.411011 1598.080078 1652.257446 1649.756592 1672.452515 1606.671509 1587.841064 1725.583252 1878.279175 1840.307251 1962.674805 2095.476807 2008.035645 1826.942383 1780.485229 1748.713745 1700.941406 1619.627075 1524.702393 1477.404175 1395.363770 1272.318359 1133.685791 1007.265381 968.658813 969.291077 976.116699 980.611511 1029.076416 1118.491943 1244.800049 1367.426514 1355.343262 1420.022583 1645.587402 1787.653687 1976.003662 2072.085449 2150.336426 2219.876465 2349.870850 2402.539795 2401.500244 2281.959717 2109.994629 1956.194214 1817.642822 1711.362305 1637.689575 1606.318481 1646.376953 1595.189941 1675.905762 1745.020996 1751.963257 1636.689941 1529.417236 1423.860718 1344.745605 1306.453857 1223.350586 1130.600342 1049.295288 1005.827026 1005.038757 1044.020020 1096.007812 1128.288574 1121.465332 1079.948853 1076.046143 1084.709106 1102.764893 1119.021973 1141.584717 1173.610962 1196.838623 1260.318237 1351.516968 1412.864014 1460.468872 1475.832764 1529.338867
1340.634888 1294.996338 1284.351807 1282.347900 1279.086792 1338.062256 1404.925903 1436.855835 1461.229858 1486.900879 1488.859375 1462.108154 1507.471680 1519.039551 1597.277588 1621.493896 1656.190430 1707.925049 1727.158447 1740.721069 1745.674072 1665.027954 1515.805664 1404.372437 1533.341797 1709.153320 1816.500122 1896.649902 1952.331421 1975.477173 1899.558105 1885.958862 1962.484253 2027.558228 2045.066162 2093.471924 2150.004883 2125.899414 2004.113403 1903.211182 1809.163208 1688.869385 1555.991699 1477.610718 1433.434814 1301.337280 1140.166504 1102.211060 1140.337036 1205.938721 1237.545654 1251.922119 1220.091675 1251.328613 1308.972656 1297.575928 1275.507812 1289.790649 1338.768799 1366.629517 1422.551392 1462.192871 1512.979980 1544.579224 1560.887207 1489.703735 1352.486694 1213.491089 1108.749146 1061.043579 1013.999146 965.230042 925.791992 858.904785 850.421814 866.991394 892.274048 936.666260 951.145203 998.320068 1023.809326 1045.866333 1073.752197 1110.969849 1123.374023 1133.488892 1142.872559 1138.920654 1094.252563 994.157349 936.245850 839.964844 849.014771 987.351013 1069.367188 1084.058594 1113.205566 1161.416016 1198.732788 1209.355103 1237.993530 1314.903198 1419.240845 1482.960693 1516.905762 1524.986816 1513.346313 1547.693604 1593.417847 1639.522949 1596.331543 1505.830933 1415.051514 1487.798218 1588.486572 1643.708374 1674.694336 1697.649902 1695.903198 1671.781128 1637.073975 1590.338257 1559.756348 1551.187012 1516.588989 1447.095337 1384.780884 1361.149170 1371.292969 1395.109009 1385.140015 1387.594849 1445.879883 1454.969849 1487.568848 1597.216675 1694.713989 1759.442627 1860.134399 1965.793945 2011.799927 1970.523071 1848.996216 1735.047729 1616.325562 1480.280029 1378.726318 1333.416504 1265.228638 1264.588989 1207.321899 1119.288330 1081.163940 1135.763916 1230.576172 1357.475464 1454.166138 1565.348877 1709.131348 1786.396118 1907.894775 2094.970459 2251.742432 2311.581543 2367.015869 2484.533691 2555.656982 2553.411133 2585.247559 2615.653809 2731.215820 2775.457764 2728.410156 2647.763428 2525.569824 2330.569824 2233.456299 2222.389648 2289.615967 2422.565918 2565.463623 2570.133057 2524.926514 2497.919678 2480.183105 2343.879150 2218.360840 2103.102295 1876.489502 1720.516235 1813.245117 1956.795044 2129.901123 2046.056519 1867.231934 1657.593384 1416.078613 1302.575562 1172.745117 1035.816528 1065.315552 1139.584229 1230.206421 1295.183594 1334.628052 1274.681274 1301.536133 1426.105103 1497.160645 1532.053223 1545.117188 1540.854736 1548.937622 1568.884155 1664.275879 1815.639648 1921.908691 2074.577881 2238.471436 2117.055420 2010.558350 2123.882324 2280.965332 2474.927002 2616.767822 2464.951904 2351.527588 2283.482666 2349.560303 2542.480469 2755.149414 2933.593750 2950.569092 2758.154297 2634.308594 2524.136230 2434.868652 2439.952881 2529.652832 2693.044189 2941.114502 3019.625977 2879.933350 2760.828125 2690.525635 2617.315430 2592.894287 2643.577881 2875.486328 2837.373291 2849.709961 2884.625000 2797.896729 2701.466553 2572.781982 2481.168945 2414.159912 2343.837891 2228.513428 2137.961670 2061.728760 1932.682251 1791.262451 1689.684082 1723.566284 1876.494385 1991.781250 2198.441162 2431.815674 2485.509766 2495.723145 2558.930176 2647.709961 2704.932129 2615.176758 2528.856445 2435.119141 2296.513184 2174.731689 2195.260254 2283.962646 2391.619141 2427.533203 2402.014648 2504.651123 2555.477051 2466.660645 2350.584229 2199.567383 2074.043945 1967.709351 1880.375610 1823.576416 1759.162354 1654.653809 1568.761353 1516.605103 1499.658691 1521.991943 1514.778564 1540.849365 1508.361816 1450.614868 1561.792847 1689.339600 1703.085449 1845.693115 1977.203979 1970.643066 1799.025513 1651.742676 1578.971436 1586.344116 1512.535645 1399.706543 1326.473633 1254.597656 1139.110474 1032.108521 973.967224 970.106140 979.292969 993.108948 1023.731567 1081.043335 1182.440552 1307.961304 1462.317627 1511.513550 1426.522217 1551.661255 1723.666870 1931.476807 2107.147461 2268.613037 2385.289062 2411.207031 2273.434814 2231.540527 2146.133545 2016.018555 1896.205078 1796.604492 1701.118896 1652.654663 1688.008057 1690.413574 1639.248657 1755.791626 1779.388916 1767.352661 1645.999268 1550.105713 1465.834717 1410.625732 1322.405151 1228.811157 1139.503784 1072.157837 1019.798828 1005.300232 1011.575500 1024.009277 1059.854736 1072.239380 1110.581787 1151.684570 1201.048584 1196.247681 1195.395264 1217.134033 1255.673340 1300.199219 1308.517822 1371.161255 1445.026367 1562.428345 1613.988281 1649.995117
1317.979004 1285.608887 1283.338257 1323.985596 1377.799805 1453.877808 1506.685547 1567.578369 1619.952026 1612.209473 1599.929077 1589.414062 1639.740845 1638.051147 1715.367432 1732.936646 1755.784424 1823.592896 1872.602051 1912.017090 1843.818481 1746.950928 1601.705322 1463.510498 1542.024414 1703.895752 1843.288452 1970.398315 2076.789551 2125.715332 2050.551270 2013.629639 2065.138916 2109.286133 2215.904785 2276.503174 2324.385254 2237.980957 2080.840332 1961.603271 1851.283447 1722.987061 1615.137817 1574.986206 1534.238159 1406.416504 1260.397949 1151.144653 1102.522827 1103.781982 1127.604004 1135.168823 1107.365601 1134.573853 1192.303223 1209.025146 1177.497803 1210.848511 1242.820679 1283.033447 1327.834351 1347.444336 1380.376587 1430.088745 1500.751587 1494.268921 1362.390381 1183.107788 1060.671509 985.597900 929.216675 896.926270 874.095093 876.689697 916.907410 970.367798 1014.824463 1026.545532 1067.987183 1126.607422 1117.408325 1142.388428 1179.814697 1201.578247 1209.202515 1216.962891 1225.036377 1207.432007 1119.635620 1055.585571 965.020325 872.473206 857.405884 838.094299 915.153076 985.151733 1026.468506 1073.482178 1097.439819 1102.918945 1143.016479 1218.288940 1325.598022 1369.244629 1401.947388 1435.356567 1425.525635 1446.068481 1479.293945 1521.934082 1499.380981 1410.476562 1356.474121 1435.020264 1494.998413 1550.381348 1583.353638 1610.548218 1626.580688 1629.819580 1588.837036 1552.690796 1552.506714 1525.133789 1473.502197 1425.106689 1377.803833 1385.714233 1426.780151 1447.995972 1434.419800 1489.707275 1501.105103 1526.082031 1592.817993 1689.264648 1783.209839 1847.072998 1942.584839 2043.386719 2112.567627 2077.459961 1972.059326 1840.681885 1682.187012 1544.781250 1519.943604 1480.446289 1447.746826 1489.583984 1441.304199 1321.063599 1150.249756 1082.939453 1091.284668 1183.589478 1289.884155 1412.489502 1529.539307 1667.377563 1764.351807 1965.149780 2075.936035 2141.820557 2231.751709 2320.885254 2376.821289 2396.127441 2422.040771 2456.962891 2560.838867 2643.903076 2709.304688 2713.732422 2630.699463 2439.193604 2334.166260 2280.763672 2318.880859 2418.274658 2596.659912 2673.426758 2634.880859 2541.073486 2438.637451 2322.677734 2198.361572 2036.082275 1840.761353 1743.165283 1844.231079 1987.010010 2115.839844 1985.280396 1805.337769 1632.700317 1484.869873 1408.377075 1271.316650 1092.808105 1024.658081 1093.614990 1249.404297 1333.591919 1396.921631 1428.014404 1440.314331 1495.440918 1579.802002 1627.726440 1575.412842 1559.175293 1554.952759 1573.696411 1710.843628 1930.426758 2091.130615 2159.248047 2296.643066 2188.442627 2047.365601 2136.953613 2253.624023 2412.497070 2587.345215 2494.679932 2374.682129 2319.336426 2343.562744 2526.251221 2778.239746 2999.092529 2894.075684 2724.117432 2616.678223 2558.209229 2486.550049 2467.722412 2521.308350 2679.662598 2905.787354 2946.997070 2834.358887 2784.958984 2697.114502 2650.945312 2626.604004 2723.117432 2946.420898 2933.767090 2895.499756 2870.905762 2737.203125 2636.206055 2588.693115 2571.004395 2577.717041 2534.808594 2446.965332 2310.114258 2130.487793 1976.506836 1833.917236 1704.311035 1739.717163 1870.962524 2016.750122 2173.826416 2412.839111 2599.695312 2625.973633 2668.339355 2705.299561 2705.617188 2610.775391 2490.585938 2374.649170 2253.663086 2197.476562 2266.862549 2364.915039 2502.924561 2505.501709 2509.174561 2586.064453 2459.370361 2341.979004 2233.194824 2098.427979 1990.326782 1883.818359 1759.370728 1710.653931 1643.521240 1564.992432 1484.423340 1435.329956 1414.799316 1398.549072 1378.149658 1364.775635 1356.869507 1347.669678 1379.848389 1460.760864 1569.389648 1753.361938 1882.911133 1944.644165 1810.548096 1659.656982 1494.601074 1400.914062 1381.004150 1294.161987 1202.225830 1119.317017 1032.688843 977.001221 970.287659 971.966003 989.618652 1020.018433 1064.598022 1138.499268 1230.836914 1366.731079 1528.015137 1633.085449 1564.350342 1530.662231 1717.326782 1922.096802 2066.735596 2201.564209 2363.402588 2448.419678 2287.062988 2172.339111 2095.969971 2003.258057 1861.132202 1766.323853 1722.118896 1731.686890 1788.515747 1699.751709 1703.243774 1836.534302 1870.733643 1770.246704 1626.774414 1528.750977 1470.941528 1400.416382 1286.617432 1202.350830 1125.406860 1087.585205 1034.181274 1007.768860 1041.202026 1080.672363 1110.820312 1146.931885 1212.720825 1263.000854 1349.113037 1349.610229 1298.086670 1313.235107 1358.878052 1426.327393 1452.125122 1487.865356 1523.385498 1565.070435 1693.015137 1827.050049
1288.438232 1286.803833 1331.352783 1394.568481 1484.468018 1585.317383 1627.106689 1675.276245 1738.651001 1720.046997 1710.958740 1679.205811 1741.773926 1746.423706 1847.570068 1837.386108 1892.434326 1963.702637 2022.996094 2037.431396 1947.667847 1781.785889 1631.889893 1511.606201 1571.897339 1760.306641 1895.245850 2027.517822 2184.799805 2290.064209 2204.006348 2155.243896 2152.157227 2193.340576 2364.008545 2462.619385 2431.355225 2271.793945 2166.066650 2028.157959 1883.202881 1786.292847 1707.464722 1691.644653 1644.520264 1515.965454 1362.959595 1249.460449 1235.549927 1158.208984 1117.108032 1084.531372 1064.429321 1047.083740 1059.739624 1070.920898 1065.345947 1109.425659 1143.579224 1166.585205 1228.379517 1255.968018 1295.363892 1336.640259 1396.370972 1466.761963 1426.446289 1246.577393 1084.561523 953.834106 878.425110 884.067383 904.028076 958.543091 1033.968018 1084.914062 1114.803223 1137.841919 1175.417603 1206.130371 1245.588867 1256.179565 1255.795288 1279.368652 1299.921997 1312.080566 1321.018677 1260.016113 1174.964722 1068.692871 961.107788 976.593323 938.702759 846.657166 814.776489 856.491455 908.575317 961.135498 976.213074 994.728882 1033.100586 1111.791382 1218.313721 1268.404419 1311.814819 1337.108154 1320.876587 1339.442749 1343.350830 1372.837646 1380.778076 1319.654663 1314.468018 1356.499512 1414.109375 1448.234863 1503.998047 1567.402710 1583.448120 1575.868042 1554.602539 1545.975464 1543.427856 1503.583862 1472.159546 1412.533813 1398.920288 1435.582764 1490.986694 1494.589722 1500.696167 1543.096313 1567.686279 1610.801880 1652.691650 1767.027344 1873.024170 1949.057739 2054.473145 2156.944824 2215.060059 2119.522949 1984.108154 1874.757080 1800.218018 1702.464111 1714.460083 1631.996460 1621.623657 1658.532104 1613.099854 1489.846069 1314.714355 1189.058838 1117.071167 1112.274048 1189.957642 1271.881470 1445.724487 1543.779541 1612.352295 1770.518188 1877.653931 1979.280518 2062.974365 2142.323242 2203.788574 2233.696533 2257.579346 2327.630127 2420.847168 2504.236572 2570.134521 2616.298340 2622.211426 2467.843262 2345.733154 2302.407227 2364.027100 2428.857910 2558.778809 2683.645508 2713.242676 2580.121094 2457.234375 2368.820557 2262.919189 2055.331787 1831.830566 1770.252075 1883.735474 2055.163574 2053.289307 1873.682739 1721.618042 1584.175415 1473.502075 1401.739258 1315.130737 1151.131958 1045.189453 1046.921265 1167.658936 1319.881592 1416.156494 1479.141846 1558.157715 1623.315918 1661.635498 1653.677368 1598.181152 1563.935913 1561.486694 1572.653809 1705.399780 1898.569824 2097.443359 2238.206055 2352.400146 2257.546143 2099.889404 2119.774658 2258.609863 2424.611328 2594.906250 2534.143555 2400.025635 2359.513184 2383.909424 2497.177734 2699.035645 2932.968750 2919.500244 2773.747070 2672.968750 2570.062500 2517.303711 2515.900146 2535.717285 2627.037354 2820.354248 2975.116699 2946.847900 2820.735840 2735.048340 2701.515625 2687.599365 2837.171387 3070.176270 2973.224609 2773.449951 2733.210205 2670.709961 2561.937500 2499.754150 2479.961426 2536.742920 2413.934570 2342.275635 2327.838867 2182.226562 2017.724121 1859.134399 1715.359619 1752.958252 1884.354370 2058.137451 2223.011963 2462.056152 2638.526123 2781.138672 2834.143066 2814.108398 2772.355469 2677.421875 2516.171143 2358.059570 2247.799072 2283.987793 2347.671631 2424.380615 2597.972900 2597.125977 2578.458252 2476.073730 2390.182617 2272.567383 2149.610107 2028.187378 1931.025391 1817.660767 1672.058350 1596.456909 1546.091064 1473.475830 1441.183350 1428.007202 1402.044312 1390.838989 1395.009888 1348.545776 1308.552124 1288.685669 1269.906372 1297.221191 1428.545044 1590.592407 1720.531372 1818.447998 1737.240845 1628.790649 1502.011597 1341.502441 1213.796021 1185.647217 1101.495361 1024.995972 981.141663 973.020508 972.805969 983.052185 1022.202881 1052.040039 1097.735474 1218.821899 1307.965088 1431.924316 1582.838501 1717.811279 1701.383545 1607.543213 1655.386108 1819.679688 1933.654175 2084.549805 2266.079102 2460.791748 2365.125000 2238.647949 2175.125244 2067.376221 1885.208984 1798.016113 1809.476685 1891.678833 1869.047852 1747.670166 1846.850708 1910.019653 1879.384644 1736.652954 1590.285278 1491.563599 1400.686523 1328.734131 1243.437988 1193.898926 1171.616577 1158.183472 1057.851196 1020.302368 1078.880737 1117.913330 1133.663208 1219.518311 1304.629028 1384.410278 1487.920166 1532.321655 1450.570312 1433.539795 1517.348755 1567.467651 1618.786987 1641.216919 1643.432983 1721.271973 1767.771851 1891.737305
1294.078735 1338.222900 1458.844482 1530.799561 1574.255981 1667.429199 1734.541260 1771.953125 1820.732422 1839.397949 1796.478760 1766.085449 1818.162354 1855.982666 1932.616455 1933.401978 2014.582397 2103.737793 2140.428223 2091.224609 1974.002563 1806.176025 1647.430298 1544.871094 1616.506592 1734.317749 1877.062500 2048.434814 2195.517334 2354.820068 2396.058838 2280.407715 2235.804199 2331.961426 2496.463135 2597.838867 2489.834229 2303.907959 2164.841797 2015.296387 1879.593994 1834.072998 1813.117310 1784.717529 1703.729248 1562.024780 1417.177490 1397.785767 1371.338501 1306.640503 1241.667725 1222.006226 1178.937988 1159.813354 1098.566040 1073.497559 1055.329346 1027.801758 1028.807373 1062.302002 1117.028198 1161.711304 1205.796143 1260.455078 1327.063843 1390.870728 1418.008789 1316.143311 1132.336182 972.613953 892.875000 974.369019 1011.592285 1054.460693 1109.292969 1145.675781 1168.276367 1195.055054 1242.671021 1293.777588 1354.775146 1419.799805 1392.622437 1382.959473 1402.662842 1404.232666 1381.923706 1304.532959 1226.135254 1092.967529 1084.316406 1108.409302 1059.745117 948.327271 835.057678 801.023743 806.084106 837.020508 869.578430 898.982056 951.995728 1028.510986 1103.245239 1180.743164 1204.838745 1210.349976 1202.914185 1212.134766 1220.826050 1242.987427 1269.357666 1252.339233 1254.485596 1299.394531 1341.602051 1367.901001 1406.375977 1467.586914 1533.619873 1552.823242 1535.443115 1535.991333 1534.096313 1512.654541 1454.804077 1420.947510 1413.264282 1480.818726 1562.221436 1560.996582 1586.704102 1624.873657 1622.461670 1648.707153 1737.580688 1831.143311 1948.807739 2040.915894 2199.984375 2314.098145 2288.039062 2122.014648 2054.049072 2019.814087 1963.602173 1893.407349 1851.079346 1669.805298 1718.189697 1760.769897 1714.537109 1609.553955 1467.210571 1318.105713 1191.327148 1114.014404 1122.374390 1169.460449 1256.956909 1389.603027 1479.348389 1598.737793 1695.299805 1795.170288 1896.902222 1971.736694 2027.107300 2059.757568 2154.149170 2241.828613 2287.924072 2377.559082 2463.624023 2495.445312 2517.861084 2471.272705 2398.711182 2413.050293 2429.830078 2462.527344 2531.011475 2684.640625 2668.009033 2488.789551 2367.419434 2286.759766 2118.489258 1985.933716 1844.933716 1825.948730 1950.660522 2081.067139 1933.446045 1767.135864 1624.524658 1506.864380 1431.081421 1376.406128 1344.637085 1244.865356 1130.455811 1060.957153 1074.684326 1215.152100 1418.580200 1533.174683 1573.539917 1607.306763 1648.212769 1647.553589 1614.423218 1585.254517 1573.576538 1612.435547 1675.794189 1814.319702 2008.813965 2218.422852 2373.244141 2327.615967 2161.958984 2123.659912 2256.082275 2480.078857 2657.048828 2534.706299 2428.273926 2420.297119 2436.776367 2498.314941 2590.888916 2785.915771 2921.270996 2890.299072 2762.407227 2649.691406 2585.241211 2548.011230 2552.403809 2592.930664 2747.457275 3006.963867 3030.812012 2867.367920 2789.698486 2772.832275 2775.582520 2975.482666 3004.497803 2819.114990 2670.317871 2648.471680 2645.097656 2585.438232 2505.255615 2427.674316 2383.444580 2302.278564 2154.199951 2113.522461 2100.010498 1997.290649 1839.573242 1713.225220 1744.638184 1897.376831 2101.782227 2287.699219 2500.091309 2703.077148 2861.740234 2894.991211 2728.936035 2615.211182 2544.331055 2450.010010 2308.691895 2282.971924 2384.494873 2433.268555 2507.776123 2662.578369 2609.188477 2479.491455 2365.610596 2285.486084 2198.808838 2076.917480 1970.717163 1843.639404 1717.895020 1584.541138 1493.904419 1464.595459 1466.218872 1518.648926 1549.750854 1573.526123 1534.706543 1530.242554 1480.631104 1425.625122 1360.808105 1308.210938 1231.660156 1258.891968 1408.584717 1602.923218 1693.770630 1619.891968 1516.055420 1396.122437 1277.573975 1143.437134 1077.479126 1018.200684 981.166931 976.384277 978.775269 1009.418579 1052.021606 1087.084473 1154.269775 1139.731812 1216.185425 1366.623779 1499.260864 1645.403076 1804.350586 1885.807251 1767.561523 1721.947388 1745.706665 1896.468384 2066.509277 2240.235840 2481.690918 2474.272949 2312.304688 2152.690674 2014.822998 1936.018799 1878.923706 1912.333130 2003.463379 1915.693237 1867.366943 1996.365723 2018.529419 1852.310181 1691.683350 1547.843750 1452.529175 1381.161255 1333.092285 1304.032349 1278.516846 1287.203979 1237.457397 1116.125610 1027.142456 1024.598633 1078.215576 1128.798096 1211.400269 1311.539795 1426.272583 1520.185791 1616.042236 1622.750488 1579.008545 1626.167358 1681.902222 1771.656372 1798.476196 1766.835815 1826.429321 1924.444336 1964.497314
1366.257935 1485.092529 1549.687012 1638.011353 1711.851562 1715.684570 1812.100464 1874.376465 1915.785889 1923.320312 1892.190308 1864.340820 1943.986816 2005.263550 2025.285767 2064.769531 2119.399170 2232.533936 2254.804199 2140.628906 2015.588623 1864.963257 1682.258545 1589.518188 1687.863037 1850.364380 1945.257446 2039.686279 2169.002441 2331.604736 2468.214355 2351.614502 2331.446533 2443.880615 2572.923584 2547.846680 2445.379883 2307.602539 2124.445801 2004.552979 1903.007446 1922.949829 1900.780029 1820.679810 1682.104858 1564.688721 1535.663452 1583.417236 1526.648438 1415.649292 1349.308716 1369.055298 1311.648438 1304.742310 1275.172485 1232.055542 1174.156494 1094.493774 1037.258545 1002.309875 1032.512085 1084.201294 1122.318237 1177.184692 1218.987671 1249.911621 1276.078125 1253.727783 1119.068237 927.002258 946.734070 1070.153320 1097.672241 1122.325195 1146.808960 1175.268311 1210.970337 1248.471558 1308.016235 1380.685913 1447.721313 1516.031250 1552.353760 1489.615601 1489.663330 1472.440674 1433.268066 1371.406738 1249.059692 1164.267456 1212.620605 1275.340210 1189.890015 1089.385010 977.779602 898.894226 861.840332 865.921448 848.389160 821.446899 820.667664 896.966370 1026.864746 1083.746704 1094.042236 1085.388184 1078.906860 1087.215698 1108.723511 1137.397217 1160.246948 1162.309204 1183.639893 1224.564453 1244.935547 1258.673096 1288.465942 1356.090332 1453.739502 1528.510620 1552.947388 1550.637207 1511.385132 1460.089600 1450.929077 1436.148926 1452.569824 1527.623779 1610.425537 1629.752686 1647.795654 1631.675171 1650.936768 1697.152832 1833.684204 1883.718018 1983.037720 2120.889648 2287.422852 2360.234131 2262.285645 2186.874756 2248.260986 2220.765381 2120.980713 2046.107544 1872.277222 1706.711792 1789.111084 1848.350586 1784.675537 1686.962891 1562.350220 1400.665283 1279.847168 1205.814087 1164.188599 1143.565674 1150.228027 1249.552002 1344.905396 1458.274292 1543.167603 1636.887207 1720.770752 1807.655884 1885.584717 1920.001587 2047.805298 2152.232666 2230.681396 2294.718262 2369.503662 2414.125244 2457.135254 2474.254639 2437.645996 2466.647705 2504.458496 2519.439697 2625.630127 2766.468262 2769.366699 2584.820312 2439.924561 2316.130371 2178.908203 2011.596191 1861.925171 1871.174805 2020.569580 2017.732544 1854.673584 1711.019287 1560.350708 1487.365234 1456.485596 1384.631714 1362.524902 1329.967041 1244.857056 1150.998047 1071.048584 1138.579224 1302.279785 1447.856567 1532.137451 1582.459595 1629.478760 1668.265869 1657.710327 1630.872314 1646.739136 1735.591309 1793.843018 1964.926025 2066.895264 2206.104004 2336.400879 2361.000000 2187.930908 2137.451904 2265.317139 2503.784668 2710.335205 2610.600830 2548.046631 2524.175537 2520.986816 2557.875977 2584.092529 2648.014404 2813.128418 2964.876465 2812.362549 2691.588623 2617.370605 2573.744629 2575.717529 2612.086914 2795.343018 3041.937256 3023.303223 2911.669922 2857.585693 2847.501221 2899.714111 2936.085938 2751.108643 2664.030762 2585.430664 2558.581787 2546.795410 2506.788818 2444.998779 2326.606445 2210.780273 2108.286865 2029.214111 1987.789673 1944.530029 1867.341553 1759.649658 1718.883423 1781.899414 2009.715210 2149.128418 2300.319092 2494.004150 2708.849365 2892.117188 2797.971191 2667.878662 2607.354248 2549.858887 2415.982422 2353.874268 2393.321289 2514.253906 2534.412598 2614.709961 2649.511230 2542.045654 2462.518311 2359.760010 2266.651855 2139.430908 1994.977905 1878.246460 1760.504639 1619.732300 1514.190918 1468.922485 1538.352539 1654.382812 1685.468750 1714.280396 1743.173584 1687.941162 1661.087646 1603.553589 1563.859009 1505.194580 1415.264038 1303.226929 1198.072144 1266.473755 1477.091675 1563.404541 1525.972534 1414.228271 1289.453003 1168.132202 1043.191772 1026.026367 998.491699 981.219116 991.927612 1039.892822 1095.666626 1135.134888 1182.604614 1276.872070 1249.004028 1190.560425 1338.581177 1506.111328 1670.727295 1867.597168 2011.606567 2011.399048 1905.679077 1882.667847 2059.727783 2219.286377 2292.999512 2452.693604 2372.360840 2246.764893 2105.131592 2005.388916 1991.124756 2021.746948 2045.773193 2117.757812 2021.644165 2037.748047 2114.272217 2062.142822 1872.725220 1684.358276 1570.937988 1531.137573 1519.865356 1464.522583 1415.016846 1392.390991 1383.669067 1305.863647 1182.068970 1075.323853 1021.899902 1034.447876 1109.740234 1177.799805 1287.838135 1388.822876 1487.553223 1587.273560 1681.579956 1742.488281 1731.447876 1770.969116 1878.850342 1923.188354 1887.799805 1938.093628 2041.636353 2108.389404
1507.706787 1648.491577 1697.851807 1695.627930 1797.501343 1857.373779 1907.939697 2006.047363 2079.448975 2087.041016 2019.450562 1981.416748 2076.449707 2151.875244 2141.953369 2168.676514 2247.845459 2383.669678 2355.280273 2187.025146 2015.305786 1855.991089 1709.248901 1642.512207 1761.477051 1913.951416 2098.348389 2213.907959 2333.821045 2436.336670 2574.831787 2496.917969 2488.052734 2563.054688 2611.232910 2427.058350 2312.403320 2240.251953 2120.870850 2030.545532 2006.426025 1993.260010 1877.399658 1757.392334 1681.186157 1683.197388 1687.837769 1727.216919 1665.332275 1508.709473 1485.945435 1482.593506 1461.589111 1463.616699 1439.662720 1370.779419 1301.270386 1253.329834 1177.522827 1128.057861 1038.040405 1007.206787 1008.078064 1031.497192 1101.894775 1135.703979 1153.749268 1130.800049 1051.886230 903.189148 996.846985 1089.737061 1142.586548 1192.815918 1213.667114 1241.657715 1276.997192 1337.036621 1388.481079 1430.494263 1524.426270 1604.281860 1664.675171 1625.545044 1571.911621 1528.630859 1488.180054 1444.126465 1311.079590 1309.804077 1384.477051 1369.386475 1301.846069 1224.775269 1139.259277 1076.289795 1027.635498 993.244995 960.632996 912.020569 841.763489 820.864624 895.693298 969.650391 987.684204 988.889404 989.456238 1016.984741 1052.389893 1070.967773 1078.060669 1092.833862 1112.595459 1136.182373 1140.721069 1141.948975 1170.004639 1246.889526 1356.901367 1431.558838 1521.651123 1548.701782 1512.710449 1505.414673 1522.864868 1507.203247 1518.583374 1582.721558 1633.737183 1675.091797 1692.235229 1640.069946 1683.932251 1777.034424 1903.730103 1979.156738 2055.798340 2140.854980 2313.943115 2424.242676 2311.661621 2332.982178 2428.938232 2363.132568 2268.801514 2109.955078 1890.700562 1735.771851 1807.268066 1908.387207 1840.079834 1759.450073 1621.388062 1503.236206 1383.931396 1307.150635 1232.618774 1208.003174 1201.248169 1182.376099 1219.843994 1312.601929 1447.867310 1534.684814 1593.569336 1669.710693 1752.345581 1855.742188 1957.295532 2064.226074 2160.656494 2245.721924 2284.723389 2371.606689 2451.531006 2498.883545 2492.635498 2555.532471 2562.121826 2620.908936 2675.160156 2816.481689 2902.768555 2771.379150 2677.075684 2467.443604 2255.431641 2038.124023 1925.744629 1953.529785 2057.590820 1995.984985 1821.374023 1688.704468 1575.985229 1529.324951 1481.932739 1402.663574 1376.619995 1363.932373 1372.929199 1270.014282 1132.906006 1091.300537 1147.373535 1339.521851 1447.126465 1512.666870 1571.931763 1610.618164 1632.165649 1662.209961 1756.827026 1861.572144 1983.104736 2126.136719 2212.504883 2313.510986 2389.072021 2419.816895 2232.520996 2165.367676 2280.728027 2500.103271 2769.968750 2781.337891 2710.417236 2680.345703 2671.539795 2695.813721 2691.835938 2763.056396 2853.974609 2937.405762 2770.615723 2731.557373 2645.199951 2619.080322 2611.799805 2648.341309 2858.103027 3091.416992 3056.914551 3003.756836 3006.645020 2905.207520 2786.594971 2748.815674 2687.186035 2578.308594 2524.386963 2505.396973 2448.905029 2396.222900 2286.590332 2164.419922 2082.267334 2028.476929 2001.103760 1989.177002 1918.713379 1837.262817 1744.010132 1736.046387 1876.472290 2111.442871 2240.787598 2315.375732 2429.156494 2603.374023 2814.141846 2876.820312 2714.894531 2663.326172 2605.069580 2528.701172 2509.988770 2564.850342 2658.668701 2640.201416 2643.354736 2539.365234 2439.810059 2354.662354 2312.556885 2205.015625 2062.427002 1938.201782 1779.950195 1622.073486 1527.324097 1512.089722 1575.797241 1724.219727 1826.550415 1864.588379 1868.346069 1879.413940 1848.424194 1802.238892 1739.554321 1680.656860 1596.950928 1522.390625 1398.525879 1245.897583 1175.094238 1371.051636 1468.005859 1434.934692 1314.713257 1178.855469 1033.171631 996.513794 996.250854 994.053467 1014.121399 1072.369629 1130.477539 1201.115601 1261.681396 1330.734619 1410.183594 1334.037476 1233.527954 1262.171143 1462.426147 1650.491333 1834.652588 2056.628662 2130.876709 2013.555420 2074.713623 2245.481201 2410.023193 2455.801025 2438.064453 2293.774170 2184.509521 2105.231934 2063.281738 2076.579834 2182.842285 2181.032471 2149.129395 2087.216064 2152.519287 2206.544434 2085.663086 1923.744019 1775.813477 1686.363037 1691.831177 1709.657959 1634.914551 1575.116699 1549.655762 1458.553101 1333.715942 1233.498657 1136.218750 1053.000977 1022.531006 1055.395020 1137.187012 1221.967896 1323.827637 1413.689453 1498.685059 1597.881592 1703.094604 1797.270508 1871.294434 1940.280396 2003.769775 2019.000610 2061.497314 2126.963867 2187.814209
1615.738281 1754.121460 1847.975586 1783.993774 1857.700928 1995.938110 2068.254639 2142.308594 2245.028076 2280.819092 2141.643799 2109.017822 2187.555176 2286.468018 2270.313477 2280.046143 2326.859375 2456.564697 2320.048096 2123.186279 1990.902588 1851.021118 1715.522583 1692.476929 1805.774780 1986.795776 2190.333008 2417.506348 2562.627197 2670.206787 2723.107666 2825.078125 2846.406250 2823.214355 2623.979004 2403.571045 2304.131104 2277.185791 2252.201904 2209.273926 2105.702637 1939.409180 1795.719482 1757.103027 1792.197998 1821.315430 1835.010864 1842.157349 1750.253174 1607.164307 1627.093140 1619.595459 1583.734619 1559.682373 1543.760986 1517.785156 1464.485840 1433.245972 1365.843018 1326.768066 1218.200562 1139.848633 1056.135254 991.614441 998.229736 1001.144775 1002.955383 1009.285767 935.587646 911.480896 1012.561829 1111.974121 1211.010010 1266.374023 1297.995239 1331.559570 1376.097534 1440.426147 1490.077271 1490.666504 1551.791870 1659.403564 1753.883423 1778.919189 1686.954346 1615.265381 1553.460083 1485.152954 1405.960938 1450.690918 1540.343750 1501.481812 1417.877319 1328.672363 1256.576538 1199.645020 1190.164185 1160.728760 1119.156982 1081.472412 965.724792 858.705750 825.914490 848.831299 882.434326 876.230408 886.441772 950.083008 1007.521912 1029.002075 1029.651855 1015.009827 1022.282166 1032.669189 1049.752563 1044.374512 1066.705078 1137.920776 1226.437134 1305.891479 1393.427124 1526.249512 1579.355835 1590.840942 1601.843872 1592.442383 1583.251953 1619.632202 1648.381714 1689.263062 1686.560913 1697.945190 1751.278442 1861.787598 1978.461914 2107.926270 2162.789062 2172.201172 2282.194824 2442.479736 2480.643066 2466.351807 2396.823486 2263.010254 2156.648926 2044.916138 1879.525146 1786.974365 1853.712646 1969.812622 1897.808594 1767.293579 1712.144287 1629.400635 1510.954834 1430.139282 1378.390625 1316.157959 1255.198608 1197.878906 1178.005493 1220.167603 1340.049683 1411.148926 1459.797607 1536.224731 1643.793213 1778.578979 1872.304810 1978.135010 2079.455322 2182.342529 2231.707520 2326.132080 2420.433105 2520.253662 2566.666260 2602.117676 2625.804199 2651.555664 2674.554443 2746.170898 2930.252197 2918.581543 2731.642334 2502.714355 2276.983887 2059.092773 1953.935181 1969.221069 2060.795410 2027.072632 1849.619873 1710.590454 1618.654175 1533.302368 1474.399536 1438.101440 1412.016846 1374.996582 1390.595459 1391.202515 1280.982544 1181.080933 1117.759399 1210.767700 1331.607910 1413.635376 1464.992188 1500.441284 1563.989380 1724.452026 1902.791992 1998.268311 2102.794922 2243.811523 2357.308350 2406.243652 2521.229736 2470.924805 2287.815186 2214.195557 2285.893799 2497.790771 2762.602783 2942.587891 2888.667236 2859.235107 2914.306885 2925.291504 2819.827637 2885.727051 2961.303955 2936.030273 2849.178467 2757.400391 2686.948975 2662.116455 2653.915527 2710.882324 2880.113770 3105.043701 3013.773438 2933.631104 2907.817627 2758.923584 2629.272705 2567.311768 2552.390869 2510.644775 2455.106445 2435.651611 2375.094482 2308.495117 2169.575684 2068.303955 2049.109619 2099.055664 2152.773682 2144.167969 2020.380127 1898.435303 1781.330322 1782.855713 1969.456299 2212.392090 2325.286377 2361.440186 2426.128662 2512.778564 2666.359863 2879.653320 2840.657959 2851.151367 2834.319092 2787.915771 2758.387451 2716.034912 2623.365723 2505.280518 2565.573730 2532.553955 2419.387207 2264.982666 2165.462891 2062.207275 1931.153320 1807.935547 1630.423096 1535.862305 1531.556274 1595.125122 1714.020996 1899.608398 1991.812866 2034.961792 2001.173218 2018.490967 2011.378662 1936.536133 1831.210571 1742.510376 1668.377686 1599.160034 1468.299194 1290.690796 1147.603882 1235.109009 1331.450806 1268.429810 1141.875000 1024.482422 994.015503 990.954773 992.500916 1024.079590 1085.056152 1153.572266 1255.062500 1330.677734 1399.771606 1469.351685 1512.910645 1392.695068 1286.715454 1259.037842 1407.352905 1617.855835 1833.080200 2082.556885 2209.883789 2201.564209 2279.274658 2413.110596 2575.603271 2449.534180 2338.367920 2240.389160 2212.143799 2224.106934 2217.542725 2217.675293 2268.542969 2219.900391 2130.158691 2122.790283 2173.914551 2165.260498 2111.864990 2024.529785 1895.817383 1867.716431 1856.419922 1846.327515 1772.792358 1745.730591 1672.330078 1520.309082 1382.189819 1292.610962 1207.581421 1109.979248 1049.518066 1026.575439 1104.896606 1171.686035 1255.423950 1339.392944 1420.533569 1515.961670 1623.232178 1723.856445 1817.879272 1899.167847 1961.524048 2025.597168 2100.828125 2065.239990 2097.838623
1731.199341 1831.353149 1942.957764 1869.241089 1926.318115 2087.807617 2214.007324 2307.456055 2413.072021 2378.142578 2242.189453 2206.314453 2265.724609 2442.591553 2442.752686 2367.864502 2391.007812 2495.643311 2361.208984 2179.942383 1986.914185 1849.162476 1732.276489 1746.265625 1899.433960 2081.192627 2275.125244 2488.569092 2720.591797 2847.628906 2819.864014 2927.542480 2924.527832 2837.991455 2702.015869 2574.095947 2512.577881 2525.158936 2481.038574 2353.049805 2080.928955 1872.852051 1824.522461 1901.831543 1989.316772 2025.953125 2024.867676 1986.558960 1814.019409 1698.695435 1803.574341 1770.965088 1715.622559 1675.278442 1672.267334 1686.675903 1638.114868 1593.871948 1536.219849 1514.227783 1460.154541 1421.784302 1314.301758 1144.106567 1042.998291 995.342468 938.313965 908.379395 912.848450 966.307556 1056.017334 1161.071655 1248.082397 1302.552368 1367.135986 1434.056152 1477.331055 1549.270630 1615.164917 1617.994507 1580.265991 1667.568481 1759.105347 1868.187134 1803.730591 1717.692017 1634.017456 1545.527954 1555.758423 1574.750732 1665.051758 1613.169800 1519.681030 1422.164551 1371.166626 1317.627441 1324.337036 1295.099243 1257.460327 1194.190674 1075.994751 943.473328 878.946594 831.000427 830.619812 829.699524 841.110596 886.023071 927.516174 943.799011 925.944824 899.362976 885.113464 896.464966 912.687866 934.337280 942.810425 973.104126 1061.520264 1155.989502 1248.751221 1441.840088 1587.458130 1634.080200 1666.126465 1649.239990 1623.731445 1629.561768 1650.845947 1672.541504 1719.629150 1761.735962 1832.256714 1947.813599 2053.955078 2171.464844 2265.984375 2205.208984 2250.857422 2379.861572 2511.760010 2496.307129 2348.039307 2247.320312 2176.968750 2082.352051 1941.595215 1889.276733 1958.955811 2051.740723 1939.515381 1854.182373 1854.220947 1791.388672 1698.040161 1590.422485 1594.594238 1571.301147 1441.442749 1285.473877 1213.526611 1188.295898 1228.061768 1270.878296 1325.264160 1391.544434 1499.725952 1648.686890 1764.558716 1878.579102 2007.168335 2122.092529 2183.746338 2245.827393 2351.301270 2487.927979 2634.991455 2726.161865 2790.543457 2784.812744 2763.218018 2800.139404 2924.631592 2989.243164 2830.050781 2594.430176 2346.103760 2099.518555 1975.480347 1970.761108 2053.338135 2105.593018 1911.191162 1714.199585 1602.352783 1535.657715 1466.525269 1463.038818 1471.423218 1407.857788 1397.344604 1387.333374 1368.868286 1302.870483 1150.693237 1140.424927 1213.674805 1317.594727 1350.231323 1514.304810 1642.223022 1796.143311 1937.816162 2058.947754 2167.732422 2309.715088 2453.372559 2570.620605 2653.009033 2526.747070 2338.833008 2268.121094 2324.756104 2535.391602 2781.272949 3020.872314 3078.859375 3085.333984 3165.630127 3072.211426 2974.880371 2966.563965 3051.492920 2976.620850 2857.163330 2767.519287 2732.821533 2740.536133 2797.204590 2836.070068 2946.435547 2913.384033 2877.758789 2824.592529 2760.956787 2664.035156 2589.346436 2509.060547 2479.851562 2460.815430 2420.364502 2394.424561 2307.287354 2221.814209 2122.593506 2118.859619 2197.693359 2254.166992 2361.234619 2372.246826 2209.757568 1980.356201 1841.485352 1844.610474 1982.976318 2234.108643 2423.993652 2422.261963 2473.293945 2502.208252 2574.379395 2732.407715 2947.446045 2928.673584 2838.279053 2703.105469 2603.493408 2535.774658 2429.647949 2316.309814 2392.636719 2412.657959 2303.946777 2152.047119 2006.607300 1905.056152 1783.201294 1676.779419 1551.867310 1557.769897 1610.039429 1693.155884 1798.381226 1993.566895 2146.197998 2140.440186 2096.823242 2147.241943 2093.096191 1978.725586 1872.703369 1788.035156 1730.407471 1636.935791 1499.588379 1332.550415 1168.575073 1101.750366 1137.917969 1075.045166 1014.839539 1000.299194 995.144775 994.419128 1016.862061 1088.683960 1181.373901 1240.124146 1351.266968 1443.158813 1522.167114 1590.219360 1588.084717 1444.219360 1319.124390 1297.975830 1424.235596 1617.939087 1839.600464 2016.623657 2257.697510 2400.517578 2478.554199 2564.157715 2569.881348 2472.835449 2380.544189 2243.361572 2169.120850 2171.142822 2239.775146 2318.371826 2224.540039 2159.520752 2098.529785 2105.802979 2138.375000 2107.103027 2082.408203 2042.631714 1951.842896 1910.600952 1897.897095 1887.435425 1869.959595 1838.035522 1722.590576 1554.826416 1421.700195 1343.527588 1265.019287 1176.493530 1104.966187 1036.008789 1063.899902 1121.253418 1180.166504 1269.377075 1351.958130 1447.346191 1557.629883 1671.296143 1781.041748 1856.310547 1939.745117 1950.426636 1958.469238 1925.606201 1986.781250
1896.222046 1952.788696 2041.985474 2032.616577 1991.684326 2060.014648 2185.633789 2323.476074 2453.929932 2517.250488 2413.296143 2335.893311 2360.480469 2481.461426 2596.951416 2539.063721 2503.447510 2492.941895 2351.129639 2262.344238 2011.310669 1801.328857 1702.399902 1790.755005 2000.536133 2169.841309 2387.383301 2563.734131 2724.999756 2906.959961 2930.790039 3048.723877 2942.833008 2878.644775 2774.229492 2655.350098 2564.083984 2462.984375 2408.408447 2272.509766 2036.048218 1901.516479 1933.502075 2088.829834 2177.407959 2210.230225 2165.682617 2037.971313 1879.761108 1807.205444 1931.338623 1906.520508 1862.899780 1832.869019 1846.211914 1830.616577 1789.271851 1709.723633 1659.601074 1626.717529 1626.820923 1609.105347 1519.343384 1337.602295 1269.423828 1204.397705 1113.861328 1007.169250 909.785583 1017.203308 1167.791382 1260.522217 1320.851807 1380.281128 1459.451538 1521.530029 1572.142090 1644.400024 1720.251709 1750.196899 1675.167480 1686.032715 1814.505859 1928.839355 1939.772583 1813.775024 1732.038696 1669.904297 1717.153931 1738.912842 1779.684448 1703.328613 1596.106445 1530.539429 1494.148071 1453.189697 1439.242188 1396.463013 1341.323975 1264.884399 1120.654175 1031.862671 999.161621 941.580139 911.906067 926.817139 938.505493 923.857361 902.068237 910.182190 910.042114 869.559753 862.522949 868.944641 860.682922 857.610168 866.587036 865.865417 910.055908 1034.083496 1163.297729 1370.278442 1533.608154 1595.397583 1626.509277 1615.488647 1605.645508 1625.325317 1648.278809 1685.236328 1763.222168 1790.871460 1895.728638 2003.285034 2081.437012 2185.211182 2305.783203 2287.044434 2276.344238 2372.882080 2484.580322 2440.570312 2387.443848 2330.369629 2232.662598 2086.633057 2030.848145 2022.009521 2113.048096 2079.731689 1977.938599 1948.811523 1972.018677 1900.427979 1764.003418 1719.205078 1782.219604 1720.242676 1619.264893 1442.538330 1376.674194 1300.921387 1284.974487 1275.507080 1237.916992 1299.471558 1386.545654 1525.228271 1657.892944 1803.282593 1942.710815 2019.892578 2055.151367 2158.375244 2286.192627 2432.516113 2593.485596 2768.969238 2908.739502 2943.774170 2937.565674 2934.000977 2867.706787 2826.647217 2779.749268 2577.838135 2363.551025 2120.017578 1994.932983 1989.649048 2072.357422 2170.215088 2005.947998 1776.657715 1642.049194 1547.108398 1505.487671 1497.935669 1493.577515 1465.214111 1447.987061 1382.245605 1339.761963 1333.963867 1225.344116 1191.245605 1155.800659 1194.907349 1222.315186 1487.198853 1667.911255 1809.264282 1914.666260 2034.992065 2144.893066 2287.813232 2451.880127 2600.950928 2691.429199 2536.278564 2381.372559 2320.699219 2376.299805 2559.134766 2780.775635 2969.635010 2969.255127 3002.125244 3056.795166 3130.259033 3129.608398 3047.030762 2988.606934 2939.811768 2876.496826 2845.297363 2835.010986 2855.697266 2909.779053 2860.471680 2817.376953 2783.336914 2742.660400 2779.739258 2768.916260 2680.980957 2589.619629 2533.717041 2467.720703 2416.910645 2360.608398 2336.136230 2250.249756 2148.486816 2167.392822 2256.952148 2378.258301 2395.254150 2546.565674 2593.526367 2378.247070 2110.022461 1948.983643 1940.130005 2128.736328 2231.354492 2420.927246 2538.176758 2596.895264 2649.765381 2630.868164 2694.842041 2787.092773 2688.106201 2627.924316 2542.637207 2463.954834 2400.972656 2313.619629 2187.462891 2186.310791 2226.199707 2132.748535 2047.135986 1902.507690 1758.245972 1652.298218 1581.010010 1575.539429 1676.198486 1783.881714 1879.288452 1939.832642 2106.783691 2291.992432 2246.861816 2206.178223 2246.301025 2107.989502 2020.478638 1931.807129 1847.775635 1770.335205 1670.097534 1527.756470 1371.844482 1216.241211 1082.974854 1040.251221 1024.137939 1010.899902 1000.981201 999.385315 1046.957153 1127.201172 1253.496216 1297.988281 1378.308105 1456.478516 1555.413696 1634.539551 1686.807617 1621.178589 1488.911621 1362.502930 1320.529541 1435.499512 1654.281128 1880.563477 2098.216553 2268.279785 2433.052002 2614.125732 2668.890381 2611.385986 2470.799072 2339.682861 2202.708740 2098.001709 2051.399170 2099.825195 2213.934814 2133.498535 2070.295410 2026.774170 2049.174316 2052.706543 2030.200684 2023.752197 1996.909912 1927.499878 1880.274902 1845.641724 1817.393188 1795.628418 1745.126343 1656.062012 1555.338989 1430.555054 1353.850342 1308.599243 1247.109009 1155.068481 1066.820312 1040.785156 1094.189331 1130.518433 1201.757568 1279.375366 1392.747314 1497.034790 1587.961670 1705.325073 1832.519897 1932.848999 1847.008911 1776.381714 1783.528809 1917.360840
2021.206787 2083.167969 2162.872559 2157.533203 2050.449951 2042.421021 2123.967773 2245.136230 2352.111084 2485.571045 2572.272217 2562.277100 2531.508301 2617.251221 2685.118408 2628.351562 2574.260986 2480.086426 2335.289551 2232.059570 2029.267456 1806.506836 1733.250610 1883.190308 2079.347656 2248.579590 2401.052246 2522.202881 2648.857422 2807.586670 3014.440430 3001.984863 2911.374512 2911.519531 2876.688232 2727.168701 2546.423096 2393.494629 2269.137695 2160.514648 2065.661865 2016.165649 2050.973877 2206.784180 2304.814697 2284.956299 2152.666992 2019.527710 1904.819336 1917.138306 1989.348022 2021.436768 2008.817871 1996.699951 1988.022949 1946.207642 1891.777344 1805.312622 1761.548706 1749.414307 1734.809204 1735.343262 1642.875122 1520.760742 1445.983154 1357.881714 1207.433838 984.143005 980.662659 1144.165894 1279.239258 1371.037964 1437.294312 1479.136108 1535.058960 1590.011841 1652.896973 1730.502686 1822.683228 1880.083008 1766.666260 1716.073242 1854.204102 2012.410889 2047.297852 1945.138062 1854.539185 1803.164307 1858.090820 1915.198608 1894.384033 1783.500122 1687.652344 1652.560547 1622.574585 1593.792358 1537.953979 1460.012451 1388.772461 1255.330322 1137.593140 1146.435791 1113.613159 1085.338867 1066.539917 1060.250366 1041.028687 1045.999878 1036.567261 1036.796265 1024.701538 954.148315 943.177429 967.604614 970.932739 961.855774 977.094177 924.024109 869.185120 931.898010 1079.619507 1287.159790 1429.620361 1485.990479 1534.195435 1571.825806 1605.880371 1632.816284 1652.227905 1734.591797 1792.996948 1851.765747 1949.304565 2019.689697 2097.580811 2192.085449 2303.888184 2405.206543 2380.512451 2391.682129 2442.975098 2535.490479 2508.624512 2388.023193 2245.238281 2115.502930 2082.695801 2107.998535 2162.817139 2057.818115 2040.406616 2059.401855 2087.256592 1939.568970 1816.185547 1832.552246 1887.203857 1797.218384 1680.903564 1584.772705 1656.629517 1586.716797 1502.865356 1438.673096 1318.176636 1253.425171 1317.539795 1408.401733 1539.078979 1698.119629 1800.211060 1865.443726 1995.384644 2157.009766 2286.908691 2416.949463 2578.138916 2752.430420 2784.512695 2745.785400 2809.896729 2967.742920 2750.001465 2640.445557 2579.614990 2477.071045 2314.584473 2150.144775 2049.121338 2006.158203 2071.659424 2172.187256 2103.465820 1889.805176 1736.155273 1612.553223 1560.042725 1556.097900 1530.105103 1479.740234 1457.889771 1391.432983 1295.719482 1272.999756 1215.787964 1234.244263 1231.058960 1185.281006 1151.120850 1324.802979 1572.400024 1764.825562 1879.320312 2002.177856 2123.737061 2247.116211 2370.800049 2499.462402 2658.973633 2640.821289 2470.689453 2437.757080 2444.565186 2582.466553 2774.735107 2875.917236 2929.638428 3009.667725 3041.565674 3091.759766 3120.502441 3010.990723 2966.988281 2887.217773 2822.008057 2804.204102 2875.554932 2790.302246 2702.446289 2654.192627 2651.833984 2688.585449 2738.476318 2848.887207 2859.197510 2726.223633 2583.758057 2572.947754 2513.964111 2448.618408 2377.441895 2295.448975 2197.838623 2179.073486 2281.168701 2413.541504 2523.133057 2559.161133 2731.856934 2776.898193 2529.746338 2297.266602 2106.605713 2090.316650 2215.480225 2319.248047 2356.240234 2474.240967 2633.760986 2734.218994 2723.659912 2820.708252 2762.210205 2662.327393 2593.440918 2513.287842 2408.686035 2349.626221 2252.876953 2098.648926 2012.188721 2005.857056 1909.470947 1811.925293 1708.695679 1626.910645 1591.970215 1610.754272 1665.123901 1804.115356 1970.181763 2095.850342 2094.744141 2199.428467 2375.442139 2398.298584 2341.052002 2228.702881 2119.975342 2057.214600 1971.449097 1853.447632 1747.871460 1643.914307 1522.702637 1380.843506 1219.897339 1076.080078 1029.955566 1019.043579 1010.090271 1031.998169 1071.889526 1161.638794 1284.350952 1413.980103 1428.514771 1464.587036 1576.356567 1668.334961 1755.024658 1765.749878 1673.294556 1533.455078 1406.227173 1346.265259 1437.073853 1625.163574 1831.736694 2116.045410 2341.633545 2491.991211 2486.971191 2506.753662 2543.559814 2531.912842 2386.914062 2202.570068 2043.654297 1952.443970 1962.219727 2007.991455 2048.751953 1979.724854 1933.395752 1988.828369 1962.672852 1960.992798 1933.647461 1888.521851 1849.302246 1842.692505 1786.067505 1744.196289 1697.954468 1632.685791 1539.833130 1486.076782 1399.309814 1352.727051 1309.760986 1271.139160 1171.047485 1091.054565 1038.100098 1079.383911 1124.789673 1171.979858 1236.486206 1316.324707 1421.150879 1551.654785 1715.046753 1846.940308 1847.507324 1720.253540 1651.989258 1771.318115 1932.005371
2066.658203 2174.979736 2286.152588 2263.492188 2126.335205 2130.413330 2149.291748 2222.471680 2348.876953 2547.462891 2673.418213 2692.565918 2737.597412 2664.488281 2631.121338 2546.991455 2504.335205 2396.784424 2268.992432 2170.231201 2092.798096 1898.687378 1790.324951 1931.352417 2096.791016 2283.083252 2432.946045 2573.870850 2667.089111 2806.421875 2899.428711 2826.034180 2723.327393 2693.352295 2756.655273 2793.741211 2657.161865 2494.452393 2294.702393 2162.457031 2093.290527 2096.358643 2199.691895 2332.677734 2381.649170 2264.281738 2131.812012 2041.552490 1945.335693 2009.060303 2065.814209 2108.277100 2099.046875 2124.635010 2113.783691 2038.632812 1956.952148 1928.483521 1891.457397 1865.722534 1863.272827 1862.258423 1791.461670 1671.746338 1524.730103 1374.685425 1207.888672 975.134338 1058.041748 1233.804688 1357.944458 1464.214966 1553.797729 1596.438843 1628.100708 1686.198242 1771.099609 1854.773438 1947.224487 1996.098877 1851.379028 1783.717529 1835.113159 1965.595215 2090.841064 2118.811035 2021.268799 1955.884766 1989.650757 2036.854492 1939.396362 1839.366455 1805.272827 1769.656860 1738.705933 1670.150513 1563.812134 1423.389038 1298.292725 1192.627563 1221.945312 1230.157959 1225.848755 1199.242432 1163.558472 1171.785156 1124.736816 1132.900635 1151.592163 1126.770874 1135.157227 1078.113892 1052.623291 1070.723511 1105.785156 1102.353516 1090.581177 1050.855713 965.709961 888.605591 1031.119629 1208.233765 1319.385498 1379.061279 1455.536865 1545.564331 1581.091187 1606.142944 1680.157349 1765.492798 1832.940186 1899.180786 1981.617310 2038.067261 2091.977295 2208.568115 2303.633789 2469.294189 2525.045166 2514.492676 2520.438965 2645.610107 2613.103271 2452.552246 2298.853760 2187.200439 2134.260010 2203.914551 2195.723145 2151.682861 2161.728271 2239.032471 2108.327393 1917.789429 1872.316284 1925.630615 1957.338623 1848.928223 1726.650757 1700.984741 1784.559570 1697.946045 1593.042480 1470.038574 1374.091675 1273.012207 1288.302490 1352.200073 1432.643311 1576.321411 1721.753662 1873.316040 2038.821533 2178.378906 2343.162842 2478.235107 2604.850098 2672.437500 2632.729736 2637.307861 2796.725586 2883.103516 2642.101562 2496.551758 2380.858398 2303.930664 2240.660889 2195.729248 2107.277100 2026.433960 2048.861328 2159.803223 2176.866943 2003.110840 1835.048584 1706.509521 1647.020020 1597.455444 1563.361084 1488.669556 1400.037109 1337.679199 1255.465576 1242.482544 1198.277588 1184.844727 1211.958740 1194.362793 1150.074585 1205.480591 1438.266235 1683.950928 1814.065552 1940.330078 2072.415527 2182.541260 2311.248047 2441.888428 2579.451660 2687.373779 2579.820801 2489.887451 2512.382568 2600.814697 2719.031006 2845.828369 3014.592285 3072.698242 3100.796143 3196.536133 3170.460693 3059.581787 2920.433350 2814.967529 2741.566162 2706.746826 2733.296631 2656.152588 2584.669434 2563.773926 2647.998291 2726.703125 2864.460205 2916.382080 2767.611084 2702.410889 2669.478271 2656.140625 2659.182861 2572.369385 2419.058105 2276.635498 2196.630127 2249.140869 2371.198730 2552.496582 2713.931885 2816.458496 2964.738281 2852.867188 2646.859863 2403.742188 2232.402100 2215.570312 2274.739990 2411.017090 2450.693359 2482.119629 2589.485107 2728.212646 2795.844238 2761.998779 2704.305420 2654.266113 2583.029297 2513.754395 2460.766846 2395.009033 2249.464111 2052.731445 1893.882324 1831.860718 1748.449829 1693.078735 1642.248169 1619.918213 1645.296143 1683.615479 1764.598999 1909.366089 2124.770996 2257.527588 2261.447998 2343.330078 2445.267578 2415.025879 2302.297852 2187.958740 2076.882080 1988.742676 1890.513062 1789.232178 1694.238647 1595.607422 1470.470703 1355.827393 1191.578613 1061.639404 1016.619751 1012.403748 1031.073486 1124.352783 1227.911499 1339.427124 1446.391968 1555.517334 1575.299927 1566.994873 1697.666992 1826.882324 1876.494873 1805.942383 1666.940674 1547.558228 1427.400635 1372.679565 1439.385376 1579.345459 1777.652222 2021.473877 2297.339844 2462.112549 2370.319092 2336.572266 2347.717773 2371.838623 2348.833984 2234.502686 2079.541504 1929.591553 1837.430786 1834.488281 1903.289551 1950.495117 1879.735229 1891.594238 1894.928101 1912.933228 1838.004272 1771.278442 1752.716675 1767.365356 1694.176025 1599.077759 1579.895752 1492.535034 1421.607300 1370.561768 1330.669189 1322.996826 1294.024780 1263.366943 1164.030762 1078.278442 1041.356934 1074.080200 1120.843018 1168.714478 1229.577759 1331.269165 1473.748657 1614.691406 1695.138062 1672.214844 1711.717773 1616.167114 1617.021362 1778.479858 1860.622437
2030.295898 2184.391113 2316.739502 2374.292969 2254.020508 2215.406250 2190.938477 2253.750000 2397.908447 2528.968994 2609.011719 2666.327148 2742.374268 2574.407959 2529.466797 2457.575684 2458.344971 2389.225098 2240.388428 2115.056152 2016.855591 1869.280151 1828.301392 1959.701782 2102.022949 2301.197510 2464.160889 2498.677734 2542.105469 2688.154297 2769.524658 2716.985107 2619.333008 2581.219971 2639.372559 2766.622803 2620.922363 2582.702393 2386.113037 2242.673828 2137.560547 2179.184570 2308.617920 2444.607422 2377.898926 2252.102539 2164.511475 2096.804688 2015.155273 2070.573242 2130.311768 2182.547852 2183.731201 2229.248047 2239.591309 2114.166260 2027.468018 2028.958008 1997.610107 1968.375244 1976.106689 1975.227051 1879.229004 1662.485962 1467.903320 1305.324951 1128.165894 975.975403 1082.250488 1212.099609 1316.895264 1455.655273 1556.139893 1675.978882 1741.730469 1803.831421 1889.270508 1975.805176 2078.854004 2144.039062 1994.398193 1886.860596 1908.199219 1991.573486 2097.076660 2204.921631 2190.392578 2121.361572 2152.503906 2091.662598 1971.440674 1955.015015 1933.503784 1844.678589 1771.088501 1656.210449 1500.589844 1369.305786 1264.444580 1296.362793 1321.315674 1340.120361 1327.953857 1262.225586 1246.481934 1286.479858 1260.192871 1239.416382 1241.479736 1238.904419 1234.829224 1232.317749 1230.891113 1209.291504 1221.702271 1219.343262 1224.903076 1220.141235 1042.773438 877.686890 962.708191 1121.419312 1210.707642 1251.290527 1367.654053 1487.040161 1534.059082 1616.302612 1707.113037 1764.659302 1830.943359 1904.449463 1973.528320 2009.739014 2082.207520 2156.875977 2258.173340 2366.610107 2395.795166 2510.116455 2645.199219 2712.862793 2539.588867 2386.513428 2274.119385 2192.581299 2143.121338 2272.481689 2408.934326 2337.142334 2326.709961 2403.760010 2227.011230 2025.580811 2001.859253 2076.614990 2001.521484 1879.057861 1793.472656 1796.565674 1879.264038 1803.905884 1687.944702 1576.839966 1461.589355 1333.098633 1276.933716 1304.831299 1369.884399 1507.961914 1647.551880 1780.078613 1966.317017 2090.465820 2204.464844 2325.365479 2437.575928 2489.845215 2546.736328 2624.648682 2829.532959 2841.535156 2661.207031 2474.597656 2335.878662 2266.717041 2224.905029 2194.880127 2137.168701 2035.119019 2055.385498 2195.119629 2245.916992 2068.304688 1909.095825 1799.262329 1712.461426 1647.313110 1597.059814 1557.148560 1474.335327 1351.902588 1241.867798 1183.699097 1156.436035 1154.664917 1169.911377 1166.846069 1151.727051 1170.968872 1345.474487 1542.479736 1692.588135 1900.045898 2031.743164 2133.864258 2229.270264 2353.080078 2482.670410 2621.241699 2698.426270 2591.698730 2540.466064 2592.685547 2690.814453 2852.021484 3036.368652 3064.392822 3031.730469 3133.857666 3207.459961 3052.357910 2891.047607 2749.482422 2687.479492 2620.738037 2654.738281 2609.255859 2526.572021 2545.571045 2698.303955 2888.698486 2949.341553 3017.861328 2936.748779 2874.968018 2801.923096 2797.688965 2662.623779 2519.459717 2433.266113 2302.639648 2233.371094 2314.126221 2443.706543 2640.160156 2868.564453 3060.717285 3096.694580 2920.326416 2706.933594 2545.248535 2362.217041 2326.912354 2372.136719 2498.369629 2533.959961 2637.263916 2785.686523 2791.845947 2703.164062 2655.362549 2614.003662 2570.647461 2509.315430 2425.412598 2337.937256 2260.942871 2113.979980 1930.719360 1817.428345 1779.572144 1731.742676 1687.999390 1722.202515 1768.374878 1804.467896 1814.534058 1904.749023 1985.847778 2137.519043 2355.000977 2455.967285 2501.380371 2517.333740 2413.664795 2294.485352 2200.970215 2104.782959 1988.190063 1871.291992 1780.351196 1677.761719 1547.545044 1430.008911 1313.066528 1186.797485 1064.070923 1017.191284 1041.367798 1151.971802 1268.170898 1352.366089 1501.053589 1600.732300 1685.342773 1702.595093 1699.970947 1816.872192 1982.958496 1961.850952 1846.883789 1711.455688 1578.070801 1443.645142 1382.868896 1473.632080 1660.528809 1763.087402 1932.469604 2214.147461 2457.769043 2362.302246 2291.114258 2220.626465 2199.265869 2187.165527 2135.411865 2104.986328 1965.226562 1806.482178 1733.252319 1758.298828 1877.533936 1884.763794 1778.510620 1760.757935 1838.179810 1747.509644 1670.540649 1667.783081 1664.973267 1553.546387 1461.812134 1407.196167 1357.155884 1310.185669 1275.124023 1251.728882 1239.401733 1216.834839 1194.713867 1122.561279 1060.793091 1048.419922 1063.258789 1125.923462 1211.975342 1297.145508 1400.039673 1513.894043 1593.361694 1566.731201 1513.502930 1545.176758 1526.487305 1601.379028 1638.264526 1627.091553
2017.756348 2149.417969 2270.264893 2380.458740 2340.904785 2266.625977 2251.945068 2271.198486 2358.703613 2430.455078 2495.605713 2564.299316 2688.687744 2611.600342 2456.731201 2389.767822 2411.361572 2353.783936 2201.267578 2081.516357 1986.313599 1869.729980 1866.303955 1969.513550 2067.292725 2204.779541 2364.633545 2437.120361 2484.083740 2602.036865 2724.541016 2672.851318 2570.200195 2545.822266 2602.418457 2756.062744 2785.712402 2707.953125 2515.394531 2326.037109 2241.573975 2260.110107 2378.530518 2474.392090 2364.180908 2310.003418 2226.911621 2137.198975 2108.882568 2140.472168 2194.366699 2256.043213 2305.451660 2342.051514 2294.806641 2153.465332 2084.201660 2103.377686 2119.470947 2074.452637 2022.592285 1904.807861 1756.735352 1586.557861 1398.439819 1240.198853 1073.996338 992.450867 1108.113159 1226.206787 1339.111816 1437.284180 1549.717773 1693.359497 1830.453613 1906.329834 1987.354126 2072.168701 2185.620850 2266.554688 2120.074707 1992.944702 2047.652222 2106.308350 2135.842285 2223.211182 2319.113525 2298.484131 2211.000488 2101.800049 2083.327881 2067.362793 1923.429443 1795.519531 1701.759033 1565.844482 1413.534668 1322.928345 1379.809937 1430.991089 1434.885864 1453.258423 1426.448853 1328.840210 1318.886841 1386.294800 1390.269775 1338.615601 1341.083740 1366.192749 1357.407471 1369.459839 1384.277588 1390.876709 1345.315552 1378.461426 1355.839355 1220.175537 1041.658447 899.756592 878.023071 1006.810364 1102.772095 1150.306519 1286.687012 1416.032349 1520.149780 1604.729858 1705.764526 1758.453125 1817.856934 1893.047485 1948.087280 1984.295166 2011.277954 2104.645020 2165.049072 2213.333496 2292.904785 2440.597412 2609.777344 2646.403076 2467.680420 2316.517578 2257.445068 2236.034668 2220.425049 2333.937012 2492.124512 2443.489990 2512.262695 2552.063232 2385.003662 2219.858643 2217.230469 2215.187500 2065.833496 1939.495239 1897.532349 1936.233276 1989.678711 1901.099976 1780.435059 1674.588501 1575.221191 1448.219604 1333.397949 1282.771240 1327.274658 1438.438354 1539.491943 1682.353516 1850.923340 1977.998535 2108.672119 2237.399414 2330.973877 2422.200195 2524.148926 2680.206543 2887.484131 2921.453125 2736.877197 2522.660889 2372.412598 2304.601318 2258.919189 2211.755859 2132.965820 2054.616699 2088.252441 2251.223877 2320.655762 2139.192627 2016.933105 1905.645752 1826.003662 1767.365479 1735.594727 1673.334717 1588.333252 1470.006470 1358.627808 1191.585571 1154.273560 1154.062012 1153.615479 1150.238159 1152.988281 1160.681274 1264.574829 1440.237305 1675.492310 1860.604980 1946.842163 2025.250122 2123.839355 2247.370117 2383.872803 2549.954102 2736.010254 2701.357178 2567.484619 2588.209717 2724.208984 2858.426514 2939.783203 2821.436768 2781.665527 2870.264404 3046.677979 3054.895020 2867.885254 2646.217041 2565.244141 2556.143311 2557.540527 2517.364014 2478.680176 2508.859131 2699.923584 2944.820312 2944.094971 2860.695068 3035.197021 3099.874756 3031.472656 2886.281982 2664.576660 2594.298340 2509.891602 2348.639160 2278.031250 2354.539795 2477.150146 2697.494141 2957.480469 3187.083984 3139.330322 2994.110840 2814.082275 2644.878662 2506.925537 2465.437256 2499.895264 2593.796875 2602.365479 2781.593506 2913.052490 2848.234619 2694.635986 2615.162842 2547.278809 2506.347168 2450.687012 2357.570312 2260.610107 2140.601318 1984.913940 1838.356323 1763.099365 1745.490112 1723.392456 1795.998291 1914.806152 2019.979858 2066.215332 1979.967407 2066.565186 2096.720703 2194.719482 2404.392090 2590.573730 2632.626953 2542.397705 2384.565674 2276.366943 2198.463623 2097.320312 1970.709106 1854.890625 1748.884155 1607.385254 1494.891113 1399.476562 1281.506836 1180.179199 1067.706665 1029.615479 1147.328735 1308.549683 1446.397461 1513.800049 1596.447388 1695.793457 1780.799194 1814.339233 1829.660767 1949.839111 2090.137939 2035.967285 1900.620483 1747.681519 1591.339233 1447.673340 1409.695557 1522.089111 1706.667236 1912.511963 2048.080566 2183.354980 2381.192139 2267.678955 2214.746826 2167.260742 2080.069580 2033.493042 1972.305786 1983.947510 1941.698730 1823.442993 1683.574341 1662.931030 1752.446899 1850.029053 1725.344360 1620.803955 1683.853882 1661.460449 1595.861084 1589.040771 1548.209717 1409.768066 1335.957153 1290.216431 1249.661011 1220.017944 1203.614014 1190.373169 1169.252808 1150.915405 1120.435425 1080.786621 1058.482422 1058.345703 1057.213623 1122.558105 1241.813110 1345.086914 1426.929443 1455.102539 1459.996948 1395.910278 1391.854004 1390.205688 1414.262207 1456.414795 1497.686279 1600.849121
2036.170044 2123.560303 2222.879883 2342.902832 2463.803223 2401.284424 2345.851562 2295.147705 2323.486328 2402.634033 2451.497314 2561.003174 2667.683350 2563.023926 2449.132568 2360.077148 2340.304443 2299.871338 2170.041016 2042.108643 1949.113403 1870.531006 1940.533691 2078.960449 2137.827393 2211.897217 2290.489990 2376.938232 2441.035645 2531.237793 2686.198242 2730.762451 2544.456055 2452.321777 2513.128418 2645.697998 2804.934570 2831.862305 2638.609863 2360.900146 2295.681641 2323.378906 2444.623047 2498.110107 2406.687012 2342.455322 2251.437256 2205.553955 2201.229736 2206.825684 2230.676025 2298.471436 2390.816162 2408.405762 2279.756592 2218.268799 2202.956787 2204.751709 2222.611816 2111.374756 1904.624390 1722.130005 1572.908203 1445.956665 1325.432373 1213.359375 1037.143799 1008.669983 1123.730957 1254.104736 1377.358887 1458.718262 1560.786255 1676.339600 1843.250732 1968.169434 2055.017090 2158.371826 2284.764404 2400.095459 2268.349854 2118.015381 2177.906738 2211.058838 2206.505371 2258.559326 2385.743896 2341.199951 2254.315674 2175.952393 2177.962402 2061.731201 1898.409424 1735.408691 1618.337646 1528.808960 1405.106812 1420.072021 1523.271973 1552.129883 1571.338745 1571.053955 1490.517944 1377.527954 1414.718994 1468.770386 1509.621338 1458.084595 1449.998901 1467.228271 1478.457275 1501.468384 1514.487915 1514.832520 1490.523804 1466.071533 1406.946899 1288.394165 1126.590698 922.425659 858.775574 944.978882 1047.679077 1117.357178 1239.352783 1369.436401 1485.691162 1620.811401 1767.012939 1789.493408 1820.957520 1861.510864 1909.923462 1929.426880 1913.022461 1981.576904 2029.022827 2138.155762 2289.455322 2400.334473 2515.537109 2608.536377 2465.954346 2363.120605 2367.152100 2447.242432 2413.551025 2396.868896 2497.299805 2539.882812 2640.991943 2523.066650 2406.621338 2327.419678 2428.521729 2344.038818 2187.703125 2060.122559 1998.774414 2021.641357 2081.323242 2005.116699 1903.795776 1805.098877 1682.252930 1519.289185 1382.146973 1282.210693 1285.908081 1344.993042 1437.182373 1602.096069 1823.938965 1999.319702 2173.993896 2340.875977 2471.528320 2573.934326 2704.631104 2841.297119 2961.226807 2848.299561 2668.510010 2513.703613 2415.028076 2409.708008 2446.450684 2329.684082 2210.495117 2133.163330 2173.605957 2288.608154 2404.018555 2277.115479 2183.291260 2060.184814 1978.395752 1927.696167 1859.052856 1783.286743 1691.775513 1565.569458 1382.409424 1200.812500 1154.862183 1154.427490 1153.764893 1149.799072 1153.151001 1154.747681 1221.699951 1371.223022 1557.100708 1686.230103 1783.312256 1912.439331 2066.587646 2219.682861 2388.483154 2601.000244 2808.504150 2814.844482 2689.817383 2679.213623 2756.175293 2829.558838 2783.875488 2660.562744 2628.097900 2683.098145 2871.561523 2949.004639 2785.186279 2650.217529 2582.758545 2551.118896 2526.650879 2487.243896 2445.694336 2450.572021 2580.714355 2814.837158 2741.503662 2732.385010 2939.051514 3150.538086 3090.816895 2899.552490 2713.586182 2664.941650 2505.798828 2365.089111 2330.459717 2389.308350 2529.607422 2766.719482 3009.583008 3185.548096 3133.323486 3004.991943 2913.661377 2806.019531 2611.716797 2585.429199 2627.643799 2675.001709 2659.746582 2864.607910 2896.596191 2766.359131 2724.429688 2709.836426 2604.716797 2495.299561 2393.860352 2274.015625 2172.595947 2095.430908 1968.994751 1777.032593 1730.176392 1729.359009 1797.523071 1953.683228 2026.447021 2188.754150 2206.074219 2111.915771 2185.402344 2189.110840 2249.679688 2384.412842 2561.458252 2601.045410 2459.517334 2321.954102 2230.169189 2138.634766 2010.980713 1896.391602 1783.338745 1701.751587 1566.834473 1461.384155 1378.450806 1258.257935 1132.686523 1049.210693 1105.206421 1296.987305 1465.485352 1593.152588 1689.527832 1741.564575 1791.932861 1878.890991 1911.862793 1960.734131 2072.517334 2184.261230 2053.787598 1896.535034 1733.111694 1576.997437 1449.397217 1438.683228 1547.069824 1764.812134 1960.812988 2175.945801 2285.319824 2434.081299 2313.662109 2188.770508 2138.122070 2063.130127 1936.671753 1841.436157 1842.553833 1817.421387 1765.509033 1646.666870 1593.793823 1681.532104 1785.946899 1692.207520 1546.416992 1512.335693 1525.458008 1513.362427 1473.643677 1384.987427 1296.892456 1253.209961 1216.556152 1186.033203 1171.522705 1147.561035 1125.495605 1109.840088 1093.684204 1077.390625 1072.549072 1095.978027 1088.829224 1053.987061 1091.538208 1193.530396 1310.510864 1309.956177 1271.328125 1284.454590 1252.629517 1282.841919 1382.692139 1435.043335 1508.066284 1551.701538 1633.151855
2007.667480 2088.716553 2190.815186 2322.132324 2481.678223 2587.174072 2482.397949 2382.334961 2404.554199 2402.874756 2484.708008 2608.479492 2591.905029 2467.300049 2481.223877 2426.970459 2364.820801 2289.689941 2163.677246 2021.424072 1888.070190 1915.963135 2081.166748 2274.560059 2303.905762 2363.379883 2421.687988 2417.824219 2442.735107 2504.550293 2654.061523 2665.900635 2538.726318 2421.977783 2477.364258 2570.018555 2706.613525 2792.313721 2669.393799 2424.274170 2341.761230 2359.541992 2486.500977 2560.875977 2439.966797 2367.003174 2268.616943 2263.165283 2303.388916 2281.352783 2300.330811 2333.999512 2457.672607 2473.416504 2367.859619 2343.304688 2347.545898 2314.057129 2224.947021 2064.528320 1831.547729 1659.782837 1507.744995 1364.353760 1276.612549 1168.583862 1016.413147 1015.120544 1160.331421 1320.002930 1427.404053 1516.411133 1623.833008 1760.825317 1884.145508 1998.774292 2118.727295 2259.596191 2419.791504 2466.612305 2348.227295 2262.502686 2326.667480 2350.705811 2312.102783 2349.057129 2450.860107 2373.415771 2294.008057 2233.561523 2185.850586 2079.165771 1915.615723 1741.811157 1583.859985 1485.560303 1465.799561 1541.339722 1630.427002 1663.090210 1670.727905 1624.789795 1546.748169 1461.673584 1501.281128 1543.077881 1630.935303 1591.204224 1565.222046 1582.202271 1591.548706 1639.109619 1655.240234 1629.470947 1529.757812 1456.997070 1399.224487 1331.122803 1201.167480 987.896362 868.705444 910.823608 1035.030640 1138.073120 1258.589966 1401.308838 1502.804077 1582.694946 1749.040405 1800.096802 1783.932129 1792.627197 1809.602295 1817.316162 1814.104004 1877.179810 1999.519775 2119.614258 2207.149170 2282.306641 2412.130859 2541.552246 2548.742432 2466.657227 2482.287109 2604.653809 2587.250732 2475.710205 2542.873047 2685.652344 2654.128174 2571.816406 2445.532715 2435.404297 2552.081543 2420.186523 2321.800293 2230.434570 2123.052734 2126.064453 2174.203125 2128.453613 2031.134155 1921.680298 1805.353149 1696.454346 1506.235352 1302.967896 1283.894165 1319.273193 1390.433594 1580.132446 1833.910522 2006.956909 2161.370361 2352.984131 2538.762695 2638.931885 2705.861572 2774.604492 2807.104004 2828.464355 2683.430420 2590.092529 2544.407471 2533.786865 2605.542725 2467.268555 2312.576904 2281.070312 2368.743896 2371.422119 2451.315186 2451.148926 2319.025635 2194.282715 2101.947510 2019.510742 1917.933716 1859.469482 1770.606689 1607.522705 1423.882324 1222.876709 1156.211426 1155.242065 1154.040649 1151.519897 1154.562988 1156.736816 1186.846558 1298.421509 1485.262329 1653.978394 1823.034302 1986.104492 2170.541748 2332.604248 2499.912842 2667.872803 2850.030762 2872.644531 2828.454346 2807.221680 2697.012451 2626.209229 2644.817871 2599.929932 2561.321289 2605.950684 2787.979004 2789.499023 2754.489014 2718.276855 2635.978271 2587.841064 2561.997803 2531.927734 2454.229736 2411.215820 2480.589111 2644.886963 2672.078125 2714.339600 2932.591553 3094.180664 3056.129883 2991.428223 2790.478516 2629.520020 2462.457520 2395.312012 2398.183105 2445.129639 2607.272949 2843.659668 3072.501221 3064.044678 3041.727783 3026.416504 2961.455566 2828.289795 2702.303467 2699.946045 2726.028564 2705.288574 2785.713623 2898.834717 2889.900146 2751.914551 2619.382568 2580.840820 2525.812256 2429.646973 2282.693359 2150.072021 2062.941162 2001.207153 1899.520386 1772.611572 1760.638794 1810.993164 1936.516235 2068.518799 2109.459473 2200.890869 2273.929688 2219.357910 2305.889160 2323.058350 2339.155518 2493.412842 2605.168945 2536.741699 2404.516113 2269.398193 2158.846924 2085.449951 1981.805420 1821.136963 1706.422974 1617.291504 1528.314209 1453.915405 1363.108276 1219.201660 1095.942261 1077.488281 1201.304077 1364.068726 1572.341919 1709.514893 1832.979736 1868.152588 1867.815063 1933.845215 2005.702271 2097.612549 2221.218994 2229.501953 2080.811523 1938.209473 1763.852539 1575.754639 1449.921509 1492.163696 1621.126099 1828.817749 2006.602295 2106.941650 2326.404053 2479.845703 2406.672363 2296.408936 2249.354492 2157.323975 2035.734741 1849.382690 1729.877930 1662.174683 1617.375366 1579.700195 1531.634644 1590.848755 1641.984131 1635.385254 1541.491455 1407.014771 1380.006104 1340.318237 1295.195312 1255.105469 1226.731812 1195.089233 1153.792603 1131.275879 1122.851318 1109.567993 1109.745728 1110.508301 1118.682007 1131.009766 1140.908691 1137.637207 1123.046753 1069.949341 1060.755493 1121.380981 1209.104492 1163.039673 1174.572632 1205.037476 1264.565186 1365.884766 1506.685669 1581.595825 1627.366943 1693.113647 1711.240967
1987.894165 2062.546143 2179.439941 2312.825928 2475.848145 2625.052490 2531.679199 2524.610107 2559.366455 2565.968994 2611.718262 2529.457031 2478.953125 2394.973633 2386.385498 2387.970215 2362.256836 2256.349365 2126.125244 1960.316772 1909.666992 2031.566162 2217.177979 2391.109131 2483.197510 2494.301758 2557.708740 2579.889160 2590.085693 2623.765869 2682.769775 2576.013672 2500.972656 2413.730225 2419.905029 2422.312012 2529.313965 2634.161377 2692.445557 2485.394287 2395.927002 2406.036133 2494.429443 2513.011963 2481.293945 2408.926025 2333.700928 2324.739990 2384.926514 2377.595459 2382.691162 2415.662598 2442.331543 2402.647949 2381.845215 2370.137207 2310.724121 2229.210938 2093.004639 1983.769165 1818.455688 1642.948608 1467.349487 1321.496216 1225.593384 1125.995972 999.664917 1079.127197 1159.328735 1281.863892 1421.896606 1552.874268 1690.119263 1810.569214 1896.680786 2021.942871 2178.968750 2321.911865 2484.471191 2502.109131 2393.985352 2340.760254 2448.252441 2512.591797 2426.509521 2413.367920 2515.312012 2502.393799 2385.650391 2285.950928 2153.234619 2014.452271 1881.187256 1705.098022 1573.864014 1535.970581 1583.737793 1636.631836 1705.658203 1762.320679 1730.742432 1669.605591 1603.157471 1534.837769 1577.868774 1659.283569 1754.846680 1726.368774 1700.632690 1710.359131 1742.745483 1774.387939 1764.397095 1685.078979 1559.614868 1453.095337 1410.367432 1308.817993 1156.560059 1024.032959 880.945068 888.240540 981.502808 1073.962769 1185.012695 1326.527100 1461.665527 1611.298340 1737.670654 1754.943481 1742.287720 1722.200684 1716.150635 1712.076660 1724.166138 1797.278931 1937.219849 2039.346924 2085.258301 2156.601562 2270.075195 2418.972656 2579.540039 2615.590332 2658.620361 2678.670898 2678.814697 2563.574707 2611.222412 2766.890869 2659.586670 2524.669678 2466.179688 2579.617188 2636.641602 2541.294434 2464.833740 2367.974854 2205.490479 2157.996826 2216.067139 2273.207520 2116.411621 2011.669312 1981.104126 1986.021240 1726.421631 1423.407104 1314.681274 1295.742676 1368.403198 1624.765747 1833.886597 1994.101562 2139.926270 2330.955078 2416.332275 2468.185303 2551.436279 2577.037842 2655.623779 2809.436035 2780.254883 2738.461182 2674.317871 2653.311279 2730.697266 2617.412354 2425.705322 2408.516602 2530.715088 2499.368896 2530.625000 2583.198242 2433.861816 2303.068115 2176.458740 2078.361572 1992.487061 1948.755737 1828.962402 1670.196289 1487.246582 1273.748291 1160.536377 1155.668091 1154.890869 1154.244263 1155.771118 1157.428345 1164.159180 1246.580688 1445.930176 1626.406616 1802.741577 1993.480225 2185.112305 2356.116211 2535.846924 2710.308105 2724.943848 2686.623047 2679.882080 2674.944824 2591.938232 2517.090088 2555.232178 2560.475586 2543.109375 2546.451660 2656.097900 2635.052979 2675.729004 2809.899414 2797.545898 2768.894043 2683.174316 2565.348877 2477.113037 2376.221191 2403.194092 2479.660889 2567.689941 2722.259766 2848.332275 2993.177979 3016.486816 2925.295410 2736.008789 2557.301270 2455.706299 2454.268311 2456.789795 2530.739014 2688.585449 2915.842041 3110.961914 3055.014648 2985.099609 2941.873779 2911.566406 2855.466797 2820.162842 2809.526855 2777.544678 2761.685303 2819.034180 2733.485840 2689.463867 2743.567139 2654.977295 2590.656982 2454.034424 2306.875488 2174.494385 2069.801270 2032.541992 2023.615234 1942.832642 1878.808838 1883.091553 1968.893066 2093.739014 2243.705566 2231.331543 2228.430420 2331.794189 2351.752197 2434.343994 2476.336182 2471.679932 2585.891357 2677.352051 2553.148438 2385.388916 2265.541260 2149.687744 2023.619995 1922.080078 1798.455933 1717.619263 1605.952759 1490.148560 1398.250488 1296.040771 1184.608154 1078.277466 1139.888184 1283.557983 1438.381592 1659.489136 1806.081299 1967.009888 1970.057007 1923.733765 1971.941650 2059.095703 2256.068604 2368.788086 2229.450439 2060.194580 1896.251831 1751.578857 1565.435425 1475.562134 1543.274780 1692.410645 1870.447998 2115.077881 2197.229004 2346.987549 2374.121826 2302.275879 2328.268555 2325.656494 2198.532471 2070.583008 1907.123779 1753.831299 1646.039185 1556.563232 1505.779785 1461.985229 1469.608032 1492.669312 1499.520508 1422.576538 1328.563477 1271.869629 1233.520874 1214.142212 1200.786621 1180.505859 1154.670044 1143.880371 1159.714233 1162.411865 1157.999390 1189.873291 1217.603760 1225.823242 1257.123291 1247.048706 1218.448486 1175.440552 1136.238525 1086.074951 1072.720703 1114.671021 1155.953125 1309.051636 1368.207764 1427.778320 1467.043335 1613.836914 1718.050903 1772.158936 1831.109375 1869.858521
1948.621826 2069.254395 2202.526123 2326.224854 2450.547852 2555.557861 2674.039795 2690.049561 2687.477051 2710.232178 2687.192627 2586.108887 2434.580566 2333.165771 2287.107422 2273.880371 2255.668945 2176.810059 2069.910645 1953.511963 2008.219482 2175.513184 2311.904297 2409.104492 2492.785645 2572.176758 2625.093262 2721.879639 2737.641357 2774.782959 2772.416504 2629.535889 2484.915771 2416.127930 2367.594727 2355.437500 2431.460205 2544.426025 2645.203613 2501.933594 2454.056396 2460.441650 2378.893311 2345.103516 2330.731689 2314.684082 2304.808838 2275.437744 2304.530518 2272.592773 2288.273438 2334.120361 2344.603027 2292.656006 2259.985352 2240.764648 2152.781250 2042.172119 1958.924316 1862.716553 1737.549316 1532.017456 1386.094238 1264.831055 1154.070190 1041.329468 1079.132324 1208.383179 1293.452271 1346.632080 1415.726685 1563.576050 1716.066040 1829.494019 1891.681763 1981.802734 2107.324463 2278.072510 2484.503174 2537.371826 2453.040527 2407.383545 2538.302002 2665.991943 2573.737793 2565.441650 2564.022217 2541.926025 2401.614014 2262.412842 2125.044922 1992.662231 1859.548218 1709.102905 1575.542236 1617.317017 1668.433350 1715.198608 1760.863037 1835.393555 1818.253418 1755.940186 1690.696289 1645.303955 1671.361816 1769.235840 1852.903320 1884.375000 1839.413696 1836.344116 1880.844604 1873.106445 1789.732544 1679.241089 1544.297852 1426.282349 1337.573486 1226.321411 1107.660767 966.514404 870.843262 866.269409 927.539062 1021.842407 1117.869629 1286.064453 1462.179810 1602.992065 1690.495972 1715.065552 1698.794800 1656.081299 1638.738647 1599.442871 1619.060669 1753.921143 1856.016602 1931.431641 1951.468750 2018.944214 2182.621582 2351.967773 2466.670898 2564.426025 2691.622314 2758.931152 2707.365723 2627.340820 2671.671387 2808.567383 2664.722168 2573.112793 2587.978760 2750.132324 2802.877441 2670.244141 2596.499756 2424.986084 2258.930176 2170.069824 2244.809570 2307.589600 2140.696289 2140.795654 2203.250977 2184.468262 1984.608521 1683.683228 1422.927368 1292.033936 1324.369629 1555.904053 1756.763428 1921.564209 2090.999268 2221.696045 2296.121826 2293.780518 2356.341797 2439.927246 2586.540527 2661.935303 2700.877930 2713.306641 2753.789551 2801.413330 2815.889404 2672.644531 2541.920166 2514.436768 2597.666992 2637.858154 2627.976074 2648.463379 2561.145996 2417.110107 2312.504883 2198.404541 2100.042725 2002.166382 1877.435913 1743.462280 1602.887695 1347.089111 1184.931030 1156.749878 1156.407593 1154.943970 1156.937866 1158.425415 1158.496582 1222.807251 1409.786255 1612.166626 1797.733521 1979.536987 2151.510498 2316.173584 2507.761230 2600.063232 2537.806152 2488.656494 2479.456299 2511.388184 2501.528076 2426.591553 2466.822021 2451.071777 2479.347412 2505.634521 2576.226562 2542.955566 2634.297363 2728.505859 2699.078857 2675.406006 2564.903320 2478.330322 2447.053711 2369.212646 2408.496582 2428.402100 2463.542969 2618.275879 2706.750977 2916.138672 2974.610352 2853.939697 2692.442871 2593.457520 2503.751709 2515.990234 2545.610840 2626.655029 2801.038330 3041.167480 3172.284668 3112.166016 3020.571533 2930.345947 2892.069092 2880.768311 2861.919922 2832.206543 2811.704102 2859.438965 2826.440674 2696.723633 2625.168701 2575.990723 2542.174805 2450.393311 2333.219482 2209.988281 2134.355957 2135.337402 2176.000000 2211.162842 2073.442871 1968.535767 1976.684082 2021.672607 2118.201660 2222.506104 2306.141113 2328.490234 2444.267822 2533.000000 2626.175049 2644.324951 2651.426270 2731.641113 2762.314209 2624.194824 2465.232910 2314.383545 2172.216797 2038.413696 1912.348389 1792.276733 1671.866577 1560.524048 1457.797485 1334.355347 1227.996826 1141.174194 1092.004395 1245.321289 1391.205566 1543.642212 1727.881836 1880.227661 2002.534546 2098.026611 2084.818848 2044.458130 2115.874756 2314.241699 2401.875244 2211.800293 2032.488770 1844.189453 1684.045654 1546.085083 1519.139282 1583.595947 1730.194824 1949.385620 2218.188477 2335.806641 2395.927734 2342.471436 2247.044922 2228.862549 2204.303467 2142.945312 2048.105957 1938.816406 1831.337402 1847.667114 1685.433350 1586.229370 1495.491089 1394.484985 1366.619507 1359.417480 1299.351807 1245.414062 1217.854004 1192.074951 1180.425415 1173.521484 1179.337891 1194.124023 1200.938965 1233.861816 1253.210815 1274.698853 1326.562012 1365.465576 1381.191162 1387.271729 1371.647461 1315.194580 1264.675049 1201.660156 1132.522339 1076.786743 1089.414062 1180.366821 1331.966553 1464.609741 1563.903687 1608.466553 1700.724854 1826.677246 1920.753540 1919.996338 1938.789917
1945.030884 2101.521240 2227.238037 2326.321777 2412.748535 2500.274170 2694.474365 2696.657959 2586.217285 2561.850586 2549.586914 2578.634521 2540.030762 2408.488281 2282.417969 2220.067627 2187.241455 2095.429443 1985.752930 2008.204102 2131.956787 2232.993896 2310.329590 2377.955811 2498.625488 2641.337158 2761.674805 2731.939209 2656.020508 2671.502441 2646.547607 2607.202881 2572.124512 2526.698975 2369.172119 2306.866455 2359.901855 2474.737793 2496.946533 2384.385498 2373.968262 2347.823486 2270.140625 2223.854004 2203.270264 2220.369629 2216.457764 2184.868164 2144.664307 2141.511963 2154.556641 2190.703125 2211.681152 2190.074707 2121.556152 2108.483398 2023.809692 1896.915039 1809.519531 1699.769165 1590.836670 1466.383545 1311.056641 1224.610718 1097.259277 1018.472595 1132.806763 1260.210327 1393.005859 1512.843994 1499.971436 1571.497192 1718.778687 1888.313599 1995.991089 2043.378784 2139.531494 2286.248047 2459.816162 2582.656006 2622.282959 2591.298828 2707.075928 2724.813477 2673.515625 2614.272461 2514.248535 2516.724609 2407.191650 2246.569092 2038.475708 1936.553345 1816.964478 1688.114624 1654.354248 1701.715332 1749.822632 1798.571289 1856.209961 1911.117432 1922.698608 1861.367554 1796.661011 1731.931763 1759.833374 1853.701050 1920.769165 1980.330078 2020.618042 2019.228149 2025.053711 1967.765503 1803.280640 1652.397461 1500.983032 1365.352783 1251.658691 1138.762329 1020.344177 894.405884 860.583374 859.818665 874.717529 988.458313 1100.612183 1253.763062 1411.345703 1527.573242 1613.593994 1652.001221 1640.820190 1612.625000 1565.901611 1507.400024 1562.252563 1686.484009 1763.142090 1800.225342 1816.292603 1942.479736 2109.984863 2249.090576 2296.035400 2393.029297 2506.150635 2606.005615 2625.597900 2661.159668 2712.179443 2777.757812 2735.166992 2688.096436 2652.276611 2773.070068 2876.001709 2780.715332 2635.805420 2387.288086 2233.423828 2239.210205 2337.332275 2286.115479 2216.589600 2253.873535 2356.867920 2257.018555 2128.816650 1952.579590 1616.208618 1330.156494 1296.138184 1400.580444 1618.222656 1859.550537 1988.546509 2082.814697 2086.307861 2134.990967 2223.961426 2305.206543 2396.426514 2517.063477 2605.754395 2671.981934 2746.555420 2854.359131 2899.742432 2791.413574 2635.580566 2594.920166 2616.608398 2662.927246 2732.425537 2730.552490 2658.118896 2516.762939 2356.108643 2239.292236 2120.618164 2018.887207 1947.543091 1814.898682 1636.832397 1408.238403 1268.568604 1183.192017 1157.489136 1156.886353 1157.493530 1159.054199 1159.471802 1231.589844 1386.424316 1553.629639 1774.124268 1939.068726 2084.555908 2244.111084 2419.705078 2427.081543 2359.978027 2297.137695 2306.829346 2361.343750 2371.260498 2340.667725 2399.290283 2347.643555 2367.236572 2456.287598 2515.791504 2479.943848 2573.015137 2587.417480 2483.272705 2461.828369 2398.687500 2347.014648 2325.754395 2289.743164 2322.115967 2459.054688 2484.260986 2529.479980 2627.121338 2715.270996 2825.571289 2866.678467 2743.724121 2699.477539 2571.353516 2545.530762 2597.346680 2726.277588 2908.312988 3131.661377 3125.029297 3047.711182 3008.195312 2944.740479 2913.368652 2895.461914 2878.388428 2865.857910 2856.842041 2806.915527 2738.483398 2665.079102 2583.331299 2532.906006 2456.496338 2336.244385 2189.435791 2158.077637 2154.294922 2230.394531 2288.456787 2291.282715 2133.363281 2064.813721 2070.983643 2076.027588 2120.214355 2186.566162 2279.340820 2461.146973 2529.805420 2685.436279 2799.704102 2800.170654 2749.390625 2748.959717 2705.964111 2539.906006 2378.737793 2247.610840 2158.481445 2077.587402 1879.629517 1716.012451 1583.651855 1452.469971 1330.650146 1214.853882 1130.883667 1100.912354 1192.465820 1386.044189 1520.658325 1647.143188 1830.157837 1981.369385 2045.725952 2172.356934 2230.857178 2152.759766 2214.357910 2401.851807 2340.398193 2183.075439 2013.162842 1826.664062 1664.097900 1544.152954 1551.669800 1646.171997 1811.618774 2019.809692 2300.729736 2464.937012 2514.565674 2365.822510 2243.265137 2206.785400 2152.756104 2097.907471 1998.854004 1905.385986 1915.198120 1970.557129 1839.238647 1683.112183 1543.432007 1411.402832 1302.132202 1267.703491 1246.868408 1219.348022 1201.571411 1201.326782 1194.957764 1196.884033 1217.734985 1270.355713 1292.544556 1321.761108 1345.854980 1376.817627 1456.047607 1506.460083 1509.020142 1488.341675 1448.559326 1369.041504 1302.675537 1231.275513 1166.725220 1147.377075 1104.789062 1091.303345 1218.278564 1372.575562 1477.026855 1567.150635 1692.795288 1831.598999 1929.099731 1817.924927 1840.080933
1954.130859 2110.141113 2236.942871 2329.641602 2407.354980 2552.006104 2715.179199 2690.587646 2573.863281 2499.355957 2437.836914 2444.090332 2449.792969 2394.686523 2359.336182 2243.010742 2122.263428 2005.039307 1987.058838 2094.628174 2250.444580 2309.822266 2359.256592 2424.489502 2505.545898 2619.730713 2628.624756 2548.500732 2509.098389 2533.807861 2505.525635 2470.548828 2487.603516 2609.498047 2453.854492 2249.878174 2180.649414 2247.019043 2274.421875 2236.535400 2251.395508 2241.303711 2178.461914 2162.107666 2145.291992 2125.580078 2105.022949 2055.294678 1994.906982 1988.463257 2021.164429 2057.626465 2073.369629 2047.816650 1997.932739 1989.667603 1952.872925 1826.529907 1691.534058 1553.036255 1449.764526 1323.088379 1181.380249 1103.737915 1018.380737 1059.168945 1183.247681 1311.552490 1468.409058 1620.723267 1674.873535 1650.057617 1722.162476 1897.583618 2058.348389 2214.503662 2286.244141 2406.051025 2493.547119 2532.614746 2615.221191 2764.522705 2692.351074 2750.262207 2649.004395 2566.460938 2490.731201 2457.266846 2399.525391 2241.083740 2043.235474 1912.946167 1797.198486 1736.769043 1766.688721 1795.994019 1808.772827 1887.996216 1950.244019 1999.845703 2030.348755 1968.827515 1886.424438 1829.428589 1831.516479 1898.207275 1963.014282 2019.426270 2115.844971 2123.391113 2010.697388 1896.753662 1736.566040 1600.448853 1478.479370 1322.823730 1231.222900 1114.000244 977.050781 901.722656 867.485962 860.438293 861.222534 930.263916 1057.131104 1179.334595 1331.488525 1454.806641 1526.745728 1561.396973 1575.733643 1573.640625 1515.892700 1441.153564 1504.572754 1589.336182 1619.377930 1637.823730 1751.116821 1890.224487 2012.443604 2099.566406 2152.251465 2234.358154 2323.409424 2404.382080 2446.749756 2500.625977 2581.786621 2626.131104 2693.435303 2762.309570 2714.126465 2732.820312 2832.521973 2755.785156 2631.289551 2453.619873 2360.932617 2385.989258 2506.651123 2392.649902 2363.784424 2413.731934 2510.502197 2334.686523 2110.346924 1923.143555 1693.805786 1418.414795 1305.762939 1314.768188 1466.724731 1659.897217 1823.886230 1910.317261 1880.554443 1967.864502 2079.098877 2184.195312 2316.998291 2438.194824 2553.261719 2605.043945 2745.334717 2874.894287 3000.745850 2905.202881 2704.782227 2658.763916 2650.365479 2691.501953 2776.088867 2694.463867 2542.519775 2407.066895 2308.278076 2240.145508 2161.233643 2109.570801 2036.848877 1905.372559 1733.236694 1524.743408 1417.332397 1232.440918 1158.548950 1158.482788 1159.000732 1159.653076 1159.898315 1208.593384 1366.579102 1485.344360 1708.572266 1905.857056 2031.833618 2185.905273 2289.346924 2249.986084 2178.005371 2110.269775 2169.810791 2190.866699 2231.364990 2243.963623 2304.493896 2234.809326 2283.662109 2398.714111 2435.536865 2402.664062 2466.740967 2403.343018 2281.536865 2251.294922 2252.227783 2208.843262 2228.009766 2261.815186 2360.427734 2461.358643 2492.511963 2526.307617 2630.526855 2650.448975 2693.303467 2866.652832 2886.657715 2775.018311 2638.760742 2612.624023 2626.107422 2811.697266 3087.737305 3156.697998 3064.264893 3025.469971 2998.920654 2966.808838 2937.744385 2927.985596 2945.693848 2862.468994 2778.268066 2707.855713 2666.804199 2645.470459 2585.048096 2498.867676 2333.545166 2197.840820 2169.925781 2241.094971 2194.902344 2240.062012 2336.306152 2385.255127 2215.272461 2193.864990 2184.991455 2206.203613 2197.305420 2240.960938 2293.375977 2466.894775 2678.868652 2810.502197 2825.423584 2683.216797 2591.429199 2557.427002 2538.652588 2465.628418 2380.254639 2248.351318 2093.436279 1992.136841 1847.983887 1633.514282 1459.986450 1330.526611 1207.765625 1103.971680 1090.724609 1158.208130 1251.013916 1423.386597 1617.495605 1716.837036 1838.636841 1990.499023 2179.610352 2315.655029 2394.521240 2324.317871 2313.729736 2317.292236 2211.050781 2098.928467 1961.557129 1801.394043 1647.569702 1550.390259 1593.125488 1708.630005 1851.911621 1991.078247 2270.853516 2550.418701 2529.526367 2413.515625 2267.307861 2179.355957 2095.552979 2069.569580 1955.132202 1968.942627 2048.112305 1967.218384 1785.113281 1669.404663 1487.286499 1345.621948 1270.394897 1243.070557 1230.406738 1205.553467 1200.025513 1215.728638 1236.587646 1264.364624 1296.487427 1352.666870 1398.424927 1426.730103 1440.720825 1476.668335 1550.414062 1610.304932 1596.019653 1556.898071 1484.598999 1400.638428 1288.643799 1247.703979 1258.063477 1253.966431 1177.483887 1088.049438 1151.761719 1257.930420 1365.674316 1530.837891 1677.302368 1807.089355 1837.678467 1711.564941 1683.959717
1942.746094 2116.182861 2248.259766 2368.352051 2463.934570 2549.007080 2649.889893 2718.956787 2603.154785 2530.386719 2452.632568 2401.921875 2358.373535 2309.073486 2303.711182 2254.501221 2098.782715 2032.418457 2096.903076 2234.787842 2407.532471 2524.017822 2560.993164 2618.319336 2682.846436 2594.077637 2528.165039 2486.247314 2434.060547 2405.753418 2398.389893 2384.374023 2412.247314 2578.656982 2395.346191 2217.186279 2084.545898 2061.412842 2090.397461 2126.938477 2159.610107 2141.087158 2088.097168 2090.485596 2072.716553 2040.908569 2017.469482 1984.090088 1915.640381 1885.711914 1915.907104 1958.997192 1951.789062 1916.817017 1856.299805 1853.707031 1878.207764 1753.624268 1610.345093 1452.880249 1316.672852 1207.769897 1080.309814 1028.307739 1048.727661 1139.633423 1264.800781 1396.188965 1544.874268 1698.023193 1813.293457 1823.605347 1780.036621 1866.679565 2066.232666 2267.471680 2444.511719 2571.688965 2641.222656 2669.583252 2693.728027 2677.831543 2561.243164 2595.396484 2633.521484 2513.830322 2446.939453 2410.099121 2364.183594 2239.188721 2074.459961 1892.739014 1801.029541 1825.463989 1855.158691 1898.802246 1922.448242 1991.121826 2044.781372 2092.949219 2129.617676 2076.149658 1968.323853 1923.728516 1921.918579 1982.002930 2054.523438 2149.459473 2223.650146 2138.360352 1969.817139 1822.580322 1691.926514 1570.122070 1461.376953 1340.750122 1228.490112 1098.627563 978.188782 910.600891 870.162231 861.483765 863.370361 912.988220 1007.101746 1172.663452 1345.226318 1395.342896 1437.197021 1462.479614 1466.065186 1498.148560 1454.408081 1386.991089 1464.709961 1507.579834 1495.653931 1544.055298 1689.633789 1801.960205 1885.633545 1966.046997 2033.162720 2126.479492 2160.984131 2201.332520 2275.013672 2334.430664 2396.501221 2487.350830 2560.480469 2627.737305 2680.669434 2748.416260 2776.604248 2729.177002 2589.737793 2566.562256 2533.407959 2573.455078 2609.856201 2580.337158 2571.773438 2541.635986 2465.176025 2390.721680 2207.040527 1991.601074 1759.763672 1554.471313 1352.203491 1312.247925 1379.209106 1521.818237 1692.655518 1732.431885 1783.229248 1925.797852 2054.348389 2187.211670 2312.880127 2441.455811 2570.366211 2677.874512 2701.179443 2872.088867 3011.279541 2954.547607 2758.074951 2702.963623 2687.771973 2714.652344 2727.098389 2599.328857 2470.604004 2431.873291 2387.714355 2327.735840 2248.511230 2158.709961 2047.852661 1933.072388 1766.126831 1605.825684 1467.063721 1259.891479 1163.080200 1159.758301 1159.889160 1160.211914 1160.539795 1168.167969 1301.780762 1464.161255 1620.619873 1829.790283 1982.703613 2130.716553 2145.233887 2061.931152 2003.139038 1955.590210 2000.825317 2010.388428 2059.570557 2097.583984 2145.973877 2077.574707 2186.841064 2287.455566 2311.537109 2316.587891 2349.594238 2229.111572 2134.811035 2105.572998 2184.457764 2274.194336 2369.375000 2467.771484 2599.414551 2594.980957 2577.733887 2616.939453 2692.235352 2672.013672 2685.044922 2740.520996 2819.090088 2827.180664 2700.177246 2670.248535 2677.773193 2818.260986 3100.479980 3158.635010 3055.783691 3031.666260 3006.464355 2981.504150 2977.795654 3003.517090 2964.442139 2828.930908 2782.855713 2725.536377 2711.704834 2614.717529 2512.581299 2359.173340 2213.954590 2173.886963 2238.649414 2311.777588 2270.172607 2244.950928 2333.261719 2418.894531 2307.560547 2281.562744 2293.904785 2358.841309 2359.655029 2369.921631 2378.464844 2456.068604 2708.749756 2738.204590 2676.923584 2606.271240 2518.362793 2431.429443 2373.214355 2321.785156 2280.536133 2180.787598 2054.213379 1898.872925 1780.071289 1587.610107 1378.014771 1220.472168 1118.750000 1109.950073 1138.527588 1251.728149 1347.435303 1434.202637 1611.595337 1806.274170 1942.558105 2016.757446 2166.431641 2414.172607 2417.024414 2269.467285 2205.758789 2160.645996 2095.332031 2011.418091 1895.476196 1728.077881 1597.029419 1577.853271 1678.368896 1808.241455 2119.838623 2221.499268 2246.911133 2482.022949 2367.689697 2291.118896 2304.094238 2209.913574 2142.054932 2068.881836 2042.387817 2119.522705 2052.481934 1864.735352 1679.459106 1560.360352 1389.055542 1273.430664 1224.547974 1199.406616 1197.949951 1202.046997 1233.178101 1266.492310 1328.204224 1376.432007 1432.343994 1428.833496 1474.308105 1521.902710 1538.882568 1576.511230 1625.811646 1660.282593 1657.532959 1593.765625 1509.831787 1412.378296 1329.229370 1318.547852 1341.109131 1338.383179 1269.269287 1114.473022 1113.386963 1218.243164 1353.567627 1515.990723 1675.636108 1776.630371 1694.923584 1583.283447 1548.867432
1907.508911 2095.397705 2210.189209 2290.991211 2377.962402 2477.421387 2586.940918 2727.678223 2706.954346 2629.055176 2535.423828 2457.681396 2373.808350 2274.389648 2243.953125 2204.193359 2131.129639 2139.781250 2242.504395 2343.696289 2450.200439 2575.567871 2638.369873 2635.234375 2613.549561 2563.270752 2461.071533 2415.689453 2313.905518 2280.006348 2309.291504 2280.755127 2338.890137 2523.256836 2385.953125 2218.844727 2100.580811 2006.114990 1983.281616 2003.926147 2039.169189 2026.629639 2004.372803 1989.381714 1977.385498 1962.429810 1957.272705 1928.099976 1835.534668 1798.376587 1825.872559 1854.177002 1802.735107 1763.008423 1765.534302 1719.390259 1760.965942 1660.217041 1512.359741 1337.992310 1194.836548 1093.434082 1039.286987 1061.731323 1130.529053 1250.446045 1366.971924 1500.729370 1597.876465 1725.657227 1863.146484 1965.549561 1967.423950 1960.716797 2039.974609 2207.654785 2372.900391 2542.511963 2612.601318 2716.837402 2732.560303 2599.151367 2477.868652 2441.256836 2531.232422 2520.390137 2440.599365 2407.305420 2353.439209 2214.310059 2043.447510 1857.026245 1842.803345 1902.864990 1944.925659 1971.446777 2004.916992 2067.040039 2104.976074 2157.243164 2208.629883 2168.626953 2064.169434 2045.995239 2061.267578 2129.282227 2198.088379 2229.111328 2214.131348 2112.206055 1953.154419 1798.128296 1657.875366 1546.817871 1480.516846 1362.969971 1245.414185 1126.670044 995.484741 894.931519 864.385376 862.415833 862.011841 893.099976 1005.927734 1176.385498 1310.944458 1328.068848 1344.545044 1350.303711 1355.170410 1384.286133 1379.550659 1343.110229 1403.680176 1434.351318 1399.996094 1493.996582 1595.831909 1669.219604 1758.390869 1842.393188 1918.649292 1978.750732 1997.245239 2090.122070 2147.951172 2201.437012 2274.708252 2363.329346 2438.303223 2503.109375 2561.762939 2641.552734 2713.072021 2726.311768 2646.419434 2710.098389 2710.258301 2728.170898 2667.385498 2619.130371 2554.623535 2458.654785 2290.206787 2178.359375 2056.405029 1928.071411 1778.383911 1596.582397 1415.406738 1340.641724 1340.561035 1451.638916 1568.077759 1652.046265 1835.439453 2036.358276 2128.103271 2205.562012 2334.856934 2499.286865 2604.428467 2673.408936 2758.022705 2850.130615 2913.201172 2935.095703 2791.858154 2752.592529 2737.721924 2757.537842 2753.892578 2676.788086 2550.800293 2499.799072 2411.993896 2296.382812 2201.992920 2169.204102 2009.783691 1861.369141 1765.392212 1645.239990 1490.283813 1321.585083 1193.289795 1160.958740 1160.902100 1161.395508 1161.603394 1162.492310 1189.216919 1345.732544 1509.944458 1678.849731 1821.474243 1927.581543 1944.270630 1887.398804 1846.734131 1791.250000 1833.405762 1845.830811 1892.232910 1952.255859 1972.160034 1954.305298 2044.396606 2117.956299 2129.656250 2187.297607 2184.762695 2093.035889 2011.901123 2064.108398 2265.073242 2421.854980 2528.027832 2593.564209 2733.197266 2748.626465 2699.172852 2729.019043 2792.003174 2726.191650 2732.814697 2742.727539 2805.771240 2876.006592 2754.900635 2720.405029 2714.655518 2808.646240 3027.603516 3101.743408 3069.514648 3052.473633 3034.390869 2996.609863 2896.864014 2775.225830 2753.414795 2814.918945 2810.413086 2781.503174 2690.662354 2527.292725 2380.312256 2240.063721 2207.650391 2275.453125 2357.235596 2429.086670 2405.547119 2363.752686 2344.935547 2417.491455 2427.501953 2420.334473 2432.804932 2518.956543 2450.226074 2449.764648 2487.269775 2502.481934 2674.460938 2644.971924 2514.814453 2461.352295 2352.297852 2251.434082 2192.897217 2149.119873 2123.956055 2069.568115 1974.549316 1830.530396 1666.881104 1477.395386 1304.296753 1156.103760 1118.575439 1155.202271 1217.035400 1347.962524 1468.326782 1588.163452 1692.776611 1823.830688 2002.571045 2082.891357 2156.933594 2381.923828 2405.659180 2313.513184 2203.240723 2119.850098 2046.976196 1948.134399 1827.793945 1671.051636 1570.202759 1633.426758 1796.983276 1934.721802 2166.423096 2409.191895 2404.876953 2403.664551 2274.594971 2143.072754 2200.015137 2236.022949 2223.566162 2122.588135 2051.404785 2012.921509 1900.400879 1712.051514 1560.445190 1406.954834 1295.308350 1219.236816 1199.286865 1195.925659 1214.170288 1252.763672 1283.163086 1354.758911 1451.420410 1485.554688 1526.052856 1512.939087 1547.955688 1607.654175 1638.370483 1677.319946 1704.062134 1737.218872 1725.260376 1630.707520 1555.938843 1490.893188 1430.328003 1361.424316 1389.454102 1376.975220 1326.589111 1205.362915 1094.949097 1182.104980 1333.630249 1503.140747 1658.070190 1677.092773 1563.184082 1452.241943 1385.883057
1911.974976 2063.690430 2135.469727 2225.780518 2343.111328 2443.250977 2527.262939 2708.908936 2820.776855 2799.173096 2675.259033 2566.780762 2429.952881 2290.802490 2219.877441 2181.962158 2174.733887 2208.579834 2319.402100 2388.193115 2451.265625 2544.539307 2515.454834 2486.432129 2457.541260 2436.158691 2417.291748 2345.913818 2246.703125 2165.473145 2190.000488 2172.602539 2254.239014 2428.524414 2361.032471 2271.335693 2159.095215 2000.854004 1938.196167 1891.159058 1920.171387 1917.305786 1909.554077 1909.352783 1904.501709 1881.959229 1878.034668 1834.276855 1737.994751 1716.984619 1749.872437 1728.749268 1666.401733 1663.307983 1684.668945 1636.900391 1625.108887 1565.440552 1387.604858 1215.038818 1078.647827 1030.454224 1046.151978 1110.293335 1209.727661 1372.191406 1508.675781 1676.207520 1777.002075 1836.541138 1920.677612 2046.079834 2092.305908 2147.840088 2142.615967 2219.493652 2354.960449 2461.952637 2512.531494 2623.617188 2595.458984 2522.303955 2426.650146 2407.426758 2397.586426 2430.978027 2451.394287 2401.002930 2310.960693 2137.123779 1951.872070 1859.484863 1937.944824 2008.366333 2041.452393 2055.602783 2087.455078 2131.733398 2160.899658 2203.128174 2279.376465 2223.917969 2151.557373 2169.043701 2201.163086 2241.609863 2233.378906 2203.117188 2161.476074 2084.479736 1939.078979 1768.924683 1668.652466 1570.166626 1498.226562 1353.251831 1247.463379 1132.903320 1023.797974 906.703430 862.343811 863.051575 864.164124 872.770508 980.104736 1123.589600 1186.119873 1203.583374 1217.096436 1240.881470 1265.785522 1289.956665 1306.306763 1300.395874 1341.589233 1370.031494 1323.260132 1404.928345 1479.423828 1525.108154 1597.604492 1669.137695 1730.179932 1798.786987 1916.599365 1996.812866 2021.336182 2085.676758 2191.505371 2262.770020 2346.163818 2393.695557 2474.545654 2547.206055 2609.348389 2688.349121 2719.733643 2825.137451 2769.542969 2650.852295 2561.610352 2498.086914 2422.307373 2341.108887 2204.329346 2077.222900 1965.191284 1851.270020 1748.886353 1625.248657 1454.234131 1352.772827 1325.999023 1375.998169 1458.667603 1595.634155 1763.942505 1990.056885 2186.589111 2246.551025 2296.801025 2394.472900 2486.463623 2615.868408 2735.719482 2845.504395 2868.733154 2903.029053 2840.130859 2830.063477 2789.988037 2696.483154 2611.471191 2687.282715 2625.664551 2529.778320 2444.200928 2326.313477 2271.432373 2155.370361 1953.585083 1864.854736 1858.358154 1719.957397 1514.645630 1371.268066 1227.935425 1163.162354 1162.189453 1162.665405 1163.119995 1163.375732 1165.214600 1187.663086 1358.595581 1511.185669 1637.059448 1729.184204 1745.017090 1685.632080 1650.179688 1641.094482 1708.604370 1721.328857 1755.093262 1786.897095 1803.574585 1839.342529 1892.022217 1942.342651 1950.490967 2002.607910 2023.848511 1996.698730 1940.216064 2053.055420 2363.539307 2567.668701 2617.278809 2669.603516 2768.383057 2855.032959 2817.753906 2857.437012 2798.491699 2771.979248 2776.194336 2783.332031 2869.324951 2965.859131 2857.804199 2805.517822 2809.981201 2920.583252 3142.530762 3099.457275 3084.265137 3081.696533 3062.339355 3001.073730 2829.388672 2712.812500 2615.628174 2574.008057 2579.598877 2564.546387 2492.912354 2377.817627 2253.046631 2227.053955 2270.772217 2419.621094 2561.348877 2600.532715 2500.434082 2465.913086 2423.933105 2491.663330 2549.163818 2542.309814 2556.951660 2602.525879 2557.315430 2543.917969 2600.272217 2567.332275 2689.010742 2636.725342 2471.652832 2357.838379 2249.425781 2157.827637 2067.452148 1987.721069 1910.528198 1894.653198 1874.272949 1740.758423 1594.553345 1369.722900 1215.588989 1120.781006 1139.627563 1205.936035 1317.119995 1445.712646 1575.921021 1747.625610 1880.442017 1919.382812 2012.069458 2150.418457 2213.035889 2341.251221 2537.673828 2444.099609 2299.281250 2180.868896 2049.159912 1911.984375 1776.820679 1624.251099 1614.260742 1824.632080 2076.856201 2238.326172 2347.048096 2486.604248 2517.880859 2379.087891 2274.594238 2090.715820 2008.947876 2148.591797 2247.234131 2133.991211 1952.005249 1797.734497 1729.246460 1582.368286 1438.990356 1321.021484 1233.414062 1201.713989 1199.884888 1220.359131 1266.821045 1314.767212 1396.694702 1443.357056 1524.709961 1582.957275 1617.467651 1609.906128 1625.928101 1679.037842 1720.899292 1746.544800 1784.652954 1824.165527 1799.112305 1716.967407 1642.821655 1583.744385 1504.851318 1401.361084 1383.417603 1383.350464 1305.392700 1227.616699 1103.990234 1188.221802 1346.137817 1480.288574 1486.293579 1457.500244 1425.938965 1323.381348 1250.031616
1903.811768 2024.612793 2093.041016 2199.283936 2296.783447 2397.062012 2506.553955 2619.517090 2687.484375 2837.205811 2826.988525 2661.176270 2521.724365 2387.151855 2336.902100 2314.661133 2292.687988 2346.648193 2491.554688 2556.523926 2588.877930 2611.898193 2552.364258 2434.976807 2361.793701 2327.156738 2310.575684 2301.115967 2222.982666 2097.864258 2072.627441 2092.524902 2196.416992 2285.502441 2252.224609 2215.733887 2104.796143 1973.367920 1896.431152 1858.437988 1820.254639 1823.899536 1825.745605 1847.523193 1838.098999 1810.658447 1790.281860 1718.512573 1627.153198 1633.682007 1670.279541 1606.567261 1552.352539 1564.912842 1577.941528 1534.732910 1479.935425 1454.791260 1277.413086 1109.493286 1034.510742 1046.729614 1113.057007 1231.721680 1334.683350 1445.313965 1598.098145 1734.287354 1859.010376 1947.319336 2041.335693 2145.879883 2213.553711 2246.635742 2239.459961 2275.659912 2335.346680 2426.746338 2547.076660 2660.629639 2515.440674 2458.936523 2409.084473 2375.380127 2313.412598 2301.342529 2310.512207 2306.129639 2308.416748 2088.285645 1883.789917 1899.303711 2017.481445 2091.924072 2132.965088 2136.836914 2163.994385 2198.052979 2222.664795 2274.478760 2355.553223 2359.873047 2294.485352 2242.109619 2283.802979 2257.457275 2210.479736 2156.525391 2096.885742 2038.317749 1943.511719 1794.345703 1662.392212 1568.952026 1462.798706 1343.882080 1233.811646 1120.823486 1000.668152 882.237610 863.346375 863.569885 866.876404 871.625000 950.155640 1037.307617 1085.671021 1108.600098 1121.527710 1140.869629 1183.298828 1204.666748 1198.577759 1246.390991 1251.330444 1279.912231 1237.698486 1276.226318 1323.003784 1384.169678 1430.124390 1502.996216 1602.910156 1749.510986 1842.923950 1890.079590 1902.379395 1997.743408 2085.967773 2175.439697 2219.047607 2273.381592 2338.656006 2408.056396 2479.214355 2511.265137 2593.252930 2749.104492 2821.525146 2732.027832 2675.029541 2631.204834 2486.007568 2385.116943 2239.820312 2143.998535 2083.941650 1969.170166 1806.997925 1672.037842 1534.236938 1408.474487 1332.506226 1343.357910 1382.119507 1522.093018 1718.534180 1928.767456 2027.926758 2109.498291 2188.860596 2305.332520 2425.281982 2544.524658 2676.698730 2781.574219 2778.932617 2900.115967 2973.298340 2848.069092 2754.214844 2675.040039 2558.907471 2518.453857 2568.466797 2558.172852 2487.289307 2338.740967 2221.347900 2027.664062 1946.199951 1958.288208 1933.926025 1751.961060 1576.821411 1428.106689 1284.640869 1210.895752 1166.201172 1163.764160 1164.313354 1164.759033 1167.187256 1171.710327 1218.133789 1356.890991 1476.165649 1543.600464 1511.660278 1488.118652 1500.141602 1540.143921 1578.491699 1603.317261 1635.063843 1657.438477 1687.635376 1708.018921 1732.366455 1773.854492 1792.216431 1833.229370 1884.306396 1871.672729 1947.646484 2094.396240 2289.028809 2471.997559 2670.072510 2732.440186 2868.640381 2948.985107 2990.749268 2959.573486 2828.867676 2805.579590 2808.785156 2825.184570 2912.015381 3085.927734 3001.741699 2897.316162 2923.311035 3078.966797 3223.688721 3126.513428 3114.661133 3110.807861 3093.776123 2930.686523 2784.405518 2658.243408 2555.166260 2513.914307 2488.534424 2427.908691 2330.744141 2265.030029 2255.313965 2303.375977 2393.330811 2597.680664 2679.302490 2601.145264 2533.294922 2468.369385 2463.026367 2580.801270 2632.854004 2614.660156 2711.337646 2666.752686 2644.108154 2632.482422 2689.670898 2687.971924 2762.803223 2637.687744 2423.992920 2331.928467 2262.415039 2137.791748 2031.312378 1928.700195 1806.998291 1726.374512 1722.574341 1643.399902 1470.840698 1248.022583 1144.248535 1130.914062 1150.857056 1287.107544 1418.344727 1497.697510 1666.619507 1862.805298 2040.161133 2027.480957 2068.234863 2224.549805 2310.665771 2385.059082 2560.844238 2500.269287 2349.843506 2177.995361 2028.396973 1856.142822 1730.466553 1636.854126 1767.495605 1986.552368 2294.170898 2471.678955 2593.354004 2662.476318 2474.439941 2279.394287 2245.442383 2098.458252 1911.599731 2020.352051 2175.081299 2120.171143 1929.763062 1725.159546 1546.649414 1457.498657 1336.547363 1256.296753 1205.083252 1199.216309 1209.114624 1263.076660 1334.551270 1415.967896 1501.780640 1560.324585 1605.120239 1664.375000 1718.425049 1706.709717 1683.579102 1753.200317 1801.849976 1839.855103 1882.498291 1906.054932 1872.723389 1805.501953 1733.766113 1650.058838 1550.418823 1443.491699 1383.097778 1322.746948 1266.057861 1234.000610 1112.901611 1152.767334 1251.752930 1259.936279 1273.428833 1273.976929 1253.598022 1210.077148 1191.194702
1907.834351 1986.975342 2071.808105 2135.117920 2243.355957 2391.614502 2485.966553 2566.001709 2611.034180 2730.532715 2788.385742 2687.440186 2563.878418 2481.443848 2441.515381 2448.414551 2488.867920 2561.416748 2621.471680 2648.664307 2517.121338 2532.140625 2573.997070 2512.227783 2360.498779 2272.446777 2220.442627 2197.099365 2196.844238 2093.286377 2007.944946 2024.890991 2113.539795 2136.461182 2156.912354 2128.862305 2010.091553 1935.345581 1862.438721 1828.046509 1766.051758 1738.049194 1763.005859 1774.695679 1767.032593 1724.083862 1680.780640 1608.442383 1516.850586 1550.012329 1552.491699 1501.184937 1458.341675 1481.932007 1454.510864 1411.443848 1322.904053 1276.322876 1161.476196 1055.214600 1053.387939 1141.733276 1288.285156 1384.138794 1469.792114 1544.018555 1560.110107 1654.830811 1784.494629 1906.342773 2030.946655 2155.988281 2266.116455 2338.439697 2353.349854 2356.082031 2396.533936 2430.906250 2531.167969 2674.973145 2596.523193 2471.662354 2385.294189 2343.101318 2297.097656 2251.372070 2187.394287 2131.474365 2115.881836 1988.063110 1872.793457 1977.725342 2093.551758 2194.874512 2247.289062 2231.737549 2232.268799 2257.304443 2279.766846 2339.775635 2407.186279 2413.178955 2314.861816 2326.471436 2324.545898 2236.501709 2158.022705 2078.932861 2021.204956 1975.428955 1885.370117 1754.039429 1650.426025 1543.073364 1427.288696 1312.759766 1198.369141 1124.753052 1022.230713 884.578613 863.889771 864.986938 869.758911 874.359863 931.527710 984.202454 1019.629272 1027.679565 1038.442993 1067.522583 1081.001953 1091.334106 1078.705566 1116.194336 1130.773193 1171.325928 1154.871338 1162.034424 1162.433472 1221.027588 1315.784668 1399.259033 1530.017456 1645.103882 1733.592651 1770.104126 1832.782349 1908.268188 1981.766846 2043.021118 2117.363281 2152.592773 2206.676514 2297.799316 2383.068604 2449.034180 2595.540527 2755.564941 2840.919922 2724.540039 2657.623535 2697.136230 2622.552979 2508.709717 2342.486084 2252.021240 2106.696289 1921.042480 1822.369141 1770.953003 1648.063477 1530.380127 1416.815796 1336.568970 1335.834595 1436.196411 1615.017578 1748.681763 1850.410156 1975.309937 2070.934570 2186.541016 2321.367432 2448.023193 2585.906982 2674.186523 2737.555664 2863.209717 2964.153076 2794.585938 2691.087646 2636.521484 2490.960693 2375.636475 2386.310059 2400.689209 2357.559814 2172.174805 2056.265381 1966.355347 2008.710938 2054.673584 1928.152344 1743.292480 1561.255615 1476.123535 1447.762451 1369.745850 1226.437500 1164.372803 1165.716919 1166.354248 1168.832764 1174.602905 1183.543579 1217.269897 1318.334961 1379.374023 1331.652466 1368.009277 1415.468750 1452.363037 1474.268311 1510.427124 1531.148560 1557.614380 1586.323853 1578.168823 1591.722900 1620.121460 1659.706665 1679.357788 1727.149048 1806.045776 1945.152710 2164.089355 2379.270752 2564.825195 2752.682617 2795.630371 2928.312012 2983.330322 3000.862061 2934.612061 2870.016357 2846.802490 2836.313232 2857.975098 2963.502197 3096.378662 3023.904785 2984.920898 2973.912842 2991.538086 3124.263184 3190.688232 3206.958740 3220.013916 3062.895752 2912.199707 2793.974121 2707.511475 2648.232910 2606.126953 2510.940186 2412.444580 2306.522217 2292.675049 2352.529785 2434.623779 2552.565430 2685.563232 2662.876221 2626.920654 2535.064209 2551.604248 2582.645264 2660.525391 2679.356689 2746.161621 2880.069824 2804.143311 2737.843262 2786.856201 2774.199707 2624.665527 2651.258057 2696.178955 2503.554199 2446.695801 2362.750244 2187.402100 2088.313477 2000.436523 1852.994141 1694.740234 1566.509399 1477.289551 1293.593872 1150.710205 1131.487427 1159.193970 1228.996460 1450.715942 1574.281982 1595.268311 1729.445068 1970.453369 2121.633057 2091.587158 2148.436035 2266.629150 2486.529541 2493.949707 2537.675293 2363.005371 2218.300537 2113.892334 2006.294800 1842.852661 1703.488892 1716.826538 1878.250488 2061.971924 2263.794434 2512.237061 2708.974121 2704.697510 2555.294678 2312.250488 2095.282715 1981.616211 1838.396240 1862.131226 2015.688232 2006.319092 1830.660645 1625.643677 1479.315918 1364.635742 1278.949707 1217.966675 1206.330444 1218.275879 1270.219360 1328.743408 1413.773315 1536.932251 1621.220337 1665.178955 1697.887817 1761.456665 1822.779785 1818.688599 1752.972656 1836.888184 1918.148926 1951.794312 1976.475220 1992.657715 1932.977661 1855.941284 1779.513062 1690.928833 1586.487305 1470.195801 1392.649170 1332.266602 1309.900391 1281.774902 1191.113159 1104.504395 1114.357300 1139.836304 1157.458496 1161.726440 1164.595947 1222.405151 1311.510010
1844.187378 1957.027832 2086.674072 2181.871826 2303.173340 2416.902588 2491.290527 2548.798828 2597.260010 2623.347900 2709.012451 2791.245605 2702.348145 2586.406982 2537.543945 2555.438721 2599.368408 2685.926758 2596.372314 2523.785889 2420.208740 2414.947510 2458.496826 2500.204590 2421.530273 2269.838135 2164.628174 2101.878906 2061.932617 2044.688232 1942.312988 1941.568970 2005.786377 2015.383179 2055.362793 2040.484253 1917.424561 1866.880615 1798.979004 1761.649292 1701.217896 1658.055542 1683.540771 1672.746704 1657.381348 1617.101807 1583.508789 1517.819946 1424.593750 1439.895386 1427.414795 1383.866455 1345.077026 1334.043701 1283.512451 1219.967529 1140.516479 1087.148804 1067.634399 1091.063965 1137.623535 1257.750610 1409.011475 1504.430420 1610.899658 1689.704468 1688.784058 1675.656128 1752.445435 1902.671997 2019.637573 2123.023926 2224.314697 2324.433838 2419.166016 2500.576660 2543.299072 2560.956299 2559.474609 2690.737549 2718.968018 2538.982178 2419.272217 2374.873047 2355.796143 2270.819824 2134.097168 1995.679199 1943.301270 1891.095581 1936.336914 2076.960205 2190.344727 2288.939209 2367.265869 2350.441650 2341.769531 2341.327393 2350.861572 2425.059814 2468.303467 2469.323730 2427.866455 2393.125000 2281.343262 2147.410889 2054.144287 1970.007690 1903.365723 1879.748901 1790.951660 1678.786987 1597.402344 1499.390259 1389.501465 1286.648193 1192.620117 1162.137085 1028.437256 902.078247 864.572937 867.419800 873.979126 877.794189 901.705627 922.592896 939.811646 944.387512 937.161926 963.592102 1012.021362 1046.192993 1026.600464 992.356873 1035.935669 1067.609375 1063.472534 1038.903687 1038.806396 1067.768555 1144.205933 1269.550293 1379.014038 1497.700073 1595.950439 1668.997070 1749.305786 1828.018555 1904.066406 1974.029053 2037.208008 2082.475830 2145.995605 2241.029297 2330.922119 2389.156738 2487.733887 2624.857666 2747.426270 2772.233643 2588.300537 2544.339111 2478.489014 2422.867188 2348.024170 2200.071777 2047.115112 1929.865234 1907.315308 1877.964966 1777.516724 1683.764404 1543.242432 1396.151733 1340.571045 1386.259155 1507.204590 1674.922607 1887.347656 2050.513184 2089.275879 2180.219971 2307.044189 2416.008057 2498.976807 2608.488281 2703.215820 2822.518311 2961.064453 2813.574951 2680.329102 2564.097656 2412.125000 2278.222412 2245.469238 2214.307373 2137.746094 2026.673584 1992.478149 2031.180786 2070.345215 1954.123657 1807.570190 1713.597534 1725.858643 1741.291992 1693.102661 1540.154541 1360.511108 1200.145996 1170.574951 1173.466919 1170.912964 1174.697388 1201.641846 1263.722290 1250.845215 1284.620483 1383.495361 1463.958374 1516.283936 1552.050659 1579.885864 1603.114868 1614.669067 1609.748779 1585.530884 1574.652344 1570.994873 1573.461914 1589.646118 1607.411621 1661.689331 1782.449585 1989.281250 2216.537598 2416.729980 2601.719727 2810.164307 2925.244629 2997.489014 3039.249512 3106.029297 3042.219727 2940.287109 2915.296387 2916.297363 2928.875488 3079.583252 3126.125977 3103.407715 2988.258545 2898.222412 2875.721924 2971.351807 3148.237793 3240.828613 3199.441406 3112.977051 2966.496338 2886.991211 2829.001709 2795.989014 2759.374756 2605.558105 2441.787354 2338.994629 2364.682129 2519.368408 2623.611816 2725.916748 2704.527832 2677.859863 2661.891357 2632.470459 2643.382324 2689.038330 2746.417480 2793.593018 2905.847900 2901.592773 2820.763672 2792.138916 2776.965332 2665.670898 2520.671631 2486.491455 2582.951660 2594.925049 2518.761963 2412.620605 2276.390381 2242.277100 2107.913574 1931.223022 1746.891968 1558.518555 1312.885498 1176.390869 1133.130615 1144.183228 1247.034424 1365.189453 1507.991699 1665.179810 1756.004883 1827.105469 2027.371948 2202.851074 2200.718994 2231.925049 2297.742676 2528.388916 2615.841553 2534.315674 2374.596436 2241.491699 2106.471680 1966.919800 1819.134277 1718.722046 1793.694946 1921.334473 2086.989258 2333.512207 2627.318848 2643.214111 2562.918701 2628.838135 2428.743164 2108.707520 1949.397949 1768.874390 1715.929443 1873.049438 1886.088135 1715.852661 1519.430054 1410.809692 1303.650635 1252.068970 1213.295776 1219.007202 1264.880127 1347.877441 1489.857178 1530.480835 1612.065186 1726.066406 1769.085083 1795.149902 1849.024902 1917.646484 1956.603882 1866.866699 1918.236816 2011.893066 2059.366699 2067.930420 2021.773193 1960.381836 1880.642334 1796.317993 1707.079468 1613.275757 1487.971558 1405.276367 1355.531494 1324.950439 1304.293091 1200.101440 1169.944824 1210.984131 1163.166504 1145.416626 1141.195435 1169.312134 1265.205933 1433.459961
1879.895630 2008.009888 2148.475342 2275.010010 2391.669922 2476.233154 2560.982422 2590.656738 2636.060547 2725.423340 2762.523926 2810.867676 2838.869141 2745.098145 2722.841064 2706.179932 2712.368408 2699.415039 2583.527344 2427.821777 2325.866699 2301.588867 2344.561279 2399.105957 2395.792480 2252.343018 2132.093750 2044.259399 1969.253052 1936.686646 1891.356812 1832.276611 1880.601074 1901.406982 1948.558594 1920.642578 1816.520752 1776.536621 1701.684692 1634.011475 1599.554077 1564.246704 1562.467041 1577.140381 1556.313965 1512.690063 1475.375244 1409.816162 1334.674805 1325.450684 1298.865845 1249.459473 1212.282837 1166.064941 1112.555908 1077.901611 1083.644043 1103.846680 1150.727539 1150.152832 1222.194946 1352.700928 1495.773438 1625.262085 1741.419922 1823.948120 1842.623901 1800.118286 1765.172241 1876.411743 2002.941162 2093.347168 2188.785156 2277.910889 2386.351074 2470.027832 2555.413574 2619.072998 2671.237793 2748.567871 2748.317139 2658.041016 2487.297852 2426.145752 2373.683594 2237.593994 2049.024658 1956.621582 1959.715210 1969.776367 2054.057373 2189.523682 2304.942383 2401.114990 2468.444092 2463.525146 2453.045166 2424.104248 2425.617920 2435.135254 2430.944580 2402.913086 2404.403564 2371.064941 2255.875732 2126.213379 2007.586914 1899.237915 1822.292969 1780.254150 1710.844116 1632.637817 1549.461060 1454.843018 1360.403687 1281.433594 1189.982666 1112.566162 1002.435730 892.946411 865.130798 867.270142 876.425171 921.028320 970.020630 987.226257 987.677612 1012.347168 1046.246582 1051.631226 1011.099854 979.999939 1020.175415 1089.841187 1057.551636 1006.436523 1011.086060 1025.088623 1033.378174 1049.869263 1065.885376 1143.725586 1229.764282 1348.454834 1453.973633 1566.666870 1686.054321 1763.550781 1837.939819 1917.338745 2004.977295 2067.255859 2143.562744 2242.545898 2300.312744 2330.623779 2437.959717 2590.662109 2732.181885 2806.878662 2679.445068 2538.940430 2412.472656 2269.224609 2181.194824 2154.942627 2060.797607 2028.908691 2034.804443 2033.677734 1942.891357 1829.082275 1677.862671 1510.279053 1383.967041 1351.505005 1463.054932 1659.953735 1864.637573 2053.938477 2194.971191 2280.781250 2358.943115 2490.878174 2559.186523 2708.772705 2713.344482 2787.728271 2873.619385 2758.808350 2653.320312 2566.754883 2471.196289 2304.013916 2228.653809 2173.032959 2067.610840 2041.038330 2088.297119 2115.141113 1993.258057 1899.200439 1875.702271 1892.576050 1959.767700 1967.833252 1857.423218 1641.315186 1444.981445 1330.861694 1270.908691 1210.224854 1171.298584 1170.715698 1248.091919 1371.768066 1375.740601 1388.652588 1495.305908 1603.111084 1663.717773 1714.430298 1768.551025 1766.121582 1804.763794 1805.533081 1778.905151 1730.212891 1683.359619 1638.366699 1615.064575 1601.724731 1616.878052 1719.301758 1886.684570 2079.139404 2286.212646 2531.990967 2705.645020 2836.626953 2983.556641 3075.032471 2994.557373 3031.811523 2998.438477 2977.393799 2973.567383 3004.817871 3002.843994 2910.248291 2925.729980 2881.264160 2808.678711 2830.088867 2868.329102 3014.779785 3214.375732 3158.557129 3103.760010 3050.207520 3034.816650 2967.000977 2916.114258 2788.268799 2669.105469 2525.724609 2415.682617 2450.850830 2613.767822 2787.425293 2773.359131 2718.012207 2707.109131 2728.706543 2729.165039 2736.671875 2787.117188 2837.056396 2953.212158 2910.291748 2823.091064 2758.440430 2712.201172 2631.763672 2543.285889 2473.116943 2367.272705 2397.560303 2435.114502 2357.718750 2265.238281 2189.805420 2155.312744 2036.991211 1863.934204 1689.241455 1488.720459 1249.969360 1151.388428 1142.241089 1247.596802 1418.874634 1551.816162 1596.974854 1646.834106 1792.042236 1959.090454 2087.293457 2266.403564 2387.272949 2363.193604 2381.863281 2539.816162 2467.669434 2348.866943 2243.964844 2152.920898 2054.176514 1893.191406 1766.011719 1802.058960 1927.778442 2058.257080 2176.665039 2398.848877 2610.650879 2452.139893 2339.850342 2515.760986 2375.134277 2143.461670 1985.339966 1772.355103 1599.609863 1739.781372 1738.054810 1571.979126 1419.280273 1318.395630 1238.346924 1211.565674 1211.617798 1243.416016 1319.076904 1403.537964 1594.741821 1667.637451 1631.572144 1768.728638 1867.618774 1888.483398 1941.791504 1999.290527 2042.404297 1963.212524 1960.210083 2098.752197 2165.525391 2127.335938 2042.899292 1969.992310 1893.925171 1807.169312 1712.312378 1614.195801 1503.182495 1408.705322 1358.939453 1333.733765 1300.381104 1147.750977 1216.250122 1363.640381 1346.086426 1267.895020 1195.876221 1160.897827 1196.848999 1300.598511
1920.826660 2071.236328 2206.357178 2288.998779 2397.162109 2466.036377 2585.379883 2689.494873 2740.038574 2885.407715 2798.665771 2714.007812 2747.043213 2612.970215 2648.303467 2637.120117 2693.284180 2590.789062 2629.287842 2448.930664 2269.885742 2223.720459 2268.424805 2312.460205 2330.537842 2252.843262 2129.696533 2045.971802 1948.274414 1870.669067 1827.657715 1751.073486 1774.761841 1785.796997 1830.981567 1785.038208 1698.176025 1650.188965 1596.160645 1543.374390 1489.561768 1453.929321 1444.136719 1453.624268 1422.722656 1382.349121 1313.190918 1259.930908 1212.904175 1199.734253 1156.458618 1126.810547 1102.458008 1092.142944 1105.142944 1143.107422 1187.040527 1222.838623 1271.353394 1263.763184 1280.451172 1405.564941 1566.594238 1701.637085 1805.380249 1899.269775 1972.878662 1941.830200 1871.701172 1876.958374 1977.594116 2072.204590 2147.198242 2236.759033 2320.383545 2379.754150 2429.693359 2483.195068 2574.176025 2653.627197 2603.142334 2570.527100 2504.214844 2482.712402 2374.397217 2170.229736 2026.646118 2067.508057 2116.842285 2112.708496 2121.583496 2211.262695 2336.638428 2461.681885 2551.178223 2533.273438 2458.857422 2374.490723 2325.140869 2304.094971 2275.892822 2257.103271 2244.636719 2224.774170 2166.760254 2088.937256 1945.917236 1824.077515 1754.155640 1712.002441 1632.801636 1564.232422 1494.510864 1403.386108 1313.069824 1234.999390 1187.733398 1153.429565 1069.512085 958.690552 875.243713 867.111877 902.414062 1024.393311 1106.691528 1112.048340 1087.427246 1148.953491 1188.990112 1192.498535 1161.702148 1141.447266 1187.385498 1246.030029 1245.415283 1170.200195 1163.260864 1156.962402 1154.797974 1126.615479 1095.866089 1073.668945 1151.779419 1233.000000 1372.545654 1516.154907 1623.026733 1695.001099 1763.537964 1869.014648 1987.591187 2054.025635 2122.046631 2185.804932 2230.255859 2280.030029 2387.201172 2491.523438 2613.574707 2770.021973 2796.982666 2582.488770 2368.965820 2220.976807 2212.183838 2224.817871 2107.790283 2107.346924 2190.796631 2178.924072 2059.099365 1919.951050 1763.973267 1586.892700 1429.045776 1345.154541 1410.185181 1600.600220 1812.204590 1992.225586 2142.080078 2270.186035 2377.880127 2477.626221 2588.834961 2677.628174 2755.421387 2848.322266 2833.298096 2749.823730 2721.378174 2721.207031 2625.590820 2475.643555 2315.854248 2186.283203 2113.885010 2149.172363 2199.677246 2087.931641 2026.720947 2005.562744 2037.252808 2109.921875 2124.072510 2037.387085 1861.087402 1678.060303 1543.755737 1459.889526 1351.953857 1196.129517 1170.359131 1170.990845 1268.444336 1411.700317 1537.100342 1606.713501 1667.592529 1776.908691 1824.613037 1847.502441 1958.369751 1961.385620 2033.634033 2036.803833 1990.176025 1914.711060 1841.232666 1803.174683 1762.142700 1690.759888 1627.106445 1679.937988 1800.630981 1954.263794 2175.320801 2400.027832 2557.446777 2705.218018 2861.618652 2935.057373 2844.873047 2973.173340 3011.035889 3010.263184 3048.246338 2982.659180 2877.925781 2801.680908 2792.923340 2767.337402 2747.601807 2798.250488 2835.400879 2989.619141 3216.256348 3173.730713 3114.095215 3105.459473 3033.478760 2943.864746 2883.367676 2811.383057 2680.762207 2569.048340 2494.925293 2522.967285 2698.507812 2838.809570 2761.300049 2768.744385 2785.861084 2860.096436 2927.074951 2850.020752 2925.076904 2942.716309 3006.031250 2971.328369 2896.626221 2764.540283 2653.379883 2556.779297 2451.064453 2359.225830 2279.317627 2240.548340 2270.414307 2229.076416 2130.065186 2037.871704 1963.549072 1876.290161 1755.400024 1589.650513 1359.935425 1192.542603 1154.440430 1202.542236 1374.302368 1548.359741 1742.368896 1809.743042 1730.294556 1795.717529 1952.109741 2173.896484 2369.224854 2518.905518 2531.926758 2518.622070 2562.200439 2449.335205 2301.274902 2227.249268 2115.005371 1983.884155 1804.344238 1781.886108 1902.085449 2030.832886 2163.751953 2352.429688 2444.318359 2561.252930 2391.628174 2178.612061 2256.484131 2284.226562 2066.919189 1835.391846 1711.018677 1514.692505 1593.521851 1498.519165 1382.478027 1294.244019 1231.205200 1209.078125 1208.536133 1230.223755 1291.717896 1417.545044 1456.294189 1576.233032 1732.072388 1726.528198 1792.479126 1915.271362 1963.113525 2008.024780 2071.339600 2098.526367 2009.153076 1999.603638 2126.218018 2200.380127 2131.344482 2056.878662 1975.431763 1895.153076 1821.220093 1726.267334 1626.668457 1516.367554 1415.915649 1361.781738 1325.688477 1259.582153 1137.397949 1213.300049 1353.129761 1478.005981 1408.362183 1297.319336 1204.610229 1182.844116 1227.398560
1999.253662 2180.760498 2336.966797 2426.861816 2473.835693 2489.596924 2565.129395 2628.438477 2736.885986 2796.886963 2673.119873 2583.555420 2629.857666 2586.195068 2544.380371 2498.270996 2581.160889 2510.045898 2522.388672 2519.303467 2309.048828 2173.667236 2184.647949 2233.760742 2252.831787 2248.705811 2121.246582 2026.572510 1920.662109 1846.101929 1784.373169 1699.995117 1660.235840 1685.023438 1699.352051 1662.176758 1577.195190 1531.165405 1481.591187 1461.536133 1394.025757 1345.387817 1343.844360 1336.776611 1282.172241 1235.620361 1182.363892 1144.163086 1127.955200 1115.708618 1119.901367 1118.636719 1129.166504 1144.927124 1177.366089 1235.159302 1279.546021 1340.783936 1400.070801 1410.935425 1408.493774 1440.184326 1580.593262 1713.439575 1823.417969 1933.313843 2026.591797 2089.266602 2054.053711 1977.818115 1951.904053 1999.795654 2085.433594 2183.889404 2273.656982 2350.799561 2443.535889 2505.712402 2548.113281 2649.057373 2599.351074 2545.637939 2505.886230 2436.192139 2315.339355 2155.554199 2102.115723 2186.919189 2267.303955 2225.818848 2207.883789 2246.991211 2321.224365 2427.112305 2532.013184 2437.360840 2356.674316 2260.041260 2196.215576 2157.207520 2125.518799 2139.909912 2116.686523 2067.262939 2027.880249 2020.749390 1913.866943 1814.078979 1724.725098 1640.204102 1557.863037 1489.281860 1446.599365 1360.067383 1265.693359 1226.928345 1216.790894 1187.849365 1095.929688 1017.948608 899.047974 871.251648 949.157288 1085.467773 1210.203613 1230.878174 1191.182495 1261.472900 1316.233765 1333.708374 1307.848022 1344.644775 1377.923218 1414.512695 1417.517700 1357.981445 1353.345581 1300.807373 1236.853882 1219.894409 1221.187866 1171.217773 1118.112427 1185.397827 1323.141846 1438.934082 1559.153564 1644.551392 1721.046265 1816.407471 1932.645386 1991.744629 2045.822266 2088.040283 2169.329834 2274.113525 2353.849365 2452.902100 2556.520264 2684.479004 2759.699463 2531.412109 2342.608398 2280.787842 2350.227539 2295.012451 2179.398438 2186.136719 2297.370850 2237.077637 2093.208496 1908.030762 1732.258667 1614.277710 1491.095093 1386.962280 1365.493774 1493.202148 1675.576660 1836.657227 1952.649048 2039.714355 2183.670166 2313.626221 2388.489258 2488.175781 2629.805664 2786.548340 2907.551758 2844.291016 2817.819336 2695.985840 2550.653320 2427.372314 2340.391357 2252.397461 2195.917969 2215.434326 2269.936523 2159.712158 2135.949951 2212.295654 2276.881836 2360.380127 2253.822510 2105.821777 1906.281494 1728.718506 1623.661377 1474.694702 1284.323730 1172.807373 1170.902222 1181.635742 1340.017822 1543.682495 1691.842896 1759.709961 1828.903564 1939.210815 1995.262329 2011.550781 2102.394531 2145.159424 2158.589111 2121.992920 2103.844482 2067.580322 2018.071167 1973.553345 1901.149536 1819.686890 1711.387939 1652.378418 1726.446777 1856.440552 2049.791504 2265.412598 2417.563721 2581.601807 2711.356445 2760.020264 2771.050049 2912.617188 3070.004639 3090.554688 3125.511719 3001.133789 2892.602295 2793.139893 2745.318359 2710.205566 2688.611328 2712.619385 2766.712402 2957.578857 3144.436768 3162.287354 3046.718994 2966.937256 2946.052490 2955.807129 2876.999756 2742.065430 2636.107910 2547.905029 2581.876221 2644.228516 2802.554199 2881.041016 2840.651123 2860.292969 2879.818848 3043.562256 3117.043457 3008.339600 3034.224365 2950.678223 2835.172363 2771.323486 2727.212646 2667.341553 2588.924805 2470.116455 2364.867432 2269.688232 2151.049072 2092.205811 2094.043213 2170.507080 2078.794189 1974.553955 1872.251587 1729.308105 1608.724243 1464.099731 1272.760864 1185.085693 1211.891235 1328.935669 1509.872314 1680.600220 1909.088989 1953.318237 1848.326294 1861.753662 1950.644409 2111.073242 2265.197266 2463.962646 2664.300537 2692.604248 2630.198486 2469.311279 2341.201416 2237.198975 2116.135010 1927.520020 1780.497681 1863.898682 2020.317993 2161.547852 2294.548340 2553.666748 2349.413086 2273.282471 2269.563721 2024.836548 2001.602051 2074.649414 1962.593506 1749.907104 1587.703125 1449.719971 1430.368164 1336.378906 1254.462524 1216.896240 1211.520264 1211.982788 1237.492920 1283.935425 1390.586548 1486.966309 1551.881836 1584.883423 1714.037231 1848.200073 1833.493652 1943.775513 2009.948853 2054.662109 2112.968506 2105.457764 2032.422974 2034.518066 2142.892334 2170.214844 2107.658691 2032.503052 1963.492310 1898.305054 1828.338013 1730.082031 1617.432983 1517.876953 1432.004517 1376.643311 1336.145386 1282.643311 1147.334839 1220.340210 1347.334106 1468.151978 1530.104858 1435.720581 1346.895874 1237.332886 1208.373535
2046.556763 2231.602295 2399.752930 2501.797119 2566.398438 2621.669922 2625.793701 2655.306152 2754.067139 2669.873047 2586.755615 2507.867920 2559.083252 2538.789062 2422.180420 2403.129883 2443.079346 2432.311523 2399.398193 2430.819824 2330.573975 2159.823975 2113.917480 2148.908936 2161.456543 2159.593262 2089.344971 1989.317505 1897.343628 1804.276001 1709.100830 1633.512329 1561.656982 1590.968384 1569.809082 1542.550659 1456.479736 1411.071533 1368.807007 1332.622925 1286.226807 1256.747559 1228.113525 1188.425537 1151.482178 1126.214478 1115.329834 1122.460571 1150.790161 1211.844849 1252.458862 1261.485718 1250.420288 1232.987793 1263.595581 1341.528564 1400.815918 1443.557739 1478.910400 1521.062622 1521.777100 1500.488647 1599.073853 1697.237793 1786.571655 1897.348755 2015.717896 2118.037109 2175.230225 2140.817871 2044.846436 2028.701782 2101.219238 2174.213135 2232.969238 2345.914062 2456.962891 2552.509277 2634.033203 2740.903320 2690.229248 2562.234375 2515.522949 2458.853516 2296.793701 2151.466797 2171.583984 2248.383545 2378.207275 2346.752930 2333.459473 2359.489502 2367.962158 2427.331787 2462.688721 2336.868408 2251.437988 2169.318604 2108.058350 2053.087402 2018.567871 2042.182373 2014.739746 1950.382324 1918.277710 1911.162598 1880.653931 1798.821045 1713.645142 1611.236938 1506.921143 1439.937866 1376.539185 1317.564209 1275.606812 1263.330933 1241.604980 1154.626343 1009.435791 915.363403 869.531555 879.419250 1006.338745 1161.138550 1311.821045 1358.258301 1306.965942 1347.767944 1435.207642 1452.685791 1422.177246 1538.241943 1610.653809 1577.276001 1551.383423 1501.822998 1463.656860 1404.960693 1338.574585 1354.309937 1340.331909 1331.847778 1249.008057 1162.594238 1269.140747 1367.540161 1459.466064 1536.235718 1603.906982 1747.295776 1833.011108 1861.848145 1888.890625 1960.079712 2085.157959 2236.424561 2376.587402 2501.379883 2678.352051 2783.729980 2742.338379 2516.217285 2375.270508 2360.773682 2443.845215 2353.563477 2265.134766 2280.060547 2296.319336 2167.752686 2020.706909 1867.304077 1802.736572 1709.310913 1577.132080 1479.135864 1408.039185 1422.433350 1557.300903 1716.396851 1821.867188 1997.283325 2140.424316 2251.866455 2336.755859 2446.050049 2598.141846 2797.860107 2913.092529 2825.484619 2704.873779 2567.131836 2498.073242 2459.180176 2397.386475 2322.773926 2285.131836 2324.672852 2253.725342 2167.128418 2184.610840 2308.047852 2487.752930 2526.267822 2313.045410 2124.330811 1929.982422 1740.406738 1588.427490 1406.288574 1213.089722 1173.072876 1171.967651 1223.807739 1417.887939 1626.919434 1729.007935 1822.783203 1992.544922 2063.807861 2150.129395 2202.839111 2245.207275 2331.552979 2281.191895 2194.275146 2207.810059 2170.901611 2117.824463 2077.386719 2029.276245 1919.646973 1824.922974 1712.585815 1686.073364 1785.265625 1949.295044 2126.693115 2276.280518 2418.147461 2516.849854 2595.939697 2687.232910 2848.195068 2962.827393 2996.897949 3017.114990 2927.543457 2847.482178 2753.148193 2703.294678 2691.962158 2675.393799 2676.848633 2756.094727 2893.937256 3120.521729 3125.268799 3007.056152 2949.176514 2877.236572 2819.800049 2797.507324 2718.964355 2588.034424 2547.601807 2640.775146 2740.624268 2925.240234 2985.864258 2935.630859 2941.591553 3003.303711 3149.055176 3039.578613 2926.079346 2840.632324 2852.083008 2830.005859 2729.243408 2623.937500 2506.741211 2449.692871 2357.845459 2247.120361 2130.016602 2003.427612 1935.380859 1918.921875 2005.001587 2088.156250 1995.393555 1868.378174 1717.852051 1539.591919 1348.463135 1207.791870 1220.187012 1290.918579 1412.984985 1609.095459 1793.115356 1993.617432 2051.563965 1948.296265 1930.631470 1988.249390 2082.886963 2236.285889 2342.757080 2508.540771 2657.959961 2489.962402 2402.302734 2299.255859 2184.739502 2035.609253 1845.361084 1833.734741 1932.927856 2050.322998 2190.209229 2428.707031 2536.380859 2272.096924 2080.350098 2005.254517 1941.178223 1796.862915 1830.706543 1747.996460 1560.232788 1469.850708 1379.406616 1318.503052 1269.990479 1232.239380 1215.166626 1214.651123 1239.851074 1293.415283 1381.864990 1517.667603 1629.733154 1640.356079 1603.310791 1720.960571 1874.178589 1864.906250 1944.705566 2032.172119 2096.805664 2169.822754 2127.514648 2082.696045 2112.293457 2164.850586 2125.418457 2074.458008 2002.109497 1940.377563 1880.848755 1812.292603 1725.636963 1619.477905 1522.965332 1441.714966 1388.389404 1349.653442 1320.322754 1169.029907 1233.318359 1393.983398 1524.107910 1640.922241 1664.579468 1525.741333 1373.480347 1261.729858
2081.365723 2216.202148 2337.533203 2401.828369 2469.740479 2607.034912 2677.264648 2787.499023 2805.675293 2650.671875 2562.810791 2497.638428 2490.865234 2431.008545 2345.656494 2346.913818 2329.866211 2302.737549 2268.936279 2244.454346 2195.051758 2093.295898 2025.921143 2030.320435 2044.141479 2042.201050 2014.929688 1932.548462 1870.867554 1739.028687 1653.559937 1587.315918 1502.923218 1476.909790 1484.137817 1425.150391 1367.917725 1308.080688 1259.594360 1199.604126 1169.985596 1158.300171 1155.424438 1153.424927 1195.916870 1223.315918 1268.828491 1297.943237 1328.533203 1349.824707 1388.289307 1412.123657 1395.443237 1361.771851 1368.881226 1455.463745 1504.618408 1521.606445 1546.790283 1594.547852 1626.157349 1612.822021 1612.936157 1703.912354 1781.220093 1904.535645 2000.472534 2112.417725 2193.043213 2245.491455 2166.256836 2116.676270 2165.536865 2205.357910 2251.580811 2310.400635 2385.846680 2480.642822 2641.392090 2815.351562 2766.937256 2544.270020 2440.833252 2385.212646 2283.791748 2180.050293 2228.739014 2300.599854 2366.525391 2440.074951 2466.389648 2505.228760 2493.843994 2513.639648 2403.442383 2258.634033 2165.927246 2071.063477 2017.869751 1971.168213 1946.105103 1940.519897 1937.178101 1857.985840 1824.447510 1805.303101 1769.692871 1721.285400 1658.500122 1572.491943 1462.530273 1393.142578 1346.633057 1289.972900 1252.805176 1251.669067 1219.454712 1082.480713 960.901184 877.200623 870.044189 928.264893 1089.170532 1265.358154 1413.135620 1488.587891 1474.171509 1449.841675 1549.545044 1550.937500 1508.866577 1643.861450 1732.086548 1703.331543 1643.427124 1603.031128 1569.032349 1486.537842 1458.542969 1466.737793 1464.627686 1449.720825 1397.654419 1282.341797 1214.834717 1284.005249 1343.052368 1379.858643 1470.956421 1606.187988 1622.974854 1681.480835 1756.191284 1844.159912 1950.603271 2076.917480 2230.312256 2387.597656 2575.592773 2694.382080 2787.570312 2607.474854 2508.146973 2515.273682 2541.590088 2442.443848 2324.619629 2315.853027 2265.065186 2175.925049 2032.948242 1883.004883 1887.494995 1812.845337 1657.885864 1541.997192 1456.984009 1398.053711 1486.466309 1622.790527 1787.184326 1989.880859 2136.689453 2271.812744 2425.404785 2550.957520 2692.704102 2814.465820 2874.261475 2896.810547 2696.770020 2626.006348 2590.713135 2447.836670 2362.375732 2370.118164 2371.291016 2366.957520 2271.808838 2202.337891 2246.042725 2371.527832 2572.220459 2519.617920 2301.977051 2108.593750 1909.124268 1702.315308 1511.863647 1339.781250 1192.430664 1174.978760 1182.567261 1344.159424 1447.714478 1594.377319 1706.427979 1895.889648 2036.835938 2180.176758 2293.376709 2379.098145 2434.503906 2510.124512 2350.428467 2284.816895 2323.474365 2206.605713 2166.858154 2194.392822 2147.582275 2030.792236 1917.891479 1827.112183 1765.321899 1753.263672 1809.626343 1909.040161 2045.964722 2220.645508 2330.668213 2465.465088 2646.633301 2717.197510 2787.121582 2834.938721 2876.853271 2887.206055 2824.824707 2747.213379 2691.818604 2650.538330 2655.743652 2691.180176 2786.827881 2918.015625 3115.405273 3128.570312 3036.831299 2953.166748 2890.012939 2804.568115 2743.968506 2690.039551 2598.064941 2596.526123 2673.959961 2779.243164 2926.321289 3031.934082 3047.998779 3041.936523 3135.679688 3191.984375 3059.399902 2950.192383 2852.492188 2736.325195 2744.468506 2654.261719 2567.074463 2465.418213 2374.132324 2275.114502 2106.988037 2000.141235 1924.083374 1870.316284 1839.616211 1853.607788 1982.511353 1964.841919 1848.376343 1664.566528 1449.300049 1280.205078 1198.922729 1245.448242 1348.089478 1478.979980 1687.967041 1890.268311 2054.464111 2141.291992 2024.842773 2009.859009 2101.810791 2187.625244 2260.548340 2350.253662 2443.495605 2559.175781 2574.764404 2489.383301 2315.397217 2128.505615 1921.504028 1852.964600 1937.086304 2027.633179 2135.553467 2260.897461 2446.440918 2340.425293 2211.870361 2105.857178 1889.013794 1745.604736 1585.914551 1573.527466 1494.483154 1377.731445 1304.846802 1287.949951 1277.841919 1251.694946 1225.051636 1219.669678 1236.935425 1303.193359 1375.313599 1515.124146 1690.795654 1785.482300 1739.305298 1677.098511 1737.758301 1863.613770 1922.171753 1942.829468 2005.689575 2085.662354 2174.144043 2225.007812 2204.093506 2187.006592 2132.593506 2085.733643 2027.276978 1964.506714 1893.961792 1839.707275 1786.098877 1704.783936 1611.004395 1539.376343 1465.094360 1393.041504 1357.032837 1326.308350 1171.673340 1228.986816 1380.829346 1524.732544 1659.907715 1784.688477 1723.471802 1546.023682 1394.843750
2064.664551 2155.386230 2250.966797 2328.747314 2407.977539 2503.170410 2576.575684 2722.994629 2690.584473 2684.968262 2614.493408 2458.989502 2448.036865 2367.096924 2294.856934 2278.603516 2245.276123 2196.529541 2153.964355 2100.684082 2050.328125 1963.144775 1906.612671 1879.248535 1926.700806 1933.416138 1929.357178 1877.288574 1821.249390 1732.177734 1612.596558 1526.758789 1439.451904 1375.267090 1410.404175 1350.254639 1289.704834 1227.275146 1171.035645 1159.391479 1186.420532 1222.972290 1273.587524 1313.974854 1357.280396 1408.983887 1456.498169 1479.001953 1509.156616 1499.905762 1529.958496 1561.492798 1522.021606 1470.762451 1448.269653 1534.386230 1598.009766 1621.266357 1638.117798 1687.945068 1719.512329 1739.823486 1697.468506 1704.038818 1811.596069 1919.508423 2032.272827 2131.028809 2214.181641 2302.386719 2248.612061 2195.956787 2231.786133 2251.973633 2258.926758 2325.017334 2367.278564 2441.941650 2600.307617 2791.529053 2759.760498 2559.046143 2457.141846 2410.799805 2289.270996 2259.746826 2312.710449 2391.924072 2425.831543 2475.850342 2583.758789 2605.929443 2563.355957 2495.293457 2354.893066 2233.544922 2126.038818 2017.995850 1927.318359 1880.546265 1866.125977 1841.343384 1822.932373 1788.297852 1743.734863 1710.373169 1652.397339 1620.798218 1562.465210 1504.304443 1436.765015 1388.575317 1350.510498 1297.725952 1268.453857 1211.950439 1103.952393 1026.667603 907.881592 870.923828 872.722473 973.188171 1146.078491 1299.403564 1435.409912 1524.939209 1544.737427 1550.322754 1617.499878 1650.760254 1631.482666 1647.386963 1772.898193 1779.871826 1725.803711 1722.063232 1674.298828 1575.408569 1586.114014 1582.886230 1597.479614 1615.499146 1568.036621 1451.702271 1320.917847 1223.028564 1219.197510 1271.686768 1333.800903 1458.876587 1600.131470 1700.374390 1786.800537 1853.714111 1916.142334 2017.930664 2128.370850 2279.106201 2406.928467 2532.849854 2644.783691 2715.032471 2670.617676 2655.756836 2586.584229 2456.319092 2388.252686 2381.924072 2306.155029 2191.428955 1980.335938 1917.532104 1965.704956 1880.886108 1737.220581 1619.108032 1519.771240 1426.331421 1414.017822 1533.638428 1671.256592 1828.001831 1990.932007 2145.098633 2321.202637 2456.104248 2548.818115 2621.369385 2688.840088 2778.327881 2803.122070 2746.953125 2577.045166 2468.140381 2433.050049 2437.475586 2467.474121 2402.745850 2341.102539 2320.141357 2335.018799 2453.483643 2633.389648 2507.112549 2324.041260 2092.388672 1854.771973 1652.650269 1490.438110 1303.931763 1185.201904 1176.750488 1189.164551 1405.303833 1443.586548 1538.678711 1663.823975 1844.018555 1969.012939 2141.070068 2302.214844 2501.905762 2624.468018 2504.438232 2351.813965 2390.562256 2392.112793 2281.314209 2272.680908 2327.956787 2237.416016 2129.212402 2026.187500 1946.404907 1908.312622 1864.068848 1825.744019 1826.217529 1906.810425 2032.188843 2180.111572 2384.739746 2491.586182 2535.420654 2603.745850 2664.146729 2702.920410 2842.106934 2824.595703 2715.593750 2645.399902 2607.674316 2655.799072 2754.338867 2938.850830 2998.635498 3159.868408 3223.853516 3129.288818 3057.480469 2929.934326 2836.710449 2735.647705 2682.192627 2656.207031 2674.750977 2772.873779 2867.462891 2910.036377 2965.342041 3127.713135 3173.817139 3175.076416 3114.604980 3032.739502 2982.788086 2799.878906 2673.327637 2543.262695 2469.058838 2403.367920 2327.401611 2302.139648 2275.147949 2153.537109 2094.148438 2042.458740 1980.377808 1889.948975 1797.575928 1800.969482 1802.516357 1699.672241 1539.061279 1359.386719 1217.569336 1192.419922 1273.052002 1416.628784 1567.796021 1711.958496 1867.458252 2082.449707 2213.637451 2126.507080 2115.166992 2262.470703 2406.176514 2457.938965 2481.148193 2521.373291 2603.432617 2686.112793 2470.572754 2265.365234 2077.780029 1938.583008 1951.010498 2025.318726 2117.953125 2284.672607 2387.237061 2370.170410 2199.116699 2088.506104 1960.144287 1788.475098 1628.490234 1500.321533 1408.240601 1341.584473 1270.259766 1236.173340 1236.688354 1237.918335 1230.499878 1227.628174 1270.461670 1333.176270 1442.802002 1514.115234 1713.284302 1908.230225 1904.329346 1809.041016 1725.446899 1786.360474 1862.420532 1949.086792 1994.712402 1996.272339 2059.829346 2154.658936 2228.643799 2215.855713 2178.892334 2099.316650 2023.549072 1974.670654 1923.928345 1862.172363 1789.458252 1733.736206 1668.400146 1590.688599 1522.072754 1447.815674 1385.284912 1369.482788 1316.720947 1173.620605 1272.501709 1388.042358 1500.118896 1615.387695 1739.514771 1836.279541 1724.560547 1580.053101
2040.899170 2121.646973 2202.692871 2256.636963 2351.010742 2434.212402 2524.994873 2681.071045 2633.971680 2606.192871 2541.468750 2428.893066 2402.658936 2345.249268 2271.153564 2242.875977 2178.248047 2131.670166 2050.850098 2001.347534 1950.889160 1905.098755 1828.750366 1769.714233 1768.602051 1801.921997 1824.008789 1816.695190 1764.655640 1696.606445 1575.380615 1450.361572 1388.796509 1296.064087 1281.344116 1237.361450 1189.262451 1164.044922 1198.957642 1217.032349 1254.915649 1303.892700 1399.025391 1467.564697 1496.005615 1555.766968 1604.827026 1637.128296 1648.525146 1649.841431 1681.909912 1702.220337 1656.071045 1596.718262 1510.984985 1593.142578 1674.544800 1708.196777 1737.590454 1778.994629 1798.215088 1825.467407 1795.425781 1727.250000 1785.616333 1918.307251 2054.297852 2183.629150 2265.237305 2349.535156 2353.216064 2278.789307 2263.845703 2265.010010 2298.781494 2353.467285 2382.329346 2442.207764 2551.437988 2720.018799 2791.133545 2605.319824 2484.639648 2496.752686 2358.060303 2336.554199 2376.867432 2447.075684 2543.281738 2542.404297 2610.360107 2535.430176 2432.466553 2353.703369 2305.890625 2225.497070 2109.568115 1981.141357 1884.732056 1814.674683 1777.723145 1761.385986 1716.266968 1702.495972 1658.549683 1628.399048 1573.108032 1550.887085 1522.474365 1489.475952 1431.837524 1389.961914 1352.041992 1317.611572 1274.490967 1203.241333 1078.622314 936.755188 882.535400 872.638062 889.796692 1024.691284 1213.010376 1371.749146 1489.866943 1575.366333 1638.471680 1659.396729 1718.195068 1740.196289 1732.670044 1737.382935 1809.883667 1873.424072 1838.118652 1827.778320 1747.086060 1701.411255 1716.115356 1726.681519 1774.675659 1773.208862 1717.748047 1613.514160 1455.157593 1323.607788 1250.861328 1256.795898 1280.224243 1438.150146 1699.090576 1870.145386 1947.421265 1970.807251 1988.463501 2046.468262 2133.719727 2257.091309 2369.963867 2454.513184 2538.196289 2654.572754 2780.720947 2665.579346 2554.476807 2513.159424 2490.952881 2417.088379 2273.977539 2099.057129 1943.453979 2001.456299 2050.407227 1936.949951 1825.267334 1690.049316 1576.290039 1466.450684 1389.542725 1441.088379 1561.559448 1736.861572 1875.806885 2047.648315 2204.529297 2287.228760 2376.276367 2486.358398 2602.367920 2771.208740 2875.315674 2713.206299 2572.853760 2537.727783 2595.459229 2609.879639 2503.478271 2403.747559 2397.605225 2431.738770 2486.979980 2589.418213 2503.164062 2348.619873 2229.965576 2004.473389 1822.057861 1619.280884 1451.042969 1288.782593 1179.440430 1178.498657 1180.790039 1338.973877 1434.298828 1489.051270 1641.233887 1794.473511 1950.701294 2134.903564 2275.843018 2570.246582 2736.942871 2585.883301 2453.841797 2541.979736 2404.430420 2350.170410 2394.552246 2379.785645 2240.927979 2188.670654 2162.482422 2140.616699 2064.704346 2021.890137 1950.650757 1913.996582 1881.259644 1936.801147 2027.895630 2196.026367 2288.201416 2373.266602 2419.022217 2469.996094 2542.854736 2636.727539 2648.393066 2593.506836 2592.666504 2633.655029 2670.028564 2851.988037 3065.994385 3138.284912 3226.851074 3241.888184 3121.676025 3057.198486 2988.432861 2882.256348 2750.518066 2712.757324 2705.100342 2754.235352 2908.443359 3029.806152 2997.273438 3029.097900 3164.002197 3086.483154 2972.412842 2871.876465 2797.927734 2747.024414 2671.005615 2553.622314 2414.371826 2348.334229 2305.584961 2297.879150 2316.397461 2305.063721 2290.811523 2298.673584 2231.691895 2041.802124 1859.279053 1745.016113 1694.625122 1690.595337 1544.372070 1398.588135 1261.560181 1198.904297 1229.792603 1389.249268 1554.709229 1708.826660 1852.060181 1998.296997 2134.179932 2291.735840 2206.566406 2198.009277 2321.396729 2498.932617 2695.033447 2736.212891 2669.605957 2750.798340 2668.916504 2505.218262 2356.939697 2152.077881 2053.770752 2096.260986 2105.279297 2196.729980 2418.136475 2394.367432 2258.943359 2161.059082 2000.478149 1799.755249 1647.341309 1526.934937 1410.682129 1335.109253 1286.752319 1249.843872 1232.522217 1229.786865 1228.085205 1242.329590 1269.245117 1370.857544 1481.816040 1621.744629 1684.560669 1766.314087 2015.152222 2009.915283 1900.298584 1803.043945 1839.362061 1908.359009 1978.514038 2052.192139 2045.762817 2050.116211 2103.606934 2157.401367 2133.571289 2097.359131 2032.162720 1963.321899 1904.988647 1860.169678 1810.593384 1744.596069 1670.643799 1613.165894 1547.518066 1479.623291 1402.286011 1364.961670 1352.176392 1280.458984 1199.452148 1320.357544 1394.849121 1486.187378 1600.567993 1731.097290 1867.884399 1867.665527 1718.076538
2120.133789 2222.228027 2292.777100 2271.546875 2276.366455 2379.785400 2540.987793 2749.972900 2752.894043 2647.940186 2488.504150 2401.515381 2366.453369 2336.012451 2313.874512 2272.128906 2185.240967 2146.671143 2106.370117 2064.967285 2040.038940 2024.906982 1940.744507 1836.636597 1724.724609 1660.722290 1719.738159 1693.473633 1629.491943 1555.400269 1436.584595 1347.068848 1279.362061 1235.351929 1184.606323 1166.224243 1184.042847 1252.694580 1320.140259 1357.370483 1416.897705 1433.835449 1498.366821 1590.682861 1644.825317 1698.310913 1743.270996 1773.579712 1766.525024 1767.129395 1781.390137 1809.636719 1776.249634 1722.772583 1610.168579 1627.136108 1721.314209 1787.860840 1834.842407 1859.596558 1876.711792 1909.052002 1868.961914 1796.200684 1760.875977 1884.557129 2013.671143 2137.206787 2259.375000 2386.535156 2460.054199 2434.159912 2359.100586 2364.516846 2363.472412 2406.698730 2442.613037 2492.443604 2559.929199 2654.881104 2765.724121 2635.523438 2517.783447 2576.019531 2451.541016 2388.169189 2426.839355 2483.735840 2628.632080 2599.447021 2523.376465 2403.343994 2290.384277 2230.532227 2194.893066 2184.506592 2103.631104 1982.283203 1877.898071 1817.238159 1746.752808 1687.257812 1655.719604 1623.552612 1585.169434 1563.448730 1515.469482 1500.358765 1495.045410 1465.707275 1417.046997 1395.308594 1358.436646 1306.149658 1203.382690 1097.872314 982.397095 883.119507 874.461792 877.643921 913.294678 1049.100098 1211.964722 1331.215332 1435.405029 1534.934937 1598.830688 1673.727783 1775.879883 1814.704346 1828.623413 1869.981689 1907.861206 1986.814819 1959.904297 1916.076416 1836.489990 1823.486450 1847.681274 1928.371704 1930.720093 1879.334106 1810.941284 1706.499023 1554.115601 1394.504883 1281.847290 1229.679199 1250.366333 1377.976196 1606.998047 1860.177002 2107.933350 2145.100586 2127.645508 2152.286865 2152.402588 2236.126953 2359.614258 2478.063721 2549.295166 2608.828125 2732.388672 2724.877441 2641.714844 2551.467529 2457.370605 2376.150391 2255.717773 2051.508057 1956.794189 2080.035645 2133.832764 1990.308105 1860.091919 1731.685791 1599.743530 1470.208862 1401.244995 1403.780640 1487.981812 1619.067871 1804.213745 1949.758667 2040.568115 2167.582031 2315.220703 2490.596924 2641.307861 2771.978516 2803.321045 2732.636719 2719.821777 2759.628906 2800.653076 2672.788330 2550.859131 2454.364746 2442.256348 2512.807617 2684.455322 2567.811768 2326.559814 2157.403320 2035.979736 1898.424316 1743.584961 1575.520752 1425.761475 1289.079956 1194.077637 1179.974121 1180.070923 1270.627441 1388.960327 1433.736450 1586.514771 1718.117920 1858.863159 2021.190186 2187.419189 2413.496094 2704.223633 2712.305420 2588.597168 2561.214844 2424.742676 2381.721924 2458.840576 2371.623291 2285.843262 2268.446289 2336.483398 2300.896729 2226.916260 2188.016357 2101.418701 2035.872681 1959.737183 1900.366821 1927.942261 2013.283569 2091.673340 2191.772949 2253.639648 2303.157227 2372.757324 2485.613770 2552.542725 2507.295898 2555.184082 2662.072021 2745.098389 2970.705811 3215.962158 3199.585938 3156.373535 3157.181396 3214.407959 3152.614014 2990.887207 2856.727051 2773.228271 2756.711670 2759.848633 2863.830322 3023.099609 3146.492432 3201.914551 3258.211182 3238.317871 3060.480957 2931.723633 2842.518311 2758.129150 2661.403809 2557.414551 2420.548584 2354.592041 2320.780762 2306.207031 2337.520752 2385.792969 2424.857422 2477.393311 2519.564941 2342.614990 2089.646484 1884.470459 1719.189453 1570.988281 1576.930786 1435.394409 1281.658813 1208.293823 1207.511597 1307.417114 1481.743042 1676.936401 1848.223022 1964.531860 2098.364990 2228.606445 2337.332520 2296.657227 2259.846191 2360.539062 2547.338135 2777.197021 2900.611572 2867.511719 2959.007812 2826.397705 2707.502441 2526.099609 2278.844971 2198.651611 2216.967041 2188.285645 2301.155029 2497.927490 2332.472412 2109.173584 1989.457520 1863.505493 1727.900635 1546.442017 1428.758911 1329.337524 1285.143677 1251.737793 1237.443115 1236.441406 1263.698242 1303.704102 1319.291504 1334.844604 1503.260864 1672.842163 1786.043335 1940.337646 1903.657837 2034.822876 2047.092163 1934.673340 1837.572998 1891.847534 1977.476318 2052.934814 2141.251465 2129.825439 2113.133789 2120.158447 2096.092529 2055.110107 2010.228516 1957.697266 1911.240723 1869.914185 1824.309937 1776.848877 1737.167358 1700.951904 1623.569946 1552.456299 1488.011841 1400.602295 1330.206299 1302.545654 1236.510010 1191.322388 1296.518921 1412.872559 1516.718506 1635.935547 1773.878662 1913.547974 2005.602905 1820.639160
2256.941162 2418.717285 2502.896484 2395.038330 2318.703369 2371.002197 2504.218750 2686.918701 2657.901611 2572.371826 2536.628662 2468.981445 2442.158203 2390.443115 2339.023193 2332.085449 2332.571045 2330.112793 2321.864990 2240.003418 2120.801270 2077.761475 2027.816406 1936.466919 1804.769409 1638.332520 1598.953735 1590.771851 1504.347046 1425.051880 1308.817627 1227.510498 1198.392700 1191.407471 1237.032227 1250.879028 1293.405273 1380.460571 1474.121338 1535.579346 1590.515625 1560.714355 1586.846191 1706.984985 1766.918823 1836.857910 1858.655273 1884.273926 1883.043823 1873.313721 1875.141724 1901.385010 1882.320068 1813.948853 1690.842163 1662.547363 1758.800903 1842.164673 1918.325928 1969.178833 1990.209473 1985.696899 1953.614258 1882.941895 1793.063232 1866.449951 1975.626465 2073.860107 2195.301758 2331.968994 2448.010010 2510.349854 2485.168945 2452.733643 2464.084229 2521.422852 2568.623047 2606.670166 2676.830566 2745.562744 2793.209961 2643.411133 2568.820801 2642.801758 2543.285156 2492.053467 2476.636230 2540.902344 2596.361084 2498.266602 2372.943115 2292.688232 2210.505615 2156.914062 2107.094971 2095.999023 2095.562256 1997.678467 1915.498535 1817.281372 1730.417480 1636.044067 1577.696045 1566.563232 1522.502197 1484.796509 1459.014282 1455.990967 1456.162354 1437.850830 1404.711914 1381.720703 1335.413696 1246.929321 1091.462769 986.122192 894.190125 876.777100 874.986145 885.071472 944.041016 1045.831909 1174.575562 1277.925293 1357.310303 1439.684204 1526.790649 1618.906372 1703.017944 1774.433716 1850.293701 1913.974365 1979.555420 2065.072266 2095.842773 1991.494629 1954.752686 1962.271851 2007.533203 2075.929199 2048.302002 1970.667358 1877.005981 1737.467163 1598.046509 1443.612061 1315.524536 1235.620361 1237.354004 1362.255493 1641.909790 1887.950684 2115.512207 2300.260254 2259.250244 2287.624023 2268.283447 2279.308594 2358.758545 2414.709961 2492.401367 2611.811768 2798.308350 2723.005859 2609.756836 2531.419434 2443.197266 2332.166748 2178.265869 2015.056274 1994.679810 2125.614502 2210.507324 2070.416260 1935.031128 1801.051636 1653.248291 1526.515259 1430.062500 1396.834717 1444.243774 1538.932007 1678.905762 1871.357910 2027.612061 2149.933350 2310.026611 2489.394775 2479.440674 2553.787842 2629.149170 2719.304199 2858.946045 2959.685791 2888.778076 2708.688965 2627.258545 2569.538086 2548.444580 2656.712891 2676.728027 2490.264160 2361.838379 2303.336670 2151.321533 1955.512207 1735.902588 1545.542480 1394.185547 1281.745605 1195.336914 1181.706543 1183.168335 1208.481323 1312.666748 1388.285278 1592.513794 1789.948242 1966.452026 2088.556152 2258.382812 2415.818604 2610.209229 2763.974854 2740.585693 2617.536377 2503.826660 2519.086182 2519.886475 2421.436279 2369.780029 2415.603027 2414.038330 2301.389404 2295.174561 2287.400635 2263.688721 2194.052002 2086.780762 2002.143555 1924.879150 1945.565674 1982.096436 2046.049927 2102.661133 2156.817871 2274.568848 2425.526367 2483.314453 2466.662598 2577.814941 2715.957031 2835.388184 3054.357422 3230.156738 3181.590820 3137.907959 3109.822754 3149.259521 3111.502930 3005.088867 2915.133057 2849.089844 2816.339355 2842.234375 3039.047363 3228.654297 3260.599365 3255.166016 3298.576416 3288.671875 3180.909180 3053.188721 2897.270752 2705.011475 2588.861572 2513.777832 2432.524658 2406.723633 2388.774414 2391.162598 2453.078125 2537.452637 2621.674316 2692.196045 2608.764648 2345.840576 2126.010498 1915.433838 1724.569580 1547.099243 1427.964111 1310.172607 1219.698853 1213.658325 1274.745117 1413.863770 1569.079224 1680.406494 1813.813843 1979.968994 2158.456299 2242.198975 2389.908691 2447.560547 2337.469727 2414.316406 2555.968994 2781.718262 2972.155029 3057.795410 3140.020020 3067.194336 2881.320068 2680.291016 2411.499023 2382.220215 2325.056885 2281.317871 2377.966797 2414.620117 2199.696777 1991.622070 1855.439453 1696.751099 1539.096313 1428.850464 1346.855103 1282.269775 1249.471680 1245.563354 1277.718994 1326.302368 1391.683350 1480.933960 1501.946533 1426.364746 1502.420288 1790.021240 2077.795898 2044.265137 1995.679932 2044.236084 2042.816528 1937.191162 1849.868652 1917.755859 2018.662964 2121.828125 2223.355957 2255.908447 2228.054932 2144.655273 2074.389893 2016.566040 1970.991333 1911.175659 1879.919189 1871.518555 1846.705566 1806.940063 1754.387207 1705.391846 1633.097412 1576.139160 1502.952271 1404.756592 1322.943481 1253.523071 1188.518677 1208.072388 1333.973755 1458.585815 1579.484009 1712.263916 1853.410889 1970.710938 1975.263916 1859.544312
2286.430664 2471.663330 2543.674072 2468.665283 2443.273682 2482.498535 2510.603027 2626.852295 2605.975830 2535.748535 2449.811523 2366.722168 2294.775635 2269.593994 2261.396484 2221.186768 2210.423828 2232.229248 2253.533691 2141.151123 2040.915649 1992.459351 1936.809570 1869.307495 1742.515991 1624.898926 1509.059937 1473.562500 1389.026611 1287.162354 1210.307007 1195.358154 1229.092773 1303.367432 1361.174561 1394.810303 1465.669678 1556.269165 1633.643066 1694.628540 1735.167847 1645.847534 1665.976929 1784.088501 1859.631836 1898.380493 1919.636841 1947.316772 1965.742432 1966.631226 1964.862061 1975.783813 1940.264404 1854.900269 1739.128540 1707.232422 1815.825195 1914.513794 1981.889893 2042.888184 2061.871582 2056.285156 2024.702881 1966.917114 1849.893311 1847.234375 1950.607544 2040.632812 2138.397949 2256.041016 2375.367920 2459.639893 2558.619629 2584.406494 2551.730957 2630.712158 2669.952148 2719.977783 2756.521240 2703.784668 2731.392822 2734.325928 2656.020996 2696.893311 2601.153564 2546.461182 2546.489258 2517.762207 2431.727295 2378.613525 2277.229980 2225.740234 2145.533447 2080.626465 2037.057007 1993.554443 2018.103271 2032.938477 1951.224976 1824.379761 1722.886230 1640.197510 1539.567627 1479.367554 1462.959351 1449.118164 1422.295776 1418.071167 1425.698975 1418.108765 1391.127563 1347.200562 1261.885254 1127.265503 1011.032715 913.567871 880.317688 877.629395 877.090149 918.665710 1009.506836 1066.947632 1201.495239 1261.179565 1316.120972 1381.666504 1452.344604 1528.639160 1579.885498 1649.000122 1726.909424 1800.741089 1888.850220 1999.075806 2108.710205 2093.368652 2087.876709 2112.567871 2151.926758 2186.053223 2180.016113 2064.100098 1930.135864 1765.279053 1625.523071 1494.236816 1352.888184 1246.674072 1239.386597 1353.004639 1660.242920 1912.592407 2083.673340 2265.827148 2417.854492 2463.141357 2465.405273 2417.430908 2432.207520 2450.591797 2513.129639 2592.209473 2781.377441 2821.005127 2627.003662 2471.747314 2396.054443 2284.989014 2140.971191 2022.028809 2063.772949 2208.510986 2255.489014 2128.393311 1985.208496 1881.500122 1770.006226 1654.309570 1525.987793 1418.109497 1424.025635 1482.805786 1624.205566 1822.685059 2036.173706 2155.652832 2243.300537 2339.664551 2360.977783 2463.857666 2609.243896 2758.303467 2790.102295 2917.126953 2986.495850 2780.549316 2691.393066 2668.500732 2743.873535 2847.176758 2718.801270 2664.773682 2580.124023 2446.695312 2252.635498 2012.868042 1757.569336 1565.012573 1393.100220 1257.922974 1188.598267 1182.277832 1183.476562 1190.393188 1279.088745 1394.151367 1690.505981 1822.591553 1875.966064 1966.654053 2158.681152 2314.653076 2478.998779 2619.054932 2806.183105 2793.786377 2705.405029 2722.180664 2529.421631 2498.744141 2632.023926 2628.339111 2399.065918 2353.589600 2405.054199 2481.991211 2384.241455 2265.931396 2161.688477 2100.906494 2050.485596 2010.435425 2008.426636 2022.758179 2092.651611 2102.000732 2178.086182 2351.785400 2439.750488 2524.722168 2663.999023 2864.329834 3008.371338 3208.446045 3229.160645 3138.141602 3083.830078 3072.833984 3103.588867 3155.316406 3023.570801 2979.254395 2966.255615 2950.729248 3023.764893 3146.734863 3259.052490 3179.686035 3132.538330 3112.567627 3056.391846 3015.458496 2974.909424 2777.703857 2592.104248 2553.955078 2505.544678 2465.715332 2470.733154 2520.431641 2560.976562 2677.547607 2752.261475 2745.899902 2653.601318 2543.740723 2344.319092 2129.465332 1923.627319 1702.126099 1523.993164 1384.095703 1273.349365 1239.076172 1268.581787 1371.710815 1487.761719 1652.804077 1818.099609 1899.507568 1992.711060 2124.759521 2280.988770 2402.166504 2511.245361 2376.746582 2440.567627 2616.016113 2815.558594 3042.351318 3132.112305 3181.112305 3109.694336 2985.649414 2757.724365 2499.332520 2469.097168 2365.786621 2317.120850 2375.320801 2278.615723 2149.760986 1955.261353 1759.901611 1638.668457 1507.160767 1364.277710 1288.821899 1253.026611 1256.258789 1304.128296 1381.328369 1466.518433 1572.039062 1707.687012 1700.848022 1545.899292 1510.476685 1760.209717 2132.620117 2173.094482 2125.281738 2119.898438 2039.088989 1922.963867 1860.680420 1923.087158 2048.967285 2136.762939 2233.034912 2266.634033 2227.252441 2140.547119 2066.709473 1997.231201 1953.219604 1896.011230 1844.532471 1829.071289 1810.436768 1779.273804 1722.166748 1673.457764 1623.092285 1559.085205 1479.425415 1390.581421 1288.473511 1225.377686 1181.256714 1251.746460 1383.680908 1512.278442 1637.897217 1764.388916 1887.452026 1957.106201 1844.469604 1738.876709
2361.050781 2566.177734 2539.781738 2469.850586 2490.785645 2583.243408 2643.825439 2721.395996 2597.304443 2485.545898 2456.219971 2365.073975 2241.641846 2149.738525 2120.228271 2076.237305 2062.099365 2075.058350 2111.301514 2039.944092 1908.676636 1857.096436 1814.682861 1726.154419 1617.209595 1549.034058 1444.287720 1385.030762 1288.401978 1216.120605 1204.269165 1268.040039 1327.252319 1435.337891 1515.331543 1552.536621 1644.575317 1729.545044 1803.816040 1890.314697 1872.511475 1697.821411 1730.323975 1863.379761 1955.346558 2010.449219 2007.059570 1997.168457 2021.338013 2032.269409 2036.620728 2004.664429 1958.822632 1882.708252 1765.215088 1744.022583 1861.309326 1975.176514 2042.357056 2092.870605 2104.413330 2134.132812 2106.393311 2056.385742 1940.284546 1868.729126 1977.840942 2083.420410 2145.311279 2203.839600 2311.660889 2416.199707 2501.736328 2587.862793 2655.940430 2754.119385 2813.604492 2779.734863 2681.926758 2641.945801 2644.743164 2672.634521 2744.400146 2764.478027 2659.627197 2611.764404 2547.747070 2411.091309 2312.366943 2277.018066 2214.939453 2162.053223 2088.104248 2015.013184 1950.148315 1895.622803 1898.356567 1956.282227 1913.476685 1829.434814 1747.281128 1671.148926 1581.664551 1486.626221 1417.961670 1396.631836 1369.342285 1370.129272 1387.998657 1385.715332 1357.714844 1269.961792 1154.385132 1020.522339 911.129700 884.902222 885.463318 881.942383 904.690369 1002.889038 1120.839478 1223.769287 1261.279419 1341.889893 1356.555298 1372.323853 1407.603394 1460.214111 1516.418945 1582.135132 1655.334839 1732.764893 1822.238281 1929.023560 2054.910156 2181.412842 2224.087891 2274.989502 2270.470459 2302.337158 2266.094482 2125.385498 1973.240112 1808.578003 1693.283691 1546.652710 1399.465942 1257.051270 1255.391846 1328.904663 1612.286743 1807.971924 1963.103638 2113.460205 2287.763672 2511.051514 2644.952637 2609.092529 2567.771484 2574.561768 2627.353760 2665.372803 2875.559082 2832.154541 2565.952393 2425.834229 2334.266846 2241.938477 2128.178711 2096.406250 2156.589111 2286.185791 2232.227539 2169.474609 2085.069092 1991.453003 1893.858765 1770.268555 1622.923462 1481.705444 1410.012329 1425.338013 1574.560791 1801.458740 2009.647339 2170.852783 2252.008545 2286.789795 2321.456055 2425.475342 2537.931641 2634.706543 2757.731445 2805.985596 2927.127930 2856.982178 2785.246826 2789.828125 2916.655518 2963.679443 2866.509033 2772.195068 2609.632812 2431.672119 2253.898193 2040.777222 1808.472168 1619.024536 1446.502563 1294.138916 1194.580322 1183.568115 1184.444458 1186.327148 1204.714355 1349.699707 1629.448853 1694.238281 1702.607056 1827.035278 1986.546387 2165.614746 2317.441895 2482.441650 2663.811279 2916.058838 2881.909668 2673.530762 2532.001709 2600.938232 2773.001709 2637.790527 2476.675781 2454.528076 2592.039307 2536.947266 2359.977783 2267.852295 2188.904297 2215.428955 2243.972656 2212.542236 2226.699707 2218.833984 2229.528564 2138.218506 2127.296387 2320.618164 2502.649414 2655.916260 2776.257812 3052.952881 3250.350586 3386.914062 3292.744629 3141.173584 3054.803223 3034.184570 3056.707520 3148.437256 3029.323242 3008.629639 3002.330811 3008.638428 3056.143311 3175.861084 3213.465332 3178.375977 3125.600586 3037.630127 2965.124512 2897.221924 2805.645020 2720.346191 2610.429688 2554.664795 2527.044189 2547.502441 2629.801270 2736.631104 2771.624756 2726.489014 2662.016113 2579.052734 2495.177246 2391.647461 2295.734619 2153.433350 1923.278076 1687.402588 1505.121948 1365.470947 1264.041870 1319.789551 1376.896118 1470.839233 1602.284424 1749.751099 1935.385376 2056.013916 2103.732178 2157.437744 2278.525879 2399.492432 2506.225586 2480.368164 2530.930420 2706.099609 2947.054688 2973.026611 2936.057373 3011.653564 2941.799805 2862.610596 2665.333252 2542.758301 2404.474365 2318.888672 2219.583740 2192.675049 2115.081299 2014.107422 1913.939697 1766.342651 1566.923828 1404.509888 1309.117798 1261.338745 1254.473999 1310.701782 1392.091309 1481.593628 1599.259155 1742.416992 1916.106689 1805.788818 1619.286255 1547.641357 1735.140137 2031.488037 2242.919678 2242.337402 2182.379883 2029.096069 1912.909058 1921.227539 1952.214722 2056.479736 2177.494385 2219.478516 2209.060059 2165.482178 2094.535400 2016.797119 1964.575439 1909.504028 1853.585205 1822.383667 1806.251953 1778.315430 1723.880615 1673.562134 1643.339355 1593.024780 1517.679443 1441.736694 1344.913818 1264.793335 1214.511230 1191.398560 1273.739502 1385.437622 1500.190063 1623.094971 1751.506592 1862.600464 1888.573853 1757.841064 1648.132935
2594.111816 2720.842285 2644.338135 2580.546875 2611.017578 2670.794678 2734.257324 2751.248291 2573.117676 2489.912109 2461.184326 2396.894531 2325.086914 2226.355957 2192.197998 2133.721436 2034.404907 1953.266113 1962.100708 1947.901367 1793.937500 1714.795166 1681.619629 1583.595703 1495.235718 1421.396606 1326.022705 1261.966431 1212.804443 1229.235840 1335.461060 1461.165161 1512.812256 1498.047607 1654.295410 1746.465698 1791.451538 1887.292725 2002.722412 2116.206299 1978.734619 1771.585938 1772.743774 1927.586670 2088.906006 2132.122559 2108.659912 2041.294067 2042.206543 2088.470703 2057.645996 2031.783447 1996.475708 1933.567261 1838.353027 1787.119629 1906.556274 2020.648071 2108.861084 2141.393066 2162.608398 2211.174805 2209.544434 2144.096191 2014.566040 1902.990112 1993.311523 2130.464355 2188.855469 2224.394531 2276.840088 2368.861572 2415.103027 2524.513672 2599.182373 2649.993164 2782.326172 2725.398438 2623.910400 2627.085938 2530.055420 2514.715088 2641.685547 2669.960205 2623.861084 2541.162598 2403.799316 2303.170898 2233.848145 2197.027344 2141.355957 2084.506836 2020.812378 1953.899292 1886.445190 1835.252197 1819.232544 1868.773193 1858.403564 1797.084351 1765.391113 1737.217163 1646.164062 1535.200562 1452.375000 1370.064087 1331.851807 1286.477539 1255.621216 1275.804688 1253.120239 1180.567139 1068.292603 927.037354 885.378113 888.964417 887.560913 901.453735 981.397461 1126.120605 1270.755493 1332.833984 1289.921143 1413.271240 1445.800659 1430.944580 1453.140015 1493.182617 1542.152100 1594.912842 1661.225586 1739.994507 1820.216064 1914.071533 2031.169556 2167.974609 2324.091064 2434.876709 2423.525635 2397.477539 2265.826660 2161.879395 2008.482666 1843.906372 1721.296631 1576.355957 1409.755127 1278.348022 1261.167480 1332.556396 1665.978638 1907.645752 2074.383789 2227.071289 2368.832275 2493.961182 2665.403076 2783.847412 2751.567383 2750.294922 2749.676025 2725.557617 2863.924072 2726.556641 2630.858154 2496.463867 2364.676025 2264.021240 2190.919434 2223.862793 2250.900879 2349.136963 2268.828369 2229.387939 2128.794922 2038.768066 1992.837646 1879.014771 1722.336426 1579.920288 1439.436401 1409.012939 1507.873413 1746.102295 1966.481812 2137.159668 2263.141846 2290.477051 2303.622070 2373.379395 2448.392334 2566.642334 2653.853516 2743.448242 2937.546631 2946.950439 2875.977539 2891.073486 2962.298340 2802.081787 2709.397217 2605.781494 2484.004395 2347.692139 2222.005371 2048.362061 1849.789429 1673.780029 1508.170532 1335.013428 1228.920654 1186.424438 1185.135986 1186.858643 1189.018066 1222.163940 1447.237915 1512.882324 1527.573730 1650.928467 1845.394409 2073.913818 2226.833008 2333.491699 2529.247070 2810.523438 2832.629150 2636.455811 2614.067871 2703.032959 2716.246338 2655.704102 2624.434082 2659.124023 2615.185547 2459.771240 2351.430420 2282.914795 2258.433105 2354.469238 2382.562500 2398.913574 2468.442871 2393.370605 2313.531006 2171.209961 2149.458984 2286.995850 2482.079590 2704.684814 2905.988281 3108.868408 3275.362061 3306.740967 3275.938721 3171.646729 3047.320801 2998.747559 2995.280518 3075.809814 3041.215088 3038.239258 3032.905273 3039.143555 3124.833496 3298.691162 3283.393311 3262.513672 3154.588135 3020.808838 2965.142578 2914.360840 2794.006348 2705.114014 2638.820312 2614.897461 2658.339355 2704.050049 2854.332520 2854.550781 2674.324707 2589.176514 2531.007568 2432.376953 2352.497559 2266.569580 2175.195801 2093.271240 1917.571655 1667.208862 1455.902344 1332.345581 1265.953125 1371.197876 1504.618774 1606.689087 1736.795532 1888.382080 2040.011719 2199.275879 2274.088867 2262.444092 2314.568359 2460.002197 2489.042480 2609.436279 2583.971680 2698.891846 2913.076416 2902.347168 2831.632080 2804.464844 2811.187256 2778.981934 2632.407471 2519.515137 2424.911133 2310.097168 2165.939453 2118.296875 2021.912354 1901.290527 1755.692749 1608.997192 1471.387939 1337.002075 1288.881592 1263.498779 1298.791992 1395.381958 1533.484619 1622.807373 1754.709961 1895.734375 2084.372314 1939.136719 1657.078613 1589.850220 1742.400757 2006.490356 2218.201904 2287.512695 2207.893799 2068.831787 1979.211914 1993.317261 2013.160889 2091.986328 2206.540771 2201.345947 2147.204346 2094.196045 2039.169678 1965.162842 1898.803711 1855.437988 1807.023438 1783.389893 1768.472534 1732.571533 1680.477173 1622.387573 1582.718994 1528.227661 1454.221802 1388.592407 1309.721802 1242.854248 1212.067505 1214.858521 1214.910034 1313.439819 1439.285156 1570.862915 1707.725952 1820.226318 1793.813965 1659.950684 1590.708130
2824.393799 2881.964355 2802.824707 2739.478760 2747.113281 2767.573486 2873.793457 2807.680908 2697.170166 2637.015625 2602.811035 2516.186523 2492.833252 2448.427246 2372.031006 2311.557617 2174.594482 1990.158203 1862.118530 1839.617798 1712.481201 1569.846191 1534.703247 1437.890503 1361.020874 1308.842041 1244.713135 1214.088745 1252.376831 1361.588257 1532.003174 1691.645142 1688.343994 1596.711548 1663.770996 1868.492310 1983.933716 2010.933228 2119.187744 2231.767578 2053.344482 1861.645874 1808.740234 1948.494263 2127.067139 2246.938721 2165.030029 2079.559082 2074.306396 2132.689453 2082.767822 2073.092773 2072.879150 2018.021118 1896.529297 1812.303955 1933.613159 2047.300171 2150.554932 2211.550293 2234.092529 2277.542725 2327.718018 2230.626709 2061.402588 1944.781494 2004.647583 2187.604492 2284.898682 2266.413330 2279.969238 2330.709229 2415.816895 2502.072510 2555.145752 2661.513916 2822.764160 2756.596924 2615.753662 2574.241211 2487.242188 2447.959473 2481.307129 2522.023926 2449.604492 2392.401367 2329.134277 2258.261475 2191.464111 2137.354248 2078.096191 2029.822998 1971.768555 1913.172729 1845.308716 1770.606201 1724.680664 1720.956177 1746.840088 1722.079468 1725.212646 1761.161865 1722.086182 1590.748169 1493.589478 1430.838013 1378.987549 1321.302124 1253.897339 1205.537109 1167.715698 1102.926392 991.752930 900.817444 890.227295 903.292725 924.080994 987.603577 1096.661621 1258.064087 1397.254517 1377.285034 1332.726807 1427.701294 1490.680298 1514.422241 1566.916382 1616.859497 1648.679443 1686.938232 1727.262329 1785.482300 1859.536743 1947.097290 2053.310059 2172.732178 2321.014893 2496.092773 2556.542236 2434.879150 2264.144531 2148.307861 2006.746948 1882.077515 1734.519409 1585.973022 1413.182495 1282.182983 1262.541992 1346.144897 1629.311890 1845.256958 2008.192139 2190.143311 2359.104736 2489.191162 2586.345215 2693.062500 2843.380371 2917.270020 2792.844238 2797.520996 2877.011475 2825.819336 2747.997803 2593.718506 2494.687988 2340.072021 2278.622559 2321.278564 2339.329834 2414.892334 2338.416504 2281.490723 2136.510254 2080.133545 2101.343018 2049.079834 1861.243408 1701.658203 1518.935669 1418.214478 1448.630005 1660.829224 1929.355591 2160.295654 2357.666992 2379.357178 2335.522461 2402.566162 2454.355225 2595.931641 2688.166992 2757.837402 2830.102783 2829.167480 2757.083740 2745.884033 2807.781006 2727.038574 2565.907715 2447.355469 2345.186768 2253.295654 2115.862061 1947.642212 1802.331543 1687.945557 1541.597412 1392.760986 1271.360596 1194.434814 1186.882690 1187.922974 1189.755005 1193.358032 1278.804810 1302.130127 1365.860962 1479.033569 1694.870239 1958.159912 2099.551758 2171.959473 2382.759277 2651.262451 2798.226807 2780.988037 2806.088623 2762.846191 2763.581299 2914.107666 2867.778320 2739.032227 2540.668701 2407.916992 2329.528564 2341.253662 2401.545166 2447.198975 2552.792236 2561.664062 2673.506348 2491.770752 2316.970947 2153.693115 2134.977295 2233.142090 2442.224365 2691.419678 2923.817627 3056.934570 3074.628906 3064.931152 3059.136719 3026.105713 2929.871826 2932.384521 2962.632080 3060.895508 3078.899414 3071.227295 3073.050049 3114.334717 3171.375977 3228.424072 3353.229004 3381.450195 3233.083496 3143.937256 3055.014893 2972.113037 2838.943848 2727.556152 2692.081055 2736.800049 2853.187012 2884.273193 2931.319092 2807.729248 2651.883545 2558.756592 2465.684326 2372.670410 2306.167725 2205.571777 2091.238037 1985.933350 1838.173950 1633.436401 1455.637573 1304.512451 1292.781372 1465.286133 1625.306152 1737.538940 1891.742676 2028.509033 2205.665527 2357.795166 2422.203125 2409.960205 2448.182373 2529.378174 2518.890137 2614.622559 2690.933594 2738.237549 3019.565430 2975.113281 2774.094727 2659.729004 2671.127197 2695.421387 2677.007812 2552.079834 2468.248291 2396.354736 2248.391846 2098.578125 1990.104370 1859.287354 1674.924683 1485.569092 1360.156860 1282.081055 1268.074829 1306.142212 1409.204834 1538.396362 1686.959106 1771.867432 1905.752075 2045.458984 2131.957520 1927.355225 1707.008911 1664.138184 1876.511963 2019.549438 2287.327148 2324.722168 2215.286377 2138.360596 2059.051514 2087.987061 2131.566406 2144.112793 2148.946777 2114.869873 2062.927246 2014.529541 1962.766479 1899.402588 1844.110840 1807.053589 1758.660645 1740.257446 1718.151367 1683.912842 1641.366333 1596.922119 1530.601929 1457.917603 1391.285767 1317.900635 1243.530151 1234.889893 1249.951416 1286.302368 1272.116699 1227.071655 1327.510620 1480.751587 1636.634521 1765.913086 1698.547974 1588.696899 1612.750610
2826.993652 2939.296387 2889.513428 2850.179688 2790.790039 2754.178711 2727.242920 2686.629883 2597.899902 2655.072998 2756.894531 2681.310303 2589.205811 2481.586914 2427.916504 2402.511719 2262.994141 2050.921387 1842.322754 1725.735718 1631.778564 1466.666260 1394.036499 1334.530029 1251.794067 1235.184082 1246.844360 1285.914429 1389.091187 1516.396362 1667.505493 1838.314697 1845.868652 1668.715820 1711.671143 1870.229004 2042.758179 2165.850586 2252.893799 2325.735352 2189.649170 1961.671387 1841.205566 1952.261108 2128.118164 2310.079590 2216.082275 2116.521729 2116.888672 2163.670654 2140.233398 2127.631348 2162.165283 2085.750488 1939.134399 1833.090210 1947.496826 2074.007324 2162.856445 2257.736816 2299.129395 2332.980713 2432.369629 2306.152100 2121.823242 2005.013062 2037.597290 2195.986816 2366.222656 2414.957031 2357.086182 2359.101562 2418.195068 2540.814941 2610.488525 2690.263428 2784.566895 2669.124756 2565.359375 2491.107666 2421.721436 2351.286133 2326.340088 2331.155762 2280.647705 2277.423340 2271.754639 2226.954834 2166.935547 2098.293945 2032.154175 1978.145996 1910.255371 1857.355835 1800.734253 1746.968018 1699.562134 1655.650024 1639.299927 1633.791016 1637.196655 1672.427979 1671.191772 1605.051880 1562.596191 1474.070557 1398.194092 1343.881592 1306.833252 1260.620850 1201.590576 1095.055054 942.985901 896.976318 911.961792 947.716370 1029.971436 1119.440308 1253.362305 1382.565063 1453.216309 1448.099609 1409.607910 1407.290161 1427.394409 1473.491455 1539.424927 1618.268066 1721.791260 1802.142090 1827.182495 1852.172485 1928.204468 2005.563599 2098.950928 2210.098877 2362.464844 2526.908691 2495.759521 2400.858398 2240.989746 2085.845947 1978.576538 1870.443970 1715.826050 1556.928711 1391.080811 1272.879150 1266.568115 1359.205688 1644.542969 1841.228149 1967.691284 2062.295410 2193.372070 2344.312500 2471.275146 2577.385986 2744.492920 2860.004883 2924.950195 2906.797119 2922.337158 2955.804932 2808.966064 2703.946289 2539.768555 2432.104248 2403.281982 2370.841064 2406.543701 2503.434814 2410.413330 2260.675781 2165.138672 2180.794189 2251.690674 2162.352539 2002.980713 1835.668091 1622.002319 1449.983276 1427.993042 1582.889404 1811.760132 2137.695312 2403.654297 2454.065918 2454.135498 2553.568359 2529.561035 2598.167236 2723.350586 2784.528564 2709.899902 2655.758057 2622.341309 2597.946533 2617.513184 2607.050049 2534.313232 2405.650391 2264.074463 2152.448486 2054.212402 1945.496826 1856.758667 1737.607544 1600.587891 1456.901123 1326.931030 1237.277710 1191.782349 1188.666504 1190.162598 1192.574463 1196.119385 1208.948730 1260.424438 1344.292358 1525.903442 1775.992188 1930.979004 2173.214355 2337.609131 2505.111084 2600.164062 2759.394043 2870.628174 2778.100098 2922.034668 2959.473877 2766.001221 2606.510986 2514.498779 2419.765381 2422.564453 2517.549316 2519.449951 2508.189697 2579.593750 2760.396240 2678.144531 2543.140137 2376.683838 2196.197510 2131.803955 2202.232666 2395.600342 2653.931396 2820.721436 2910.340820 2886.167725 2850.589111 2864.432129 2836.618652 2839.743652 2885.412109 3011.642334 3130.004395 3118.071533 3107.190430 3103.841064 3148.721191 3210.123779 3229.381104 3309.086426 3266.959473 3227.694336 3126.428223 3088.470459 3040.208008 2965.268799 2862.029053 2838.190674 2917.931641 3008.998535 2904.126709 2734.734131 2670.898926 2648.227051 2604.035889 2473.388916 2370.767822 2287.494629 2166.219727 2064.173096 1949.808716 1804.522095 1583.425171 1403.386597 1306.779053 1342.005127 1507.350586 1663.241089 1787.691650 1892.035400 2033.586670 2184.889893 2340.144287 2512.242920 2584.063965 2600.003662 2608.699219 2590.679199 2615.861328 2823.594238 2795.689453 2919.856689 2881.474365 2694.357422 2561.322754 2496.359375 2539.503906 2602.665283 2507.140381 2370.754883 2294.614502 2243.541260 2079.873291 1927.991089 1844.607422 1616.865723 1413.504395 1302.669312 1267.649658 1288.942017 1380.996216 1503.636597 1670.208862 1826.908447 1889.961792 2049.361572 2148.904297 2026.889893 1886.006104 1762.179443 1736.551758 1935.156250 2147.376953 2373.016357 2345.034912 2217.632812 2143.573242 2092.869873 2150.906982 2135.833496 2123.722656 2086.004639 2044.232666 1997.214966 1953.663940 1906.122192 1844.269531 1796.637939 1755.764160 1700.869385 1674.475708 1650.153931 1606.323975 1568.740479 1532.408203 1467.225342 1399.519409 1321.729370 1249.573364 1263.904053 1309.453735 1326.368652 1322.642944 1362.701416 1294.257324 1242.746338 1374.627075 1534.237793 1595.631714 1592.076172 1565.985596 1658.987427
2810.438721 2753.626221 2684.078613 2714.660156 2627.826416 2509.751221 2489.011719 2507.316650 2550.175293 2569.390381 2628.810547 2681.253174 2548.840576 2369.951660 2246.398193 2145.927246 2086.499268 2000.480713 1841.720947 1665.956665 1527.227295 1382.498657 1303.277222 1247.399780 1252.568848 1309.976074 1377.133911 1446.126465 1567.825317 1658.822998 1760.886230 1927.823242 1862.896606 1698.887329 1820.146240 1957.267456 2064.309082 2198.819824 2339.149902 2425.524414 2255.721680 2040.162842 1889.533813 1973.048584 2155.466553 2361.129639 2278.435547 2186.317871 2186.963623 2216.816650 2199.613770 2178.998047 2229.253906 2171.992676 2023.711548 1861.897339 1939.679932 2109.095459 2202.023682 2279.483643 2380.945557 2434.551025 2539.273193 2374.112061 2218.799561 2115.450439 2151.978760 2220.709229 2377.518799 2510.286133 2499.333496 2508.138184 2534.508057 2586.181152 2686.349854 2745.300293 2707.626953 2613.788818 2561.520752 2475.888916 2428.734131 2307.039795 2253.264648 2213.356934 2186.869873 2181.361816 2157.364746 2162.193604 2113.986084 2049.364990 1989.848999 1932.359985 1869.306030 1800.266846 1742.607300 1683.917358 1636.471924 1626.807617 1599.829224 1552.984131 1541.690918 1559.116333 1577.209106 1577.984497 1548.578125 1489.478760 1415.642822 1390.832153 1351.149048 1282.231567 1167.864258 1038.492554 919.413025 921.070007 939.899597 1019.477173 1093.541870 1233.636108 1351.308472 1443.911499 1512.413452 1547.727539 1517.495361 1509.693848 1504.459473 1502.871216 1518.131470 1577.433838 1659.334351 1754.903931 1828.568481 1899.403076 1992.255737 2080.531250 2183.391113 2309.645508 2434.003662 2592.135498 2537.402100 2352.268066 2232.204590 2077.320312 1926.616211 1803.014893 1661.720825 1514.209229 1351.041138 1267.939209 1287.863525 1404.794678 1573.221680 1893.773071 2053.603027 2043.598877 2133.885742 2251.644531 2312.865479 2369.949463 2521.558594 2643.006104 2759.594971 2816.318604 2815.283936 3022.077148 2985.884033 2767.202393 2586.546875 2500.410400 2447.251953 2447.879639 2531.470215 2527.320312 2420.548096 2285.974121 2225.136963 2231.804443 2260.795654 2187.262695 2063.697754 1938.588013 1696.950073 1484.918091 1434.272339 1545.599243 1712.107178 1985.793091 2320.230225 2540.159424 2551.944092 2741.797607 2683.213379 2709.071045 2803.352295 2809.791748 2660.363037 2609.346924 2555.461670 2519.085938 2484.940430 2425.907959 2359.083496 2274.567627 2155.802734 2066.011963 2015.454590 1958.308960 1878.226318 1788.346436 1637.211426 1525.186279 1441.316284 1340.310547 1233.283325 1194.640137 1195.282715 1194.487549 1204.718872 1299.986206 1249.067383 1277.656250 1428.142578 1629.557373 1908.743286 2143.244873 2242.986328 2297.105225 2423.414795 2599.153809 2812.831543 2923.976318 2976.767090 2802.536621 2646.583008 2581.296875 2542.544189 2534.463867 2584.362549 2584.041992 2583.180420 2638.630371 2638.609131 2821.093262 2698.019531 2541.406006 2394.061279 2227.077393 2138.916748 2193.969727 2366.424316 2557.489746 2699.376465 2761.761719 2738.137451 2716.215576 2725.905029 2719.073730 2753.781738 2878.247070 3141.049072 3164.776611 3142.034180 3139.766846 3104.300537 2999.803223 3108.505127 3222.686768 3175.734375 3095.497314 3120.250732 3063.169922 3032.902832 2979.489502 2911.231445 2861.530518 2770.826904 2739.651855 2775.384766 2829.364746 2695.714355 2595.503418 2517.656250 2453.271973 2461.776855 2369.584961 2260.031982 2172.933594 2076.229492 1929.858154 1773.730713 1539.836426 1357.518921 1351.470093 1402.006958 1546.470337 1720.164185 1917.082642 2033.446533 2106.928711 2186.744385 2287.008789 2429.086426 2669.830566 2714.085938 2709.479248 2642.594238 2679.123779 2829.846191 2729.613281 2717.279297 2793.667969 2706.551758 2514.170654 2402.272217 2384.458984 2428.424072 2436.752441 2319.550293 2176.594727 2088.445312 1947.598877 1810.358032 1676.825928 1521.901123 1336.312012 1272.812988 1269.965332 1332.265747 1490.490967 1645.522827 1825.173340 1942.240234 2031.545166 2150.916504 2137.694824 2033.724487 1936.970093 1790.731323 1800.315063 2004.232300 2183.305420 2380.504395 2383.711914 2236.047852 2156.704102 2138.348633 2120.347900 2083.816895 2069.930420 2015.592041 1952.194946 1922.643066 1881.532593 1833.993408 1785.528687 1736.244629 1704.242188 1661.302002 1616.516968 1561.070068 1508.924683 1469.517212 1431.505249 1390.205444 1336.446777 1267.011108 1272.891846 1348.919189 1389.529663 1424.040771 1408.687622 1394.604736 1410.924561 1298.534790 1239.033081 1281.197388 1314.707153 1391.347290 1536.463989 1669.244141
2895.110107 2771.405029 2621.755371 2597.239014 2553.308350 2434.792725 2442.542480 2453.167236 2545.862305 2527.805176 2495.834229 2569.897705 2555.420654 2388.859131 2226.557861 2067.895508 1937.941895 1847.388428 1739.298462 1577.978027 1441.091553 1318.631714 1249.153687 1274.551025 1346.756348 1442.355469 1533.915161 1611.781860 1706.521606 1816.816650 1905.626709 1992.567627 1821.561279 1757.369995 1878.815674 2014.403198 2137.713867 2253.929932 2373.200439 2428.226562 2242.712891 2061.309570 1935.677490 2024.441406 2174.392578 2349.026611 2297.279785 2245.604980 2274.961670 2292.032471 2251.082520 2227.635254 2281.741211 2263.936279 2085.078369 1895.034790 1929.574829 2129.650879 2266.955322 2344.098145 2418.096191 2470.793945 2588.452637 2483.343506 2335.968994 2208.033203 2178.727783 2219.477051 2333.026367 2415.782715 2513.901123 2629.161865 2676.678467 2680.916992 2784.579102 2847.290771 2805.179932 2725.178711 2642.375244 2472.852295 2354.574463 2264.933838 2188.939453 2118.136475 2122.517090 2105.468262 2073.492920 2064.300537 2078.463867 2045.749756 1976.069214 1911.874512 1864.597046 1811.676758 1732.719971 1664.180298 1633.089844 1593.690063 1543.006592 1508.795410 1468.061890 1490.311646 1497.084473 1494.007935 1482.578857 1473.660522 1421.763672 1426.128784 1380.440308 1224.643433 1018.348206 915.721069 924.166992 952.304443 970.619568 1051.643555 1162.359131 1303.376099 1404.431885 1495.262939 1572.534302 1652.345093 1653.129395 1651.813232 1609.269531 1582.819458 1574.034912 1591.705811 1656.329224 1728.009766 1796.862061 1888.732178 1999.745850 2102.552490 2218.168457 2355.163330 2514.177490 2646.695557 2588.839844 2419.738037 2249.222412 2098.756348 1937.594238 1787.048828 1645.814087 1481.176636 1325.282593 1268.786499 1298.170044 1436.766724 1663.063599 2002.214966 2246.140869 2185.062256 2142.672852 2179.603516 2229.730225 2294.864746 2407.016357 2561.557129 2672.515137 2743.686279 2823.044189 3020.536865 3144.238037 2876.289062 2657.804932 2549.718750 2529.607910 2589.928467 2639.486816 2575.253174 2458.326904 2396.427490 2325.128418 2310.548340 2303.139160 2220.370850 2126.101562 1979.383789 1745.056885 1504.423584 1433.489624 1527.829224 1687.741577 1936.281250 2239.028809 2484.270508 2564.663574 2712.974854 2834.759766 2832.687500 2774.181885 2748.387695 2698.662354 2689.331055 2596.593018 2497.167236 2390.843018 2287.571045 2213.529053 2135.633301 2088.774414 2063.003174 2054.617188 2032.415161 2028.901733 1881.970337 1721.859863 1656.959229 1572.237915 1459.709595 1341.981201 1282.859741 1290.619507 1275.214355 1258.913208 1368.748779 1352.844727 1224.482788 1327.116821 1538.508667 1764.810547 2010.803467 2080.578613 2116.601807 2278.063232 2529.161133 2753.544434 2907.126709 2889.671875 2764.843994 2661.457031 2659.701904 2654.926025 2642.102051 2646.718018 2654.740967 2735.348633 2812.064697 2761.554932 2671.088379 2604.628174 2536.080322 2405.890625 2257.009521 2150.080078 2191.745605 2353.893799 2489.679443 2551.941650 2635.030518 2652.085449 2641.319824 2645.721436 2686.177979 2788.299561 2984.802979 3213.055420 3215.123047 3195.186768 3143.505371 2954.861328 2894.224365 2962.806885 3112.883301 3028.130127 2977.771240 2920.125244 2909.782715 3019.374512 2954.015625 2818.168701 2743.031738 2670.757568 2595.580078 2601.908936 2656.925537 2681.909424 2540.114990 2430.930664 2311.314697 2329.895264 2382.429199 2283.033691 2195.313477 2068.815430 1908.843262 1748.896606 1511.078369 1338.977417 1373.067261 1452.275391 1578.581787 1761.152100 1952.324585 2144.141602 2290.215088 2371.441895 2411.252197 2467.577881 2672.291260 2845.926514 2785.313965 2743.565430 2795.888916 2686.134033 2647.949463 2582.051270 2676.563477 2696.897461 2519.347656 2352.666992 2273.517334 2263.721924 2248.912109 2214.515625 2066.556885 1945.877808 1790.820068 1654.885742 1543.559448 1409.825806 1306.862549 1279.533569 1311.879028 1472.134399 1649.861938 1824.240234 1976.937500 2085.935791 2207.195801 2294.194092 2261.174316 2174.067139 2002.044678 1888.855957 1897.058838 2073.043701 2272.775635 2416.637451 2384.392334 2321.689941 2215.023926 2121.441162 2050.551514 2010.602417 1974.645630 1930.929810 1877.114746 1837.120117 1788.456665 1743.769653 1705.959839 1650.804932 1601.281006 1571.514404 1534.401123 1497.104980 1442.201538 1402.133301 1333.205078 1293.974609 1275.536133 1290.116699 1373.089966 1444.305176 1498.630615 1532.015015 1489.536987 1455.658813 1471.043457 1459.721924 1369.588135 1298.297852 1256.535889 1315.277100 1468.316650 1600.712646
2901.656738 2826.687988 2614.892090 2507.451904 2458.236572 2390.130615 2393.273682 2398.424805 2443.858398 2448.234375 2375.888184 2384.343994 2433.867432 2287.993896 2109.591309 1949.601807 1823.489624 1697.154419 1591.886963 1438.510498 1329.828491 1262.158447 1296.844238 1367.169312 1486.109497 1633.194092 1713.184814 1769.107300 1854.666260 1939.735962 2022.388428 2008.220581 1805.229370 1840.732422 1961.941650 2071.537354 2174.191162 2292.395508 2409.190674 2401.629639 2228.645752 2079.391602 1979.885132 2055.075439 2198.977295 2357.207275 2393.220947 2345.718506 2378.577393 2330.057129 2332.886475 2338.464600 2348.552734 2270.655273 2085.892578 1920.059570 1955.164795 2131.260498 2299.491699 2434.534424 2527.496094 2592.803467 2604.033936 2429.125488 2336.482178 2249.647705 2205.023438 2247.089600 2392.182373 2457.088623 2504.930420 2627.612793 2777.610107 2828.723145 2900.794922 2936.078125 2847.877197 2709.847412 2581.711670 2453.805420 2348.968750 2283.063721 2181.696289 2111.716797 2102.176758 2077.356445 2019.421875 1984.349243 1971.664307 1978.188110 1970.479248 1932.040527 1897.908325 1870.341187 1828.792358 1787.480591 1735.945801 1666.034180 1593.816772 1530.240479 1458.231567 1428.772949 1429.395020 1437.938477 1440.758179 1452.953369 1425.140015 1401.490845 1294.966309 1093.557861 920.311218 923.984558 949.328369 965.204407 1010.489197 1127.913818 1194.848877 1298.378418 1431.710693 1553.310059 1647.402954 1738.798828 1778.591797 1786.933838 1731.904541 1673.174316 1646.333008 1641.273804 1693.203003 1750.182617 1827.188599 1934.231812 2048.894775 2123.999268 2221.896729 2340.293213 2491.329590 2581.657715 2513.374268 2416.615723 2256.848389 2091.545898 1957.881592 1799.374268 1614.405273 1435.914185 1299.164673 1272.895508 1303.826904 1496.594727 1791.953003 2084.020752 2357.460938 2476.483154 2387.713135 2285.728516 2295.440186 2353.831055 2471.615723 2682.451904 2762.440186 2828.603027 2989.116699 3038.965088 3048.344971 2948.189941 2825.078613 2707.905762 2676.961914 2790.899658 2736.268799 2661.862793 2590.794922 2555.873291 2402.621094 2355.245117 2366.927246 2303.612061 2218.757568 2073.438232 1843.505981 1525.589478 1432.385498 1504.005981 1722.130493 2003.503540 2218.246338 2504.895752 2551.598145 2629.826172 2868.832275 2829.114258 2720.232422 2677.271484 2593.184326 2546.252686 2530.818604 2422.246338 2315.149658 2281.940674 2250.157471 2217.254639 2205.467041 2212.490723 2212.329346 2189.836426 2116.713135 1941.406738 1805.989624 1820.747437 1750.849121 1666.512695 1570.416504 1455.567871 1394.412109 1373.538696 1333.976929 1410.605591 1496.326172 1252.500977 1227.071167 1347.222900 1580.953247 1880.474976 1907.153809 2018.800293 2261.468994 2511.076904 2664.181396 2729.277100 2731.370605 2774.627686 2718.777588 2781.128906 2723.231445 2728.843506 2683.481689 2752.319336 2913.802490 2802.830078 2650.611328 2562.918701 2534.540283 2484.707764 2385.243896 2268.057373 2163.711182 2169.391846 2271.172119 2370.680664 2473.668701 2555.864502 2573.265137 2580.087158 2614.039062 2745.686279 2911.892822 3059.415527 3193.020264 3250.724121 3233.024902 3016.931641 2875.380859 2837.875732 2869.772705 3035.352783 3013.608398 2892.914307 2811.144775 2795.790039 2906.423340 2836.825684 2673.961426 2586.371582 2517.400146 2483.678955 2492.610107 2556.790771 2549.403564 2525.623535 2417.252686 2267.476807 2223.782227 2229.371582 2157.846191 2068.216309 1983.542480 1863.501831 1697.721191 1470.025024 1344.315063 1387.038818 1497.865356 1627.848633 1772.003418 1945.457642 2103.225098 2266.038574 2406.437012 2562.898193 2613.468994 2720.762695 2913.932129 2868.411621 2786.720215 2707.701660 2646.048340 2585.405518 2507.561279 2528.682617 2590.065918 2444.189453 2292.289551 2215.046875 2158.452881 2099.097656 2031.956421 1928.549805 1797.567261 1652.392822 1527.267212 1431.278442 1331.856201 1296.473267 1312.955200 1375.391357 1477.055664 1608.021240 1812.312134 2008.710693 2164.963379 2340.769287 2443.578125 2392.994385 2230.450928 2070.385986 2013.740234 2063.217773 2130.472168 2345.428711 2408.851318 2317.667969 2248.809814 2169.472656 2066.540283 1982.456909 1921.958984 1887.156372 1858.925049 1804.577393 1765.168579 1706.935181 1667.319458 1625.996826 1563.046265 1506.773560 1456.645508 1429.453613 1408.138916 1376.574829 1342.896118 1329.672729 1343.906860 1348.785034 1366.634033 1472.944946 1560.557373 1601.085693 1630.163818 1575.064819 1527.630493 1533.845459 1548.820557 1563.037354 1517.634277 1375.132324 1330.142090 1425.090210 1538.470581
2725.353271 2836.959717 2754.333496 2646.592285 2518.839844 2399.386963 2345.844238 2353.414062 2337.343750 2325.689453 2289.246826 2251.297119 2276.955322 2180.708496 2030.914062 1831.533569 1681.572266 1565.668213 1427.073608 1331.265503 1263.285889 1299.456299 1380.730957 1492.563477 1627.799805 1719.855957 1855.836914 1934.278687 1960.800049 2048.720947 2115.734863 1985.132202 1825.628418 1887.880005 2009.859741 2123.147705 2214.687500 2341.004639 2472.946289 2427.952637 2275.863525 2104.689697 2016.955444 2104.834473 2249.349609 2405.700195 2470.250977 2435.150879 2472.204346 2410.627197 2411.964844 2481.615234 2413.447510 2245.497803 2087.695312 1951.615112 1989.323853 2136.509521 2304.372559 2460.440918 2616.518311 2723.481689 2712.426758 2527.127441 2429.354980 2305.510498 2242.038086 2314.382080 2439.710938 2506.051758 2560.280273 2617.607910 2721.747314 2847.081543 2842.535645 2777.405518 2727.706787 2716.386719 2607.702881 2487.243652 2406.062012 2321.051758 2213.196533 2174.173584 2178.290283 2162.470947 2132.088867 2057.580811 1990.751587 1952.962036 1935.288330 1938.060303 1953.640503 1959.678467 1896.433594 1831.993164 1791.572998 1719.578369 1650.587158 1587.236694 1504.742188 1431.972534 1371.448364 1378.075317 1410.604492 1413.059814 1397.550415 1366.496704 1236.341187 1023.613159 898.886536 913.379395 953.304260 1009.219177 1053.448975 1092.984619 1201.337769 1323.013062 1481.526123 1640.486328 1725.303345 1806.288086 1834.376831 1874.551147 1837.749634 1779.096313 1732.289307 1709.259033 1744.736328 1800.404419 1882.090088 1975.212891 2080.949951 2133.117188 2218.605713 2343.206787 2516.466309 2453.767334 2348.510498 2280.549316 2198.399414 2061.891602 1923.449707 1755.261475 1574.882446 1415.976440 1296.746582 1283.278931 1361.869629 1578.221191 1826.741333 2051.809082 2358.269775 2609.532227 2697.334961 2613.346436 2533.491699 2557.829346 2645.217773 2739.829834 2846.199707 2940.863525 2937.179932 2824.404297 2797.771484 2846.893066 2963.195312 2945.159180 3004.116943 3006.706787 2965.417236 2859.189209 2676.399902 2553.103516 2442.517090 2401.657227 2408.007080 2465.232422 2315.589844 2142.305420 1872.521240 1561.030762 1446.108276 1504.396484 1762.428711 2042.340942 2187.234863 2317.983643 2477.309814 2687.361328 2904.260498 2936.225098 2797.954590 2726.281494 2639.764648 2485.429688 2425.830078 2394.226074 2374.286133 2385.091553 2380.961182 2380.518555 2431.304932 2479.047607 2412.137695 2318.151855 2118.008301 1958.633301 1889.663818 1983.869141 1899.141724 1829.766846 1767.562744 1673.858643 1557.366821 1509.631470 1436.079224 1427.002563 1574.528320 1411.784424 1220.941650 1240.517090 1415.178833 1644.437256 1766.604736 2002.793701 2225.142090 2397.420166 2511.002197 2543.868164 2634.720459 2831.793457 2899.116943 2821.858887 2806.767822 2798.684570 2792.541748 2849.238770 2856.644043 2691.966797 2593.808350 2557.213623 2492.577881 2457.151611 2392.606445 2301.539062 2189.055420 2166.539307 2214.482422 2316.606201 2421.676758 2488.378662 2520.193359 2574.418213 2681.519287 2828.052979 2945.906982 2995.642334 3061.728760 3130.520264 3111.164062 3005.391113 2893.573242 2791.142578 2789.054932 2893.094727 2892.261719 2774.015381 2668.326172 2682.320068 2735.555176 2718.988770 2611.623291 2481.183105 2390.895752 2321.173828 2364.559082 2451.775879 2475.531250 2383.248291 2341.453613 2222.579590 2117.100098 2059.724365 1983.549927 1906.880493 1801.877686 1720.714111 1612.517578 1406.008789 1370.877930 1427.484863 1556.574219 1697.004150 1888.649780 2023.734863 2199.957031 2324.662842 2444.762939 2589.095215 2796.872070 2853.139648 2929.841309 2836.317139 2749.429199 2700.270508 2667.416748 2573.381348 2463.590576 2373.630859 2484.488525 2467.553711 2345.041260 2258.068359 2119.981689 1977.701294 1912.557983 1822.198486 1650.425049 1514.774292 1424.616577 1343.460449 1331.677979 1377.434326 1428.580200 1489.947144 1468.620850 1517.031738 1660.511719 1906.763794 2123.985840 2341.174316 2545.500977 2417.632812 2224.895752 2105.328369 2058.785156 2156.493652 2190.904297 2413.567627 2382.652588 2272.174561 2150.494873 2059.551270 1995.428223 1900.816772 1832.697388 1791.935425 1763.462524 1726.086426 1673.844360 1630.963867 1580.196411 1518.694580 1478.296265 1428.748657 1369.958374 1362.489746 1355.182983 1394.432373 1436.481689 1473.170044 1475.422607 1446.671631 1413.390015 1529.216919 1645.841797 1722.011475 1723.800049 1665.176392 1617.040405 1632.876343 1616.815430 1626.348511 1642.258057 1493.990234 1326.365112 1384.372803 1491.644897
2575.070312 2672.925781 2724.044678 2797.017090 2662.414062 2507.192871 2370.071045 2307.235107 2307.182861 2264.433594 2193.830566 2113.501465 2067.297119 2029.460815 1915.308350 1739.424194 1591.189819 1442.883423 1333.042725 1279.127686 1321.062744 1407.174194 1467.467773 1565.316650 1702.865234 1808.546387 1927.907715 2050.419678 2077.325195 2138.131104 2186.247803 1975.306152 1838.479248 1932.865234 2057.352783 2180.517822 2312.402100 2402.355713 2518.209229 2492.191895 2320.619629 2147.427002 2051.046875 2157.343018 2254.499756 2418.779053 2578.859375 2552.470459 2573.047607 2503.451416 2467.091553 2522.345459 2411.291260 2276.219727 2141.286377 1974.377686 2017.458374 2175.769287 2325.849365 2470.556152 2626.859863 2788.831055 2783.555420 2634.447021 2506.348389 2338.755859 2299.971436 2352.709717 2433.713135 2503.203857 2571.577148 2662.139404 2772.259766 2803.244629 2726.088867 2708.314941 2595.597656 2565.466309 2612.611084 2566.494141 2442.194336 2314.637939 2245.204102 2252.853027 2282.068604 2292.829346 2256.807861 2181.264893 2078.628418 2004.191284 1926.396362 1906.992676 1981.334473 1958.422485 1865.214600 1809.242798 1814.218384 1779.646851 1725.596069 1665.556396 1579.601074 1469.704590 1373.682495 1323.407715 1329.289185 1397.786987 1390.885376 1327.322754 1180.564453 983.622131 898.298828 912.266479 1029.306396 1123.519653 1176.322754 1132.237671 1181.330078 1337.304932 1503.007202 1591.078247 1618.344727 1690.606445 1748.699463 1860.080811 1885.579590 1869.479492 1823.829590 1791.238281 1816.894653 1854.142578 1920.309082 2033.380493 2148.005127 2162.625000 2220.340332 2356.714844 2524.010254 2412.505615 2282.937500 2208.218750 2112.583008 1986.424805 1883.402344 1726.131470 1546.119141 1374.919556 1284.527710 1302.221924 1440.861084 1625.289307 1792.769043 1971.240234 2196.297363 2350.577393 2681.841797 2782.201660 2770.781250 2872.843750 2863.478271 2867.322266 2906.646484 2899.911865 2765.178955 2687.176758 2676.744385 2776.229248 2935.665527 3119.667236 3237.393066 3202.424072 3037.534912 2818.512207 2662.345215 2543.018799 2485.338867 2450.106201 2479.415283 2413.013184 2274.315674 2106.712891 1855.677734 1589.364624 1474.420410 1514.963135 1693.062012 1897.572510 2048.939697 2236.140869 2402.583984 2626.200439 2901.198486 2858.595215 2907.590820 2736.923828 2613.368164 2483.655518 2479.052246 2493.929443 2494.858154 2516.241211 2570.548584 2647.209717 2699.019287 2651.854492 2536.435059 2316.147461 2119.079834 1981.531982 1997.852661 2111.141846 2052.826660 2004.855469 1999.757202 1929.377686 1798.425903 1669.813965 1573.738647 1471.713623 1515.290039 1473.539429 1249.849976 1222.496216 1314.097168 1484.672363 1749.010620 1952.578369 2124.681885 2279.431885 2374.526611 2431.185059 2617.999756 2811.411621 2913.654541 2967.933105 2961.858154 2935.231201 2891.354004 2822.086670 2745.464844 2682.972412 2644.855713 2587.915527 2548.287842 2494.192383 2447.423096 2381.138184 2268.874023 2190.926270 2201.065186 2319.272705 2517.165771 2635.368652 2700.281738 2703.344482 2833.345947 2913.974854 3010.662598 3037.788818 3078.240723 3157.226074 3180.814697 3049.583252 2896.808838 2746.714844 2705.443115 2705.545410 2695.304443 2626.679443 2539.610596 2572.854980 2578.004395 2577.430420 2585.142334 2443.989014 2257.658203 2186.012939 2216.381836 2350.409180 2412.237305 2331.148438 2219.047607 2146.358154 1998.076294 1893.419556 1818.740112 1733.175903 1607.544800 1526.342529 1432.898193 1380.811279 1399.379517 1504.810669 1640.893066 1771.377808 1941.964478 2111.164551 2279.304688 2466.217773 2598.538574 2699.841797 2848.468018 2784.015625 2747.417725 2706.205566 2610.233154 2579.708496 2549.790039 2530.306641 2409.063965 2290.217773 2289.282959 2389.706543 2417.019287 2277.986572 2119.455811 1928.010986 1788.130615 1707.318359 1540.024536 1442.732544 1379.492920 1390.421875 1425.297363 1501.005615 1623.369019 1673.296143 1585.846436 1534.077759 1602.644043 1812.387939 2107.575684 2311.247559 2528.489746 2383.302979 2204.280518 2137.614990 2218.542236 2280.245605 2311.099365 2410.498779 2325.621582 2225.077393 2104.901367 1988.019409 1885.421265 1822.614502 1756.337646 1701.312256 1671.661621 1635.487183 1581.494629 1538.178101 1494.711426 1440.475098 1407.164185 1369.920776 1381.287231 1398.854980 1438.358398 1512.024414 1580.527466 1616.908081 1605.114746 1533.638672 1467.289795 1554.776123 1671.282959 1787.268799 1812.607788 1775.377930 1738.701172 1733.506836 1690.875732 1654.883789 1657.510742 1602.870239 1337.127441 1326.358276 1397.730469
2510.635010 2527.549072 2562.783203 2686.216553 2723.620605 2678.075684 2499.364990 2361.580811 2269.905029 2218.336426 2100.009521 1962.906616 1877.407349 1858.754883 1770.037964 1609.186646 1481.355713 1350.581421 1284.781494 1342.145142 1440.210205 1563.786621 1650.012695 1645.862671 1782.817261 1898.451172 2005.541382 2109.371826 2145.045166 2232.532227 2193.358887 1995.727417 1871.267090 1947.921753 2090.297607 2218.593018 2369.014893 2535.642822 2632.143311 2519.572754 2370.203613 2185.093750 2067.150146 2175.095947 2294.326172 2416.811768 2591.767822 2686.331787 2636.974365 2595.481445 2547.071045 2532.818115 2425.278809 2340.427490 2178.734619 2010.114502 2084.684570 2236.905029 2375.887695 2438.377441 2545.929688 2681.311279 2762.929688 2633.643311 2490.457275 2378.492188 2341.683105 2370.308594 2448.841064 2513.372070 2608.098145 2687.633301 2783.474854 2683.506836 2558.682617 2545.993896 2478.316895 2442.402832 2458.499023 2480.376465 2417.103271 2343.793945 2342.887695 2346.707764 2318.731689 2301.453613 2255.213867 2162.308594 2112.755859 1956.297241 1821.461304 1857.130737 1922.625366 1896.311035 1813.778320 1762.283691 1797.021362 1817.390747 1814.171997 1759.370361 1667.632202 1543.292358 1473.081543 1402.847534 1269.595093 1364.398438 1377.918457 1259.904663 1068.374023 919.850525 902.078613 957.311157 1129.244141 1218.385986 1270.519165 1263.286743 1197.551147 1256.989136 1406.923950 1411.237915 1426.281250 1494.761597 1618.977539 1702.950562 1868.953735 1955.473389 1934.237305 1889.928345 1909.756104 1954.116943 1951.314575 2026.058838 2167.603760 2254.925293 2301.743652 2452.346436 2600.835693 2513.502930 2406.576904 2242.053467 2081.092529 1933.676758 1771.930908 1629.902222 1475.916260 1333.558838 1286.207886 1331.655396 1505.273560 1573.335449 1666.190552 1805.406372 1978.165894 2221.459717 2460.048096 2584.119873 2628.394043 2765.576172 2895.762451 2889.497314 2740.977539 2648.301270 2628.975342 2664.537354 2708.377686 2766.015869 2854.663818 2980.922852 3119.897705 3049.683594 2886.741455 2742.364258 2631.501221 2567.426270 2541.662354 2451.663330 2358.460938 2242.919189 2128.932617 2006.371582 1821.636963 1588.967163 1468.272827 1497.649780 1661.664307 1933.532715 2162.628418 2281.571045 2412.014893 2576.463867 2806.703857 2765.211914 2829.432617 2690.935547 2591.896973 2550.022461 2559.244873 2627.406982 2731.803467 2709.604004 2748.697266 2825.980957 2680.095947 2538.919434 2451.386963 2296.572754 2150.780029 2071.350830 2143.596680 2262.279297 2190.540283 2110.992432 2074.467773 2050.733154 1949.048706 1831.310669 1744.315430 1603.350708 1503.998779 1498.615723 1277.680298 1221.807495 1255.396973 1382.130005 1620.460083 1840.675537 1993.306396 2179.014404 2221.944336 2389.836670 2575.730713 2647.284668 2717.542480 2893.375000 3036.064209 2917.664062 2810.479004 2778.147705 2735.483643 2679.969727 2653.972168 2598.533447 2570.981689 2564.294678 2537.007812 2509.297119 2395.568604 2284.470215 2265.808350 2353.541260 2581.581787 2806.448975 2958.113525 2862.350098 2929.580078 2984.285645 3167.700684 3165.354736 3154.953613 3088.465088 2967.328369 2863.895996 2770.641602 2680.514893 2663.650391 2613.878418 2549.352783 2475.820312 2423.806396 2454.585205 2465.870361 2451.287109 2406.407959 2352.568115 2204.714844 2082.885742 2106.831543 2185.027344 2253.947266 2204.296143 2098.039307 1991.989502 1864.850342 1747.416626 1632.987549 1518.783691 1444.674194 1418.309692 1416.816650 1429.136841 1453.035889 1529.165649 1642.716187 1778.711670 1947.282593 2136.456787 2295.431641 2445.137939 2619.878662 2820.708008 2918.602539 2804.304688 2699.886719 2607.174072 2531.705811 2436.938477 2348.125488 2275.372070 2196.701660 2141.820312 2121.989014 2222.475098 2278.996582 2144.879395 2035.534912 1894.669556 1720.652344 1595.665771 1474.815674 1403.846558 1454.728882 1552.261475 1617.738403 1683.751221 1801.374512 1860.413940 1740.936768 1613.671387 1624.113770 1756.377686 1937.442749 2203.626709 2506.827881 2438.027588 2247.589600 2387.471191 2501.704834 2408.825439 2348.999512 2278.319092 2200.355957 2131.957031 2056.187012 1970.559082 1854.647461 1759.146973 1685.664429 1624.860596 1563.754150 1525.291870 1489.959106 1440.410645 1405.468628 1375.656372 1367.361938 1401.892822 1464.048828 1510.197388 1578.629272 1658.755249 1727.722290 1752.106079 1714.283325 1606.983276 1518.658813 1582.689453 1702.447632 1813.000366 1900.904053 1865.497925 1836.883667 1815.727173 1776.141602 1707.910767 1697.476685 1648.420288 1382.281738 1317.318848 1329.864868
2395.155273 2409.562012 2472.362549 2520.937988 2561.394775 2606.312500 2490.179443 2329.172119 2260.895996 2220.884033 2102.065186 1966.959717 1786.711304 1678.789551 1644.634155 1475.033203 1355.685425 1281.992676 1322.292969 1457.552368 1592.520874 1729.537476 1810.843506 1747.242798 1825.419678 1962.357178 2107.800781 2234.596924 2232.831055 2297.281250 2350.288330 2109.206299 1920.227783 1951.052979 2088.173584 2242.552490 2388.145020 2468.556396 2587.175781 2510.335205 2376.440674 2220.673340 2103.061523 2164.672363 2317.633789 2455.757568 2610.388184 2751.150635 2758.043945 2714.358887 2655.843018 2592.443359 2509.123535 2390.895264 2185.199707 2042.007568 2157.096924 2305.909424 2445.399414 2497.189941 2586.523193 2642.163818 2716.020020 2618.644043 2508.337158 2417.863281 2369.962158 2408.722900 2512.678711 2602.852783 2687.275879 2765.179443 2663.729248 2591.433350 2499.530518 2447.033936 2389.260498 2360.373779 2366.691650 2382.164307 2364.900391 2319.751709 2297.478271 2275.022217 2238.855225 2219.858643 2192.756348 2100.312988 1994.270752 1903.872314 1759.800659 1801.022949 1879.572510 1847.965454 1761.026367 1725.482910 1772.232788 1826.028564 1842.650513 1787.382812 1721.107544 1622.191040 1505.669312 1395.665161 1241.180176 1313.184937 1297.229614 1143.702637 950.262634 903.423157 910.114563 1023.424927 1211.775757 1292.836914 1359.263916 1376.425415 1350.680176 1258.503296 1297.513794 1402.892334 1508.754150 1476.514771 1485.119263 1612.672119 1794.673584 1963.520508 2036.775513 1996.077881 2024.837891 2066.468506 2057.516602 2086.544678 2184.716553 2331.193604 2461.349609 2621.528076 2638.672852 2500.207275 2349.608643 2175.708252 2014.166016 1853.708496 1708.521729 1570.316895 1427.358521 1325.390869 1292.163208 1402.362671 1591.606934 1665.223022 1680.192749 1740.010376 1837.851807 1970.979126 2181.818115 2326.175781 2409.264160 2494.439209 2664.610352 2707.362793 2603.590088 2483.458740 2472.107666 2623.652344 2819.791260 2841.322754 2884.132080 2945.008057 3031.922119 3006.382812 2886.635254 2808.539551 2813.872803 2805.458252 2751.797852 2544.865479 2395.388916 2249.686279 2131.096436 2020.109497 1886.922119 1604.221191 1465.489868 1482.109863 1662.376709 1982.095581 2239.864014 2416.181641 2493.627686 2617.970947 2667.861328 2615.941406 2677.107910 2633.292236 2643.249512 2656.813965 2683.810059 2760.070801 2872.681152 2954.952393 2971.862549 2829.762695 2677.977539 2583.375488 2461.760254 2309.271973 2219.320557 2200.895752 2362.490967 2525.749512 2352.744629 2196.923096 2106.100586 2079.784424 2032.738159 1939.796021 1821.328247 1649.610352 1468.316528 1420.783447 1324.201538 1224.655151 1233.170410 1340.488770 1525.392334 1761.133789 1882.393066 1982.495361 2128.868652 2305.081543 2397.421143 2480.954102 2659.889404 2903.407227 3079.387695 2935.525146 2852.306885 2801.380859 2731.995361 2689.542236 2663.489014 2661.747559 2683.901367 2747.928467 2703.934570 2658.039307 2487.870605 2400.866699 2357.545410 2374.843262 2602.521729 2853.198730 3026.658447 2948.236816 2962.727539 3029.104736 3142.785889 3106.986572 3005.589600 2872.398193 2780.794678 2702.391602 2585.345703 2498.674561 2568.940918 2501.158447 2449.463379 2381.996094 2315.677002 2328.055908 2363.220215 2330.914307 2253.513916 2167.050293 2092.773682 1985.545288 1940.830933 1985.273560 2079.227783 2057.619141 1957.622925 1826.117065 1699.816650 1571.147217 1477.544556 1434.572754 1448.992065 1517.458618 1572.780273 1597.582275 1583.209351 1552.712280 1594.675903 1722.554321 1865.633301 2053.976562 2217.133057 2387.164551 2581.619385 2754.608398 2902.968506 2871.587158 2791.603027 2702.920898 2602.778809 2429.430908 2300.571533 2167.269287 2074.386475 2020.099121 2011.422363 2067.011475 2147.532471 2035.922485 1926.142090 1790.735474 1625.823853 1513.343140 1429.073242 1436.272827 1597.101074 1715.594116 1797.777344 1853.972412 1946.128418 2033.341187 1870.396484 1722.970581 1636.074219 1729.705078 1915.650513 2149.485107 2371.494385 2524.881104 2419.905273 2572.781494 2559.167969 2442.691895 2321.470459 2229.856445 2147.454102 2087.136475 2019.349487 1936.926147 1805.082520 1701.834106 1615.179077 1538.080322 1467.868774 1429.196899 1403.492554 1385.248047 1372.666260 1372.643555 1405.159912 1494.810669 1568.142944 1629.178223 1718.330933 1766.269653 1838.162231 1861.887817 1785.199219 1664.021729 1556.995483 1620.733398 1737.978882 1863.813110 1970.202515 1960.730835 1932.048950 1887.505615 1825.213013 1755.018921 1708.975220 1700.548218 1471.577759 1342.961792 1380.674194
2254.019775 2296.403320 2366.816895 2392.886963 2394.880127 2431.536865 2380.477539 2207.704102 2123.433350 2107.357910 2057.954834 1891.434082 1701.448975 1560.569336 1470.012817 1354.429321 1299.007812 1329.883179 1439.029541 1603.970947 1726.328369 1838.106445 1899.186646 1844.217407 1871.629883 2011.907471 2191.666260 2367.244385 2346.048340 2408.983887 2424.130615 2189.677734 1991.458496 1958.613403 2080.414307 2236.885742 2419.409912 2582.358398 2619.958496 2490.309814 2358.097656 2251.501221 2142.710449 2173.667480 2314.666504 2463.741455 2630.041016 2770.632568 2749.080566 2647.951416 2551.098145 2488.373047 2431.286133 2306.364258 2144.929932 2061.716797 2151.539551 2313.222168 2444.076416 2580.599365 2672.244385 2759.151611 2814.660645 2642.612549 2549.975098 2495.449463 2444.622314 2455.116211 2510.487061 2599.938477 2751.895020 2770.207031 2671.942871 2563.198486 2465.471191 2404.319580 2366.560303 2340.461426 2330.490479 2317.058105 2254.774658 2201.130127 2161.125732 2142.819092 2107.782715 2131.929199 2140.193604 2070.677734 1955.395630 1842.984741 1720.316040 1704.700439 1743.839478 1734.278809 1675.737183 1683.431396 1758.883911 1839.806152 1840.931274 1795.208618 1728.276001 1586.536743 1438.566650 1324.762451 1190.370483 1197.216431 1109.178833 985.722290 906.973145 909.124634 953.703796 1134.111816 1291.492310 1374.813477 1467.303467 1501.349487 1477.250244 1405.117065 1379.247925 1416.838257 1528.080200 1633.020264 1612.206909 1566.820068 1722.487671 1894.005005 2058.637695 2104.850830 2133.223389 2202.552734 2199.102295 2214.845947 2221.493164 2336.413086 2559.225586 2731.593018 2607.560303 2427.729492 2261.251221 2111.695557 1958.921509 1781.417725 1622.772949 1505.739746 1405.872314 1313.683594 1332.324219 1486.187744 1659.541992 1785.834961 1821.215942 1835.061523 1830.336060 1863.171875 1988.023071 2100.194092 2210.290039 2342.191650 2461.901123 2481.417480 2401.659424 2365.969727 2383.743896 2587.951904 2906.236816 2943.597168 2982.355957 2999.946289 3018.756348 3076.254883 3021.110107 3010.251709 2966.917969 2961.661133 2795.716797 2622.081787 2469.435303 2339.813965 2210.946045 2064.089600 1902.398193 1633.125244 1462.392578 1490.908691 1664.636475 1922.280518 2192.189453 2521.640869 2627.389893 2589.436279 2517.555176 2550.451660 2582.560791 2589.786133 2650.813477 2704.793457 2767.646240 2878.472168 3015.201172 3016.817627 2955.317871 2811.740723 2684.838867 2614.080566 2459.041504 2314.765869 2309.030518 2413.089355 2512.977295 2536.276611 2371.200195 2222.558105 2149.330078 2118.081787 2080.622559 1951.670898 1747.374268 1547.552979 1529.701904 1478.177124 1391.997070 1236.694458 1243.812622 1375.566650 1552.150146 1694.583130 1741.548462 1860.072388 2026.868408 2186.313965 2317.719971 2502.100830 2697.617432 2916.600830 3016.803955 2949.354492 2943.022217 2937.215088 2826.683594 2791.900879 2790.430176 2742.919922 2791.886963 2906.816650 2853.124023 2712.389404 2562.534912 2488.218262 2371.186279 2423.662598 2673.166504 2884.416992 3036.257324 3008.219727 3000.845459 3032.643799 2943.199463 2903.712891 2895.384033 2812.932861 2724.939941 2637.994141 2532.416504 2423.303955 2437.920410 2422.749756 2388.550781 2311.228760 2239.332520 2246.058350 2219.266357 2141.904053 2065.174072 1970.521851 1900.558838 1827.725098 1766.352295 1785.894653 1854.509766 1892.225586 1788.572144 1660.760132 1544.992310 1482.338867 1503.702271 1571.883301 1677.630615 1744.029907 1815.061401 1868.996094 1813.828125 1653.587280 1584.628052 1672.890991 1813.798218 1995.050537 2149.610596 2298.346924 2454.390869 2630.273926 2768.767578 2689.620117 2609.634766 2577.919678 2505.822754 2381.750244 2252.231689 2150.745605 2078.001709 2020.678101 1989.646118 1954.196899 1963.688843 1928.341309 1800.247070 1640.085815 1508.817139 1445.848633 1461.482666 1556.291382 1708.972900 1862.891846 1936.343628 2003.061768 2024.124756 2064.707031 1932.904541 1785.692627 1651.537842 1707.675659 1896.002686 2116.334717 2347.855469 2574.171143 2514.209473 2523.634521 2444.337158 2346.176025 2302.375977 2237.426025 2148.064209 2063.318359 1987.297363 1917.347412 1755.850708 1635.317505 1524.138062 1448.811768 1410.615479 1396.279907 1392.065552 1399.246704 1400.904175 1407.779663 1502.037109 1633.468384 1709.737915 1757.478027 1816.630859 1835.144043 1900.360229 1939.860962 1844.839355 1714.226807 1612.687744 1671.037964 1789.352539 1904.281128 2014.710815 2054.176758 2012.957642 1942.227295 1870.918945 1798.999268 1723.983643 1727.966431 1574.287476 1399.231934 1426.235840
2124.452148 2158.632324 2214.825439 2250.284180 2247.325195 2277.912842 2312.860352 2148.210693 2026.386353 1948.950684 1927.481079 1727.832275 1551.412231 1435.280762 1382.491577 1313.616455 1342.683594 1406.557251 1517.151733 1675.155151 1809.464233 1907.633789 1962.266479 1939.629517 1928.791992 2047.503784 2259.755371 2478.020996 2460.451904 2452.713135 2410.612305 2197.262451 2023.396606 1975.804443 2094.966064 2247.092041 2366.793945 2489.468994 2629.084473 2508.231934 2372.179932 2278.904785 2147.314941 2152.277100 2289.752686 2455.848633 2590.246338 2709.283203 2717.048584 2602.381104 2513.876709 2457.439697 2382.581787 2265.909424 2133.415771 2112.929688 2218.822998 2325.584473 2438.512695 2525.388184 2627.357910 2728.847900 2806.120850 2752.943848 2680.919189 2657.768066 2577.493896 2549.826416 2581.303955 2686.710693 2804.340576 2699.145264 2583.541016 2492.818359 2437.952881 2403.400635 2389.990479 2378.230225 2336.407471 2298.991455 2224.965820 2173.198242 2134.249023 2095.295410 2007.828735 2005.497925 2056.856689 2030.610352 1952.529907 1857.470459 1729.298462 1604.382080 1589.522095 1557.366577 1543.277100 1610.651245 1735.197998 1825.117188 1836.618774 1767.392700 1659.877319 1479.081177 1336.066650 1235.387329 1131.056396 1042.739990 950.462952 909.137207 914.560120 931.988708 1056.078491 1240.532593 1379.944946 1463.042969 1572.184204 1649.146240 1616.641846 1545.736938 1531.973022 1494.962280 1469.216187 1629.473389 1735.949219 1629.685791 1701.737915 1888.076294 2056.168213 2192.716309 2258.402588 2345.795166 2360.521729 2289.903809 2275.189941 2349.648682 2567.736328 2680.084473 2514.998779 2358.967285 2200.469727 2058.085693 1946.344116 1812.199219 1638.967407 1514.903809 1386.920776 1304.512573 1350.840820 1520.068481 1673.278809 1820.372925 1961.686523 1966.350464 1939.608887 1907.296021 1932.150879 2014.024292 2088.172363 2187.509521 2237.093506 2238.631348 2218.943604 2279.158691 2408.169922 2632.416504 2828.927490 2803.944092 2961.510010 3052.356689 2991.991699 3021.578369 2922.839111 2851.980713 2765.121582 2800.163818 2835.046143 2749.368896 2639.886963 2473.398926 2291.729492 2107.574463 1883.869263 1635.179932 1469.151733 1488.049805 1677.599731 1944.518066 2148.784912 2303.913330 2463.398193 2402.368896 2456.357422 2466.652588 2524.784912 2594.735596 2676.099854 2773.704102 2897.356689 2963.048340 2990.745850 2845.283936 2788.950684 2722.214844 2683.069336 2595.389404 2434.353760 2338.064209 2376.842041 2553.942871 2647.853027 2513.750732 2349.912354 2237.292480 2179.369873 2150.148682 2003.999756 1809.604370 1622.911011 1595.949829 1630.711670 1555.143066 1448.464233 1271.523682 1248.138916 1351.347656 1504.343506 1582.768677 1678.866577 1869.809814 2109.825928 2308.321045 2486.633545 2645.885986 2786.692871 2901.475830 2824.309082 2777.972168 2792.698486 2887.543213 2881.626709 2868.491699 2891.766357 2863.771973 2878.254639 2795.303955 2750.093018 2647.681885 2544.007568 2454.490967 2380.472168 2501.202393 2664.399902 2881.117920 2912.050781 3004.166992 2943.303467 2839.928711 2818.674561 2741.342773 2659.544189 2607.993408 2613.888428 2595.522461 2499.431396 2469.556396 2395.621094 2312.177246 2230.918945 2142.176514 2114.048340 2151.027100 2100.287354 1979.176880 1867.543579 1787.589966 1751.531128 1676.331665 1647.998413 1633.357178 1643.195801 1657.655884 1617.853394 1541.797485 1499.323364 1570.400146 1690.690430 1850.393555 1948.009155 1956.379150 2044.588989 2076.396729 1862.382080 1662.828857 1580.749634 1646.511475 1835.940918 2017.359497 2117.815186 2242.131104 2378.933838 2545.451172 2752.106934 2665.006104 2574.371826 2505.388184 2419.731689 2307.366455 2243.003174 2208.924561 2205.508789 2117.899658 2039.843994 1926.007446 1822.869385 1724.084229 1608.487915 1506.332520 1463.859619 1507.009644 1616.056396 1696.567871 1750.824951 1954.889771 2034.876831 2180.195312 2124.432373 2007.533936 1896.035889 1792.943481 1687.929688 1740.388672 1887.650879 2070.732178 2336.123535 2552.947754 2391.655273 2321.203613 2282.486084 2236.222168 2171.589600 2156.647217 2103.663330 2000.148315 1898.726440 1840.177490 1650.333252 1545.663208 1450.276611 1413.745483 1403.829468 1415.787720 1475.370483 1500.476318 1513.451782 1502.982788 1509.326660 1654.685547 1796.131836 1891.120972 1930.911133 1917.066528 1973.649902 1976.051636 1875.681030 1764.023804 1661.707520 1715.099854 1827.253174 1931.552856 2043.481934 2085.373779 2036.124512 1964.715576 1879.240112 1806.008301 1739.263550 1725.455078 1665.213867 1448.807495 1383.859741
2074.970215 2036.263550 2064.631104 2071.156738 2098.407227 2121.703613 2199.597412 2143.587646 1970.970825 1847.123413 1748.609985 1602.573486 1456.653198 1367.190186 1321.869141 1334.731934 1406.401367 1490.258423 1599.237183 1736.811035 1848.604004 1948.909424 2045.952271 2046.051514 1997.269165 2068.602051 2261.319092 2418.578857 2541.244141 2556.230713 2417.128174 2202.152344 2020.842651 1992.484253 2109.664795 2254.406006 2369.908203 2459.139160 2613.380127 2557.544434 2419.591064 2287.783936 2155.266846 2157.833496 2292.416504 2419.322754 2512.316406 2637.347412 2755.846436 2623.176025 2530.541748 2475.064453 2349.450195 2236.999512 2161.000244 2205.095703 2326.756104 2398.852539 2463.093750 2518.275391 2585.820801 2727.139648 2906.390869 2889.587891 2816.798828 2797.755859 2710.803223 2653.288818 2679.755127 2734.112549 2727.472656 2605.156738 2525.488281 2484.944092 2456.539062 2441.475342 2432.792480 2450.727295 2411.095703 2327.779053 2264.046143 2243.580566 2215.847656 2166.264893 2035.871216 1908.294922 1934.009521 1939.797241 1888.021484 1766.285645 1684.315918 1590.049683 1504.691895 1442.189941 1416.564209 1483.811401 1610.695312 1753.856201 1778.569458 1707.200317 1545.666992 1371.532349 1240.185303 1136.757812 1021.634399 935.290466 913.023865 912.740540 939.598145 987.464783 1188.695190 1367.746460 1481.766602 1595.106079 1692.666748 1745.374756 1742.607666 1674.891724 1663.606201 1605.369507 1519.049683 1631.087891 1822.379517 1739.868896 1695.217896 1845.201416 2004.666870 2163.387939 2246.530762 2334.954102 2458.077393 2436.085205 2367.806396 2428.594238 2590.385254 2519.169434 2407.006104 2272.302002 2139.935059 2020.503418 1939.542847 1776.488281 1624.743042 1435.947632 1338.570923 1307.086060 1395.058105 1605.572998 1768.642700 1952.696167 2082.580078 2085.272949 2049.162598 2011.805908 1975.052856 1990.407104 2020.578735 2050.463379 2073.787354 2097.097412 2143.968506 2261.110352 2413.724854 2567.646484 2643.873291 2688.812256 2879.352295 2869.811768 2855.958740 2873.386963 2784.573242 2717.473145 2642.197754 2627.518066 2631.482422 2575.256104 2501.978271 2433.948975 2280.742188 2089.674805 1877.451050 1622.284790 1482.758423 1493.825317 1683.748657 1996.712524 2218.505371 2307.745850 2320.319336 2289.021729 2342.253174 2421.139893 2506.623047 2613.569824 2732.134277 2876.386963 3018.851074 3149.431396 3133.723877 2927.688965 2817.339355 2774.817627 2725.542480 2569.618652 2443.440186 2417.294189 2475.990234 2567.251709 2501.572754 2412.627441 2311.529541 2240.781250 2174.210693 2042.233643 1901.687744 1711.850708 1673.087646 1812.298218 1829.034302 1695.547607 1595.492554 1409.526611 1293.690552 1305.818848 1413.544800 1483.536255 1637.064209 1853.726685 2062.139404 2241.160645 2437.905273 2579.847900 2720.538330 2800.840576 2686.543213 2660.090820 2675.549072 2771.770752 2927.354004 2975.580566 3031.544922 2978.739746 2847.001221 2789.286133 2725.809326 2659.927734 2541.806885 2441.849854 2423.256836 2548.993408 2678.419678 2752.503906 2782.540771 2981.666504 2897.641846 2744.250244 2691.831055 2620.090820 2566.916504 2532.409424 2502.579834 2489.016846 2484.857910 2435.109863 2316.862549 2183.540527 2083.179932 2002.324341 1970.648804 1978.618408 1933.308716 1811.166626 1722.986694 1689.280518 1694.134155 1710.075073 1732.717285 1712.100708 1645.858887 1582.455688 1536.475708 1531.016479 1627.002686 1804.211548 1895.948364 1998.818604 2169.957031 2187.200684 2195.960938 2099.831299 1894.082642 1672.087646 1585.082886 1674.637573 1863.809570 2031.836304 2154.585449 2277.459473 2400.632324 2549.683838 2817.099609 2834.654541 2700.006836 2540.211914 2424.045898 2359.591797 2376.738525 2377.201660 2320.973877 2202.065674 2083.727783 1878.030884 1709.602661 1585.112305 1504.417969 1484.252686 1510.411865 1633.744995 1749.375488 1810.756958 1797.647339 1962.458618 2124.360840 2307.235840 2192.222412 2045.851074 1948.492554 1815.855103 1720.273560 1786.293335 1913.177246 2077.502441 2316.311279 2479.911865 2347.609863 2295.130127 2198.362305 2121.476807 2011.277954 1981.896851 1909.203003 1820.904053 1710.181519 1661.378174 1555.872437 1468.714233 1424.655884 1414.081177 1447.035767 1510.728394 1567.185669 1613.886719 1653.620728 1613.237305 1543.682983 1586.644287 1728.461792 1879.324097 2004.851196 2053.994629 2067.906982 2011.093262 1905.569824 1793.378418 1684.518311 1759.623169 1885.543823 1970.479980 2041.208130 2007.781860 1950.927490 1918.899658 1861.168091 1796.077881 1723.230225 1702.182129 1600.051514 1408.190918 1374.560913
2173.000244 2029.604248 1963.542847 1968.362671 1949.797852 1970.968506 2049.215820 2065.520264 1891.062256 1754.518677 1652.077759 1471.596191 1373.872314 1322.884399 1353.923340 1445.009644 1567.152588 1632.396851 1688.149414 1748.861450 1894.436890 2028.769165 2176.899902 2131.510742 2040.168091 2085.901367 2220.064209 2390.867920 2559.627441 2592.332520 2414.073486 2200.652588 2031.092529 2023.170166 2150.504150 2299.781738 2411.997070 2492.685547 2570.496582 2515.281494 2406.114258 2296.543213 2179.577881 2172.289307 2309.251709 2426.281006 2530.599121 2631.714111 2697.889404 2623.990234 2554.569824 2516.362305 2409.032227 2254.741455 2227.574951 2325.887695 2406.901367 2441.970947 2499.523193 2611.756592 2706.762939 2831.992432 2943.396240 2818.252930 2726.765625 2698.697266 2647.403564 2576.137939 2577.342285 2594.678223 2624.666260 2582.857178 2530.708252 2517.352295 2535.745361 2562.855225 2553.541260 2572.699707 2541.976807 2403.414062 2351.885498 2373.133057 2312.857178 2195.166992 2055.400635 1929.659790 1846.090698 1857.312744 1790.244263 1710.889771 1618.008789 1568.187866 1568.069092 1542.522949 1489.077026 1375.909058 1488.446289 1646.206909 1704.636841 1646.683472 1468.486572 1275.656860 1167.315063 1028.743408 929.714111 917.919861 919.519531 926.019287 982.420227 1082.633789 1200.710327 1389.067505 1567.168213 1674.985352 1779.325073 1865.162842 1845.358398 1812.081421 1757.841309 1665.326782 1600.247559 1670.594360 1883.565796 1845.959229 1744.791016 1865.374756 2006.310791 2116.374023 2173.166748 2248.152588 2344.015381 2470.615723 2497.606689 2531.942871 2633.448730 2524.800781 2388.013184 2270.094482 2197.927734 2158.894287 2103.857910 1942.674805 1687.811035 1413.959595 1314.497681 1325.705444 1446.993652 1646.336548 1858.027954 2027.499634 2190.036377 2250.064209 2195.945068 2143.046875 2106.805420 2081.419434 2077.529053 2079.713379 2120.090332 2126.274902 2138.239258 2212.071777 2287.406982 2376.648193 2482.113037 2636.290039 2838.097656 2810.886475 2749.566162 2778.340088 2718.704102 2606.598877 2561.899170 2535.812988 2464.755127 2371.997803 2279.491455 2243.002441 2174.188232 2039.208862 1845.900269 1613.510132 1486.778198 1522.190063 1725.191040 1963.607422 2087.939209 2144.876709 2205.388184 2256.178223 2328.062744 2433.591797 2524.572021 2619.488525 2731.727783 2913.088867 3130.299072 3217.086182 3204.728271 3064.879395 2966.574707 2929.389648 2762.541260 2608.602539 2512.728760 2548.545654 2588.684814 2508.365234 2486.918701 2438.150146 2333.273438 2220.481689 2034.038208 1855.724609 1761.167725 1746.416626 1885.708130 2032.538940 2034.036499 1875.345459 1765.548950 1564.503418 1429.199829 1284.950806 1310.875977 1440.181152 1587.657349 1787.463745 1967.280518 2173.351074 2335.751465 2496.893799 2664.584473 2736.634521 2620.067871 2601.886719 2619.061035 2793.303711 2969.610107 3043.480713 3103.585205 3069.558838 2945.826416 2839.261230 2746.225098 2672.977295 2573.512695 2471.436035 2468.903809 2577.673096 2664.498535 2703.313965 2779.302734 2940.271729 2831.970459 2678.620850 2643.415771 2602.784668 2510.581543 2473.638672 2421.804932 2378.016113 2375.678711 2358.000732 2259.859619 2092.229736 1997.866455 1960.266113 1919.218384 1874.427002 1794.265381 1731.553589 1721.169678 1745.319824 1848.467163 1958.746704 2010.273071 1904.074219 1794.000244 1687.707397 1605.366821 1641.693359 1787.110474 1972.354126 2067.941895 2150.485840 2297.821533 2413.042480 2293.259521 2108.973389 1889.685913 1687.969238 1612.265381 1741.091064 1970.686646 2086.403320 2175.201904 2312.795410 2459.585938 2631.555176 2873.568604 2913.073730 2767.644287 2633.763672 2528.287109 2480.518066 2391.184814 2264.214600 2152.273438 2017.759766 1873.821655 1727.140259 1587.246826 1536.196655 1523.581421 1536.770996 1601.191895 1736.491333 1866.235596 1923.848511 1904.443848 1997.349731 2148.427979 2360.754150 2270.894775 2109.794678 1967.815674 1821.504272 1749.152832 1841.139893 1956.199219 2147.184814 2326.990967 2443.626465 2304.719971 2216.223877 2113.953857 2026.435425 1865.111206 1749.723511 1686.955078 1587.231445 1525.983398 1498.141968 1467.690674 1448.967285 1430.905518 1440.069702 1533.296875 1602.012451 1661.915283 1711.567505 1740.604736 1707.944092 1615.522583 1568.353882 1682.665039 1832.036499 2000.192139 2120.912598 2136.844971 2054.252441 1933.764160 1813.734131 1708.046997 1782.022583 1917.901001 2027.373169 2043.937622 1951.098511 1856.126465 1806.502075 1774.671875 1752.060791 1695.997559 1661.939209 1528.738037 1379.562988 1391.150513
2306.604492 2143.368408 1985.392212 1886.121094 1834.621826 1830.070190 1874.958862 1904.786987 1788.143799 1629.166992 1486.646851 1391.219482 1342.658325 1353.399414 1443.271851 1573.755127 1710.406738 1791.790039 1860.792725 1888.185425 1932.068970 2107.000000 2277.540039 2268.045898 2118.382568 2129.486572 2241.131104 2409.482666 2577.827393 2617.441406 2411.855225 2214.597412 2042.191528 2069.360352 2204.432373 2341.962158 2482.412354 2606.134277 2673.394043 2602.917236 2450.005127 2344.390625 2224.042725 2187.654053 2313.539551 2404.575684 2494.301025 2572.202637 2693.623047 2709.908447 2636.581299 2595.379150 2451.600830 2299.958740 2297.432129 2369.338135 2447.698975 2477.923096 2580.666504 2711.482910 2776.616455 2874.023438 2953.900391 2812.501709 2678.201904 2562.015137 2542.183350 2515.845703 2493.349854 2498.038330 2538.835205 2575.334961 2591.282959 2614.985107 2656.386230 2709.609863 2661.357422 2662.500488 2630.427490 2535.071777 2494.053711 2489.904541 2414.608887 2266.863525 2120.282471 1995.456177 1900.779663 1818.369507 1751.336182 1707.808838 1693.450806 1701.147339 1708.060791 1672.345337 1562.117798 1402.496460 1372.734375 1537.448608 1608.013672 1573.334961 1370.178711 1205.043701 1089.404907 955.404724 925.179626 923.881348 935.179565 1019.003967 1131.235474 1253.409180 1333.489624 1333.592163 1447.729492 1591.691650 1690.520142 1869.846069 1941.589844 1928.986328 1838.248901 1731.935181 1669.376099 1745.552124 1898.137573 1941.859131 1842.289673 1820.574341 1906.276733 2013.866089 2087.410645 2152.925049 2237.776855 2380.003418 2551.666504 2663.653564 2756.419678 2661.464600 2563.857666 2467.518311 2384.500732 2262.716553 2123.682861 1986.846313 1776.386597 1434.916748 1319.434082 1338.306396 1500.467041 1735.099609 1908.436890 2083.326904 2258.156006 2389.847412 2346.410156 2308.419922 2277.975342 2210.700439 2168.483398 2170.465576 2213.212158 2241.890625 2246.218018 2292.088379 2329.406738 2392.746582 2469.381348 2583.433105 2786.078613 2837.898438 2701.722168 2625.054199 2597.786621 2559.408447 2496.454102 2439.977295 2391.056152 2249.740967 2155.188232 2089.610107 2027.859253 1940.059937 1808.292969 1609.365356 1495.944336 1556.999390 1687.495117 1830.900513 1932.797241 2058.300781 2190.322266 2295.504883 2414.578613 2513.194336 2590.409912 2686.671143 2799.564453 2952.842285 3155.226562 3167.705322 3172.667480 3077.090332 3044.177490 2942.771729 2871.705078 2781.068604 2650.146240 2590.525879 2497.577881 2470.895020 2364.803223 2326.752686 2248.657471 2105.145752 1891.525269 1780.572021 1844.335449 1935.055542 2086.589355 2225.028076 2149.041748 1964.854736 1801.700439 1633.635742 1459.121948 1311.952637 1277.900391 1398.349731 1564.989502 1714.513184 1911.639038 2118.667969 2290.485596 2455.382324 2593.463623 2630.654297 2561.238281 2542.726318 2560.921875 2670.217529 2811.392334 2946.815918 3093.809570 3029.552002 2915.880859 2841.778320 2776.615967 2720.356934 2611.899658 2517.703369 2499.535156 2591.335449 2701.389404 2758.026611 2879.930176 2896.343018 2760.731934 2692.655029 2666.351318 2613.009521 2536.939941 2498.574219 2425.263672 2343.539551 2233.111084 2172.372070 2130.718262 2078.832031 2119.049805 2105.354004 1990.354980 1854.686646 1764.051880 1785.821167 1820.104004 1943.449219 2081.565918 2115.757324 2100.569824 2077.100830 2007.674683 1858.872681 1773.437134 1810.176025 1952.461548 2116.305420 2272.370850 2344.589111 2439.770264 2490.944824 2301.231689 2118.901123 1895.807251 1737.450684 1652.909058 1783.518677 1986.762451 2135.685791 2220.725342 2316.341064 2465.304932 2629.919678 2878.198730 2976.489014 2851.024902 2699.969971 2568.410156 2404.834717 2285.860596 2143.306885 2035.502075 1904.655029 1728.442505 1619.248779 1559.073975 1587.600464 1620.156860 1675.762573 1725.128662 1847.677002 1999.576416 2093.816650 2085.002197 2134.167480 2175.349854 2322.418701 2250.067871 2081.978516 1954.664429 1798.871216 1791.511230 1913.997559 2040.916748 2198.633545 2401.785645 2502.180176 2353.551025 2172.548096 1993.483276 1856.635132 1746.015625 1651.819092 1609.526855 1588.109619 1539.916748 1497.572021 1469.098755 1447.194458 1433.289062 1505.634155 1618.347656 1703.859497 1761.512207 1807.781128 1831.682373 1786.936646 1697.563599 1602.866089 1676.621216 1799.526123 1951.346436 2073.888916 2163.287842 2073.165527 1956.403931 1835.539551 1755.078857 1831.450439 1977.673828 2027.225342 1967.790283 1877.992065 1794.375732 1759.774292 1736.002319 1691.189331 1648.913574 1591.905884 1467.815918 1376.604736 1450.002319
2424.598389 2281.577881 2091.427734 1923.281616 1785.409912 1696.567017 1740.229370 1748.144043 1661.154297 1505.376343 1403.046509 1344.227417 1353.518799 1470.388672 1573.927368 1712.308838 1878.529541 1972.279175 2035.477905 2061.392090 2023.640381 2111.616943 2287.389160 2363.181152 2222.960693 2186.279297 2263.117188 2444.049072 2630.863525 2611.209473 2412.244141 2220.983154 2079.470703 2096.327148 2235.368652 2375.907715 2537.291992 2705.342529 2796.725342 2703.396973 2537.631836 2401.702637 2269.637451 2210.660156 2341.887939 2409.327393 2489.583008 2580.276123 2713.796875 2708.318604 2593.530029 2505.503662 2433.121338 2362.124756 2363.541504 2439.464111 2518.083008 2531.799805 2615.842773 2748.917480 2867.725830 2903.778320 2847.813965 2740.970703 2636.429443 2584.427246 2531.485107 2494.603027 2446.091797 2439.706055 2479.798340 2570.641602 2632.126953 2615.727051 2558.464600 2619.369385 2653.440186 2571.965088 2547.807861 2567.801025 2590.733398 2482.696045 2392.724854 2381.512695 2255.117676 2155.948975 2065.927246 1975.208374 1885.936768 1847.709839 1822.042969 1822.727173 1828.534790 1763.424072 1610.925415 1438.075806 1296.978027 1397.266724 1495.579102 1475.130493 1315.513428 1158.242798 1002.952881 924.161621 934.198242 937.405090 1036.246826 1207.229858 1332.080444 1410.789307 1462.105957 1472.896484 1436.340454 1508.002808 1603.116333 1756.473877 1916.139648 1995.014648 1910.916260 1803.664307 1732.879517 1868.261841 2011.750488 2079.825684 1997.858398 1906.173584 1871.162354 1908.897339 1978.163696 2040.140259 2121.137207 2231.870361 2403.141357 2566.831543 2797.777588 2773.683594 2573.066650 2420.913818 2296.099365 2226.908936 2093.492920 1957.894287 1796.674072 1526.858765 1344.247070 1364.559937 1581.264160 1756.377319 1874.957031 2010.359863 2230.378662 2413.531006 2451.161377 2390.647949 2368.677246 2263.867432 2235.252197 2282.755615 2345.324463 2395.106445 2525.630615 2525.124268 2525.674805 2561.350098 2541.081787 2644.086182 2803.126221 2723.544189 2666.697754 2657.857910 2640.589111 2669.453125 2581.796387 2508.291504 2438.855957 2310.132080 2201.679688 2117.192871 2051.947754 1913.766968 1763.185059 1598.025269 1502.596558 1544.223755 1686.752563 1892.321655 2092.329102 2199.602051 2284.702148 2427.531006 2581.262695 2680.375244 2732.348633 2836.054199 2944.152588 3069.747559 3199.127930 3106.343262 3083.533936 3024.137695 2938.160400 2782.846191 2679.314941 2600.414551 2486.714844 2346.972656 2285.178223 2258.430420 2176.322998 2114.157715 2085.406982 1945.625732 1797.833618 1823.417603 1980.250977 2106.785400 2291.884033 2391.058838 2246.520020 2070.148926 1892.917847 1710.207275 1505.599854 1344.217773 1276.136841 1358.756958 1472.836182 1641.660645 1883.480103 2106.911621 2267.379639 2402.873291 2455.231934 2468.743896 2496.756836 2489.174805 2464.338135 2552.321533 2688.984863 2806.083984 2949.863525 3025.376953 2951.739014 2913.532471 2915.162598 2781.014404 2641.128906 2564.927490 2536.983154 2618.533203 2784.717041 2901.891602 2997.797119 2902.645752 2786.970947 2724.377197 2718.135498 2684.593018 2689.843994 2658.797119 2473.461670 2308.961670 2224.731201 2179.857422 2158.215576 2207.123779 2251.443604 2181.276123 2009.329834 1835.195679 1814.484985 1868.398926 1981.790039 2111.202881 2247.121582 2189.645752 2182.449219 2247.283936 2167.622070 2037.298584 1929.413086 1876.719727 2048.171143 2238.556152 2431.595947 2562.687012 2629.587158 2544.179443 2350.890869 2187.579102 2022.163574 1885.002197 1718.837769 1790.805542 2005.789307 2153.905518 2261.967285 2344.769043 2489.233154 2706.527832 2896.807373 2799.001709 2696.411621 2593.987061 2462.918945 2339.654297 2199.155273 2052.678467 2008.338989 1904.478149 1769.461914 1685.214233 1665.994141 1683.265503 1715.663086 1782.475220 1831.597778 1917.563477 2051.085449 2238.143555 2270.626953 2223.801514 2246.492432 2316.329346 2181.737549 2040.562744 1906.836670 1802.637939 1871.582153 2015.878174 2141.103271 2304.756348 2528.770508 2471.399170 2312.983643 2150.744629 1974.829468 1809.961670 1702.398193 1701.434937 1723.628784 1750.713745 1692.481445 1616.422119 1540.107910 1462.738892 1467.766846 1568.583008 1694.077026 1776.962280 1852.807983 1903.658081 1914.528198 1857.067871 1769.399902 1660.020996 1637.097046 1758.947510 1902.624512 2038.520752 2148.603760 2091.293701 1979.357056 1865.882568 1793.572632 1891.448853 1995.401978 1961.958130 1884.416626 1846.124390 1838.767822 1842.880371 1798.007080 1718.480835 1676.350708 1600.120850 1414.322632 1400.720459 1532.523315
2356.656494 2313.395264 2176.041016 2010.631714 1821.544067 1659.740356 1601.434814 1578.919434 1483.506226 1376.545532 1340.541626 1351.996338 1448.962769 1614.361206 1746.782593 1858.306641 2036.507935 2131.870361 2153.225342 2248.955322 2136.983643 2191.762695 2366.714844 2310.033691 2229.648926 2235.535400 2316.599854 2418.347656 2591.042725 2647.595703 2448.708740 2257.521484 2106.054199 2098.009521 2267.445312 2414.514404 2570.680420 2669.719971 2759.780518 2763.969238 2586.082764 2429.673828 2288.433350 2248.307861 2390.466064 2503.690186 2573.726807 2638.906982 2757.745361 2661.524902 2603.492920 2525.645264 2438.101318 2389.156006 2426.987061 2530.770020 2599.123779 2605.091309 2664.548096 2763.723633 2828.504395 2802.087646 2735.750977 2669.906250 2639.439697 2565.338623 2510.536865 2467.287109 2414.499023 2407.203613 2422.366943 2515.918701 2582.408691 2504.124512 2449.307129 2487.127686 2602.982910 2565.979248 2425.359375 2406.169922 2459.578857 2377.005859 2317.296875 2395.560791 2395.580322 2336.237549 2221.415771 2090.166260 2018.032715 1993.609375 1962.991699 1985.519409 1980.937744 1829.112671 1677.905396 1519.684814 1361.531616 1251.211792 1287.098877 1313.403564 1227.795166 1067.258057 940.098816 948.506897 954.743835 994.635071 1176.649414 1382.191162 1443.027832 1505.977173 1570.360352 1602.411865 1578.366211 1636.032837 1659.339966 1723.869385 1867.308472 2032.094116 1983.143433 1887.187988 1831.041138 1982.607910 2131.792236 2200.496338 2082.936035 1995.723267 1959.275513 1912.566895 1906.461792 1954.197998 2020.805298 2129.911133 2289.903809 2454.609131 2603.505371 2729.287354 2596.043701 2533.609619 2335.690430 2122.194092 1977.599487 1853.332764 1743.927002 1564.230591 1353.980225 1420.442139 1622.995361 1867.550537 2063.671387 2087.859375 2196.198730 2357.325195 2518.443115 2474.902832 2422.481201 2303.753418 2302.839600 2383.342285 2504.513672 2563.119141 2726.536133 2677.502197 2720.853760 2675.561768 2654.617676 2794.014160 2828.532471 2728.249512 2718.323975 2704.379150 2645.687988 2649.908936 2676.523926 2664.970215 2594.954102 2474.479248 2361.664062 2261.063477 2113.962646 1972.248657 1820.620850 1624.868042 1506.967651 1538.272095 1713.286255 1930.762085 2132.266357 2289.006836 2390.496094 2556.475342 2678.095703 2631.331299 2717.452637 2873.493652 2971.322998 3101.307373 3162.345459 3054.014160 3014.762451 2977.770264 2874.732178 2685.900391 2588.710693 2548.184326 2436.119141 2318.945068 2310.856934 2290.979004 2143.668945 2025.780029 1922.669800 1825.628784 1811.609131 1993.605103 2197.118896 2263.303955 2434.593994 2545.344238 2338.773193 2148.831787 1956.880493 1769.546875 1642.632324 1468.616699 1354.987549 1303.024658 1394.670898 1578.667114 1792.585571 2039.558594 2203.257568 2260.208496 2322.831299 2365.667969 2386.467041 2388.528320 2452.658203 2563.935547 2674.477051 2749.740967 2838.742188 2974.923096 3046.919922 3050.463379 2932.119873 2770.537354 2692.134766 2667.661377 2640.033691 2720.598877 2805.186035 2952.758057 3081.286621 3060.558594 2909.634033 2790.618164 2760.893066 2787.327637 2834.296143 2721.432373 2538.317871 2345.923340 2305.550049 2292.726318 2290.146973 2337.316162 2360.245605 2191.636963 1970.964966 1873.133423 1902.619263 1994.373779 2148.445068 2270.845703 2379.476807 2307.095459 2313.700928 2355.494141 2273.070068 2029.280029 1866.140259 1885.147217 2028.613403 2260.009766 2456.526123 2659.182129 2734.981445 2526.826416 2380.192871 2256.846680 2134.394531 1978.627319 1847.519775 1889.321411 2083.634033 2214.804932 2316.747803 2420.610107 2523.069336 2709.207031 2760.712646 2645.513184 2529.784180 2453.017334 2376.434082 2260.386475 2108.937500 2015.304565 2040.207886 2047.666992 1948.386597 1886.314331 1835.203003 1779.148682 1798.936035 1835.523193 1911.307251 1970.065063 2037.235596 2207.327881 2375.012451 2271.231934 2345.584229 2305.924561 2167.646729 2028.586670 1907.097778 1849.595581 1961.195312 2066.837891 2181.300049 2375.958008 2490.300537 2360.223633 2209.322021 2066.383545 1922.239014 1791.596680 1751.357544 1820.114258 1891.744629 1958.992554 1902.705200 1774.354248 1656.219360 1531.573730 1488.766235 1560.732422 1689.595703 1790.576416 1892.358032 1986.614502 1987.690796 1925.662476 1823.222412 1714.884766 1627.069336 1727.697754 1855.386963 1973.924561 2060.499512 2082.378174 1977.942993 1860.843750 1832.630005 1938.156982 2036.648682 2010.154785 1963.941284 1945.810547 1956.975830 1915.997681 1810.428955 1720.986328 1690.013672 1561.243042 1381.967163 1434.813721 1570.529663
2317.557617 2190.263428 2061.171631 1952.099487 1780.420654 1637.431885 1529.320068 1435.381348 1375.100952 1336.402222 1355.638672 1440.004272 1568.847168 1720.777344 1862.352661 1998.031006 2104.051025 2239.499268 2305.610840 2381.343262 2246.523438 2313.238525 2446.447998 2312.559570 2257.667236 2277.207031 2408.160156 2523.065918 2575.768799 2688.520264 2594.922363 2320.951904 2123.660645 2118.806396 2273.189209 2417.689453 2540.042236 2707.362305 2749.919678 2674.729004 2548.605957 2459.924316 2323.322998 2317.286377 2482.071045 2659.817383 2714.927246 2718.818604 2780.101807 2744.560547 2707.226318 2565.752930 2505.574951 2499.638184 2502.206787 2578.888428 2701.675293 2747.495605 2793.549561 2744.343750 2707.690674 2711.187256 2720.279053 2748.775391 2644.866699 2567.228027 2524.767090 2481.040527 2392.248779 2368.903320 2366.200928 2453.056641 2540.517822 2446.751465 2335.770752 2362.411865 2462.415771 2560.489990 2458.148438 2305.632324 2312.166260 2262.255127 2259.198486 2393.259521 2499.265869 2488.565186 2341.528809 2229.358887 2173.489990 2157.989746 2158.341553 2166.474854 2100.304688 1956.893555 1815.906982 1640.662354 1474.739990 1342.022949 1205.533813 1125.629761 1080.751587 974.526672 947.246338 975.115601 986.567139 1066.544800 1196.320190 1379.248047 1474.415527 1566.132324 1679.729370 1732.177368 1735.242188 1767.657715 1803.778931 1865.390015 1935.008789 2090.624023 2088.277832 1997.519531 1936.807373 2031.267944 2194.574219 2261.298828 2154.475342 2128.774414 2104.635498 2037.156250 2011.398926 1981.372559 2001.131104 2104.007080 2259.370117 2340.706299 2465.652344 2645.284912 2724.064941 2523.427490 2297.514404 2120.917969 1955.564453 1813.609497 1670.882812 1506.288818 1377.911499 1448.887329 1640.111328 1897.378418 2134.590088 2229.485352 2309.896240 2463.598877 2604.341064 2632.868652 2521.107178 2387.049072 2383.522949 2481.400879 2659.456055 2751.601807 2897.192627 2967.916260 2899.930908 2770.554932 2812.177002 2996.739258 2935.709473 2831.006836 2859.441650 2717.964355 2593.815674 2536.626709 2552.927979 2557.105225 2607.349121 2617.948242 2464.649902 2281.750732 2108.416748 1954.433838 1803.290161 1634.191040 1523.882935 1545.261475 1678.027710 1862.174438 1997.045532 2114.605957 2233.189209 2378.860107 2536.739014 2561.110840 2708.348145 2960.344482 3068.290039 3187.063721 3183.937988 3042.485352 2977.473877 2909.721436 2849.591064 2758.728271 2681.347168 2634.445312 2447.531738 2358.947021 2392.879395 2353.179443 2229.661377 2107.660645 1923.729736 1852.133667 1952.490601 2195.226318 2394.062012 2532.427246 2596.553955 2625.833496 2410.219727 2233.593262 2068.066162 1918.323608 1764.544800 1563.483398 1454.947754 1364.267578 1311.085815 1447.076294 1710.719604 1947.568481 2074.727051 2202.840576 2295.750977 2325.919922 2357.720947 2449.277832 2570.365967 2613.773438 2737.938721 2917.249268 2948.277832 2976.780762 3126.413574 3079.474609 2965.603516 2799.437012 2740.447754 2744.009766 2746.650391 2812.603760 2885.845947 2968.199463 3142.614014 3112.950439 2947.799561 2875.458740 2878.154297 2901.374512 2802.457520 2697.572998 2574.718994 2469.507812 2377.570557 2422.236816 2492.369873 2522.250977 2404.395264 2145.562744 2003.739502 1949.055664 2009.994751 2137.688477 2297.501953 2430.528320 2520.133301 2491.718506 2504.584961 2410.621094 2239.117920 1973.055908 1855.326904 1878.337402 2096.768555 2367.738037 2535.786865 2618.339600 2725.337402 2623.683105 2456.499756 2322.572998 2196.710693 2045.779297 1960.616089 2023.968750 2197.198486 2338.295410 2425.482910 2542.428711 2651.051514 2696.075684 2569.033447 2480.878418 2431.989258 2380.013184 2295.734863 2190.650635 2070.083252 2061.246094 2121.270264 2135.913818 2134.182129 2055.323486 1953.880127 1876.174194 1926.106689 1941.273071 2021.206665 2080.554688 2146.266113 2185.490967 2355.749512 2345.158936 2418.414795 2280.542236 2173.397949 2024.249023 1932.114502 1927.115723 2013.513550 2104.178223 2189.773926 2323.779297 2444.374023 2266.312988 2112.406250 1984.817993 1875.170044 1804.806152 1858.969604 1965.326294 2072.360107 2154.181152 2047.854980 1887.210938 1740.518921 1595.182861 1533.802490 1560.474365 1661.870361 1771.372925 1878.744263 1997.058350 2046.392212 1974.595703 1884.141113 1741.464722 1630.501831 1732.629028 1852.604126 1921.986694 2019.592651 2078.437988 1990.622925 1910.065674 1923.565186 1999.868530 2103.054688 2103.811523 2067.056396 2055.565186 2024.066406 1925.113892 1805.359741 1734.188599 1648.156006 1469.961548 1373.818481 1452.650757 1581.052612
2222.133301 2145.566406 1992.550781 1831.592529 1688.059448 1552.526978 1439.429321 1372.397583 1360.938965 1353.003174 1418.929932 1532.041626 1674.171997 1852.650513 1969.320435 2120.179443 2229.060303 2359.094971 2486.791992 2518.017090 2379.670654 2434.821045 2541.052490 2404.519287 2368.129395 2377.402588 2497.419678 2656.214111 2729.581299 2754.579834 2629.152344 2372.397461 2196.867188 2153.779297 2305.071289 2476.473389 2586.941162 2731.886719 2715.273682 2594.694824 2534.032715 2460.804688 2376.715576 2384.675293 2545.602051 2689.223389 2773.350342 2743.202881 2691.748779 2679.876221 2657.656982 2651.927979 2633.258545 2617.061768 2608.672363 2685.848633 2782.350342 2853.210449 2769.725830 2685.864014 2674.506104 2682.442383 2701.438965 2746.585205 2651.101318 2575.425781 2533.753174 2485.796387 2460.178223 2379.661133 2327.513184 2424.437256 2544.696045 2470.213623 2300.603027 2230.476318 2335.201660 2467.824219 2480.264648 2356.924316 2216.716553 2171.606201 2186.279541 2305.497559 2414.247803 2479.050537 2401.366699 2342.804688 2277.506836 2270.189209 2284.362305 2233.702881 2160.673340 2022.800781 1877.385498 1717.393677 1581.530151 1416.857910 1290.906860 1131.315308 1009.188904 945.036560 957.273315 990.635376 1020.154663 1082.021240 1169.605225 1303.723999 1443.767822 1581.796143 1761.363159 1830.665039 1884.946899 1922.604004 1954.342529 2008.749878 2104.789795 2195.264404 2217.287598 2133.468506 2108.022461 2104.362793 2228.616699 2351.957031 2271.589600 2256.077637 2248.097412 2156.619385 2125.548584 2110.470459 2129.170410 2245.360352 2320.920410 2315.270020 2401.641113 2613.941162 2637.498535 2460.176025 2304.071533 2145.009766 1985.197998 1826.132324 1658.256226 1500.279907 1392.032349 1440.017700 1685.263062 1915.107666 2062.297607 2217.211914 2342.154053 2478.410645 2627.675293 2723.785400 2593.860840 2458.326172 2472.788574 2604.100830 2803.011963 2980.776611 3154.225342 3214.783203 2969.976807 2972.870605 3048.274658 3144.378174 2995.329834 2887.665039 2836.772949 2714.399170 2596.178223 2536.521729 2454.939697 2405.362549 2478.569336 2508.832275 2398.287109 2230.607422 2103.655518 1993.359375 1832.256592 1653.346069 1535.459595 1545.130981 1688.101440 1892.793457 2081.181152 2146.079346 2200.662109 2338.176025 2463.554443 2564.647705 2705.979736 2918.320068 3125.257568 3264.129150 3282.673340 3152.626953 3089.426025 2995.992188 2923.539307 2835.509033 2779.776367 2596.998779 2487.518066 2426.323975 2500.766113 2502.519775 2373.244385 2187.852783 1976.492432 1894.346191 2047.967407 2235.332520 2515.897949 2701.090576 2595.497070 2512.805420 2391.924561 2240.036133 2121.670166 2027.286377 1858.400635 1694.262939 1593.930298 1478.589844 1338.964478 1386.513550 1602.130127 1826.715942 2008.460083 2186.929932 2332.096924 2441.690674 2516.742432 2673.288330 2799.384766 2700.554688 2806.421631 3020.381348 3075.224365 3104.244629 3249.576172 3159.485596 3025.174072 2849.972412 2781.017822 2776.675537 2804.949707 2877.107178 2922.929932 2994.870605 3092.541260 3041.553467 2971.103027 2923.579834 2843.768799 2781.510498 2701.824219 2643.683594 2549.840332 2507.231934 2437.272217 2549.545654 2572.816406 2546.310791 2347.177734 2154.048828 2107.365967 2142.483398 2162.610107 2256.634521 2450.341064 2602.890869 2681.673096 2665.288086 2538.205566 2320.609619 2147.632812 1928.617676 1861.824707 1954.161743 2133.930908 2294.977051 2463.710205 2520.312256 2638.787842 2687.130127 2523.450195 2378.222412 2219.584961 2088.961182 1998.169189 2110.153320 2301.233643 2467.688477 2592.963867 2711.212646 2823.925049 2764.700928 2584.378662 2515.899658 2437.124512 2297.650635 2238.052002 2170.826172 2168.339355 2189.807617 2166.322266 2260.604492 2328.539795 2145.371582 2062.317139 1998.624268 2028.942871 2043.677979 2098.007568 2174.808350 2246.442139 2262.345947 2363.491943 2413.666260 2439.302734 2283.679932 2173.517090 2032.470581 1997.595703 2005.857300 2117.811523 2225.890137 2226.535645 2316.278564 2494.703613 2236.927002 2097.320801 1962.064087 1902.627930 1926.913208 2025.033447 2207.709961 2254.497803 2298.718506 2122.241455 1937.898071 1780.223389 1652.604004 1604.572510 1602.092896 1650.005493 1762.329468 1867.393066 1979.678345 2082.408691 2019.374268 1922.570679 1771.519043 1651.932007 1755.124634 1868.674072 1980.718262 2070.880615 2136.938721 2080.370117 2025.685181 2058.295410 2096.463135 2145.318359 2121.112305 2071.897461 2039.884888 1947.794800 1843.036621 1743.777222 1674.642212 1545.890015 1383.233765 1399.208130 1533.821289 1660.951416
2106.112305 1993.447144 1859.422607 1721.583496 1578.921875 1466.732178 1380.693237 1352.050293 1377.276001 1405.096069 1523.978760 1672.769287 1822.179688 1983.819824 2107.801758 2168.146973 2281.621582 2392.368652 2554.294189 2646.027832 2484.979004 2460.945312 2509.373535 2433.420410 2430.542236 2472.231445 2529.497559 2599.543213 2723.861816 2809.094971 2655.453857 2408.472168 2253.876465 2198.122314 2356.032471 2506.761475 2666.059326 2817.858887 2798.171143 2645.467529 2563.090576 2485.788086 2458.576904 2468.474609 2535.245605 2625.250488 2738.128174 2685.408447 2652.508545 2636.458740 2600.061768 2614.135986 2685.508789 2628.907959 2622.228027 2670.438965 2715.916260 2769.501709 2741.891357 2677.992188 2645.697510 2605.681396 2605.488770 2649.368164 2633.107910 2589.119385 2577.092773 2577.735840 2469.390381 2362.881836 2294.856445 2355.125000 2506.064209 2427.891846 2283.202881 2158.323242 2233.506836 2372.478271 2485.436523 2370.200928 2216.841309 2121.511230 2105.943115 2183.057129 2329.747803 2401.682373 2282.519043 2250.979980 2213.899902 2279.224121 2315.286621 2203.725098 2081.667480 1944.648682 1822.281982 1704.821411 1561.289429 1416.060303 1237.250122 1059.151123 953.557434 932.615417 971.421509 1050.141479 1133.975708 1165.312744 1144.873779 1202.520142 1372.773193 1533.902344 1704.122192 1803.208984 1950.170410 2075.612305 2085.413574 2114.034668 2209.608643 2275.793457 2319.866943 2346.467529 2296.727783 2239.187500 2288.202881 2407.041504 2407.463135 2362.120361 2282.052002 2205.216797 2214.229004 2274.188965 2369.272217 2384.613770 2395.337402 2354.634033 2408.582031 2619.148193 2559.652344 2390.036133 2236.921631 2113.602539 2008.933105 1912.470825 1772.513428 1513.540894 1396.636108 1438.828613 1602.990967 1793.531128 2002.236328 2108.864014 2184.927002 2311.577637 2451.381836 2585.135986 2665.472412 2535.599609 2528.464844 2631.300049 2737.898438 2935.741455 3057.207520 3249.184082 3145.900391 3174.677734 3213.448975 3182.713867 3011.700928 2874.647949 2798.313477 2690.867188 2629.676514 2592.331787 2479.506836 2356.561523 2344.257568 2362.391602 2275.685303 2189.858398 2151.772949 2100.790527 1919.835815 1710.968994 1555.540649 1551.584961 1712.118530 1944.254028 2142.098877 2294.755859 2338.123047 2407.433350 2496.759277 2631.585693 2792.249268 2954.336182 3130.434326 3261.871826 3200.318115 3096.884277 3043.661621 2999.097656 2965.279297 2897.947754 2794.856934 2614.796387 2547.456787 2552.075928 2695.391113 2638.760986 2458.297119 2247.149902 1981.485107 1928.209717 2071.369141 2270.413086 2473.269043 2645.309570 2522.572266 2472.222656 2396.629639 2267.266602 2167.960693 2073.773438 1916.707275 1780.846191 1635.249390 1518.304932 1360.093018 1361.206787 1507.347900 1758.847900 1982.118286 2204.637939 2391.255859 2529.578369 2588.825684 2716.051270 2859.013428 2796.678711 2799.329834 3015.961182 3158.038086 3170.375732 3163.239746 3049.055176 2980.946045 2877.171143 2849.568359 2858.118408 2878.484863 2932.816895 2955.043945 2977.216553 3078.718262 3027.513428 2899.285889 2803.444092 2741.224121 2685.256592 2646.459473 2628.364990 2600.453125 2560.354248 2515.544434 2474.869873 2455.110840 2395.140625 2310.680176 2243.333008 2222.506348 2279.943359 2342.096924 2448.942871 2604.346924 2758.325928 2737.903564 2623.740479 2429.457275 2251.524170 2108.063721 1994.294189 1997.016968 2111.412842 2223.499756 2337.910645 2443.018066 2530.719971 2602.397705 2665.173828 2461.982422 2316.455811 2185.997803 2062.229248 2023.404907 2150.762939 2333.061035 2504.822510 2695.494385 2880.559326 2966.097900 2882.233643 2729.003906 2667.799316 2538.052246 2434.083496 2346.846924 2330.733154 2302.080811 2226.193848 2171.854980 2321.968506 2421.477783 2261.060791 2193.448242 2174.131592 2104.944580 2105.088135 2151.628906 2211.696045 2355.641846 2409.064941 2441.232666 2488.579590 2422.695312 2289.859863 2204.804443 2099.202148 2088.063477 2097.050049 2357.851807 2457.478271 2332.615234 2341.508301 2562.493408 2328.661865 2182.568604 2089.047363 2031.527588 2313.056152 2339.370117 2468.816895 2449.459229 2369.980469 2160.627441 1951.599243 1808.151245 1666.813721 1596.155762 1595.385986 1660.288452 1782.551636 1882.106812 2000.864624 2111.383789 2039.747803 1904.962769 1764.472656 1680.934692 1788.007690 1901.197998 1975.216064 2086.107666 2204.664062 2187.355957 2158.331055 2157.513184 2081.932861 2059.491211 1998.584717 1963.684570 1927.995239 1853.438599 1807.303711 1767.243652 1675.372803 1483.447388 1370.866821 1467.328247 1605.045654 1743.090942
2045.043945 1884.419556 1736.739502 1597.965454 1483.508057 1396.634644 1357.485229 1363.486816 1419.583862 1448.877319 1571.860840 1749.454590 1896.794556 1971.850952 2036.872437 2069.409424 2166.216309 2299.335205 2466.018311 2564.109619 2594.834717 2528.565430 2558.056885 2526.997070 2514.201416 2527.303223 2544.542725 2610.530518 2717.651123 2687.620850 2584.667969 2389.229492 2269.641113 2271.127197 2398.310303 2502.363281 2636.834961 2802.728760 2811.427734 2671.056885 2591.054688 2517.317139 2497.130371 2551.871826 2581.119385 2637.811035 2672.295166 2584.535889 2554.914551 2549.729248 2533.095459 2550.468994 2595.408447 2567.201416 2571.973389 2606.952881 2678.984619 2785.022217 2718.337158 2644.844238 2606.691162 2568.178467 2559.890137 2604.429443 2701.374268 2665.227051 2600.703369 2539.395752 2448.904297 2311.188232 2213.970703 2342.599609 2490.555176 2414.876953 2260.174072 2119.935547 2146.587402 2253.620117 2408.703613 2422.497070 2275.248047 2176.432373 2084.876953 2091.300537 2193.696045 2258.967529 2213.996338 2107.591309 2125.639404 2228.717773 2227.849854 2090.789795 1981.631348 1821.922241 1654.086792 1525.161133 1429.645508 1263.546997 1114.556641 972.053040 932.154907 935.141724 1036.438721 1159.781494 1280.790405 1330.528687 1302.453247 1261.915527 1395.003296 1504.214233 1588.316162 1747.719849 1924.166138 2049.175293 2037.210449 2021.244751 2050.723877 2112.074463 2214.168701 2345.114990 2418.656494 2374.604248 2426.382812 2421.355469 2493.258057 2500.120361 2383.539062 2300.888184 2370.644775 2500.768555 2512.937744 2449.794189 2425.747803 2399.444824 2547.949463 2634.262939 2473.523438 2356.532227 2241.763672 2182.776611 2133.895996 2022.223755 1846.221069 1603.114746 1424.669312 1410.122925 1568.523926 1798.929443 1928.797607 2000.953979 2080.401611 2170.018799 2275.057373 2407.122559 2585.470215 2659.330566 2586.073730 2628.037598 2716.786621 2863.807129 2971.898438 3146.312500 3084.081543 3164.449707 3281.167236 3122.495117 2909.096436 2827.048340 2766.505371 2707.253906 2659.134521 2563.055664 2478.896484 2435.257568 2409.159424 2352.621582 2287.046387 2274.000244 2268.145752 2195.459473 1986.439819 1759.388184 1604.343628 1558.621582 1682.257324 1902.783691 2122.375244 2328.354980 2480.533936 2564.338867 2602.862061 2775.808105 2935.045898 3006.438721 3055.750732 3166.309326 3232.389404 3188.415771 3098.112549 3011.694824 2932.079834 2860.754150 2775.040527 2697.644775 2644.679443 2755.293701 2765.467041 2576.597412 2404.967529 2195.656494 1993.864258 1949.502686 2139.753418 2340.970215 2538.826172 2643.639648 2561.869873 2563.743652 2418.012451 2268.628174 2162.708496 2078.499512 1960.107178 1812.855469 1643.115967 1520.585815 1377.547607 1351.070557 1495.905762 1707.578857 1964.139038 2170.631348 2314.189941 2350.323486 2415.324951 2562.824463 2718.045166 2833.829834 2867.381836 2955.402344 3024.114258 3044.332031 3150.098145 3091.996582 3006.010986 2910.772217 2893.799561 2905.304932 2927.056396 2970.760742 2975.636719 2989.068604 3101.632812 3010.730713 2881.227783 2796.613037 2748.854248 2709.613037 2667.980713 2650.176025 2626.244141 2600.267578 2571.713379 2497.379395 2383.436279 2313.452148 2290.797119 2276.814209 2312.581543 2398.471436 2549.046387 2660.288574 2794.812988 2796.798828 2607.130127 2446.185303 2350.837646 2299.450195 2220.028809 2170.551025 2182.668457 2206.759033 2209.329346 2309.190674 2423.282471 2510.871094 2560.312012 2618.247314 2466.252930 2335.598877 2207.666260 2068.881104 2054.715332 2179.432129 2303.756592 2479.843750 2681.696045 2768.226318 2836.523193 2772.794678 2681.577393 2596.390869 2481.169434 2425.859131 2356.929932 2286.667725 2227.994385 2173.491211 2190.735840 2356.496582 2508.835938 2400.435791 2345.366455 2344.187256 2205.919434 2196.928955 2204.322754 2238.700684 2313.869873 2486.078125 2587.676025 2580.813232 2472.590088 2373.401855 2288.250000 2208.703857 2198.931152 2244.876221 2601.039307 2742.541992 2535.792236 2468.092529 2680.871826 2648.370850 2343.387695 2209.298584 2357.404297 2586.323975 2551.306885 2533.324463 2427.655762 2246.970459 2083.117432 1902.191284 1777.700562 1654.432251 1597.207886 1601.405884 1680.534302 1809.873047 1908.048828 2014.860718 2091.265381 2008.785278 1920.925537 1792.020142 1732.644043 1853.798462 1965.788818 2060.031006 2144.668701 2192.377441 2104.319824 2132.149902 2182.378418 2081.501953 2009.960571 1946.979980 1912.281616 1893.257568 1868.895142 1921.369873 1859.264282 1679.511597 1420.795654 1384.328125 1490.889648 1591.423096 1679.407104
1918.852905 1776.074585 1625.228027 1482.053955 1407.648193 1361.165405 1372.164429 1427.864258 1532.006348 1523.678833 1521.082764 1658.308716 1781.750732 1826.602783 1867.069336 1953.807251 2057.753174 2190.070068 2325.217529 2434.103027 2567.517090 2666.965332 2701.911865 2605.593262 2578.628174 2589.015381 2636.149414 2703.028320 2769.451660 2656.482910 2488.672607 2371.838379 2284.257568 2303.885498 2424.190674 2567.580566 2701.410889 2856.651611 2791.662354 2670.168945 2595.047852 2547.408691 2551.552002 2659.476318 2651.277100 2604.174072 2561.220215 2521.782471 2493.967041 2481.857178 2461.085938 2498.575439 2552.838867 2503.956055 2497.613037 2557.496582 2681.621582 2776.398926 2686.250977 2650.616211 2639.259033 2581.557617 2538.372070 2558.731445 2651.936279 2711.205078 2648.295654 2571.733398 2426.214600 2329.740967 2177.692383 2227.940430 2355.582764 2355.565918 2222.872314 2076.804443 2053.175537 2179.357422 2339.018555 2459.571777 2384.196045 2238.248047 2101.541016 2034.668335 2038.319458 2074.267090 2064.947998 1972.915527 2008.824951 2154.827148 2145.395020 2007.188599 1882.414551 1731.265015 1584.468140 1414.412476 1254.987915 1150.358154 1003.364014 938.558777 931.949585 990.429749 1137.313232 1307.368164 1421.704956 1417.672974 1375.293579 1342.423706 1348.595215 1474.990479 1610.758667 1745.658691 1836.842163 1887.396484 1911.801147 1906.597168 1923.483643 1996.045532 2109.408691 2224.685303 2331.446533 2433.743652 2545.813477 2551.283447 2616.878418 2645.359375 2526.315186 2422.761963 2492.951660 2643.808350 2547.605469 2487.741455 2497.644287 2485.375488 2752.756592 2745.554688 2556.708984 2463.400391 2333.391113 2260.426758 2150.407959 2019.116455 1856.582642 1693.578125 1483.074951 1412.356079 1550.421387 1762.257935 1927.412231 2089.313477 2215.946289 2275.060547 2273.126221 2324.427246 2431.935303 2545.363770 2669.233154 2720.118164 2713.441650 2832.970703 3013.788818 3116.121094 3019.274170 3039.458496 3131.436279 3119.006592 3008.937256 2910.799561 2915.571777 2850.538086 2789.243408 2622.995361 2515.418213 2534.480957 2508.618652 2426.482422 2425.005859 2512.440674 2423.560059 2223.256836 2019.311035 1808.114258 1644.676147 1568.931396 1668.181641 1879.128662 2072.182373 2263.593750 2419.332520 2528.846436 2636.662109 2701.410889 2766.024414 2831.827148 2858.806885 2936.093018 3036.334961 3158.806152 3082.690430 3050.583984 3028.887695 2948.014160 2877.947021 2746.385010 2751.166748 2837.057861 2749.337158 2551.951416 2372.959717 2167.254639 1998.830933 2011.553467 2224.144043 2441.817627 2653.954834 2721.511719 2679.958496 2556.683350 2392.406250 2280.865723 2179.710205 2058.789795 1926.349365 1797.238525 1636.646606 1516.835083 1410.433838 1332.497192 1470.527710 1659.108032 1889.696899 2109.960693 2174.924316 2183.548340 2270.476318 2429.491211 2544.239258 2670.561279 2769.343994 2803.044434 2842.208496 2875.918945 3040.603760 3116.506836 2993.778564 2947.399902 2932.676270 2934.658691 2943.743652 2985.844727 3008.146973 3014.240723 3093.424561 2973.907471 2852.171387 2830.451416 2773.710938 2710.857910 2660.765869 2635.302979 2618.778320 2609.322021 2586.314209 2479.962158 2381.352783 2343.989258 2320.580078 2346.118652 2419.729004 2516.109131 2657.376221 2742.715820 2787.155762 2654.998535 2453.673096 2310.555664 2283.852295 2275.736084 2244.412354 2222.808350 2286.812012 2238.145020 2217.220215 2255.041260 2366.976074 2455.876465 2511.458008 2606.932129 2508.289551 2387.001221 2246.739990 2168.433350 2115.364502 2232.120605 2377.365967 2437.354736 2480.711914 2541.390869 2676.466553 2632.217773 2524.077148 2434.795898 2362.883545 2324.077881 2288.131104 2272.021240 2242.770996 2202.649170 2276.458740 2393.809570 2587.776611 2552.304199 2490.842041 2469.342041 2376.578369 2323.813965 2343.779053 2333.029053 2407.862305 2549.031738 2674.337891 2552.462158 2545.938721 2580.716309 2459.039551 2392.140381 2351.790527 2453.603027 2738.476562 2885.038574 2702.717041 2612.634521 2717.820312 2804.695312 2601.430908 2523.955811 2642.656738 2693.803223 2688.972656 2492.114258 2299.741211 2157.203857 1956.139526 1799.820923 1693.867554 1633.368408 1592.265381 1634.749512 1695.048096 1817.062012 1921.393311 2036.545654 2102.581787 2030.459351 1955.212280 1822.435791 1787.256958 1891.069580 2006.253662 2125.899414 2211.646240 2157.213135 2046.756470 2062.535400 2083.284180 2107.714600 2058.452393 2040.238281 2019.634888 2006.676392 1968.149048 1931.215088 1833.320557 1602.511108 1377.656128 1410.500000 1545.433960 1668.811157 1693.453247
1766.058594 1624.405640 1489.053467 1391.532104 1370.009033 1385.645874 1454.848755 1560.269897 1667.553955 1627.045044 1534.045898 1607.534912 1688.417603 1792.181885 1926.610718 2070.629150 2083.567139 2092.215088 2188.900635 2305.231201 2432.587646 2576.496338 2737.917236 2762.630859 2722.636719 2733.985840 2770.192383 2712.843506 2634.602539 2557.221680 2440.638428 2370.752197 2283.874268 2320.389648 2422.320068 2558.095215 2703.026855 2847.131836 2826.837402 2692.484375 2635.318115 2619.153564 2642.996826 2676.998291 2614.322266 2553.695312 2489.350830 2453.326904 2420.899902 2402.731445 2403.435791 2461.371094 2490.666260 2426.930664 2446.233398 2524.786621 2644.589355 2748.357910 2714.148438 2659.097412 2619.447754 2558.224365 2495.127441 2489.063721 2563.767578 2699.660156 2754.962402 2622.763916 2478.498291 2352.610840 2167.877441 2094.692383 2203.728516 2207.863525 2172.631836 2060.789551 1972.205688 2112.062744 2234.194092 2353.210205 2425.049316 2294.627930 2144.070312 2048.687256 1952.993042 1916.769409 1876.212646 1815.155884 1873.537842 2024.837646 2023.429199 1905.473633 1751.992188 1598.677612 1455.401733 1307.728516 1139.014526 1028.924316 947.690369 932.842346 974.110107 1091.615845 1240.407471 1429.598877 1514.094360 1501.209106 1447.802612 1400.094116 1336.045288 1418.893066 1546.262085 1643.761597 1709.242432 1736.623291 1788.929321 1770.151733 1821.223145 1935.852295 2030.784790 2146.394775 2258.547119 2364.077881 2500.165039 2611.848877 2675.936035 2724.511475 2648.090088 2570.922119 2662.635254 2699.163086 2561.536621 2518.212646 2532.751221 2569.230469 2837.638428 2821.982178 2633.316406 2491.239502 2345.182129 2286.885986 2221.004395 2084.246338 1878.982788 1678.044556 1468.198853 1419.301880 1569.765625 1794.144897 2049.683350 2253.627930 2480.239990 2488.881104 2406.400879 2446.499023 2511.084717 2578.628418 2601.214844 2630.277100 2694.258545 2747.809570 2852.839111 3012.156738 2998.932129 2994.405762 2970.454102 2946.167236 2952.535156 2976.041992 3016.102051 2996.863770 2891.253174 2756.392334 2689.335938 2661.704102 2663.779297 2605.006348 2622.124268 2657.850586 2515.929688 2350.302490 2114.373535 1889.248779 1653.927612 1569.458496 1634.330078 1854.041260 2115.418701 2216.957275 2280.212402 2402.117432 2471.548096 2522.257080 2605.771973 2659.607422 2721.165283 2839.305420 2998.191895 3101.698242 2973.015625 2901.775391 2847.775391 2915.033691 2901.566406 2787.285156 2746.545898 2704.786621 2634.295410 2518.276855 2341.673096 2137.333496 2026.970337 2102.013672 2289.616211 2459.842529 2663.122070 2622.177734 2576.125977 2501.287842 2401.328613 2354.282227 2273.323486 2166.386719 2018.984009 1823.255615 1661.176636 1525.202637 1449.030884 1341.344116 1454.222656 1611.027466 1821.661987 1971.172974 1972.395142 2010.301514 2137.997803 2251.595215 2382.656494 2492.324707 2575.887939 2628.644531 2675.794189 2751.789795 2890.251709 3071.765625 3072.677246 3029.510010 2996.314209 2979.208496 2987.259033 3007.188477 3031.008545 3054.464111 3109.091309 2972.714111 2878.770264 2864.525635 2820.813232 2725.816162 2687.028809 2685.727539 2690.380859 2648.840820 2581.725342 2508.159424 2450.932617 2412.328613 2431.940674 2476.516846 2581.460205 2635.694092 2684.198486 2641.729736 2622.105225 2512.448486 2370.461914 2293.078613 2298.947021 2294.318359 2339.665039 2365.426025 2454.361816 2331.185059 2267.871582 2275.621338 2338.390137 2391.992920 2461.401367 2638.432617 2570.497070 2410.090576 2325.743652 2284.091797 2204.218750 2344.927734 2456.937012 2496.760742 2493.233887 2585.365234 2707.323242 2582.324463 2459.127197 2399.917236 2357.221191 2335.602295 2344.298584 2329.159424 2303.816895 2317.802979 2410.924072 2482.737793 2628.470703 2685.971924 2615.104492 2624.996826 2535.984375 2471.441650 2481.849854 2473.484131 2588.446533 2681.274170 2615.672852 2520.074707 2438.987061 2525.454346 2668.782715 2697.401367 2566.729980 2576.068359 2744.886475 2760.744629 2695.860840 2530.083496 2491.393555 2664.408936 2724.956299 2780.762207 2779.273193 2658.501709 2630.474854 2324.534668 2149.366699 2022.115601 1894.663086 1745.276611 1643.898926 1610.882080 1619.332031 1677.916870 1714.568848 1775.917480 1900.740967 2002.150391 2083.203125 2118.117920 2009.354858 1845.902344 1819.756470 1917.319946 2018.406616 2137.071777 2181.060791 2069.386475 1968.902222 1948.280518 1961.464722 1994.625122 2040.990723 2080.251465 1998.339600 1910.283081 1893.628906 1772.426025 1642.414062 1464.719727 1356.489868 1463.265625 1623.429077 1750.381836 1853.822754
1598.574097 1489.486572 1398.253906 1377.576050 1416.631104 1480.327393 1604.407715 1714.573486 1825.819580 1783.439209 1634.972656 1595.540894 1705.889526 1873.662231 1989.309326 2110.525635 2174.863525 2120.862061 2141.993652 2236.426025 2350.556152 2508.823486 2700.062012 2809.938477 2844.552979 2952.236328 2904.886719 2717.993408 2552.510498 2477.011475 2449.947998 2376.929688 2317.570068 2362.437012 2425.148438 2528.137207 2647.584961 2771.649170 2838.212402 2739.117432 2717.050537 2717.526123 2710.957275 2696.191162 2597.077393 2495.388672 2417.847412 2360.275879 2337.197021 2329.592285 2362.741699 2450.083740 2447.846191 2365.443115 2446.985107 2531.082275 2602.189697 2731.250244 2672.684570 2566.020752 2531.251953 2442.769287 2425.691162 2507.754639 2619.659424 2728.598877 2688.767334 2517.176270 2346.634033 2218.273193 2133.614014 2019.853760 2034.093140 2003.967651 2021.576294 2019.275024 1910.076172 2000.696655 2109.315186 2133.798828 2252.777588 2337.572510 2267.004150 2126.291016 1989.783447 1879.823975 1790.077271 1704.013550 1708.135742 1830.965576 1877.517822 1770.264771 1633.911255 1498.666992 1327.260010 1178.251953 1022.680969 958.267395 935.049805 960.973877 1098.067139 1213.212158 1381.197754 1535.718140 1603.284058 1574.807007 1495.742920 1458.111084 1428.510742 1419.186890 1419.441650 1500.813965 1568.000977 1574.916016 1637.077148 1707.618286 1901.201904 2062.744385 2160.926025 2260.005371 2356.674072 2400.125000 2469.421387 2487.381592 2556.032227 2711.494873 2775.963135 2728.755371 2774.971924 2625.707275 2563.298828 2532.569824 2549.721436 2608.857178 2845.563721 2745.950928 2573.118408 2457.124023 2363.752930 2389.715088 2284.941650 2052.094482 1850.516724 1660.703369 1474.615967 1422.061646 1593.376221 1878.964966 2139.981934 2356.637695 2533.790039 2658.138672 2660.472656 2585.447266 2557.657471 2638.136230 2678.233887 2687.262939 2760.783936 2806.725586 2853.987793 2950.911621 2963.363525 2916.408203 2898.125488 2833.730713 2796.527832 2812.599854 2899.410400 2887.949707 2751.878662 2692.781982 2706.474121 2698.198486 2654.055420 2602.248291 2569.463867 2527.233398 2418.993896 2267.743652 2109.097656 1914.880371 1701.369385 1579.285156 1617.776733 1843.033569 2011.008179 2045.656128 2179.573730 2288.791260 2361.022217 2427.282959 2513.666992 2583.472900 2684.669922 2805.271484 2978.807373 2980.476807 2877.060791 2795.629883 2755.636963 2794.143555 2840.146973 2741.787598 2662.132568 2597.404053 2506.011475 2434.499023 2302.507324 2095.155518 2053.755859 2178.154785 2344.768066 2499.885254 2707.459473 2704.374023 2619.529297 2574.815186 2486.068604 2457.767578 2378.786133 2253.659424 2044.027466 1853.787354 1670.936279 1518.614380 1444.503540 1336.809326 1411.953857 1547.563232 1698.040161 1724.492310 1800.715576 1908.502563 2017.706299 2145.907227 2273.194580 2389.301025 2513.844971 2606.826172 2666.230713 2699.306396 2797.650635 2973.660645 3126.007080 3100.488037 3122.076904 3085.897217 3035.198975 3036.118896 3073.406982 3118.224121 3072.528564 2997.214844 2921.364502 2914.013428 2894.080322 2792.326904 2735.670898 2754.725098 2736.839355 2642.455078 2577.715820 2568.557861 2532.864014 2520.229248 2606.609375 2690.830566 2723.165527 2831.129883 2686.304443 2536.789551 2475.761719 2404.369873 2351.550537 2344.737305 2339.927979 2370.397461 2458.367920 2498.078613 2575.990479 2525.022461 2422.938721 2347.122803 2350.201172 2368.142090 2471.719727 2590.192383 2577.870605 2486.804199 2391.388916 2328.580322 2251.493408 2427.879395 2587.624023 2609.352295 2634.743164 2684.172119 2696.637207 2549.182861 2456.463867 2425.119629 2415.152832 2495.891357 2536.606445 2501.729004 2460.480713 2482.128174 2529.803711 2572.023438 2709.356445 2839.706055 2744.535400 2796.806152 2720.319824 2621.363037 2618.681396 2655.974854 2747.162598 2681.515625 2610.240967 2510.735840 2381.787598 2355.597656 2454.606445 2635.402588 2759.908936 2853.647949 2758.195312 2563.884033 2633.051025 2483.367920 2359.969727 2409.828613 2598.814941 2798.747803 2704.624268 2569.483887 2472.302002 2290.926025 2082.845703 1952.673950 1803.317627 1703.598022 1645.625610 1627.923584 1667.032593 1708.177002 1735.597168 1758.867920 1816.883179 1958.583618 2064.418213 2135.813232 2006.141724 1878.421997 1839.639648 1933.959106 2037.656006 2121.129639 2088.344482 2022.992798 1917.175293 1823.842285 1837.459717 1875.880737 1899.411499 1980.811890 1926.087402 1769.739990 1695.147705 1582.527832 1471.783569 1356.248413 1378.775513 1530.998291 1688.864990 1817.551270 1951.675415
1488.986206 1419.054565 1384.387573 1410.726440 1491.152344 1600.216187 1741.784058 1909.763184 2018.396118 1943.290161 1705.816406 1611.323242 1729.141968 1856.736450 1969.389160 2104.339844 2215.872559 2223.798340 2183.319092 2217.788086 2307.789551 2452.497559 2593.127686 2637.072510 2703.446533 2843.899902 2916.174316 2735.109863 2568.555664 2523.367188 2474.263184 2410.147217 2365.001709 2414.731201 2488.376953 2584.795410 2717.165039 2772.762939 2775.900391 2686.553223 2676.772217 2648.804932 2677.000244 2668.319824 2570.424072 2483.152344 2402.578369 2326.870117 2274.469238 2247.990479 2293.516602 2365.523926 2332.757812 2262.450195 2366.422607 2541.960449 2650.329102 2699.964111 2598.764893 2558.529053 2505.325439 2401.068115 2338.677734 2454.158447 2588.687744 2689.834473 2711.403320 2571.420410 2442.270752 2329.081299 2199.199219 2049.051758 1952.889282 1910.520142 1884.721313 1870.083252 1831.969727 1838.630737 1900.059448 1963.221558 2153.745850 2286.393799 2363.161621 2236.180664 2107.901123 1998.694336 1886.237427 1732.752075 1607.472900 1664.496948 1699.876343 1613.560303 1466.776978 1342.004272 1193.641602 1049.833862 954.254395 936.164673 993.394104 1090.913696 1231.170410 1351.838379 1521.048340 1614.452393 1692.176270 1687.317261 1582.220581 1516.276733 1513.329346 1495.479980 1509.292358 1511.311157 1577.020874 1618.977539 1622.032837 1682.567383 1845.461670 1991.580444 2136.712402 2248.230469 2349.645996 2381.205322 2431.568848 2443.018555 2545.870117 2652.122314 2817.276855 2821.249268 2680.762207 2613.883789 2582.185303 2565.011230 2579.114258 2627.131836 2748.456299 2798.630371 2577.476807 2496.773682 2427.379639 2454.118652 2283.074219 2066.260742 1857.594482 1664.320801 1485.517578 1459.889893 1596.133057 1897.955444 2109.158203 2270.357178 2370.933105 2514.803467 2662.660400 2774.901123 2706.322754 2759.721680 2750.455322 2819.917969 2933.279785 2925.046143 2960.911621 3029.181396 2934.967285 2853.718994 2830.133301 2777.223389 2692.980225 2688.232910 2748.487549 2773.771973 2695.722656 2604.228760 2589.568604 2549.056396 2483.376709 2439.325684 2407.926758 2374.658691 2332.755859 2209.545166 2048.769775 1892.856323 1718.231201 1603.101196 1639.915771 1744.888794 1879.081909 2005.694702 2113.917725 2241.597168 2364.118652 2462.094482 2533.937500 2637.407959 2775.343018 2881.287354 2985.826172 2905.057861 2832.532227 2724.704102 2690.770264 2722.189941 2725.848877 2749.130615 2753.775391 2633.533203 2489.495850 2366.321289 2227.488525 2074.141113 2124.049316 2292.613525 2476.590088 2626.080566 2771.141113 2810.394287 2685.728271 2689.074707 2629.040039 2567.632812 2415.123291 2254.667725 2091.946289 1913.684692 1683.586792 1539.633301 1478.515747 1367.620361 1377.066895 1472.479248 1583.462036 1762.228394 1948.083740 2078.464111 2137.914795 2223.930908 2344.175537 2475.832520 2656.833984 2764.686523 2820.060791 2825.020264 2832.156982 2921.793213 2993.200439 3049.796143 3138.310303 3210.565430 3181.331055 3164.875977 3188.029541 3210.853516 3155.220703 3088.010010 2982.765625 2970.511230 2970.390625 2865.936279 2826.284668 2832.202881 2737.308350 2684.604004 2636.636719 2618.510010 2657.588623 2645.357422 2700.358154 2773.597656 2777.412598 2791.465576 2596.301025 2515.463135 2496.388916 2447.504883 2470.186768 2456.571045 2459.311523 2555.423584 2588.076172 2697.446289 2789.588135 2745.000732 2554.505615 2481.329102 2540.972900 2479.575439 2533.064941 2588.791260 2673.855225 2617.269531 2444.352051 2334.699707 2289.191406 2432.474854 2634.234375 2704.839600 2753.957275 2737.747803 2710.118896 2591.018555 2501.066406 2470.716553 2518.431641 2635.644043 2688.620361 2637.156738 2574.058350 2560.794678 2648.843506 2667.417480 2812.340576 2936.867432 2795.122559 2753.409424 2860.842529 2808.175537 2786.433594 2841.552246 2808.627930 2751.382812 2630.860107 2501.601562 2386.649902 2378.259033 2310.977783 2422.084717 2721.635986 2910.148193 2760.672363 2452.466064 2480.175293 2458.728516 2283.674561 2298.816895 2556.302490 2804.319580 2713.768066 2551.775879 2406.893555 2256.283691 2085.419922 1947.832031 1818.350586 1718.259521 1666.675415 1681.221802 1757.529175 1750.698853 1747.303345 1752.257446 1774.690186 1869.818604 2042.929199 2152.782471 2022.858398 1927.554565 1879.657349 1941.795654 2057.830078 2108.052002 2028.066284 1955.042725 1911.119629 1801.645874 1707.161011 1749.311157 1788.089722 1863.047607 1777.010864 1643.285278 1509.976562 1404.246216 1339.053833 1367.226196 1466.933716 1605.437500 1723.958374 1841.141602 2000.256348
1418.407471 1392.443237 1424.152710 1500.620605 1616.894409 1722.937378 1830.655640 1993.860107 2119.326904 1996.762207 1742.450073 1630.832153 1745.951782 1858.468750 1978.322632 2113.323242 2256.754395 2334.311768 2269.014648 2257.846191 2331.333740 2434.362549 2515.446777 2568.491455 2635.499512 2738.136475 2799.596436 2694.860107 2643.766113 2593.754883 2521.268799 2427.610107 2408.439453 2497.330811 2611.639404 2676.400391 2657.928711 2688.990479 2707.125244 2642.562744 2609.981445 2566.265381 2567.681396 2626.396240 2576.553223 2507.833496 2423.010010 2351.537354 2287.165283 2201.578369 2203.610352 2218.687012 2178.542236 2211.509521 2344.018799 2471.403320 2555.934082 2643.891602 2625.370850 2638.875977 2606.272949 2465.136719 2309.384521 2338.499268 2438.495117 2593.016602 2695.520996 2609.140869 2534.633301 2433.147949 2268.806396 2164.515381 2098.979248 2037.159058 1967.949951 1910.812256 1835.484863 1735.793091 1713.011230 1848.122803 1995.724854 2130.032471 2292.477051 2341.777100 2236.410400 2072.207275 1898.813721 1745.017456 1583.960205 1512.022339 1529.402222 1471.835938 1322.558228 1170.944092 1037.335571 953.316711 943.244324 1018.392761 1111.464111 1240.731934 1391.413452 1491.356689 1605.076782 1730.452026 1848.139038 1814.991943 1673.077759 1591.021484 1609.996460 1627.935913 1663.701416 1635.942139 1678.401123 1772.846558 1788.427612 1703.826782 1749.761597 1902.988892 2026.201660 2131.117188 2218.355957 2265.273682 2357.317383 2499.123779 2651.503906 2697.223877 2798.737549 2751.508301 2689.107666 2628.641357 2599.571533 2654.276611 2649.213379 2650.477783 2748.673096 2791.545166 2714.589355 2632.010986 2488.300293 2399.851807 2265.699707 2046.516113 1831.875610 1670.950317 1511.215332 1513.107910 1617.794434 1790.020264 1953.600708 2097.225342 2277.828857 2441.176025 2648.327881 2831.093750 2755.650635 2822.722412 2941.546875 3116.296387 3218.978516 3224.037598 3253.852051 3297.582520 3138.714355 2930.125244 2785.878418 2711.731689 2645.544434 2602.345947 2576.526367 2579.886475 2581.349854 2524.572266 2473.483154 2380.777100 2321.597656 2301.934326 2277.234131 2221.570068 2169.038818 2094.601318 1994.544067 1873.274536 1696.834717 1601.146484 1624.018066 1733.938599 1924.924316 2160.411133 2284.897461 2334.290527 2401.939941 2501.760498 2542.013916 2606.678711 2691.075195 2823.845215 2933.646973 2839.562256 2762.958496 2688.585205 2643.713379 2659.557129 2624.698486 2621.204834 2664.864990 2660.436523 2522.687988 2326.195312 2142.194580 2080.112793 2196.904297 2395.446045 2557.735596 2660.876953 2783.437012 2690.218994 2577.547119 2553.760742 2540.666504 2467.246338 2410.900146 2328.158203 2202.883789 1977.708130 1729.885986 1611.831787 1528.886108 1366.403931 1362.052979 1454.904907 1667.841553 1860.391113 2060.658203 2242.430908 2278.553467 2369.410889 2516.252441 2565.354492 2648.203857 2758.782471 2800.161133 2874.482422 2890.726318 2946.905273 2996.412598 3027.680908 3060.278564 3184.365967 3283.158936 3173.235596 3069.013428 3031.719482 3186.808838 3168.785156 3072.066650 3041.698242 3011.662842 2920.397949 2889.657227 2852.185791 2797.905762 2751.702148 2700.625000 2688.048828 2752.666260 2733.052734 2764.382568 2915.063232 2935.737061 2750.227539 2585.772217 2534.345215 2538.606689 2566.396484 2609.051758 2619.301025 2613.666748 2637.658447 2732.004395 2836.056885 2834.308105 2667.857910 2576.417725 2551.597900 2654.502441 2628.968994 2658.965088 2656.266602 2719.884766 2594.182617 2457.804932 2381.461670 2315.795898 2439.556885 2674.033691 2783.602051 2817.483398 2797.708496 2780.858887 2619.867920 2552.076172 2555.071289 2627.412598 2761.526855 2769.523926 2703.691162 2651.895508 2670.402832 2751.121094 2816.884521 2887.697266 2872.569092 2746.908447 2614.536133 2721.779785 2893.109863 2721.774902 2715.591064 2675.911377 2667.457520 2580.826904 2504.375244 2455.456299 2357.206055 2295.602051 2327.673828 2448.292236 2649.188721 2567.400635 2375.843506 2292.102295 2315.716064 2153.522217 2192.558594 2491.006104 2736.586670 2761.981201 2666.089355 2520.709961 2346.539795 2188.631592 2026.787354 1881.466797 1770.354004 1733.707520 1777.007080 1828.379517 1852.932007 1804.629517 1785.944702 1822.771118 1828.545532 1967.056030 2106.832031 2052.897705 2006.950928 1964.430786 1983.722412 2078.236084 2085.857666 1983.143433 1867.245239 1822.054688 1776.010864 1649.506592 1659.103638 1745.081421 1757.136841 1663.320068 1476.232178 1364.330566 1329.638306 1380.891479 1453.497681 1565.623169 1710.615112 1827.773071 1915.501465 1999.139038
1406.385986 1450.818115 1532.853027 1647.623901 1780.266602 1926.759155 2012.781006 2115.880127 2157.532959 1946.817627 1725.175049 1660.529907 1752.899048 1872.809937 1995.843628 2116.959961 2283.212402 2429.176758 2387.103516 2336.703125 2362.388184 2438.315918 2547.582275 2605.646729 2699.648682 2819.508057 2756.598633 2686.199219 2648.738281 2599.972900 2555.046631 2508.942383 2517.166748 2589.880127 2667.711670 2648.857178 2620.419922 2658.305420 2706.227051 2649.105469 2536.651367 2486.201904 2493.645020 2551.376709 2586.468994 2503.447266 2435.565918 2381.081787 2317.717041 2232.646729 2124.886475 2108.180664 2110.855469 2232.601562 2329.721191 2352.085938 2446.319092 2596.393066 2691.567383 2740.451416 2618.646240 2461.372559 2295.396973 2202.713623 2318.258545 2488.160889 2547.080078 2493.619873 2442.768311 2440.424561 2406.093262 2327.175293 2305.464844 2260.179199 2159.230957 2074.443604 2018.948853 1869.780273 1708.672485 1670.624512 1850.947510 1994.321533 2143.216797 2213.312012 2090.831543 2006.481079 1936.739014 1778.361206 1622.612671 1473.617065 1343.630981 1316.029175 1165.379761 1034.050903 947.496216 942.509888 1059.911133 1168.391357 1241.150146 1381.355835 1509.840698 1602.935425 1707.139526 1832.245361 1936.734863 1857.244263 1696.322510 1635.214355 1703.465820 1783.071655 1812.053833 1778.623657 1791.300049 1946.786865 1955.255615 1854.500732 1770.132935 1793.161133 1906.634399 1997.432007 2109.897217 2265.967773 2372.613770 2518.953369 2710.919189 2758.989258 2801.550537 2743.713135 2701.298828 2662.222900 2637.956299 2746.824707 2727.212646 2734.670410 2808.228271 2808.830078 2691.993896 2576.460693 2472.135010 2348.759033 2222.732178 2013.689331 1847.469849 1670.290527 1521.965942 1516.805786 1628.681641 1838.935425 2018.322876 2234.804932 2441.109131 2572.550049 2783.109619 2819.683594 2679.325195 2740.294922 2969.479736 3144.672852 3188.384033 3226.882324 3287.727295 3420.705566 3320.402344 3078.802490 2817.556885 2715.383301 2689.049805 2644.750977 2574.557861 2510.397949 2483.674561 2489.368896 2430.722656 2294.333008 2208.444336 2172.913330 2138.610840 2109.303955 2076.012207 2026.351196 1958.614258 1848.737671 1690.260986 1604.700195 1637.228149 1736.038574 1914.844482 2135.510010 2327.446045 2468.429199 2640.352051 2703.354980 2690.391357 2678.048828 2712.186279 2797.043457 2937.881592 2848.673828 2769.316895 2705.841309 2616.288086 2620.366455 2577.700928 2540.423340 2554.200195 2533.906494 2412.482422 2237.478516 2108.770752 2138.359375 2284.008789 2474.759521 2689.411133 2719.243408 2698.829590 2615.551025 2515.089355 2450.458496 2437.874512 2394.208252 2343.443115 2243.586914 2187.341797 2057.545410 1807.609985 1671.021729 1507.985962 1354.947021 1335.659668 1435.074219 1683.602173 1956.618652 2142.739990 2315.874512 2445.972168 2522.755615 2644.503662 2722.084961 2696.956299 2678.139648 2732.261475 2873.841064 3024.443848 3068.042236 3045.145752 3055.708984 3076.730225 3144.466797 3164.734131 3026.762695 2929.091064 2908.137207 2981.462891 3135.119385 3193.761230 3110.474609 3031.951172 2954.576172 2927.776123 2894.301270 2854.838135 2819.296387 2741.081787 2772.217285 2795.303223 2782.910156 2821.331055 2937.803711 2992.177734 2772.957031 2719.916992 2633.917480 2595.741211 2619.439209 2678.792236 2757.526123 2703.148193 2688.080322 2760.330078 2919.372559 2862.541748 2718.492676 2648.986572 2616.107666 2673.225098 2801.163818 2801.669434 2827.361816 2744.629639 2569.320557 2482.931152 2456.876465 2363.992920 2465.661377 2645.760742 2805.996338 2883.748535 2886.876465 2840.542480 2739.379639 2667.103027 2660.458252 2760.111816 2855.543213 2868.810791 2841.000977 2807.625244 2807.726807 2829.259521 2712.071045 2692.267090 2744.600830 2706.888916 2572.454590 2597.831543 2680.414795 2595.558350 2465.255371 2473.134766 2446.449463 2422.348145 2310.194824 2312.404541 2201.187012 2142.854248 2197.457764 2208.970703 2236.517090 2289.745361 2290.899170 2186.809570 2070.516846 1997.099976 2151.960205 2439.499023 2585.472412 2599.841064 2570.174805 2543.189941 2464.799805 2298.580078 2109.257324 1949.555054 1854.246948 1857.672241 1854.924316 1887.489136 1976.655396 1901.411743 1883.096924 1880.094482 1859.754150 1915.432129 2060.935059 2098.245850 2087.906006 2066.560791 2078.615967 2158.273193 2122.884277 2001.293701 1874.422974 1750.368530 1673.676270 1608.398804 1588.670898 1632.063232 1626.811035 1521.597046 1349.354126 1325.384766 1388.387085 1484.908325 1564.164307 1648.549683 1760.480591 1879.487915 1988.194946 2082.036377
1477.625610 1565.884277 1671.142578 1789.737793 1917.623901 2064.097656 2196.687012 2250.114502 2149.331299 1900.564819 1706.536255 1676.301880 1799.098633 1920.338013 2035.264038 2187.049316 2334.740479 2474.906250 2538.837158 2441.812988 2389.195312 2440.350342 2507.901123 2621.979248 2757.972412 2870.669434 2829.918457 2796.596680 2774.020508 2699.731445 2645.441895 2591.214600 2616.592529 2675.300537 2635.976807 2593.134766 2574.237793 2593.379883 2641.194580 2650.700439 2549.586670 2425.458496 2410.525391 2449.872559 2525.309082 2488.767578 2470.129639 2424.251465 2292.739990 2195.352295 2111.767090 2036.551025 2054.856201 2138.931885 2181.031494 2262.749512 2401.516846 2542.996338 2656.377441 2716.498047 2571.582520 2436.885986 2254.293457 2141.739014 2250.986816 2411.523193 2373.826416 2368.876221 2333.922119 2298.857666 2296.482178 2354.888184 2262.469727 2259.751465 2245.673340 2097.852783 2027.300049 1937.395630 1716.589966 1571.788330 1715.937256 1878.572510 2038.073730 2040.126831 1861.007690 1778.151489 1760.598633 1647.716431 1491.968262 1391.508057 1264.832153 1134.737061 1030.606934 949.263794 940.652649 981.891296 1123.387207 1225.214111 1321.480957 1461.072876 1586.893555 1743.076782 1862.728516 1930.182739 1988.818726 1906.486328 1736.989258 1655.118530 1772.192993 1941.858887 1991.660156 1914.339478 1904.782715 2036.347534 2084.539307 2003.807495 1916.462769 1832.908447 1848.886597 1934.764160 2088.875732 2230.437012 2377.656982 2510.599121 2703.012939 2827.780273 2790.931885 2757.103271 2720.858154 2696.592041 2693.863770 2803.391113 2795.598145 2818.703613 2901.773682 2821.534668 2730.547852 2645.075684 2516.601807 2352.052002 2207.843018 2053.714600 1912.308228 1739.154297 1558.379639 1503.925781 1642.208618 1881.413330 2090.948486 2313.796143 2485.892578 2639.750244 2743.228760 2689.790283 2622.802002 2752.730469 2920.958008 2976.992432 2973.574951 3081.657715 3278.837402 3404.887939 3259.560059 3048.172852 2926.473633 2819.174316 2793.859131 2741.074951 2697.438965 2679.756592 2582.802979 2530.301025 2446.500000 2341.646484 2256.861328 2192.621582 2159.206055 2173.552246 2169.936523 2173.573975 2102.072510 1880.555054 1703.675659 1613.229492 1641.056396 1744.542969 1954.906128 2213.710205 2455.678711 2629.826172 2801.408447 2955.638428 2975.931152 2884.525879 2924.791748 3032.955322 3068.567627 2966.574463 2909.069336 2809.245605 2698.837402 2601.494141 2548.343750 2491.295654 2464.908203 2431.144287 2296.103760 2145.787109 2115.273438 2210.322754 2407.998047 2532.711426 2700.243652 2659.246826 2587.339355 2504.793457 2421.771973 2344.291992 2267.621826 2254.463135 2199.229980 2140.366943 2072.672607 1988.599731 1862.518311 1720.346069 1555.864746 1381.631714 1336.718994 1439.065430 1668.814087 1906.591797 2199.020264 2384.188721 2522.029541 2667.326904 2761.905518 2867.164795 2806.353760 2738.269043 2746.863525 2874.360107 2981.008057 3108.098389 3100.855225 3088.309814 3123.661133 3221.288818 3163.751709 3018.536133 2874.269043 2839.053711 2918.258545 3065.681641 3186.859375 3173.554688 3084.385742 3001.734375 2989.074707 3010.568359 2978.307373 2937.600830 2813.058594 2834.624023 2814.953857 2818.663086 2841.237793 2883.130859 2965.667725 2910.200684 2856.221680 2814.598877 2698.625000 2671.096680 2689.108643 2782.873535 2765.940186 2812.787354 2928.263916 3028.114014 2915.123779 2847.813721 2794.904053 2724.548096 2745.803467 2909.412842 2919.322510 2858.363770 2735.304932 2550.485840 2492.162842 2524.563232 2439.208008 2531.436768 2612.591064 2796.176514 2874.789307 2970.015381 2932.863281 2913.577393 2789.655518 2772.020752 2896.886475 2921.823975 2819.498779 2729.275146 2710.183350 2686.094482 2626.793213 2579.733154 2569.177246 2542.331299 2614.923096 2520.174316 2415.944336 2500.847168 2589.200439 2386.111572 2251.626953 2249.322266 2307.196045 2145.690430 2170.726318 2120.560547 2011.743408 2072.488037 2158.309570 1997.609619 2010.523071 2095.132568 2052.818604 1871.004150 1886.114502 2138.296387 2405.971680 2523.559570 2441.921387 2414.312256 2445.558105 2505.496826 2345.501709 2167.316650 1997.302246 1895.511719 1891.969482 1904.467163 1904.479980 1998.633301 2019.921387 2004.198120 1961.299194 1927.488281 1923.323975 2047.957153 2149.611816 2169.063477 2199.310303 2186.180664 2148.710205 2089.143311 2017.253906 1893.913940 1794.126221 1674.295776 1572.239990 1517.976196 1497.864136 1487.849731 1383.034790 1322.833374 1378.063599 1467.135986 1563.036865 1653.436401 1752.645874 1825.301880 1884.711792 1977.523926 2074.329834
1590.841553 1703.074951 1820.952759 1947.069580 2107.666260 2258.028076 2359.803467 2263.787109 2079.870605 1851.509277 1695.334961 1705.234009 1842.823242 1965.698364 2081.465088 2258.859619 2402.988037 2527.069824 2604.545654 2527.205322 2457.386230 2484.956299 2547.249512 2667.230957 2821.968506 2936.592285 2933.137451 2782.209229 2763.595459 2759.472656 2713.548096 2655.311035 2671.467285 2643.558594 2569.793213 2543.821777 2516.657471 2495.439697 2582.007324 2668.359375 2539.722412 2427.744385 2365.567871 2370.018555 2440.031250 2421.600342 2422.426025 2430.491699 2336.262207 2189.869629 2083.994629 2008.441895 1981.812500 2051.094971 2140.007812 2262.551270 2410.911621 2472.553467 2550.963379 2665.161377 2538.524414 2383.005615 2220.641357 2106.828125 2215.499268 2350.517822 2231.481201 2219.298340 2261.860352 2176.519287 2119.910156 2163.964844 2059.110840 2025.099121 2010.155640 1896.701416 1829.483032 1796.374634 1643.961914 1510.321655 1657.502197 1840.692871 1980.372559 1894.369751 1716.415527 1610.061279 1562.719360 1442.423218 1288.527588 1180.180054 1086.300415 991.043396 957.312744 941.014038 973.567566 1102.084106 1203.605713 1298.359375 1423.000366 1562.678589 1730.145508 1871.068848 1961.696655 2017.103394 1989.706909 1892.661133 1772.251953 1686.739624 1814.240845 2030.326660 2118.023926 2059.803223 2054.201416 2126.764648 2208.819092 2139.044678 2078.682373 2069.537354 1983.043579 1968.072266 2028.520874 2174.934326 2324.498047 2510.189209 2679.193604 2860.565674 2829.053223 2800.093506 2765.902588 2740.053223 2756.802979 2784.340088 2877.257568 2836.041992 2762.038574 2689.107178 2634.755371 2577.345947 2517.077393 2424.229980 2278.227051 2113.414307 1931.173462 1712.284058 1545.353027 1515.716553 1646.163696 1869.370361 2069.090820 2268.787109 2401.491943 2488.998535 2575.363525 2559.272461 2567.834717 2676.853027 2751.738037 2800.688721 2813.368408 3030.749756 3246.739990 3342.717041 3298.092529 3115.651855 2989.918213 2858.250977 2825.480957 2809.481201 2880.871826 2778.826172 2658.584717 2616.751221 2571.396484 2477.185791 2370.689209 2326.590088 2340.850830 2340.663818 2366.029297 2366.129883 2184.552734 1922.355469 1737.823730 1623.198242 1646.532593 1748.087158 1937.749023 2148.756348 2429.043701 2627.859131 2803.645020 3064.038086 3188.888672 3155.061768 3177.267822 3170.605469 3073.341553 2908.894775 2868.597656 2883.374023 2792.044922 2685.486328 2576.733154 2451.982666 2376.629883 2284.731201 2168.132080 2113.669678 2197.367188 2354.524902 2526.915527 2672.547363 2693.031982 2611.216553 2507.522705 2422.777100 2329.421631 2232.872070 2139.647217 2088.330811 2033.585815 1999.417969 1941.988281 1883.651611 1763.622070 1601.308594 1456.595459 1348.858765 1348.883179 1413.746094 1653.214355 1885.424561 2109.125488 2362.966309 2539.332031 2725.728271 2885.931152 2782.532959 2714.157959 2734.778076 2816.733398 2885.768799 3003.760742 3126.454590 3106.851074 3065.500244 3203.495117 3254.342529 3053.406494 2870.434082 2759.702637 2750.614746 2872.281250 2953.914307 3026.270752 3123.829102 3120.222412 3056.284912 3105.092529 3218.269531 3145.917480 3035.814209 2867.027832 2857.744629 2859.493408 2855.287354 2882.770264 2940.503418 3028.218018 2978.974365 2954.073242 2943.407227 2880.534424 2745.283691 2740.218994 2785.033691 2863.236328 2926.190918 3112.474609 3132.579102 2961.819824 2933.169434 2931.644775 2880.877686 2891.126465 2997.368164 2905.818848 2764.451660 2676.514160 2554.378662 2499.567139 2538.201416 2461.972412 2550.964844 2628.154297 2726.068359 2835.260742 2963.690186 3031.423340 3066.027100 2955.435059 2949.653809 3057.525879 2962.189453 2798.195557 2691.535400 2650.323975 2597.360107 2514.879883 2462.336182 2452.413574 2412.909912 2431.207764 2414.937256 2358.688721 2381.899902 2427.052002 2324.863281 2123.191650 2034.213501 2096.414062 2008.708252 1973.011475 1995.016602 1882.585815 1916.858032 2030.692871 1890.611572 1857.066895 1883.796753 1762.915894 1703.994385 1823.813354 2145.282715 2313.768311 2503.850098 2425.515381 2349.485107 2306.052246 2367.346436 2348.656982 2169.264893 2004.430542 1918.264404 1910.437012 1948.392700 1959.205444 2003.185913 2078.991211 2031.175049 2002.061401 1986.123657 2003.119141 2082.408936 2190.630371 2276.809570 2229.369629 2155.786133 2060.756836 1988.588745 1983.352295 1919.434692 1839.672729 1756.415405 1636.528931 1585.200073 1483.128296 1362.929199 1316.275024 1386.800537 1486.046021 1562.054077 1614.245972 1644.895508 1746.177979 1858.126831 1923.605713 1995.017212 2056.903076
1745.556763 1870.273193 1970.517578 2136.737793 2287.247314 2415.368164 2382.959961 2232.052979 2047.542480 1809.982300 1685.994873 1730.140381 1878.679077 2017.524902 2145.916748 2310.072510 2435.551025 2512.432129 2588.075195 2576.895752 2539.098877 2561.895752 2607.457275 2724.980469 2835.628174 2869.527100 2737.760498 2638.514404 2614.895508 2568.897217 2556.412598 2529.950928 2575.547119 2600.459473 2542.463867 2498.781738 2445.280762 2440.586426 2491.688965 2586.639160 2523.390137 2447.692627 2424.790039 2312.580078 2293.441162 2292.233398 2255.937500 2283.831299 2277.409912 2209.473633 2094.651367 1980.911499 1947.080322 2096.526367 2216.967529 2257.917236 2326.438721 2346.854980 2486.803223 2635.312256 2569.551514 2416.041504 2245.997070 2094.538330 2194.717529 2253.074951 2158.801025 2077.379883 2068.968262 2001.951050 1930.865967 1902.107910 1833.045898 1796.161987 1754.139282 1700.921631 1658.735107 1623.928589 1528.528076 1459.386597 1640.684814 1802.858643 1873.209595 1798.453613 1619.666382 1442.114624 1335.132446 1238.922363 1145.306519 1053.585449 985.112244 949.039001 943.017883 949.987610 1097.308350 1231.112915 1329.201172 1412.886963 1542.411499 1748.269287 1882.572266 1963.543213 2027.623535 2057.698975 1998.010132 1884.523071 1787.067017 1704.109375 1809.109375 2015.375732 2155.927734 2190.559814 2202.226074 2256.877686 2338.327637 2296.752686 2252.572266 2246.974854 2149.290039 2102.989990 2134.114990 2277.086182 2422.368896 2582.897705 2756.793945 2878.152100 2842.603271 2818.564453 2794.934814 2800.065430 2844.856689 2823.224121 2900.614746 2799.299316 2719.558594 2644.165283 2600.675781 2542.751221 2443.208252 2362.907715 2285.641602 2097.784424 1902.741699 1695.870239 1534.958374 1523.623657 1640.276489 1862.490356 2045.471313 2155.171143 2233.836914 2320.294434 2397.323242 2447.429443 2478.027832 2525.255127 2585.895020 2676.105713 2735.214355 2896.516846 3032.836914 3124.980957 3196.023193 3084.761475 3010.663818 2911.637207 2883.173584 2931.681396 3047.013672 2882.242676 2857.977783 2848.196289 2790.196533 2713.790283 2570.713379 2479.301025 2469.624512 2494.280273 2568.114258 2448.419678 2233.405762 1983.443359 1787.337646 1659.827393 1627.113647 1732.585815 2007.978638 2270.288330 2382.513184 2564.953369 2818.092041 3017.015625 3041.413574 3196.741943 3205.988770 3039.602783 3003.323242 2925.670410 2808.063477 2730.119141 2699.381348 2659.845703 2583.495850 2435.549316 2324.787109 2199.327148 2139.495605 2211.002930 2400.292480 2532.725342 2673.180664 2647.316406 2565.811523 2514.590576 2453.118408 2394.866699 2305.821777 2212.065430 2128.149414 2036.962280 1937.861572 1850.564453 1793.091309 1739.664551 1647.744995 1501.720337 1375.686401 1340.535522 1378.817383 1472.271362 1684.323120 1877.724854 2113.490967 2390.737061 2627.112793 2815.131348 2781.345947 2650.839355 2608.291504 2678.024902 2834.566406 2907.208740 2971.314453 3100.811523 2953.897461 2930.078857 3161.639160 3172.041992 2983.784912 2770.350830 2685.266113 2694.996582 2774.985352 2831.855957 2939.390869 3034.684082 3091.772949 3138.615479 3154.778076 3202.449707 3114.167236 3064.257080 2905.636230 2905.473145 2909.585938 2917.716064 2958.944580 3092.727051 3159.785645 3067.024902 3046.457520 3052.596191 3051.458008 2890.427979 2793.292480 2802.533203 2888.275391 3022.766357 3172.137695 3066.617676 3007.738770 3010.815918 3041.579346 3042.923340 3029.670654 3032.805420 2882.130615 2750.136230 2659.105225 2606.492920 2541.248535 2579.610352 2521.482666 2533.105957 2605.279541 2671.545898 2805.428711 3024.516113 3072.526611 3107.208008 3073.080322 3059.340088 3083.387939 2922.740723 2826.726807 2757.304688 2674.940186 2616.095459 2564.235596 2484.609619 2420.433105 2345.871826 2313.165527 2311.285400 2263.834717 2232.635254 2246.897461 2138.822266 2031.258179 1899.751831 1830.494629 1812.122681 1805.369995 1803.197388 1734.237549 1765.232056 1867.562866 1759.855225 1715.172974 1731.517456 1602.545044 1657.394897 1832.240967 2090.221436 2170.188965 2329.534668 2270.096191 2200.291504 2171.613525 2290.793457 2307.615234 2170.020996 2033.963745 1993.164429 1994.103638 2001.755859 2032.068359 2086.640137 2127.414062 2089.159912 2061.709229 2079.726562 2092.441895 2145.811523 2207.712891 2198.868164 2171.252930 2067.527588 1971.116943 1893.136108 1880.411011 1894.226929 1848.015259 1765.701904 1647.570312 1571.393433 1393.433838 1313.286987 1389.812744 1489.852417 1575.554321 1644.579346 1668.402100 1700.349976 1761.336426 1857.897095 1948.405151 2023.641846 2103.600098
1923.295776 1998.537354 2091.360107 2199.510254 2329.124512 2384.168213 2264.457764 2140.335449 1959.944092 1760.105835 1692.767090 1768.356079 1933.415039 2088.434814 2215.787598 2352.462646 2457.858154 2465.531982 2472.812744 2478.703613 2496.260010 2540.833984 2596.262695 2644.192139 2711.755127 2729.781250 2625.791260 2573.809082 2545.362061 2529.822021 2509.777832 2471.149902 2500.883057 2530.070068 2523.776855 2458.968994 2406.861572 2380.301025 2404.961182 2497.814697 2533.103516 2538.821289 2470.470459 2300.555908 2167.745850 2122.364502 2105.674072 2128.892090 2135.426514 2150.006104 2055.187012 1958.531616 1896.488159 2025.568604 2170.095215 2150.708984 2182.611084 2279.475098 2424.106689 2578.326660 2532.512451 2380.612549 2229.878418 2067.079346 2091.306152 2027.397583 1959.654785 1908.258545 1877.993408 1845.092896 1819.084229 1795.995239 1767.178955 1719.685791 1652.758423 1569.087646 1504.922363 1447.420410 1404.610596 1455.137451 1630.276245 1774.695190 1777.684814 1684.378540 1494.421143 1335.807617 1224.641968 1131.192017 1061.062378 1004.717529 956.375549 943.436951 942.585632 1030.640259 1237.297729 1354.736450 1448.816406 1527.504883 1647.604248 1842.758423 1979.183594 2068.979248 2091.498535 2068.141113 1986.073486 1891.616821 1776.541870 1698.285034 1758.008301 1889.117676 1977.679199 2069.211182 2136.676758 2241.248047 2304.718018 2375.660156 2433.768555 2399.615479 2294.109863 2180.583984 2161.532959 2264.931396 2434.265625 2615.502930 2730.280273 2876.051270 2949.955566 2920.632812 2897.391357 2910.101807 2905.049561 2904.644043 2867.468750 2807.362061 2741.679932 2641.636230 2581.813965 2489.459961 2356.779785 2231.113281 2169.333496 2082.514893 1924.664185 1680.918091 1522.576904 1531.185913 1683.070679 1868.770752 1964.919556 2051.383545 2116.242676 2196.059082 2251.804932 2310.313477 2356.537598 2416.505615 2507.329590 2607.346924 2702.293213 2819.967773 2880.505615 2989.124756 3201.562744 3193.976074 3062.942627 3004.650391 3042.781738 3059.682861 3021.175537 2961.462646 2893.368896 2900.354492 2947.500732 2934.485596 2717.469971 2618.033447 2619.956055 2638.352295 2551.368408 2349.014893 2168.500977 1999.202148 1819.165649 1674.990723 1630.856689 1720.611084 2020.643188 2247.773193 2413.216064 2593.566650 2784.437012 2795.817383 2851.905762 3007.254883 3101.658203 3001.781006 2898.593506 2929.384277 2865.935303 2739.347900 2665.593018 2595.430176 2519.408936 2480.244385 2364.246582 2253.527832 2225.540527 2360.724121 2531.566650 2632.151611 2693.373047 2596.348633 2524.241699 2471.534668 2421.551025 2352.410645 2285.529785 2212.738281 2119.137207 2052.429932 1988.461914 1859.245850 1734.138916 1633.171997 1553.128906 1466.848267 1378.973999 1344.823975 1377.490601 1536.854980 1716.737793 1951.622314 2164.768066 2370.939941 2585.533936 2753.271973 2698.385742 2580.383057 2537.387939 2576.302490 2735.951172 2933.772705 3005.936035 3004.947266 2862.688721 2851.717529 2987.557373 3024.456787 2895.084229 2719.347900 2616.102051 2630.517090 2811.332275 2915.097412 2983.974365 3025.476807 3106.057129 3118.652588 3087.161133 3064.533447 3021.651123 3043.365967 2961.216064 2953.496338 2956.491455 3017.936523 3096.574707 3237.429688 3168.473633 3142.340820 3116.418213 3114.200439 3141.903076 3035.640381 2863.975098 2846.350586 2886.986572 3017.276367 3173.261230 3071.654541 3044.896973 3090.719238 3200.925781 3181.922119 3168.406006 3073.075684 2962.862061 2865.545410 2724.960205 2649.486084 2651.482666 2699.120605 2609.692383 2596.566895 2636.975098 2716.739990 2942.150879 3090.594482 3175.395508 3044.309814 2929.051270 2902.371582 2959.989990 2927.981201 2799.400879 2639.725098 2568.441162 2478.781250 2421.447754 2401.263184 2328.750488 2243.518311 2185.308838 2176.826904 2151.272217 2080.372070 2037.888550 1986.538818 1847.901245 1737.047241 1654.202148 1654.543945 1676.051636 1650.605103 1550.694702 1511.900391 1557.625000 1557.424927 1551.560669 1549.487427 1529.979492 1655.400024 1840.420776 1895.021240 2034.646606 2141.830078 2033.431274 1956.224976 2046.288452 2184.419678 2227.027100 2130.923828 2079.226074 2094.484863 2116.341309 2066.861328 2074.727295 2162.383057 2233.529541 2182.557617 2153.237305 2198.726074 2173.858398 2170.364014 2180.961182 2094.238281 2062.323730 2047.253784 1955.460449 1846.009521 1779.841309 1793.262207 1756.926880 1686.301636 1644.015991 1484.296143 1311.727417 1371.552002 1473.697754 1563.113159 1646.426025 1723.119385 1739.174316 1757.248291 1791.872437 1839.602417 1911.493286 1988.393188 2067.570312
1964.148315 2103.577148 2216.020752 2300.340576 2358.337158 2305.402588 2163.466553 2011.958374 1872.103516 1741.847778 1712.359741 1837.557129 2009.417114 2135.984863 2217.627686 2278.403564 2338.489746 2360.327393 2391.194580 2430.348389 2493.002930 2549.366699 2636.215332 2682.865723 2773.705078 2731.430664 2625.766357 2586.760742 2556.030762 2497.724609 2461.672119 2436.851807 2431.231445 2453.899414 2496.794678 2460.926514 2374.140869 2335.636963 2355.673828 2464.931885 2576.897217 2625.413330 2485.149658 2318.671387 2123.559326 2021.735840 2011.787109 2011.106445 2022.513062 2070.844482 2010.815552 1909.553467 1861.806274 1989.848022 2006.954956 2031.348633 2132.454102 2286.207520 2422.823242 2581.664795 2549.028076 2384.287109 2228.152344 2116.217041 2022.577759 1966.198853 1956.070801 1982.431030 1971.387451 1958.128052 1968.779907 1949.093750 1929.192261 1888.532227 1822.381592 1693.234131 1582.988525 1491.613892 1363.260010 1437.088867 1581.125732 1659.224487 1678.828735 1614.696411 1415.415405 1236.728271 1135.554688 1082.389404 1024.432007 981.935364 947.575928 947.119629 984.543457 1182.013184 1345.432251 1453.893188 1565.038696 1671.489624 1787.071167 1940.906982 2054.528320 2079.962891 2043.375977 1978.972290 1897.989380 1824.369751 1746.368164 1716.299194 1751.927856 1786.992065 1839.554932 1902.947144 1969.551758 2053.398926 2157.817139 2268.692383 2440.370117 2532.923828 2398.618408 2267.705078 2192.963623 2201.494629 2338.869629 2524.700195 2684.378662 2851.062500 2944.439453 3017.764160 3031.338867 3019.050537 2959.392090 2848.916016 2709.780762 2633.494629 2584.696777 2525.911377 2473.375732 2386.434082 2243.856201 2125.717773 2036.464233 1965.019165 1864.433716 1657.609863 1514.970459 1568.660034 1793.094604 1983.862305 2088.221924 2151.100830 2214.654297 2267.612061 2276.808105 2323.812744 2366.081299 2419.767334 2490.569824 2605.130859 2707.587646 2756.913086 2814.320557 2955.982422 3133.468262 3161.132324 3131.069824 3103.777832 3032.589600 2934.421631 2877.247803 2842.801758 2803.722656 2748.281982 2733.968994 2773.790283 2813.469971 2794.913818 2776.376221 2676.869873 2511.199951 2435.922607 2252.429688 2050.914551 1847.343506 1681.465454 1650.969971 1732.510498 1929.026123 2139.961426 2348.437012 2555.646973 2610.001953 2588.245117 2721.685059 2918.272217 3031.433838 2922.864990 2847.902344 2799.471924 2782.228516 2731.186279 2690.744629 2579.058594 2470.244141 2426.068115 2349.360596 2296.024902 2310.225586 2444.465576 2627.193115 2774.976074 2738.913574 2603.218018 2520.241455 2474.737305 2413.154541 2342.032715 2277.966797 2192.839355 2095.833496 2013.131958 1968.950195 1887.054443 1775.493774 1665.914551 1552.375244 1485.805054 1381.192383 1342.747559 1403.483276 1622.884277 1822.485474 2018.262085 2218.761719 2371.009521 2493.315430 2603.341553 2609.534912 2520.359863 2459.289062 2511.471436 2700.294678 2785.347412 2890.442627 2868.556885 2728.488770 2705.206055 2802.401367 2906.489258 2814.234863 2667.374512 2567.637207 2563.762207 2686.633545 2821.122070 2875.189453 2947.310791 3057.032227 3097.957275 3065.706787 3010.325928 2946.708008 2988.310547 3018.593750 3027.260010 3030.405273 3149.433105 3255.089600 3227.940430 3185.485107 3181.211670 3188.456543 3185.337891 3186.873779 3166.867432 3009.476318 2916.901855 2923.157227 3036.135986 3123.781738 3124.885254 3144.658447 3261.867920 3322.842529 3291.593994 3236.354980 3140.404053 3037.277832 2902.997314 2793.927490 2725.064209 2781.225098 2833.341797 2772.645264 2745.473633 2749.296387 2869.063232 3073.112305 3187.945312 3088.120361 2925.857422 2870.098633 2865.310059 2838.060303 2808.595703 2751.385010 2623.262695 2537.740234 2444.736328 2354.629639 2265.794922 2177.327393 2120.909668 2040.595093 2010.578125 1971.601685 1903.824585 1855.904907 1763.495361 1672.644897 1576.218750 1555.816772 1538.474731 1484.103394 1441.570801 1394.950439 1385.169800 1380.609863 1383.255493 1391.815063 1353.022949 1402.210815 1508.828735 1636.525513 1690.204590 1831.870850 1929.055054 1896.903931 1794.690063 1862.071411 1987.619019 2114.728760 2012.373169 1952.378540 1994.692749 2099.059814 2171.677490 2167.699707 2232.327881 2298.638184 2253.257812 2209.524414 2271.996094 2186.437988 2108.804443 2056.736084 1990.393433 1942.014526 1993.980957 1949.892334 1871.964844 1739.023804 1666.327271 1645.424072 1654.138184 1597.466675 1377.278198 1330.256226 1436.022217 1530.404663 1629.920898 1714.818848 1789.477539 1823.861694 1809.068726 1839.940063 1872.384399 1905.394775 1964.042847 2029.897583
2030.662476 2128.704102 2276.930664 2408.220459 2337.152344 2180.744873 2045.880127 1909.821411 1789.442383 1724.738159 1755.340332 1906.892212 2052.436035 2128.692139 2190.763672 2266.963623 2310.706787 2332.434570 2366.705811 2447.425293 2520.720947 2595.392334 2694.660156 2782.902100 2846.650146 2791.703125 2706.994141 2684.084961 2582.061768 2451.115479 2429.765137 2387.764648 2377.396240 2375.467529 2389.892578 2385.857910 2362.520752 2324.877197 2294.758301 2360.125977 2481.500244 2590.507812 2491.371582 2322.251221 2171.951660 2060.307373 1964.833252 1919.365723 1932.532715 1973.435913 1940.150757 1848.979004 1828.640381 1885.777710 1950.229370 2075.572998 2208.416504 2305.214600 2439.988037 2596.993896 2530.359131 2370.829834 2295.855957 2213.355713 2129.444824 2102.594238 2113.337646 2112.205322 2113.242676 2114.231689 2111.963867 2094.498047 2059.776855 2027.079102 1992.942749 1856.272095 1668.097412 1513.573853 1352.169556 1344.554565 1455.078857 1539.927979 1574.501465 1520.506226 1353.327515 1179.215820 1064.564819 1031.830566 988.012024 954.077332 954.887146 991.200134 1120.762329 1279.621826 1438.525024 1575.367432 1708.927612 1795.431152 1916.853027 2050.386475 2063.766846 2010.845581 1948.773438 1886.806519 1810.574951 1745.138306 1740.349487 1806.397095 1899.081665 1924.356201 1955.047852 1964.097412 2030.300049 2059.496094 2067.580322 2182.062988 2373.851074 2600.540771 2560.123291 2395.008057 2262.467773 2195.724854 2268.866943 2439.075439 2617.722168 2775.298096 2792.587158 2878.163574 2960.552734 3071.626709 2952.669434 2795.422607 2692.559326 2602.298584 2560.129883 2486.909180 2359.847412 2221.143799 2107.792480 2043.771118 2047.618164 2023.984741 1885.409180 1642.846680 1527.616455 1619.351318 1889.700317 2099.006348 2252.977295 2337.417236 2384.333252 2409.604004 2420.489746 2481.442139 2530.961914 2531.394775 2638.308350 2678.091553 2734.352783 2756.902832 2822.106445 2898.758301 3062.316162 3173.997070 3118.840576 3076.549561 3043.060547 2970.876221 2873.073242 2819.211914 2765.480957 2707.569580 2647.910889 2611.948730 2693.287109 2733.222656 2741.640869 2697.212891 2625.198730 2524.472656 2348.236328 2148.348145 1915.242188 1721.510376 1667.857910 1720.386108 1907.436279 2092.367676 2229.584961 2328.854004 2395.715332 2528.842773 2751.210449 2972.129883 3057.363037 2912.643555 2842.491943 2774.192383 2709.706055 2647.367920 2598.696289 2537.999023 2441.828125 2384.493164 2330.796387 2320.286621 2398.581787 2536.673584 2725.672607 2852.057861 2732.456299 2598.334717 2540.718750 2477.620850 2431.984375 2375.111816 2284.108154 2170.339844 2076.881592 1979.670044 1894.908936 1851.786987 1752.927124 1648.001099 1550.642700 1463.309937 1378.893066 1348.219727 1458.525146 1666.600464 1853.619995 1996.843018 2153.077637 2303.969971 2398.878662 2458.667236 2483.923096 2450.455566 2398.449219 2447.583496 2600.361572 2635.292969 2707.466064 2746.986328 2666.394531 2651.585449 2709.430420 2819.463135 2754.247314 2603.352783 2522.374756 2549.664795 2675.804688 2754.864990 2820.770508 2918.734619 3031.548584 3130.168213 3049.445801 3006.026611 2936.778809 2880.245850 2907.849609 2979.337158 3099.666016 3218.599609 3180.930908 3196.898682 3246.045898 3256.541748 3257.165039 3252.298584 3231.532959 3261.345459 3157.948975 2968.690674 2964.345459 3023.541504 3074.253662 3111.781494 3205.721924 3286.916748 3342.231689 3278.561523 3196.537598 3162.190186 3101.872070 2893.839844 2831.655762 2834.359131 2912.735107 2863.984375 2773.030762 2776.635986 2813.554932 2886.726807 2962.535156 3075.927734 3037.192139 2959.124756 2895.788330 2883.227295 2822.778564 2753.316406 2701.309570 2606.759033 2458.242432 2331.475342 2252.585938 2144.730469 2030.077393 1973.185181 1892.017090 1849.722534 1799.033447 1738.187866 1687.251709 1631.812378 1589.131714 1572.883789 1533.054443 1479.576416 1421.589844 1381.723755 1329.170044 1299.714844 1270.082153 1256.316162 1252.759521 1255.210083 1248.645996 1288.195312 1368.207520 1500.158447 1600.143188 1694.562866 1739.018677 1689.382568 1667.835571 1782.424683 1889.852417 1823.064087 1816.179443 1929.857300 2017.955444 2094.391357 2194.035156 2257.163086 2225.666748 2159.185791 2161.565430 2207.333496 2187.858643 2053.606934 1938.979248 1855.277832 1800.121948 1887.815063 1876.102905 1863.737183 1765.306396 1644.167480 1578.111572 1610.901001 1492.597778 1318.410889 1397.342529 1510.085205 1609.277344 1701.218140 1782.177856 1831.417114 1869.421143 1891.128540 1915.629517 1939.550049 1951.599365 1983.256470 2038.708984
2162.509277 2221.892822 2343.117676 2458.532715 2341.660156 2166.299316 1972.265015 1816.554810 1755.667114 1750.894287 1783.125854 1896.916382 2035.716064 2123.844482 2181.147217 2253.100830 2292.577148 2327.514648 2382.959961 2454.312988 2516.604980 2593.731445 2680.983398 2736.446289 2726.577637 2692.766357 2676.719482 2632.496338 2543.479004 2464.329346 2413.386475 2357.666016 2322.825684 2297.979492 2292.363770 2291.018066 2288.129150 2299.913574 2280.563721 2257.003418 2362.679443 2444.100342 2472.270264 2384.296631 2245.147705 2123.386230 2034.956421 1930.123779 1853.639771 1850.069214 1819.741699 1783.007812 1843.066895 1914.480713 1994.776489 2098.375000 2247.901855 2381.371826 2487.077393 2613.130371 2516.987305 2420.298096 2377.083008 2284.491455 2238.435791 2212.083252 2230.947510 2250.698486 2247.341553 2253.010986 2249.469727 2222.176025 2193.927490 2150.469238 2080.989502 1884.782715 1710.390625 1538.047607 1377.050171 1267.364014 1332.008789 1403.156494 1449.321655 1413.534790 1272.821533 1103.594727 998.143005 980.908020 955.044983 995.525024 1056.481689 1104.388672 1221.694336 1386.955933 1554.587158 1723.236816 1835.873047 1922.304688 2088.432617 2102.264893 2024.666260 1957.140259 1886.665527 1817.094727 1736.447266 1719.200562 1780.580322 1910.204102 2086.949463 2106.922119 2131.660889 2141.980225 2206.979980 2238.636475 2135.438232 2149.963867 2323.093506 2515.495117 2633.371338 2568.163818 2400.805664 2257.608398 2249.692627 2395.761475 2580.717529 2689.436279 2681.570068 2765.609375 2823.957275 2953.906006 2902.706543 2798.543213 2687.785400 2648.348877 2582.915771 2434.261963 2258.633301 2115.562256 2103.154785 2177.437500 2215.615234 2083.730225 1880.536255 1660.742920 1547.230835 1655.218506 1876.471802 2074.759277 2279.312012 2482.265625 2573.374756 2611.437256 2649.316162 2681.628418 2758.933350 2724.231445 2876.809082 2924.862061 2871.730225 2867.760254 2992.258789 3025.052246 3087.345947 3211.332275 3170.902100 3145.989502 3123.976318 3021.926025 2934.240967 2903.007324 2871.538086 2709.039062 2574.216064 2501.553955 2524.325684 2547.864502 2553.627686 2548.498779 2482.236572 2375.196533 2233.911621 2051.791748 1884.099854 1735.296265 1680.247681 1723.028687 1827.494263 1944.814819 2096.760498 2237.227783 2418.617920 2601.329834 2807.194336 3001.502197 3049.908447 3006.000000 2904.445801 2848.334229 2789.919678 2712.718506 2613.092773 2496.935303 2391.151123 2359.441406 2361.117432 2430.227539 2534.144287 2620.088867 2742.299561 2879.794189 2757.678711 2641.350098 2543.981934 2498.120361 2456.235352 2386.921387 2305.666748 2207.593506 2110.682129 2022.354492 1925.513550 1808.485474 1716.280029 1632.070068 1523.076660 1450.492676 1376.005493 1356.548096 1478.380859 1651.342285 1811.828125 1921.468262 2061.519775 2201.147217 2297.314697 2342.695068 2357.215088 2342.987305 2303.745850 2363.572510 2429.871582 2484.643799 2514.230957 2567.978516 2579.600342 2581.008545 2616.420166 2670.475342 2643.048584 2541.099854 2441.151123 2492.487061 2621.395752 2645.925293 2737.669434 2880.588867 3058.445557 3113.314941 2932.581299 2938.034912 2915.900146 2804.647705 2806.432617 2879.894531 3010.057129 3073.193115 3097.820557 3169.790039 3319.521484 3295.226562 3284.052979 3293.086670 3300.452393 3363.606201 3314.174561 3079.929688 3006.398926 3034.645020 3077.376221 3140.818848 3217.557129 3239.684814 3261.799316 3119.931885 3037.708740 3015.650391 3034.585693 2897.406006 2919.696289 2941.127686 2860.362061 2768.665771 2732.687500 2738.678711 2779.594238 2839.320312 2908.986572 3023.446289 3126.290283 3033.462402 2952.544922 2945.386475 2864.766113 2714.483887 2681.112305 2602.729980 2465.635742 2331.652832 2231.205078 2134.335449 2000.440308 1890.354248 1824.615356 1782.007568 1718.300293 1668.903564 1661.324097 1680.065674 1662.457031 1692.983643 1653.857910 1589.088867 1526.981934 1500.777100 1481.974609 1446.240601 1383.595825 1315.289795 1273.214966 1278.775879 1249.277710 1228.140381 1250.600220 1307.685181 1413.052124 1498.869141 1548.776367 1577.980835 1532.446777 1550.675171 1620.129639 1645.194336 1682.395996 1886.576172 1903.731201 2002.956665 2023.282471 2153.189941 2152.476074 2060.146240 2061.632080 2059.665771 2148.992188 2049.464600 1932.470215 1782.354614 1665.947754 1718.218994 1730.820557 1747.563354 1717.937500 1627.749756 1543.802002 1466.262085 1374.148193 1325.581177 1448.351196 1539.994385 1665.002686 1780.247070 1877.749023 1948.936279 1964.203979 2007.725586 2056.020020 2032.603638 2029.725830 2067.421875 2102.486328
2283.169434 2323.209473 2457.562988 2439.929199 2300.273682 2126.423828 1908.036865 1802.365112 1816.590698 1836.669678 1884.366943 1917.846436 1977.944336 2061.746338 2142.403809 2220.161621 2281.339355 2340.193359 2438.477539 2503.025635 2540.995850 2602.385498 2678.300049 2723.862305 2679.270508 2644.629395 2624.428467 2586.573975 2545.092285 2482.459473 2422.217041 2353.664307 2301.700684 2279.441406 2269.585449 2252.131348 2234.499023 2205.420410 2201.098633 2159.659912 2196.221436 2291.974365 2366.710693 2320.025391 2292.032715 2254.271484 2134.227539 2004.629028 1888.601562 1772.506470 1742.900146 1810.033447 1909.672241 2009.690186 2095.387451 2181.729736 2264.519531 2403.793457 2524.888672 2566.873779 2591.978271 2527.990234 2455.388672 2353.978027 2374.136719 2301.596436 2327.518066 2382.133545 2396.242676 2393.559814 2335.410400 2267.030273 2222.444092 2186.879395 2037.020752 1931.920532 1796.629272 1587.205811 1405.102417 1264.791382 1208.302124 1267.543701 1351.794189 1316.141479 1189.819946 1045.676880 958.561829 949.877441 954.895203 1031.227051 1103.047852 1193.059937 1348.067505 1508.854370 1647.866211 1768.315918 1929.916016 2065.642578 2124.714355 2063.574951 1979.631958 1899.064697 1827.369629 1750.396851 1704.322876 1749.087402 1845.379761 2000.986450 2178.169189 2258.671387 2267.828125 2330.107178 2388.199219 2324.464600 2195.336426 2158.956787 2285.470459 2406.378174 2534.000732 2640.291016 2530.203369 2339.710449 2280.746338 2384.758789 2491.169922 2570.519531 2617.497070 2699.725098 2761.998535 2886.948975 2832.338379 2756.718750 2675.897461 2648.530518 2551.670898 2363.316650 2182.769043 2132.641846 2243.433105 2336.821777 2245.871826 2116.602295 1907.654785 1685.761963 1562.373657 1637.518555 1859.552979 2082.008789 2282.022461 2451.616211 2535.932373 2549.174316 2590.772705 2680.093994 2698.561279 2731.313721 2790.816895 2826.992188 2881.306152 2969.095459 3101.070557 3217.721680 3237.195557 3188.410400 3142.748047 3105.237061 3162.815186 3179.848877 3113.399658 3042.754883 2882.351807 2652.543945 2484.525146 2389.915771 2354.052979 2366.649170 2390.523926 2406.255127 2333.713623 2254.995850 2158.662109 2033.746704 1896.462891 1755.261963 1674.895020 1700.406860 1849.150024 2069.616943 2251.540771 2388.928955 2520.245605 2653.677734 2787.888672 2961.097168 3116.012451 3116.195068 3005.806641 2994.527832 2892.877197 2779.343506 2659.793945 2514.438477 2400.669189 2422.492188 2486.726562 2613.028564 2671.194824 2702.291748 2798.135742 2826.176270 2695.312256 2612.345459 2556.258545 2504.317871 2431.476074 2366.254883 2301.957764 2210.731201 2117.130371 2012.515015 1908.538696 1782.802124 1681.660156 1604.039673 1509.775757 1445.349243 1364.944580 1367.174316 1492.384277 1655.262329 1797.135986 1880.994019 1988.329468 2086.942871 2170.187500 2240.619385 2286.156494 2262.008301 2191.257812 2231.753418 2279.319580 2320.437500 2333.519775 2372.747559 2431.479736 2470.523438 2506.765137 2513.465820 2497.626465 2486.418701 2380.599121 2383.308594 2466.359131 2510.915527 2623.991699 2772.608398 2867.148193 2977.855713 2789.527100 2848.447510 2843.920898 2760.243652 2779.959473 2828.857422 2955.070557 3019.624023 3072.021484 3174.471191 3336.834473 3358.321045 3391.199463 3386.561768 3297.190430 3290.293457 3324.456299 3205.504150 3141.894531 3088.184814 3139.598633 3155.938965 3171.076660 3181.433594 3161.143066 2981.520264 2928.810303 2913.281738 2979.879150 2987.781738 2963.885498 2885.209717 2861.182129 2780.918945 2711.052979 2722.429932 2787.478271 2833.633789 2927.837402 2995.212646 3001.887207 3021.199219 3011.767334 2983.675537 2894.222168 2750.123291 2699.538330 2647.476807 2501.583008 2377.360840 2308.126953 2173.494385 2017.854126 1950.034302 1889.276001 1848.148560 1793.077515 1753.736572 1780.171143 1778.571533 1783.160400 1827.503906 1814.740601 1735.925293 1657.782104 1640.665527 1648.978760 1582.113037 1531.361328 1466.651001 1384.471680 1385.505615 1373.005493 1323.807129 1245.545410 1220.686035 1275.574097 1339.820190 1347.874878 1332.796509 1334.424561 1378.221436 1432.223145 1467.398926 1585.552368 1725.098877 1750.943481 1845.307617 1924.603027 2086.770508 2079.334961 1964.695557 1902.035400 1928.364868 2043.697510 2051.693604 1906.720093 1760.954346 1632.019897 1561.971436 1574.184204 1599.345703 1589.202148 1538.535522 1488.545532 1343.838623 1276.170410 1372.926880 1511.573608 1619.281372 1751.604370 1867.151001 1983.608032 2113.241455 2167.831787 2211.302490 2215.524658 2209.145752 2155.347412 2186.262207 2213.532715
2383.540283 2466.890381 2522.462158 2397.939941 2232.872314 2043.299805 1878.400513 1850.433838 1905.326416 1909.852295 1966.708008 2030.287476 2046.047974 2106.549316 2127.225830 2210.392822 2302.752441 2375.457275 2457.379395 2527.719238 2591.680908 2670.903809 2736.035156 2681.948730 2645.798828 2636.651367 2586.652832 2577.374268 2574.645508 2561.774658 2457.726074 2398.431396 2368.500000 2361.446045 2374.400879 2337.688232 2339.075439 2274.992676 2133.980469 2084.879150 2114.721436 2202.779053 2284.498047 2208.178467 2257.311279 2236.408447 2088.793945 1959.815552 1855.246094 1738.939941 1732.303833 1858.275635 1953.918335 2066.264893 2188.931641 2269.097900 2367.304688 2470.931396 2439.973145 2451.011963 2580.730713 2621.034912 2515.159180 2470.751953 2451.052490 2404.932861 2413.707275 2441.235352 2365.632568 2307.708740 2214.088135 2096.889648 2061.865234 2034.051270 1901.780762 1773.166992 1650.727539 1549.893188 1436.989624 1344.169922 1263.702759 1147.541626 1173.403320 1117.958496 1064.658936 996.884033 952.455139 952.160950 955.222351 1061.536011 1171.083496 1291.885132 1441.764893 1598.930786 1739.653931 1886.760132 2027.895752 2122.851318 2097.526611 2004.028442 1910.098877 1829.284790 1745.961304 1683.788330 1696.905151 1786.226685 1919.961426 2089.048340 2240.166992 2332.717529 2338.697754 2468.890381 2519.194092 2386.611328 2259.801270 2182.952148 2208.612305 2297.792480 2413.769287 2549.540771 2590.204346 2395.884033 2309.880127 2366.297852 2443.165039 2550.501953 2649.381836 2723.506592 2794.402832 2830.983398 2696.124512 2626.231201 2561.191406 2494.776367 2441.897461 2292.428955 2161.354980 2227.564209 2383.173584 2417.416504 2311.997559 2199.260986 2037.403076 1744.779785 1560.913940 1605.372925 1839.658691 2072.156738 2241.771973 2327.768066 2349.566650 2373.515137 2413.780518 2478.056152 2518.959229 2561.326660 2609.410156 2665.745605 2737.904053 2900.974121 3104.632812 3307.777588 3276.577637 3159.616455 3075.270508 2989.373535 2935.602783 2979.752930 2941.052734 2837.861084 2753.877197 2607.418701 2441.679932 2317.896973 2263.250488 2249.259033 2247.446289 2256.828369 2261.991455 2263.235596 2221.292969 2118.521484 1968.562378 1783.709717 1680.410156 1689.624146 1840.070923 2062.296143 2282.113281 2454.718994 2577.343994 2661.435791 2736.510498 2905.128662 3093.147461 3198.172119 3082.878662 2982.693848 2893.618652 2757.714355 2628.104736 2495.412598 2443.694580 2519.241699 2648.306152 2776.094971 2810.672852 2799.222656 2839.821289 2784.091553 2683.575195 2637.077637 2568.812256 2487.053467 2402.544922 2330.140625 2246.802734 2151.609619 2040.399780 1944.842041 1886.808350 1802.049683 1715.143311 1621.643555 1518.025635 1455.976440 1361.439331 1365.711670 1480.463867 1608.936768 1749.068726 1845.500122 1908.442993 1976.731323 2041.578735 2087.928711 2131.611816 2104.620850 2051.017578 2075.189209 2155.718018 2188.971191 2195.940674 2234.276855 2287.638428 2313.208008 2345.541016 2363.063965 2357.202393 2329.037598 2268.489990 2278.026611 2331.384766 2379.670898 2518.690186 2641.884521 2726.259033 2823.497314 2700.476807 2709.576904 2652.063721 2689.165039 2791.114258 2855.302734 2931.709229 3020.073975 3073.720703 3193.082764 3326.033691 3375.667480 3299.262939 3238.334961 3130.554443 3173.777588 3245.596924 3163.774902 3153.157471 3148.265381 3103.620605 3067.022217 3084.650146 3105.093018 3123.219971 2968.360352 2870.999268 2851.125977 2903.068115 3007.314209 2892.080566 2882.107178 2904.844727 2772.247314 2672.555420 2701.092041 2754.187500 2813.766357 2857.604248 2854.533203 2847.979492 2877.958496 2897.069580 2855.169434 2844.288574 2804.079834 2778.641846 2739.499756 2500.862793 2420.367676 2330.633789 2241.895996 2125.791016 2092.286133 2074.884766 2000.320435 1937.140625 1858.554321 1879.551758 1929.363281 1948.804199 1941.795532 1958.356812 1880.007935 1797.368286 1750.232788 1755.736084 1726.492188 1656.764282 1552.070068 1488.404297 1477.518921 1457.622681 1423.173828 1325.054565 1273.546265 1205.938477 1207.421509 1220.370239 1186.141602 1199.687256 1243.570801 1280.015869 1327.502197 1433.059814 1525.343994 1574.836670 1626.679932 1764.012085 1888.908936 1928.571777 1833.996338 1744.901001 1841.640503 1955.695557 1952.974365 1945.603882 1853.726929 1691.905640 1546.786621 1473.827271 1470.177246 1471.337891 1460.938843 1387.495850 1241.528198 1319.595459 1473.115967 1616.748535 1747.943848 1875.177612 1991.899292 2102.320801 2214.998535 2309.837891 2360.930420 2400.724609 2435.025391 2441.829834 2392.318359 2312.593506
2457.047119 2574.758789 2466.017578 2313.128662 2160.649414 1981.755737 1856.701660 1854.192139 1942.955322 1986.259521 2014.419556 2088.362793 2170.460449 2224.450195 2179.240967 2195.336914 2324.085205 2413.952393 2511.488037 2612.486084 2690.079102 2763.681152 2736.159424 2683.710938 2641.285645 2565.397461 2520.673828 2531.453125 2501.241943 2501.909912 2484.983154 2449.502197 2435.828369 2487.748291 2477.732910 2464.130615 2434.064453 2291.189941 2102.781982 2022.173584 2056.587402 2151.593018 2239.083252 2098.178223 2098.279785 2185.295898 2107.341064 1957.481689 1825.107300 1689.882812 1719.421509 1886.114258 2012.139893 2129.926270 2274.845215 2385.566650 2476.460449 2459.429688 2343.263428 2326.819336 2430.846924 2562.818604 2619.013428 2601.978027 2517.574219 2483.405029 2453.589600 2336.873047 2191.447266 2138.237305 2100.242188 1989.623291 1877.654053 1849.309204 1771.983276 1650.581543 1544.656860 1462.776367 1361.310303 1276.017090 1178.725708 1071.538940 1022.491394 974.450317 957.108582 958.780762 957.108643 957.849670 993.661133 1138.063110 1286.810669 1444.983521 1569.703247 1716.091919 1860.082886 1993.449707 2116.548340 2084.399414 2030.107788 1934.463867 1836.898071 1748.533203 1672.824463 1662.371094 1724.631226 1846.873657 1996.315674 2187.527832 2352.480469 2429.562744 2394.981689 2472.405762 2587.032227 2495.756836 2360.004150 2263.583740 2187.859619 2219.102051 2321.399414 2472.684082 2596.619629 2462.441895 2376.407471 2376.483154 2468.706543 2633.001709 2737.528809 2863.518799 2969.166992 2906.046387 2755.726318 2638.249023 2532.160156 2438.845947 2357.248535 2234.279785 2206.442383 2334.058838 2467.749268 2375.499512 2205.260498 2066.010498 1928.222412 1744.062378 1603.351440 1629.262451 1801.464233 2006.454224 2099.165039 2152.698486 2206.825928 2245.816650 2288.571777 2366.145752 2430.532471 2481.503662 2523.401611 2592.680908 2695.822021 2865.494629 3022.499512 3197.566895 3145.641113 3060.522949 2983.312988 2932.931885 2860.047607 2855.656494 2814.816895 2713.111084 2606.205566 2455.934814 2323.376953 2250.407959 2249.060791 2245.921143 2236.822266 2232.911133 2232.124268 2266.245361 2286.048096 2165.958252 2015.654907 1818.008301 1689.468384 1691.900024 1833.880737 2064.332764 2271.506592 2399.820557 2485.260498 2546.849854 2679.510010 2869.329346 3038.774658 3160.877441 3016.729004 2861.589355 2783.688965 2684.421631 2564.297852 2481.676270 2501.523193 2630.067871 2792.014160 2903.149414 2893.561768 2825.634277 2795.860107 2682.459473 2614.432617 2577.233643 2519.924805 2426.701660 2318.834961 2217.005371 2129.766602 2050.796143 2024.303955 2027.135132 1958.007812 1852.654663 1742.891724 1624.269165 1522.068359 1464.775146 1380.611450 1359.787109 1435.952271 1541.947876 1643.170288 1713.296143 1771.575195 1843.690796 1882.702026 1902.496704 1924.683472 1894.062134 1861.804321 1906.623901 1977.820190 2023.469604 2043.336914 2088.651123 2112.322754 2122.573486 2138.475586 2138.523682 2133.261230 2116.724365 2091.666504 2116.832275 2171.641602 2254.772949 2388.595215 2520.386475 2615.783203 2676.266113 2632.317139 2495.742432 2499.499268 2554.248047 2703.007324 2838.028076 2943.704590 3071.198242 3143.913818 3164.087646 3097.529297 3089.688477 3046.789307 3028.702881 3065.284912 3163.959961 3239.817627 3162.888428 3142.352539 3136.973633 3114.083740 3066.510010 3044.958984 3048.807129 3075.872559 2997.348389 2838.966553 2772.989014 2856.454346 2935.546143 2839.306152 2802.835938 2823.221191 2712.090332 2633.592773 2649.727051 2688.217041 2722.165527 2705.058838 2704.332031 2700.553711 2726.319336 2709.285645 2684.750732 2629.624512 2745.842285 2858.251465 2689.504883 2525.554199 2477.091797 2387.847900 2355.359375 2317.551514 2211.575928 2224.178711 2136.203369 2034.992432 1943.365479 1912.940308 1984.941406 2112.936768 2105.792236 2102.599365 1980.070557 1902.399414 1875.288330 1885.020874 1844.171875 1703.918457 1585.347778 1582.205322 1563.225830 1529.133545 1486.215698 1410.691772 1365.666992 1283.812500 1212.036499 1184.681763 1177.451050 1172.171509 1164.611450 1182.008301 1195.909668 1244.352661 1313.874023 1380.252319 1437.195312 1551.565430 1650.278564 1689.354248 1667.504150 1599.364502 1762.637573 1827.090454 1785.303833 1806.932739 1800.454834 1714.947144 1596.227661 1493.003052 1397.392456 1400.409058 1372.022461 1313.706543 1235.111084 1319.912231 1430.696777 1599.814819 1754.958374 1862.262573 1936.790161 2054.180420 2106.092529 2145.529541 2190.221191 2323.504150 2420.337402 2529.610596 2551.950684 2471.290527
2424.531250 2585.685791 2522.049805 2397.445801 2241.881104 1970.130005 1835.711304 1856.354126 1951.232056 2010.543091 2065.802002 2110.921143 2198.994385 2288.046143 2264.992920 2218.170654 2288.346436 2427.630127 2525.144287 2641.206787 2740.874023 2824.762451 2777.629639 2720.695312 2620.778564 2520.817627 2485.669922 2458.158447 2413.915771 2384.018066 2450.726807 2484.745605 2488.404785 2576.937256 2586.626953 2525.011230 2420.695312 2276.491211 2100.120850 1985.004883 2012.428589 2129.402832 2144.809082 1982.929321 1933.949585 2047.259766 1978.534912 1881.284302 1742.818481 1649.677612 1751.465820 1871.933472 2000.651855 2144.082031 2300.847900 2454.543213 2442.159180 2295.388428 2212.121826 2180.000732 2302.960693 2464.283447 2590.153320 2637.482666 2568.091553 2411.342529 2278.904053 2182.009766 2074.946533 2033.700806 1995.587402 1911.955444 1785.900513 1668.695435 1644.681274 1559.371582 1448.640381 1383.256226 1290.189819 1182.493530 1062.853149 982.551636 975.251038 963.304871 964.087097 973.902405 981.544922 980.752808 1083.362427 1251.402710 1450.821777 1585.968994 1693.987183 1874.399414 1999.642944 2103.420410 2088.921631 2017.362183 1935.204712 1852.401489 1746.843506 1668.771606 1632.777466 1661.247192 1772.973022 1915.257812 2050.650146 2192.481934 2314.563965 2358.370850 2421.966309 2493.960693 2620.720459 2616.419678 2491.499512 2380.986572 2246.048828 2198.183105 2267.757080 2411.313721 2578.174316 2528.898438 2432.273682 2414.983643 2495.158203 2575.043701 2641.803223 2761.600342 2902.137939 2818.600830 2743.768311 2666.047363 2559.335205 2424.296875 2309.930664 2232.479248 2289.968506 2448.471680 2480.286865 2357.745361 2179.192871 1998.580811 1849.530640 1705.513306 1608.732910 1652.887451 1741.078735 1866.540527 2022.896118 2156.107666 2251.380371 2305.083008 2342.367676 2367.501709 2400.546875 2459.812256 2528.736816 2617.445312 2721.309570 2838.367920 2982.550781 3121.509766 3109.526855 3066.710449 2949.405273 2905.723633 2825.702148 2795.267578 2741.472900 2650.709961 2519.982422 2370.967773 2287.957031 2320.612549 2388.518311 2384.227783 2342.885010 2288.730957 2239.446289 2240.521729 2310.769043 2250.838623 2083.681396 1851.127686 1709.690308 1693.889404 1813.561890 2039.557495 2190.565674 2305.725098 2421.829834 2518.372070 2640.073242 2797.427002 2967.229736 3122.186035 3030.323242 2917.275879 2856.404541 2745.942383 2580.702637 2509.110840 2590.527344 2777.650879 2842.250732 2975.203857 2881.436035 2770.720703 2814.528320 2724.529297 2582.294189 2501.768555 2407.250000 2322.647217 2217.825195 2142.157227 2105.327148 2120.273193 2127.422852 2104.553711 1990.005371 1868.687012 1759.710815 1638.558716 1540.578613 1480.557495 1406.889648 1358.678955 1407.879639 1501.289185 1551.482666 1583.775879 1619.447876 1687.456665 1721.987549 1749.205566 1778.075806 1821.196289 1873.463745 1870.146973 1863.767578 1887.860596 1927.874756 1948.292603 1951.156494 1954.656738 1964.351685 1975.932617 1984.547607 1986.989380 2000.663086 2031.033325 2081.503418 2146.234619 2263.215088 2391.677734 2487.206055 2539.456299 2496.852783 2396.040771 2390.275635 2461.376953 2664.283447 2914.812988 2970.130615 2949.820801 3048.075439 2994.514404 2914.180176 2916.876953 2945.559570 2976.109375 3040.213379 3194.242188 3287.982422 3190.573730 3161.654541 3152.482178 3116.327393 3031.933594 3015.141602 3008.151123 2960.167480 2840.863525 2742.173584 2698.533447 2781.290527 2787.565918 2670.421631 2686.107422 2698.465576 2596.708740 2583.210938 2619.493408 2615.849121 2578.733398 2554.733643 2564.576660 2542.224365 2518.017090 2567.164551 2524.320557 2500.181885 2646.399414 2810.299316 2704.196289 2597.106201 2571.806396 2502.382812 2479.650391 2513.633545 2419.026123 2322.780273 2202.392822 2097.441162 2006.439209 1975.797363 2033.847412 2150.654785 2265.917236 2177.780273 2013.825439 1973.958984 1982.801758 1991.489746 1836.898804 1671.831177 1621.278564 1670.939087 1660.207764 1606.526367 1568.375000 1509.245361 1442.985718 1353.157959 1307.067993 1299.130371 1270.420044 1255.790283 1230.115356 1182.881348 1148.769531 1140.168701 1177.686401 1242.683960 1295.072266 1363.850586 1439.228760 1467.367310 1491.465698 1485.226562 1576.313354 1636.004395 1599.895630 1645.008789 1663.089844 1641.509888 1558.168579 1483.849121 1391.471313 1335.668335 1289.950317 1228.825195 1281.439087 1400.085938 1489.131470 1563.370605 1671.979980 1752.386841 1867.678589 1945.573853 1996.566528 2057.851074 2152.211914 2247.511475 2330.650146 2400.212402 2420.656738 2518.692383
2410.895020 2600.371338 2638.176514 2405.536133 2164.657227 1929.340210 1832.980347 1857.285034 1965.754761 2049.256348 2123.804932 2175.762939 2237.885498 2364.348877 2367.372314 2277.720459 2287.746826 2384.981689 2509.125732 2610.365234 2731.570312 2808.044189 2736.678955 2647.346924 2576.381104 2537.628174 2488.129639 2444.444580 2362.129639 2303.576660 2343.175537 2375.429443 2365.614258 2452.838623 2482.169434 2415.829834 2331.065186 2241.442139 2105.517578 1952.827881 1947.647949 2060.661133 2049.600830 1904.516846 1819.618896 1917.407471 1857.605591 1749.383301 1667.993042 1648.353027 1825.926880 1998.978760 2103.837646 2214.035645 2296.830322 2324.822998 2359.086670 2203.570801 2056.095459 2083.372559 2233.730957 2326.745605 2401.479492 2494.871338 2458.193359 2289.509033 2132.909668 2033.505981 1979.215698 1928.147217 1907.221436 1834.017944 1693.471680 1559.628540 1486.764648 1431.151367 1335.810669 1287.973389 1209.577393 1107.195190 1006.078918 963.216858 962.317871 960.607727 974.054138 988.188538 1009.017029 1047.971558 1212.366699 1379.674316 1497.046509 1621.130981 1777.172852 1873.238892 1969.879761 2027.228149 1965.368042 1902.372925 1830.776855 1750.654785 1661.976196 1627.117432 1635.953125 1701.499023 1837.296509 1971.915283 2052.556152 2108.289795 2183.034912 2224.443848 2334.367676 2436.017822 2539.643311 2649.116699 2624.359375 2481.584229 2331.962891 2222.960449 2233.524170 2372.543213 2524.796143 2577.493164 2476.122314 2462.804199 2526.962646 2579.933105 2696.011719 2722.972412 2821.092529 2758.004883 2695.343994 2598.261963 2535.205322 2433.427979 2329.142090 2282.596924 2358.159668 2504.070068 2505.800293 2385.989258 2247.171631 2065.821289 1882.136963 1727.424316 1623.653198 1655.873535 1760.111694 1936.002441 2194.417725 2378.000000 2477.774170 2510.552002 2541.851074 2491.658203 2499.414307 2557.347900 2583.259033 2689.782227 2796.374268 2918.541260 3072.029297 3080.401367 3001.182861 2966.123047 2904.315674 2854.944824 2778.777588 2739.573975 2670.573242 2605.377930 2465.582520 2365.348145 2338.274170 2424.378662 2503.146484 2482.940186 2462.684570 2392.324219 2293.210205 2223.091309 2264.653809 2253.975830 2094.402344 1874.724609 1731.202393 1703.712646 1761.217773 1933.405396 2092.407471 2219.995850 2331.309082 2471.976074 2596.709717 2761.153320 2922.277344 3083.872559 3019.503418 2852.341797 2769.582275 2668.976562 2597.286133 2543.846680 2641.934326 2851.605469 2883.854980 2910.427002 2808.484863 2688.749512 2662.917969 2627.238037 2530.260010 2430.795654 2316.072266 2205.010254 2134.895996 2168.827148 2233.276367 2264.294678 2244.505615 2154.963623 2039.790649 1923.877441 1811.706299 1696.718140 1595.078125 1535.805786 1455.834839 1362.779907 1392.667847 1532.227905 1632.500244 1654.813843 1694.768799 1745.503418 1816.194214 1864.584106 1886.645630 1958.637695 2042.536743 2073.704590 2038.814819 1990.618408 1974.510620 1969.557983 2013.150391 2034.817627 2037.187256 2071.819336 2067.215332 2047.498535 2055.610107 2093.120605 2095.398193 2101.551025 2163.162598 2280.540039 2362.375977 2391.494873 2366.356445 2349.956543 2403.938965 2541.853760 2744.372559 2951.449219 2911.358887 2844.599121 2865.542725 2813.050537 2842.330078 2891.542236 2937.142822 2978.130127 3056.134766 3250.190430 3394.955811 3294.446533 3210.763184 3152.187256 3087.290771 2989.533203 2983.994141 2969.041504 2867.176025 2750.324219 2709.802490 2687.794189 2696.090576 2671.475098 2571.593506 2606.604248 2595.758301 2523.060547 2513.571777 2499.924805 2460.967773 2436.521729 2398.791504 2393.040771 2355.771729 2387.163330 2450.580322 2457.653564 2482.976562 2564.931885 2634.746094 2698.007812 2725.292236 2627.387695 2608.583740 2614.845947 2636.414062 2587.229248 2449.880371 2251.018066 2173.628662 2084.289307 2065.761963 2097.161377 2157.424072 2264.892090 2194.167236 2101.105225 2091.671143 2104.675537 2015.145508 1784.021973 1678.168823 1693.684570 1794.041626 1727.746338 1668.249023 1644.918457 1596.590454 1506.756958 1422.050903 1440.327881 1433.048828 1396.288086 1348.694336 1300.010864 1247.174194 1200.027710 1151.443848 1131.737305 1153.879517 1189.329834 1207.312988 1237.657959 1274.746460 1294.881104 1339.585815 1383.277466 1430.316284 1449.676636 1473.900879 1492.191040 1513.635742 1496.835938 1452.864380 1389.730103 1325.065552 1244.494385 1228.543579 1369.041260 1511.065186 1639.896240 1706.737915 1777.705200 1839.048340 1968.940674 2065.087158 2134.341309 2219.876465 2265.092773 2261.151123 2290.758301 2357.871826 2472.987305 2625.198242
2482.298340 2623.055176 2505.389893 2303.875488 2099.467285 1936.689819 1850.478394 1885.669922 2022.454468 2103.770508 2182.326660 2242.745850 2281.335449 2387.728760 2457.198730 2352.314941 2348.960693 2417.355469 2515.889404 2643.277344 2755.382812 2721.912598 2682.983887 2638.239502 2596.170166 2560.232178 2518.169922 2460.951416 2386.910400 2310.247559 2234.564697 2178.811768 2176.923096 2229.927246 2298.660645 2287.418213 2183.634521 2121.847656 2086.770508 1947.212280 1874.915649 1963.243530 2012.818359 1852.087769 1736.524048 1760.177368 1785.693604 1757.170288 1619.198486 1701.928833 1884.748657 2033.374512 2100.488281 2126.333496 2157.029053 2133.208984 2229.967529 2182.405518 1994.847290 1948.827026 2045.434814 2166.510986 2299.443604 2348.959473 2362.542725 2240.336914 2060.687988 1909.843628 1861.756470 1825.774658 1817.731812 1795.579468 1682.145996 1540.662476 1392.617676 1299.051147 1224.691406 1172.122192 1113.232300 1031.928101 968.836487 967.988953 969.996643 977.069641 998.338013 1023.507324 1045.549072 1073.138794 1173.741699 1300.754150 1413.624756 1571.472168 1686.050537 1718.661621 1838.805420 1913.898071 1864.739990 1806.406616 1715.863892 1633.335693 1610.662964 1636.192017 1671.633789 1771.828369 1866.934570 1926.255981 1951.129883 1980.480957 2047.432617 2142.111328 2249.942383 2343.245850 2434.966553 2551.850830 2656.635498 2563.629639 2396.565186 2280.506104 2231.881348 2356.656738 2509.987549 2635.705078 2532.505859 2507.542480 2547.085938 2603.057617 2765.228027 2900.400635 2873.900635 2812.739746 2772.801025 2648.317627 2578.182617 2488.560791 2384.979980 2328.607666 2392.520752 2513.380127 2535.674316 2427.011719 2281.857910 2101.758057 1907.435059 1745.888184 1650.491943 1677.943970 1790.458862 2033.689819 2262.780762 2354.495850 2453.849854 2601.137207 2651.613770 2592.175293 2644.702393 2693.379395 2657.062744 2801.334717 2941.013428 3059.945312 3206.510986 3144.184570 3007.341553 2910.583008 2869.086914 2823.693359 2778.335205 2720.535400 2646.658691 2519.578613 2454.069824 2411.769775 2430.825684 2531.248047 2622.062012 2574.655273 2558.581543 2470.864990 2341.693115 2193.615234 2164.663818 2151.002686 2041.387207 1874.302979 1747.214600 1726.096069 1736.512207 1847.788818 2007.087891 2127.040283 2265.898193 2387.873535 2490.958984 2629.290039 2790.633301 2968.373779 3007.982422 2876.893066 2771.561768 2695.406494 2598.347656 2570.586914 2681.770752 2838.541992 2893.773682 2778.725342 2700.988770 2638.323730 2584.270020 2540.527344 2437.549561 2308.572754 2205.586914 2172.291016 2226.678467 2313.684326 2382.367432 2384.236084 2302.122559 2197.199463 2094.142334 1984.899048 1871.453491 1791.578125 1698.371094 1601.958496 1510.830078 1395.215332 1396.619141 1491.867798 1643.119629 1721.047974 1817.877075 1900.628784 1979.860596 2042.028809 2047.186523 2082.537354 2173.696777 2231.853516 2209.487549 2177.770020 2145.854736 2143.177002 2152.065186 2164.277100 2174.449707 2205.849609 2260.089844 2236.472656 2234.495361 2243.408691 2248.969482 2189.659180 2134.631348 2189.235352 2268.853516 2301.077881 2333.512695 2424.503418 2530.153809 2672.197754 2859.863037 3000.850830 2872.080078 2761.729736 2748.514404 2767.977295 2822.097656 2877.682373 2950.212158 3014.341797 3087.602783 3253.374756 3411.984375 3391.432861 3216.452148 3084.307617 3055.935791 2961.600342 2947.380127 2921.249023 2846.973145 2764.787598 2766.975342 2723.992432 2662.392578 2601.660156 2563.356445 2570.655029 2522.257080 2458.901611 2367.291992 2286.610352 2267.879639 2228.233398 2150.412842 2178.578613 2205.725830 2288.351562 2357.180420 2418.475586 2517.069824 2440.144531 2463.878174 2625.230469 2773.266113 2767.424072 2754.444580 2738.293213 2777.370117 2712.905273 2502.741943 2284.380859 2239.129883 2231.965576 2141.267578 2162.932617 2192.606445 2276.088623 2251.279785 2194.817871 2225.226562 2133.431885 1911.097168 1763.174316 1764.105103 1850.766724 1854.895386 1790.211792 1761.527954 1751.843750 1668.568726 1519.862305 1487.314941 1564.441406 1541.322998 1500.267456 1435.965698 1385.277344 1329.605225 1288.189087 1222.369507 1153.603638 1129.783081 1138.330200 1131.375488 1124.798950 1138.812744 1154.469604 1186.315674 1210.253296 1241.076050 1286.000122 1342.959351 1376.098511 1369.311035 1377.203003 1376.212646 1350.005493 1295.428467 1208.676270 1260.618408 1406.784668 1529.483765 1651.782349 1769.753418 1874.073242 1972.629028 2099.441406 2209.724121 2314.502686 2409.181885 2456.476807 2433.220215 2430.358643 2473.584229 2579.068604 2709.365967
2623.805908 2677.697754 2523.166748 2293.240234 2054.148193 1922.364746 1857.089478 1939.228149 2081.592529 2160.225098 2261.699463 2341.075439 2362.120117 2441.395996 2534.487793 2433.191406 2391.670166 2435.177979 2519.567627 2631.666260 2717.541504 2634.419189 2602.816406 2560.675049 2523.630127 2493.506104 2465.328613 2450.043213 2417.960205 2399.741211 2298.819092 2162.031982 2039.485352 2050.790527 2124.667480 2143.588379 2048.755615 1986.353516 1937.647095 1901.336914 1812.257446 1855.517212 1880.570923 1796.035156 1683.381226 1624.537964 1608.874878 1657.581543 1588.794800 1694.401489 1840.653931 1899.507690 1918.812378 1937.736206 1936.006470 1956.114746 2075.510498 2065.180664 1908.930908 1842.551514 1963.685303 2076.253906 2184.861328 2203.676025 2231.176758 2202.506104 2028.298706 1861.535889 1730.272461 1690.023315 1690.049805 1702.075439 1612.427368 1488.877563 1349.349609 1227.196411 1133.148926 1077.486450 1024.860352 972.615845 975.450012 983.202454 1040.552002 1101.550049 1141.769165 1174.056519 1175.996582 1172.781860 1128.219116 1192.814209 1303.622559 1424.587036 1502.326172 1578.363281 1736.177246 1795.540161 1755.442505 1686.006470 1614.302734 1575.989136 1606.830444 1645.164673 1688.241699 1746.318848 1794.700562 1833.561279 1898.234619 2012.340332 2096.812744 2170.393066 2271.164062 2323.851807 2390.804688 2465.838867 2602.070557 2626.979248 2478.492920 2363.193115 2264.521240 2338.753174 2473.824463 2619.167725 2617.731445 2555.524170 2544.845459 2593.162109 2712.428223 2911.778076 2942.841309 2865.578857 2860.823730 2772.291260 2729.875488 2594.102539 2419.477783 2352.356201 2398.458008 2516.375244 2561.068359 2442.579102 2297.248047 2136.081543 1950.182129 1793.628052 1720.748657 1750.999756 1813.928589 1986.825562 2150.536865 2270.233643 2410.087402 2542.897461 2672.869629 2720.894043 2771.162598 2801.584473 2774.607178 2894.914551 3089.816895 3183.417480 3184.586426 3190.848145 3032.714600 2894.108887 2835.987305 2809.287354 2777.582275 2731.700684 2645.467041 2485.817383 2437.835693 2456.280029 2542.102539 2658.417725 2752.972412 2705.753418 2614.820068 2482.889160 2337.198730 2178.834473 2057.586670 1994.165161 1914.287231 1818.652710 1773.173340 1798.607666 1762.060425 1779.119995 1892.765747 2037.420654 2166.882324 2278.777100 2389.017822 2513.998291 2672.473877 2840.698730 3005.392578 2938.647461 2818.926025 2714.917480 2628.498535 2623.877930 2712.486328 2815.574463 2880.002441 2790.205078 2711.954346 2602.200684 2549.091797 2456.853271 2320.642822 2219.915771 2241.865234 2327.872803 2387.635010 2434.048584 2495.947266 2411.782959 2325.611572 2223.719971 2126.706299 2016.240234 1915.702393 1844.500854 1744.668945 1634.160522 1559.747314 1436.471802 1405.916138 1471.189087 1581.809570 1723.631226 1842.162720 1989.380615 2109.035400 2192.090576 2204.869629 2229.963379 2293.336914 2360.556152 2351.084229 2323.717529 2323.148926 2313.215820 2311.785156 2331.390625 2316.018799 2309.528076 2370.814209 2391.937256 2413.343018 2415.339844 2409.020508 2326.332031 2196.289551 2161.084717 2233.280518 2331.591064 2421.062988 2522.414062 2619.288574 2662.653564 2726.086914 2764.414062 2776.393799 2698.786133 2709.697998 2745.271973 2850.408936 2954.970215 3044.748047 3096.911377 3173.154785 3292.597412 3370.249512 3317.289062 3097.803467 3058.943604 3023.455566 2928.967773 2901.583252 2881.294678 2850.741211 2802.185059 2730.602051 2703.475342 2671.416992 2615.512451 2586.207764 2516.282715 2342.165771 2247.406982 2195.843750 2168.697754 2154.173096 2152.275391 2171.723877 2112.436279 2079.067871 2176.588623 2218.741943 2327.265625 2369.791748 2278.487549 2326.188965 2507.008301 2576.432373 2608.096680 2693.809570 2777.595703 2758.693115 2644.537109 2484.628174 2308.599609 2304.003174 2345.329346 2222.740723 2210.681641 2230.517578 2286.887939 2347.375732 2331.114258 2230.658447 2041.477417 1873.470947 1813.645386 1906.123413 1965.508545 1907.105103 1876.189331 1871.730835 1801.333496 1679.767212 1545.897461 1524.413086 1645.277222 1635.864380 1580.701416 1532.390747 1474.768311 1462.978516 1404.483276 1345.895386 1264.434326 1223.596680 1173.923584 1150.860352 1129.148438 1109.917358 1109.871094 1107.644897 1110.705322 1125.016724 1151.261108 1184.525635 1220.600952 1235.542725 1249.120850 1277.673950 1272.708618 1229.320923 1186.589111 1304.416992 1459.431152 1578.999512 1694.034424 1803.781006 1899.040771 2008.635132 2124.829346 2230.456055 2322.717041 2407.856201 2499.637207 2588.109619 2638.922607 2655.640137 2680.250977 2596.191895
2768.968018 2683.316162 2476.989502 2254.399658 2054.161133 1917.033081 1875.336304 1977.635620 2101.563965 2182.386475 2302.324463 2408.697021 2478.460938 2530.898193 2586.254639 2491.976562 2437.571777 2440.858398 2526.648438 2648.506836 2687.004150 2590.632080 2550.988525 2505.979980 2458.009033 2421.818848 2380.411621 2339.354492 2275.066895 2278.389648 2296.443115 2178.897705 1994.551758 1962.877686 1986.965454 2049.017334 1950.158813 1868.360352 1824.012573 1794.847778 1761.161377 1749.288208 1750.999634 1692.544312 1626.841553 1631.427490 1644.596436 1569.752441 1541.908081 1643.022339 1709.338745 1737.011963 1757.972412 1780.586914 1781.684082 1792.332764 1891.172119 1921.944092 1764.918823 1767.088501 1859.159058 1952.103271 2036.290283 2049.504639 2087.223877 2123.981934 2003.826050 1829.966309 1707.096924 1598.271606 1559.035278 1589.105835 1569.007202 1484.227173 1336.159546 1198.546875 1078.357300 1000.919922 975.639832 969.797791 990.193298 1072.690186 1179.491333 1251.418091 1314.263306 1346.840332 1370.339722 1296.701660 1252.314697 1205.929443 1202.817749 1280.287354 1357.217651 1477.298462 1590.240601 1653.356445 1614.672241 1556.161255 1534.482666 1569.730469 1606.307617 1661.050415 1737.921875 1785.937988 1800.326538 1877.394775 1980.409668 2089.011475 2222.785400 2300.389648 2314.839355 2344.001953 2472.610352 2549.355957 2621.570557 2661.767090 2531.352051 2433.326416 2311.664307 2348.550537 2450.770020 2578.333984 2677.544434 2629.325684 2612.996582 2628.036865 2701.517334 2865.883545 3027.179199 2965.927734 2887.021729 2874.898193 2824.987793 2648.937744 2447.457031 2407.465332 2446.309570 2536.370605 2614.715576 2467.040771 2321.038330 2205.682861 2046.782715 1874.612061 1762.353516 1759.660522 1794.320557 1946.884033 2123.525635 2254.353027 2370.828857 2474.443848 2557.978271 2609.519531 2658.838867 2778.928223 2812.122803 2928.421143 3122.054688 3107.828125 3068.006592 3077.556641 3089.744385 2996.589600 2943.373047 2846.188721 2770.255127 2653.957764 2605.539307 2505.588135 2489.343018 2573.850342 2696.856201 2786.720703 2755.771240 2649.078125 2541.655762 2401.284180 2270.399658 2107.508057 1977.498047 1876.706177 1813.773682 1812.197388 1874.342773 1941.000732 1867.344849 1797.953491 1813.423706 1923.390137 2048.113770 2181.857422 2300.374268 2465.853760 2642.772949 2803.022461 2925.015869 2965.703369 2891.635742 2750.035156 2675.561768 2694.644043 2741.386963 2829.822266 2874.988037 2765.699219 2647.245361 2542.001221 2465.267090 2352.835938 2263.682617 2288.694580 2419.071045 2536.739014 2554.381836 2524.996338 2514.502197 2432.964600 2366.020996 2271.136475 2160.305420 2060.032227 1973.894165 1868.493774 1770.697510 1655.310059 1579.955566 1446.056152 1402.907715 1445.118408 1506.338989 1619.521729 1791.918091 1936.606079 2080.479980 2230.564209 2324.995361 2376.118164 2440.837158 2515.816895 2466.576416 2448.179443 2459.878174 2433.575439 2405.972656 2454.058105 2455.508301 2429.124268 2474.976074 2495.428223 2551.596680 2535.894287 2538.221924 2450.792236 2291.843018 2201.590576 2170.208008 2223.737793 2302.750732 2396.603516 2466.104736 2526.459961 2565.395020 2591.981934 2671.652344 2682.569824 2669.200928 2656.411621 2746.561035 2908.379150 3057.025391 3147.543701 3244.018799 3303.783936 3330.677002 3238.874512 3066.435791 3040.648926 2983.850098 2900.485352 2875.197754 2847.875977 2831.646240 2802.060059 2734.402344 2720.302734 2679.904053 2596.101074 2555.598389 2448.384766 2311.046387 2215.415039 2184.059326 2173.639893 2156.411865 2184.544922 2224.318848 2159.599609 2035.659912 2009.269531 2056.629883 2160.457764 2174.074219 2131.152588 2219.001709 2304.477051 2327.023682 2386.181396 2471.502197 2581.420898 2729.661865 2661.824463 2488.176758 2369.571045 2391.791992 2400.094238 2270.895508 2264.516602 2281.408936 2305.361084 2441.229980 2401.873291 2241.715332 2012.725708 1882.016968 1896.250000 1988.520142 2037.887817 1993.972412 1973.855591 1893.004883 1789.270142 1698.044067 1549.414307 1582.747192 1710.486694 1719.253906 1671.692383 1616.347412 1549.168457 1541.991577 1500.378174 1439.112183 1415.098022 1372.295044 1324.330444 1292.098389 1266.452637 1218.511719 1155.897949 1133.229736 1105.779541 1095.240479 1091.942017 1091.219849 1105.094482 1135.877075 1159.788574 1174.406860 1183.617188 1167.885010 1195.174072 1353.204468 1497.206543 1607.528687 1711.477051 1809.589478 1896.000244 2000.023438 2096.703369 2155.035156 2227.430420 2295.196533 2408.597900 2498.929932 2473.361572 2522.171631 2594.089355 2417.438232
2762.204590 2609.561768 2431.125488 2255.095459 2025.955566 1898.260986 1932.876709 2046.876953 2137.985596 2237.387939 2327.867676 2430.436523 2531.172607 2629.364502 2641.348877 2533.027832 2485.717773 2465.772461 2508.389893 2601.141113 2665.931396 2589.904541 2537.786377 2499.304688 2430.675537 2399.402588 2405.780518 2404.854492 2273.455078 2090.475830 2077.618164 2084.947754 1991.494141 1928.486206 1889.642578 1906.981812 1847.218872 1789.563110 1753.288086 1724.501953 1706.485962 1698.032837 1691.669067 1670.897339 1724.336792 1785.625366 1789.575439 1710.490967 1598.209595 1521.445679 1586.031250 1614.350586 1628.048462 1648.018799 1664.937622 1664.086182 1759.374878 1813.496948 1644.906860 1676.925659 1775.624268 1882.600220 1940.355835 1924.833740 1950.703613 2027.283447 1979.173584 1837.802002 1710.268555 1573.422119 1472.050171 1513.315552 1539.550415 1416.593506 1236.970581 1081.788696 986.970703 969.724365 972.546204 1007.815918 1097.127197 1206.570679 1318.348267 1413.743530 1450.201782 1499.283569 1519.274780 1410.761963 1395.436768 1349.180298 1290.619873 1233.842285 1276.570801 1379.031250 1445.227417 1494.614868 1487.525024 1490.486938 1534.951294 1580.274292 1631.818848 1697.384766 1807.430542 1901.811646 1905.224365 1894.685669 1965.679565 2089.255127 2247.675049 2399.337402 2435.041016 2398.400391 2467.665771 2633.680176 2755.542480 2720.918457 2564.455078 2458.035889 2346.110840 2350.836426 2443.495605 2546.229736 2709.702881 2729.823242 2705.454834 2718.983887 2750.571777 2893.874756 3008.724365 2913.530518 2752.823486 2755.282959 2762.557861 2642.750244 2502.718018 2460.865234 2487.257324 2571.354248 2556.577148 2423.864014 2322.249756 2231.125000 2095.250244 1918.195801 1777.259644 1759.658813 1782.456421 1943.225098 2102.327148 2253.432373 2350.627930 2431.022461 2505.285889 2557.549072 2619.696289 2713.314453 2800.897461 2928.747070 3113.393066 3069.793945 3024.472168 3016.733643 3029.508057 3070.446289 3050.893066 2906.725098 2791.030518 2621.343506 2555.329102 2543.348633 2589.017334 2704.552246 2792.897217 2721.895508 2645.110840 2566.357666 2456.991211 2312.731201 2169.190430 2023.727539 1918.774536 1840.328857 1862.336426 1932.770386 2014.392700 2082.449219 2021.592773 1937.595703 1848.164185 1835.935303 1925.984253 2078.696533 2273.947998 2465.223633 2602.649170 2691.875977 2792.201660 2929.351318 2880.185059 2782.239746 2724.641357 2744.174561 2797.017090 2878.452393 2778.865234 2673.959473 2559.202148 2462.268311 2348.374023 2298.003906 2329.138916 2423.927246 2558.039307 2713.730957 2650.313232 2627.046631 2614.631104 2517.406006 2419.188721 2317.417480 2212.295898 2109.537598 2001.445190 1885.462891 1776.520752 1683.596802 1585.660400 1487.903442 1446.738159 1430.772949 1452.751587 1475.932495 1591.107544 1801.817261 1965.302734 2148.281494 2318.633057 2446.002441 2595.710449 2642.857910 2569.114258 2552.431396 2524.685791 2488.935547 2459.564941 2554.924805 2558.699463 2567.925293 2555.185791 2598.739014 2662.069336 2638.181885 2658.415039 2548.705566 2417.618896 2371.207275 2306.075195 2219.221680 2192.879883 2256.154541 2344.650635 2402.498779 2433.570801 2466.200928 2566.315918 2595.705566 2597.431152 2626.307373 2774.816650 2937.736084 2965.209229 3049.416016 3057.564209 3154.696045 3263.006836 3254.200439 3100.018066 3036.948730 2953.434326 2902.994629 2889.705566 2866.157715 2815.874268 2790.534668 2765.434082 2734.290283 2643.059082 2595.913574 2569.623047 2464.297852 2322.101318 2273.915283 2225.486816 2174.825928 2217.905518 2295.317383 2294.687744 2105.035645 2059.257812 1888.807739 1874.877197 1904.665161 1972.576416 2023.407349 2096.243652 2176.818115 2248.236084 2340.935303 2391.365234 2471.692139 2634.748047 2678.443359 2589.009521 2539.485107 2547.961426 2460.460449 2299.434082 2299.202148 2334.534668 2350.680908 2523.381592 2416.957275 2189.254150 2037.889526 1973.883545 2024.155151 2098.627197 2158.000732 2074.404053 1982.176392 1886.098511 1785.898315 1686.458008 1548.219116 1640.616699 1780.570679 1803.219116 1749.277100 1674.666260 1620.004761 1613.089111 1550.032837 1504.923218 1565.888062 1500.897827 1449.215454 1418.609619 1391.459717 1347.955688 1260.512085 1247.314697 1212.893433 1187.291504 1163.902588 1128.568604 1097.323486 1081.313232 1085.131104 1095.543701 1109.001953 1137.342529 1218.377686 1372.593384 1496.520142 1594.377930 1688.860718 1764.963745 1805.121826 1898.887939 1975.629517 2012.289185 2060.836182 2138.071045 2257.750977 2330.846436 2410.285645 2541.392578 2624.665283 2421.547852
2661.930420 2514.377686 2344.774658 2167.368896 2000.749390 1909.565430 1998.779297 2097.974121 2157.874512 2246.810791 2345.150635 2458.668701 2555.338135 2693.315674 2690.749023 2573.183594 2546.890869 2555.794189 2546.513428 2625.955811 2651.735107 2599.959229 2546.281982 2505.036621 2459.172607 2445.059082 2519.405762 2498.229248 2269.081543 2079.210449 1968.319092 1953.533447 1979.470947 2015.666626 1875.807495 1800.294434 1758.317749 1731.622681 1744.463623 1764.002319 1762.498657 1756.946411 1758.470825 1792.413452 1857.375244 1925.315918 1939.899658 1844.585815 1714.253296 1589.388916 1516.458130 1498.544189 1499.086670 1508.106812 1539.433960 1552.132080 1632.113037 1691.715454 1565.928833 1615.218262 1731.319824 1793.377563 1856.707031 1808.196777 1857.218872 1959.110352 1948.043945 1830.510376 1699.854248 1585.181885 1470.911865 1407.587769 1458.437134 1364.675049 1165.804688 1022.457947 973.580811 997.773254 1058.580566 1146.382812 1245.893799 1332.427368 1441.264648 1551.359253 1580.192139 1645.142578 1615.078857 1509.255493 1556.461548 1480.369995 1423.901123 1370.167969 1297.150391 1286.713135 1330.423950 1367.406128 1421.794922 1501.878906 1548.125488 1609.695679 1691.001709 1749.441528 1813.630005 1929.926147 2029.354492 2001.378540 2020.224243 2068.590576 2192.003418 2337.312988 2472.663818 2524.619873 2527.742676 2597.922607 2736.697998 2763.911865 2583.990479 2483.320312 2368.330078 2344.232666 2437.850342 2557.538086 2739.313232 2797.205811 2801.811768 2840.407715 2876.757568 2988.747803 2919.094727 2816.465576 2721.807617 2699.196289 2663.892090 2626.085693 2595.218506 2536.399414 2539.125977 2637.713379 2574.098877 2480.433350 2392.093506 2254.743652 2113.570557 1959.395142 1800.614136 1759.647339 1781.617065 1928.182617 2085.214111 2243.667969 2392.564941 2483.618164 2579.300781 2651.157471 2716.377197 2780.614502 2880.508301 3036.374512 3184.291260 3082.203125 2982.146484 2968.056885 2965.144775 2948.693115 2950.809570 2843.750732 2736.630859 2631.245361 2612.027832 2620.177490 2690.973877 2738.980957 2672.966553 2612.217529 2548.411377 2457.554199 2381.603027 2276.188232 2108.262451 1936.848755 1859.670654 1893.152954 1992.360718 2102.198242 2187.614502 2226.705566 2174.169434 2072.148438 1953.154663 1859.900146 1870.470459 2007.524658 2227.156006 2374.117188 2501.490967 2588.906738 2747.279297 2902.893066 2865.029053 2801.379639 2823.295898 2828.748291 2849.919922 2840.611084 2714.348389 2618.667725 2495.284912 2371.305908 2353.866943 2384.985596 2463.570557 2579.832031 2653.834473 2772.342529 2740.744385 2754.602295 2716.238037 2587.048828 2448.954590 2372.238037 2288.101074 2173.978760 2048.197510 1912.824463 1786.127441 1700.426636 1612.762573 1562.940918 1522.927368 1502.333252 1509.239136 1538.372437 1478.670166 1632.831543 1889.404419 2075.494141 2245.687500 2403.612061 2562.641357 2686.936279 2680.439209 2627.176514 2587.114258 2536.211670 2533.127686 2641.609619 2629.784424 2604.238525 2573.075928 2680.322266 2741.215332 2706.279053 2701.270508 2623.498291 2561.167480 2554.129883 2521.368896 2407.885986 2267.371826 2226.205566 2254.139160 2296.970215 2329.844727 2368.401123 2420.524170 2456.988525 2502.424805 2603.460205 2761.952393 2840.146729 2870.547607 2930.746338 2951.290283 3000.316406 3088.318115 3239.694824 3130.699219 3039.826416 2943.452637 2912.350098 2907.087402 2889.502197 2833.438721 2789.874756 2778.694092 2756.076660 2666.635986 2675.766602 2657.723877 2494.360107 2400.294434 2370.268799 2269.547119 2214.804443 2272.710938 2344.977051 2271.420898 2098.364014 1927.911255 1795.440918 1731.027588 1745.983887 1826.476685 1975.509033 2032.583496 2081.715088 2188.508057 2304.598877 2392.572998 2470.142334 2459.569824 2489.933594 2510.906494 2523.468262 2577.791016 2538.012939 2394.808594 2340.409424 2342.446777 2395.563477 2481.590088 2317.828613 2174.505371 2108.525879 2125.865723 2199.930664 2275.769043 2246.826660 2142.792725 2010.233032 1901.841431 1789.562500 1635.613770 1574.696411 1709.150391 1838.058472 1880.869751 1798.313843 1715.067749 1717.253052 1659.949585 1566.701782 1588.526245 1685.692017 1642.423706 1586.228516 1532.198853 1473.014893 1422.291382 1347.447021 1371.012817 1353.120117 1319.485718 1298.429199 1269.549072 1211.382568 1145.606689 1088.294678 1071.556152 1087.614258 1117.646118 1211.894287 1333.582642 1448.079224 1520.754028 1619.026489 1697.682617 1793.635864 1897.217896 1933.680054 1987.380615 2070.951416 2145.272949 2246.775635 2368.443359 2473.819336 2572.606934 2600.461426 2443.665039
2560.342285 2399.479980 2257.079834 2119.402344 1989.373779 1931.819946 2002.362427 2099.045898 2188.543945 2267.149902 2369.616943 2451.367676 2556.407471 2674.558594 2682.303711 2599.064941 2598.466797 2604.460449 2616.145264 2696.258545 2667.707275 2601.203613 2543.221191 2537.930176 2528.347168 2537.887451 2605.201904 2523.014648 2354.491211 2153.428711 1998.655884 1911.882568 1870.534058 1904.201050 1813.151367 1765.569702 1777.200317 1800.362915 1839.547607 1864.785278 1850.749878 1843.336792 1880.756592 1948.993530 2030.269043 2083.884277 2075.105957 1983.053589 1830.251099 1723.884399 1637.804077 1545.202759 1560.043335 1505.509155 1464.755005 1437.017090 1444.583252 1456.081543 1426.523071 1505.434937 1580.269043 1631.239502 1695.500488 1668.067627 1774.450806 1910.853394 1982.658569 1945.191040 1840.927612 1712.559448 1530.072510 1391.491699 1318.614868 1253.166626 1114.553833 997.701904 976.578735 1043.693481 1184.454834 1292.929810 1385.338623 1488.793579 1610.226440 1698.534790 1744.926514 1801.275635 1722.933716 1644.342773 1692.150146 1618.862427 1582.710938 1493.133667 1399.201172 1313.465698 1429.851685 1463.844849 1488.413330 1558.590454 1612.041016 1727.693970 1857.427002 1895.313599 1953.847168 2028.937256 2151.659668 2126.495117 2135.705566 2156.551270 2208.450439 2315.614502 2440.947754 2601.996826 2684.194824 2730.438721 2805.771484 2703.065430 2591.755859 2506.272461 2391.609863 2341.634277 2419.660645 2550.625244 2710.380859 2810.931885 2853.364990 2901.532715 2933.243408 3030.505859 2994.353027 2923.966309 2768.403564 2681.045410 2633.834717 2597.923096 2593.102295 2560.260498 2628.880371 2742.277588 2673.537109 2564.858887 2442.683594 2301.960693 2136.480713 1984.182495 1814.886475 1759.658813 1768.241455 1900.331421 2075.810791 2231.044189 2338.091064 2473.019287 2633.674561 2761.010498 2849.410400 2895.619141 2995.389404 3042.262207 3193.312256 3116.447021 2971.856201 2949.974121 2924.674072 2840.655518 2819.883301 2771.015625 2692.739502 2653.930908 2655.644043 2697.716797 2784.849609 2695.491211 2628.163086 2570.896240 2485.175781 2392.977295 2312.462402 2193.570068 2029.717773 1889.680786 1912.136230 2032.336182 2131.545898 2235.929443 2326.526123 2361.074463 2314.068115 2223.599854 2094.805176 1955.204956 1885.715820 1940.459351 2117.162354 2268.835205 2389.568848 2534.311035 2651.511963 2797.464111 2890.759521 2947.041748 2914.788330 2897.204102 2920.280273 2810.210449 2682.269775 2552.111816 2453.390137 2426.052002 2467.151855 2563.277832 2624.676514 2756.438232 2737.646484 2829.078369 2871.116455 2875.578125 2691.437256 2557.272217 2497.391113 2429.895264 2337.550781 2227.555420 2101.750000 1974.677612 1861.476318 1755.949951 1679.090942 1676.838135 1647.695801 1613.760986 1606.881104 1614.775757 1503.441284 1514.140137 1727.670410 1995.239136 2182.508301 2326.216797 2449.071045 2608.269287 2722.594482 2740.351807 2693.943848 2636.859863 2617.625488 2714.255371 2662.530029 2638.350342 2642.318848 2760.604736 2800.980469 2805.156006 2738.177979 2706.682129 2713.881104 2723.117188 2614.715576 2475.701172 2391.109375 2404.778320 2355.603516 2334.966797 2350.789551 2368.482910 2368.916016 2391.086914 2431.187988 2514.272949 2629.426025 2730.228271 2804.485840 2830.580322 2862.668701 2932.049072 3053.491211 3073.079590 2946.959473 2997.730469 3004.233887 2950.057129 2953.696045 2937.584473 2866.701904 2821.112061 2837.473389 2865.694824 2752.796387 2734.276123 2723.435791 2622.669922 2585.323730 2511.656494 2328.913086 2243.029297 2283.413574 2377.538086 2351.154053 2211.825195 1963.730103 1768.671509 1711.442627 1709.441650 1758.422852 1876.598022 1943.483398 2014.657349 2119.725830 2236.762939 2228.006104 2286.876465 2252.077881 2288.567871 2304.973389 2350.957031 2455.026611 2558.564209 2504.045166 2441.974609 2435.998047 2464.397461 2415.093994 2264.079590 2198.816406 2244.132324 2354.949463 2353.560059 2226.525879 2114.368652 2027.538574 1897.064087 1783.787598 1680.005371 1581.277954 1635.010986 1782.005127 1890.526367 1926.967407 1829.344116 1783.356079 1768.647827 1651.993774 1642.709839 1716.639648 1791.957642 1790.431885 1746.423340 1688.941162 1602.879395 1455.130127 1447.622070 1492.263062 1472.841553 1441.861694 1433.032593 1399.827515 1338.355713 1244.022339 1162.302124 1089.379395 1072.827148 1097.106567 1146.738647 1276.115601 1448.678223 1561.989502 1669.887207 1758.708252 1837.043091 1917.561401 1997.377197 2085.347656 2151.565674 2191.344482 2261.079834 2337.615479 2387.486084 2482.398438 2538.080078 2360.282715
2479.913086 2308.386230 2196.821289 2070.441650 1975.249878 1987.476318 2004.648560 2083.967041 2183.476074 2283.760010 2378.471924 2476.662842 2567.127441 2677.881592 2726.208008 2662.578857 2690.753418 2679.157715 2679.741455 2702.511719 2667.745117 2612.247559 2600.882812 2649.148926 2690.303467 2669.103027 2618.134766 2444.733887 2343.620117 2185.930664 2082.222900 1973.730225 1824.071411 1792.122803 1773.618286 1823.012451 1841.361328 1883.369629 1948.174927 1977.236572 1979.448730 1975.408325 2019.299927 2109.247314 2112.195557 2022.468994 1924.099365 1846.888306 1755.347900 1661.065308 1634.520508 1667.358887 1696.934814 1672.438843 1617.830078 1556.667969 1476.719238 1438.190674 1391.046997 1348.558594 1420.498169 1485.448730 1514.044800 1540.887695 1621.987305 1717.716431 1864.117798 1922.440674 1848.411987 1706.099976 1552.160156 1381.121460 1225.586792 1113.960083 1020.547974 984.405396 1015.501404 1123.465820 1323.850952 1440.919922 1483.105347 1558.829468 1713.122559 1847.385010 1931.590210 1962.644165 1855.194336 1825.108032 1818.258301 1759.069702 1676.834229 1558.412476 1464.546509 1332.704102 1408.453613 1563.793823 1646.842773 1728.437988 1726.240845 1817.627441 1963.146484 2046.024780 2092.146729 2157.843018 2242.752441 2264.737305 2280.124512 2270.024658 2317.475830 2414.564209 2528.549805 2665.692383 2760.206055 2825.002441 2870.239258 2751.975098 2626.447754 2523.267334 2419.366943 2356.826416 2400.317871 2512.478027 2618.633057 2696.913330 2773.048828 2825.620361 2849.487549 2912.757324 2955.058350 3006.313232 2849.153076 2735.410645 2676.344238 2657.634521 2636.732666 2663.368164 2709.225342 2740.526123 2665.015625 2564.385742 2441.619629 2296.398438 2130.021973 1980.949219 1833.870361 1759.657471 1778.200073 1908.194824 2055.845703 2187.004639 2297.609375 2414.530518 2574.649170 2710.717773 2755.422607 2799.437500 2921.540771 3030.249268 3162.113770 3024.193115 2924.543701 2908.210205 2884.217773 2842.142822 2784.772461 2734.557861 2704.250732 2696.931641 2729.611084 2854.227783 2800.531250 2750.687744 2666.530273 2552.966309 2449.195801 2352.841064 2285.623779 2164.383057 1993.610962 1900.223755 2012.322632 2136.537598 2239.804199 2337.755127 2419.166260 2502.995605 2434.562012 2338.607422 2226.270996 2085.045410 1945.106689 1921.310913 2020.020386 2173.682373 2349.885254 2489.700928 2591.079102 2660.764893 2771.813721 2917.744629 2946.524902 2880.328857 2827.909668 2723.914551 2639.129639 2547.459717 2546.320312 2586.820557 2648.025879 2708.907227 2790.514648 2896.689697 2915.518799 2876.486084 2939.052002 2900.214111 2715.605713 2610.487793 2562.461426 2441.084229 2348.042725 2245.843750 2150.260254 2035.509521 1908.417725 1798.901733 1728.900146 1734.967041 1731.036133 1735.942627 1730.916016 1690.965454 1537.183716 1474.361938 1646.291748 1916.032471 2093.175537 2209.605713 2350.711182 2485.129395 2607.083740 2794.895508 2778.373779 2684.019043 2697.603760 2754.728027 2674.783203 2668.228027 2708.094971 2807.168701 2898.259521 2847.420654 2764.226562 2778.674072 2813.554443 2690.041748 2586.019287 2544.473877 2511.981934 2574.963135 2590.920898 2493.222168 2473.727783 2522.936768 2491.729004 2473.913086 2481.065674 2533.578613 2613.536865 2691.671143 2757.002197 2797.114746 2832.104248 2947.992676 3018.493408 2902.164062 2844.384033 2893.519287 3001.998535 3031.278320 3012.899658 3029.943359 2876.293213 2853.552734 2869.571289 2912.322998 2824.429932 2777.086670 2793.514893 2774.464111 2737.428955 2602.756592 2385.326416 2284.811768 2297.184326 2370.649658 2403.304199 2205.940186 2038.143066 1865.035156 1740.701660 1714.756958 1725.651123 1684.506714 1738.846558 1847.394409 1945.359253 2021.179443 2021.969482 2051.501465 2053.454834 2110.890625 2143.162354 2226.192383 2325.367920 2371.215576 2399.403564 2479.425293 2543.693848 2551.733643 2382.939697 2298.360107 2325.625732 2416.153076 2367.452881 2208.555420 2061.562744 1969.080444 1901.832886 1844.220215 1761.933716 1663.600952 1626.266846 1681.365112 1800.036987 1939.454712 1932.801758 1862.796021 1861.354004 1778.890503 1729.808594 1756.466187 1878.450439 1954.603149 1955.036255 1870.879395 1740.072388 1576.583496 1490.334595 1556.812622 1595.987671 1582.139648 1528.165161 1531.999756 1484.422485 1406.278809 1325.343018 1237.049561 1163.112183 1080.886841 1081.453369 1125.156982 1270.615234 1437.332764 1560.702148 1684.693115 1783.503906 1881.952881 1952.691528 1981.125854 2023.696899 2067.088379 2154.819580 2211.956787 2245.954346 2344.715088 2483.087402 2527.274414 2363.016357
2401.124023 2233.853760 2118.181641 2006.026611 2006.349731 2051.166260 2081.636963 2119.238281 2162.096680 2241.000732 2356.077637 2498.602783 2628.072266 2762.954346 2808.706299 2722.137451 2689.573975 2688.831055 2649.720947 2611.883789 2640.461914 2658.986328 2661.141357 2691.188721 2653.638672 2532.653809 2456.917236 2290.344727 2190.983643 2049.358398 1950.483276 1837.397095 1788.797607 1802.673706 1862.706909 1942.406616 1907.205688 1986.013184 2076.543457 2109.928955 2118.527588 2142.773193 2184.913574 2147.962402 1988.280151 1865.731567 1789.252686 1751.165649 1735.356201 1737.795776 1772.857666 1802.173218 1833.191284 1804.119385 1744.832397 1692.580444 1615.686157 1582.514893 1511.611450 1424.554321 1324.423584 1329.567261 1367.752686 1415.203369 1499.065674 1611.444580 1744.955078 1746.129395 1665.962769 1568.254883 1426.640747 1282.990723 1164.005371 1047.301636 987.997803 1037.996826 1098.208130 1247.678467 1568.381592 1683.745850 1672.325928 1674.030884 1837.118774 2000.970947 2086.028564 2088.998291 1980.030884 1982.530029 1931.086670 1821.874268 1679.168823 1584.552979 1485.596924 1377.015259 1399.388428 1538.364746 1725.563599 1798.647949 1853.345947 1955.072021 2060.398926 2038.258179 2037.866089 2104.468750 2215.210449 2314.404785 2347.054932 2352.185547 2397.123779 2479.975098 2561.257080 2642.631348 2724.209473 2795.012451 2831.960938 2733.646240 2621.750000 2537.375244 2434.261963 2369.407227 2380.285156 2469.015381 2542.984131 2585.097656 2648.871338 2698.989990 2747.197510 2807.916260 2882.809570 2997.357178 2891.969238 2821.020508 2783.932861 2775.317871 2790.551514 2786.051270 2637.814453 2629.205566 2613.922363 2525.667480 2401.200684 2259.288818 2113.392822 1978.151489 1840.413574 1759.857422 1785.816528 1925.490234 2055.489502 2140.598389 2242.806152 2364.712891 2541.281982 2579.241455 2654.496094 2764.937744 2947.060547 3091.745361 3149.180176 3016.563721 2938.923340 2879.812012 2844.048584 2814.948975 2789.590332 2757.777100 2722.640381 2724.974609 2836.275146 2933.674072 2842.579346 2844.790527 2734.856445 2564.687012 2419.579346 2311.575195 2201.395264 2072.110596 1944.831909 1951.669189 2098.475342 2214.890381 2331.991455 2440.318115 2485.053955 2555.659668 2508.342041 2449.632324 2313.932373 2192.028809 2049.210205 1963.027954 1985.487061 2131.676270 2323.507324 2481.054932 2569.187012 2672.340332 2803.833252 2910.403564 2903.312500 2829.093018 2781.446777 2695.817383 2642.320312 2645.374023 2640.193359 2658.440430 2792.522705 2846.218018 2889.345215 2927.661377 2983.032227 2914.002441 2963.804443 2957.608154 2819.143799 2748.682129 2598.663818 2436.303955 2329.705811 2240.437744 2169.531494 2081.774414 1976.114502 1897.546997 1820.010010 1788.690674 1806.935913 1831.642090 1785.845703 1682.660645 1504.107178 1464.440796 1601.573608 1847.828491 1994.455444 2101.361328 2230.840576 2381.122070 2572.573975 2755.763916 2804.418457 2767.094727 2820.895996 2813.833008 2748.561523 2722.443848 2761.630371 2895.031982 2946.162598 2833.653320 2824.825684 2808.578125 2731.159424 2673.438477 2643.684326 2644.186768 2596.942871 2638.014893 2730.634033 2663.791016 2625.778564 2626.068848 2592.970459 2582.388428 2563.438232 2588.363770 2612.671143 2655.498291 2691.854736 2735.234131 2823.860596 2906.382324 2803.691162 2793.818848 2825.645996 2902.474365 2970.881348 2998.313477 3061.887207 3068.591553 2919.603271 2892.609375 2926.093018 2974.554199 2972.753174 2852.548096 2873.730225 2891.683594 2838.122070 2691.718750 2495.996826 2364.508057 2346.784180 2401.403809 2403.959473 2244.758301 2097.643066 1948.972778 1835.267456 1742.167114 1704.152588 1624.449097 1615.171631 1671.842407 1695.082642 1713.291382 1791.205078 1851.329956 1914.279663 1964.479736 2007.736816 2106.489990 2175.855225 2209.013916 2259.422607 2323.458008 2397.115967 2463.446777 2429.822266 2408.804443 2458.242188 2336.530273 2241.217773 2132.560059 2036.641968 1997.902100 1975.214722 1924.831421 1864.919312 1774.516357 1730.830933 1752.393311 1822.425049 1951.315918 1949.610352 1917.495728 1864.604980 1818.734131 1811.005493 1905.695435 2073.376709 2134.190918 2024.692505 1874.762085 1700.109863 1528.066895 1564.248047 1664.836914 1712.869751 1681.463989 1636.545532 1608.357300 1529.746826 1446.040894 1386.191650 1339.372070 1247.191528 1151.341309 1096.097168 1084.008179 1219.546997 1365.196289 1504.052124 1614.466919 1743.416260 1827.974487 1830.203003 1849.511108 1908.563354 2001.252563 2085.959473 2172.721680 2262.346680 2369.789307 2472.173828 2457.377686 2313.681152
2318.831787 2172.746338 2049.373535 2003.942017 2069.915527 2125.500244 2166.250000 2218.380859 2219.803467 2238.365234 2317.103027 2443.051758 2584.975098 2753.088867 2756.843262 2637.106934 2570.189941 2572.477295 2578.666504 2525.304199 2600.416016 2644.638916 2588.308594 2523.462891 2511.466064 2356.363525 2282.882568 2181.387939 2032.877075 1923.137573 1825.942505 1804.421509 1831.765747 1887.997314 1978.264404 2044.673950 1988.156616 2099.405762 2208.144043 2261.273926 2275.840820 2286.917725 2168.587891 2012.765991 1876.027222 1826.933105 1844.610718 1845.802734 1864.980713 1855.136963 1883.316040 1923.916748 1998.825073 1964.165771 1906.689697 1823.432739 1744.545410 1737.845703 1635.359497 1545.162720 1448.980835 1379.578125 1296.894165 1319.075806 1424.973633 1551.838989 1650.687988 1582.745361 1470.830200 1400.128174 1304.293579 1210.904785 1102.013306 1005.287415 1001.429016 1115.063232 1224.349487 1458.840576 1703.864746 1829.361938 1828.554932 1760.857422 1910.467896 2082.632812 2206.480957 2210.719238 2144.600342 2112.529785 1987.233521 1854.577759 1757.590698 1692.305908 1605.404907 1479.021484 1393.008911 1420.921021 1579.139648 1675.631836 1779.407715 1908.991455 1977.177002 1919.642090 1931.398926 2068.301514 2186.210449 2238.069580 2266.329102 2283.232422 2313.980957 2378.348633 2457.472412 2542.848389 2641.165039 2698.506836 2745.231201 2675.748047 2601.199219 2570.527832 2470.347168 2392.913818 2386.541504 2458.300293 2516.695068 2536.724609 2581.446045 2719.073242 2775.242188 2787.976074 2909.512695 3040.585449 2940.896973 2893.343994 2912.041016 2941.660889 2888.249756 2729.453125 2574.535400 2537.418213 2496.108398 2414.730225 2364.663330 2252.983887 2086.652588 1960.174072 1828.338013 1759.637451 1786.360840 1893.956665 2026.743774 2124.935059 2183.092041 2336.007568 2462.488525 2529.423584 2625.644287 2803.374512 2962.454346 3002.423828 3018.022461 3046.710205 3012.268799 2947.455322 2891.992432 2841.289551 2810.021729 2785.110107 2750.703613 2811.812256 2860.885498 2807.147461 2750.117920 2720.325684 2644.560303 2500.723633 2365.603760 2257.991943 2112.614990 1986.173096 1937.127441 2041.138306 2182.512939 2306.965820 2434.400146 2531.168701 2551.855957 2587.156982 2576.351562 2539.501709 2433.601807 2290.196533 2155.603271 2039.862549 2003.212646 2117.221191 2316.604492 2495.945801 2651.531250 2792.517334 2889.583496 2895.192383 2981.361328 2893.637695 2778.197998 2697.968018 2667.397949 2665.960449 2683.285156 2749.293701 2957.291260 3023.962402 3042.645264 3051.037842 2951.094727 2807.120850 2793.856934 2874.402100 2861.771240 2708.388428 2512.888184 2365.441895 2261.454590 2195.742432 2146.781250 2109.981445 2032.913574 1965.619141 1900.896362 1829.087891 1810.447754 1819.711914 1738.825317 1586.776611 1463.874512 1471.752441 1555.523926 1691.489868 1839.465454 1995.027100 2133.433105 2341.206787 2526.868164 2606.561768 2696.004639 2784.173584 2900.782471 2830.612305 2789.270020 2840.261963 2908.779541 2970.363037 2998.788330 2937.374756 2831.700195 2769.342285 2715.620361 2699.873047 2675.039062 2719.809814 2652.784424 2692.950195 2769.874512 2790.887207 2725.025879 2785.707031 2683.599854 2633.496094 2636.384277 2620.110352 2624.166504 2651.694092 2693.138428 2770.358643 2818.859619 2686.623047 2663.376953 2697.737549 2760.900635 2829.360596 2828.328125 2890.126221 2979.494873 2912.810059 2929.592041 3000.526367 3084.835205 3069.567627 3072.245117 3062.175781 2994.924072 2891.722168 2741.932617 2644.522461 2475.493896 2393.558594 2408.016602 2487.095703 2459.456543 2314.387451 2155.514404 2035.057129 1956.990356 1894.667725 1863.127930 1755.890259 1676.672974 1596.281738 1553.286743 1545.714966 1613.036865 1719.713257 1800.557495 1856.485596 1918.197998 1995.145142 2048.598145 2082.495117 2154.210938 2191.742432 2244.046875 2336.412354 2459.898926 2561.507080 2583.449951 2429.290527 2335.742188 2215.996826 2155.787598 2172.822266 2181.830811 2104.750244 1990.441040 1865.557373 1833.718140 1843.214355 1871.339844 1978.075684 2049.972412 1982.537598 1949.091797 1953.595337 1932.912964 2040.950684 2173.485840 2115.097900 1946.604126 1792.558228 1634.135376 1540.285278 1664.441528 1770.716919 1830.436035 1793.479126 1731.908569 1657.263916 1588.703857 1516.361938 1454.880493 1375.519897 1273.693970 1184.744507 1138.847046 1071.156616 1148.935547 1275.357178 1430.974731 1579.943604 1661.205078 1684.657349 1667.987793 1723.384766 1830.340942 1939.948608 2061.059814 2171.812500 2278.006592 2395.965576 2419.584229 2323.067383 2203.491455
2280.555908 2128.131348 2035.270508 2051.304932 2110.073242 2181.315674 2239.038086 2313.196777 2304.604736 2284.118896 2354.927490 2429.732666 2519.136963 2657.674805 2639.002686 2566.019775 2486.540771 2461.534424 2500.161621 2425.772705 2478.513184 2493.251221 2486.974609 2373.718994 2390.131104 2265.355713 2135.629395 2049.937988 1928.382080 1849.457031 1825.637695 1854.884766 1916.971191 1987.609985 2078.383789 2153.463135 2101.981445 2171.522461 2306.309326 2418.343018 2384.421387 2250.647461 2062.111328 1898.401489 1877.155273 1913.802612 1935.354370 1928.567383 1958.039917 1993.661255 2018.224243 2045.614014 2122.864990 2139.169678 2079.170410 1953.921509 1902.029419 1920.083130 1820.042725 1712.798096 1622.473145 1540.400269 1410.223145 1278.598755 1330.124023 1427.950073 1472.842041 1422.961670 1366.161743 1309.218994 1245.947998 1114.284790 1008.066772 996.859619 1091.418823 1295.161133 1416.837646 1622.152466 1879.503662 2000.025146 1996.258667 1921.166626 1921.962646 2099.095459 2278.247314 2378.021484 2330.081299 2272.350586 2145.125244 2029.158569 1947.919434 1867.814697 1729.817627 1583.951294 1482.855957 1465.889893 1473.988770 1578.964233 1673.057861 1757.906250 1825.333984 1816.574463 1939.245850 2079.183594 2118.910889 2138.038574 2154.272461 2187.934326 2201.711914 2237.625244 2323.026123 2412.549316 2508.954834 2598.366943 2671.954834 2699.427734 2716.280518 2715.014404 2569.908691 2446.350098 2409.710938 2439.593018 2509.049805 2556.326904 2603.074707 2706.602051 2828.573242 2844.784180 2919.885010 2954.884033 2862.084473 2862.012939 2872.562500 2880.783203 2877.029541 2722.722656 2574.460938 2510.282959 2465.677490 2411.762695 2330.028809 2207.968750 2069.278809 1940.543091 1823.921143 1759.624634 1781.803467 1899.935181 1994.108765 2113.458740 2203.990967 2360.398682 2473.276367 2580.281982 2686.735352 2837.628174 2874.394775 2884.853760 2900.442383 2929.508545 3040.557861 3089.882080 3090.672119 2976.905762 2901.677979 2870.728271 2883.072266 2815.691406 2763.095703 2705.752686 2615.194824 2577.240479 2522.073975 2423.244141 2300.962402 2176.439941 2030.199463 1948.049072 2001.092773 2129.735107 2271.603271 2398.234863 2497.727539 2603.226562 2651.115967 2727.087158 2736.849121 2590.756592 2480.592773 2376.312500 2232.900146 2123.608643 2110.739502 2232.698486 2400.976562 2597.144775 2776.654785 2805.318359 2793.688721 2814.090088 2961.605957 2943.183594 2800.828857 2735.756836 2712.506348 2738.423096 2782.526123 2854.272705 3073.753662 3137.250977 3140.724121 3006.872559 2909.240479 2764.574219 2714.646240 2708.968262 2668.977295 2565.350342 2402.757080 2264.646484 2171.612793 2113.020508 2094.425293 2088.237305 2026.519043 1953.784424 1882.302490 1789.969604 1732.742920 1649.639893 1539.744263 1473.515747 1470.406128 1524.391724 1564.944092 1596.339355 1707.306274 1881.365967 2087.121094 2323.372070 2429.055420 2513.153564 2584.832031 2655.633545 2814.875488 2873.117188 2877.739502 2888.986328 2825.806152 2873.257324 2980.471191 2866.008789 2790.843750 2776.610840 2725.173584 2727.604248 2785.399170 2827.696533 2803.105225 2765.546631 2779.163086 2811.297119 2800.694580 2893.245361 2812.011963 2694.337891 2757.385010 2780.962158 2733.953369 2757.043213 2822.299805 2816.931885 2708.511230 2599.011475 2611.437744 2649.773926 2673.941650 2714.512695 2770.882812 2854.500732 2866.581299 2799.237793 2887.659668 3017.292969 3109.090576 3144.932861 3069.116699 3104.043945 2980.937988 2750.252686 2584.876221 2537.930176 2451.105957 2350.747559 2404.484863 2520.102051 2546.430908 2427.056396 2243.069580 2131.527832 2087.785400 2025.312988 2011.283813 1907.531372 1761.484131 1620.207397 1587.159058 1484.110107 1501.108398 1565.778809 1661.213745 1726.857056 1832.865112 1895.394897 1941.628540 1968.416626 2041.959106 2134.694824 2220.716064 2293.227783 2408.745605 2507.553223 2598.313965 2590.346680 2502.326904 2364.493408 2312.589844 2324.311279 2228.896484 2158.245850 2086.025879 1979.752686 1911.106201 1918.252686 1978.287842 2066.899414 2129.802734 2075.308350 2052.104492 2137.046631 2065.530029 2199.468750 2150.515625 2007.744263 1878.820435 1767.010498 1605.695312 1612.574829 1755.031494 1860.063599 1912.076050 1868.345581 1805.197388 1735.490479 1662.184814 1581.457886 1490.795776 1381.758423 1284.403931 1182.774292 1142.144775 1057.676636 1144.956543 1280.571289 1419.577881 1465.878540 1534.812134 1558.999390 1588.697632 1695.496582 1773.406738 1866.858643 1972.931030 2102.770752 2242.051270 2314.906006 2278.879883 2144.703857 2052.200684
2199.957275 2076.990723 2043.778809 2091.031006 2150.480957 2223.785645 2300.740479 2376.821045 2361.064453 2282.548584 2353.978516 2458.588867 2520.163086 2617.536377 2614.037598 2508.809082 2422.165039 2367.250488 2347.096191 2289.360107 2308.852783 2320.740479 2290.239014 2257.514160 2222.614258 2154.381348 2030.078247 1943.072021 1869.693726 1839.203979 1847.693481 1917.335693 1973.328979 2076.762451 2193.355469 2280.051758 2252.310547 2290.002930 2399.104492 2495.014648 2354.289551 2150.241211 1973.249268 1913.712646 1969.105957 2024.516968 2063.365234 1983.398193 2002.241821 2115.325195 2169.134521 2180.571045 2244.205811 2314.631104 2272.313965 2102.811035 2111.469727 2170.977783 2108.498535 1988.357056 1853.247803 1655.395386 1459.129761 1400.701172 1265.025146 1272.341309 1300.457275 1332.498779 1302.833618 1226.729980 1108.884277 1001.676758 1016.011169 1137.151733 1289.297729 1424.151978 1561.702515 1732.994629 1903.953979 2043.360840 2105.138916 2086.657227 2038.263916 2120.784912 2296.137939 2394.065918 2308.090088 2222.706055 2149.318115 2068.134277 1998.086792 1894.059082 1770.827148 1648.135254 1529.875000 1558.234131 1482.474976 1513.804688 1598.230957 1662.792358 1700.598755 1792.872437 1927.543945 2009.525269 2012.729736 2037.890747 2043.210938 2079.222900 2124.836670 2177.821533 2264.148193 2332.560059 2411.136230 2508.107666 2574.786133 2577.288086 2649.661133 2756.708984 2692.010986 2586.260010 2482.621338 2440.892334 2482.453125 2549.795898 2633.909424 2754.122070 2874.936768 2960.438721 2997.274658 2929.760986 2806.547852 2783.461670 2773.242432 2787.447998 2763.276611 2727.813721 2636.529297 2589.230957 2498.830322 2466.741943 2332.930664 2160.491211 2065.279297 1947.814819 1837.978882 1759.632568 1775.486450 1891.854858 1988.316406 2111.528320 2238.925293 2371.377930 2508.531982 2601.333740 2751.200195 2874.368164 2799.604248 2805.518311 2848.211670 2855.721924 2960.368408 3118.388916 3118.047363 3085.725830 3058.071289 3040.169434 2903.336914 2793.080566 2769.894043 2704.633545 2570.677490 2492.378662 2428.811279 2330.204346 2236.670898 2104.462646 1973.006714 1992.913086 2077.718262 2209.089355 2370.344238 2475.511963 2567.611816 2670.064453 2800.797607 2900.749756 2855.676758 2685.849854 2542.581787 2425.550293 2330.013428 2257.529785 2224.169434 2259.250732 2413.145752 2577.871094 2706.396240 2735.593262 2739.374756 2754.516357 2872.607178 2971.480957 2899.534668 2859.508545 2846.685791 2875.613770 2868.845215 3005.654785 3107.882812 3009.416504 3032.480225 2941.424805 2844.202148 2771.511475 2707.527832 2639.097656 2551.469238 2470.864502 2306.393066 2176.270996 2098.834473 2022.757080 2000.409180 1984.394043 1924.232910 1813.056396 1698.694824 1593.374512 1536.578857 1498.314819 1480.432861 1495.676270 1558.375244 1663.461548 1669.269043 1640.496826 1630.739502 1779.044800 2008.051392 2239.655029 2329.404785 2412.994141 2510.887695 2603.236572 2749.726562 2855.289062 2840.025146 2771.598633 2769.451172 2816.891113 2939.574707 2859.572266 2806.808594 2783.984131 2808.249512 2915.844482 2960.072266 2913.524170 2883.165039 2968.255371 2895.831299 2862.602051 2879.354492 2915.293701 2791.310791 2736.521973 2772.995361 2858.510254 2933.103271 2950.447998 2880.814941 2706.477783 2623.517090 2594.275146 2601.202393 2590.561523 2616.296387 2700.958984 2725.925781 2746.964600 2746.664795 2737.175781 2847.210693 2970.376465 3138.312012 3163.525879 3067.981445 3009.530762 2927.787598 2655.198730 2533.147461 2522.824951 2438.195801 2350.420654 2409.743652 2529.816406 2633.965332 2518.230469 2367.324707 2254.860596 2220.561768 2156.821045 2113.879639 1978.798218 1777.806885 1634.044922 1497.952759 1419.541016 1426.706787 1422.389038 1481.992920 1594.691772 1724.508789 1804.858887 1853.466064 1901.745483 2009.197021 2096.184570 2133.167480 2159.549561 2240.152588 2335.830811 2426.456299 2499.448975 2532.860352 2464.001221 2473.588135 2469.403320 2344.617432 2193.132568 2104.154053 2038.935181 2019.370850 2075.785889 2133.066162 2209.485840 2291.149902 2254.356201 2221.236084 2215.765625 2202.942139 2172.271240 2041.325806 1890.899414 1797.322388 1681.185303 1609.486816 1706.076660 1847.363770 1914.026123 1852.570190 1788.413940 1741.223877 1678.030029 1613.156616 1561.444214 1487.340698 1382.620605 1276.693359 1150.510742 1077.356689 1058.722290 1144.467285 1234.550781 1292.290894 1318.441650 1378.028931 1465.219727 1585.654907 1665.297974 1751.630127 1833.842651 1975.214844 2102.622070 2229.839600 2178.776611 2075.535400 2006.344971 1893.987061
2153.154541 2058.413574 2072.264648 2139.740234 2196.298340 2277.504883 2368.595947 2455.123047 2389.096924 2309.069092 2340.628174 2457.505859 2556.551025 2620.395508 2562.532959 2484.102295 2441.250977 2393.427734 2324.873291 2206.615967 2174.781982 2163.650146 2107.270508 2091.354004 2094.884277 2005.966431 1930.836060 1898.393555 1887.607056 1870.643555 1876.831543 2016.062134 2089.776123 2093.912109 2192.514404 2345.894775 2416.067871 2430.695801 2533.999268 2453.766602 2268.684570 2046.627319 1945.104248 1998.369751 2086.248535 2155.462646 2181.408203 2052.454102 2066.969238 2235.630615 2361.284668 2348.845703 2426.358398 2491.697998 2411.745361 2269.224121 2342.954834 2348.702881 2226.325195 2083.583740 1834.458740 1638.531006 1695.240601 1607.671753 1394.041748 1223.502930 1187.977051 1172.588135 1128.765137 1141.365234 1015.305420 1019.555542 1231.820923 1392.944702 1473.499878 1487.653931 1642.688843 1770.126343 1895.228027 2060.372559 2249.675049 2245.008057 2204.239502 2254.460938 2373.717041 2351.719971 2233.611572 2155.789062 2087.593506 1995.711548 1887.074341 1783.253418 1670.656006 1615.055176 1609.208740 1644.144043 1570.951050 1521.097900 1557.683228 1614.412964 1665.658569 1735.559204 1810.235352 1864.108643 1888.768799 1936.701660 2027.616821 2129.015381 2214.867432 2295.299805 2337.186279 2340.529297 2362.834717 2418.059814 2470.349609 2507.089844 2570.334961 2670.333252 2728.444336 2734.352051 2655.494629 2531.594482 2529.862549 2599.545166 2707.392334 2889.550781 3023.778320 3026.237549 3015.586426 2843.618408 2745.024902 2719.406982 2728.167969 2684.548584 2655.864258 2712.025146 2725.240967 2661.912598 2575.350342 2466.775635 2313.724854 2168.587158 2045.715088 1947.999878 1838.639404 1760.002930 1764.817505 1865.735840 1993.303467 2110.996094 2272.254639 2436.885010 2590.530762 2703.316650 2767.282471 2764.603027 2766.971924 2797.437744 2825.815918 2877.833740 3018.801025 3012.507568 2970.577393 2928.179932 2917.881592 2936.730225 2953.501465 2951.018066 2903.566650 2691.038818 2562.690918 2470.356934 2380.859863 2229.850098 2126.159668 2017.724487 2003.052002 2065.957031 2188.535645 2324.628418 2452.082031 2573.696533 2676.001221 2799.833984 2949.862549 3074.248779 2956.534668 2795.321289 2663.873047 2589.878906 2582.008545 2536.251709 2427.751221 2368.026611 2397.871338 2566.852783 2676.569824 2689.586914 2710.286133 2756.058105 2815.786865 2920.802246 2993.640625 2991.178467 2967.562500 2949.683350 2995.022461 3102.448486 3066.770508 2982.260986 2958.966064 2980.615479 2881.289307 2798.913330 2689.462402 2610.091553 2516.817871 2395.697266 2248.868652 2121.248535 2013.378662 1919.291504 1901.007935 1875.412476 1766.255737 1639.626831 1545.213623 1508.430298 1530.942383 1542.427612 1558.277466 1633.751953 1735.440796 1828.245361 1806.241455 1736.571899 1638.896484 1709.228638 1924.997437 2146.771729 2247.594971 2304.669434 2384.409668 2517.284424 2610.752197 2672.122803 2714.065918 2726.868896 2730.913086 2803.006836 2934.607910 2908.546875 2860.472168 2863.936035 2927.434570 2984.343750 3046.241699 2985.283447 2968.083252 2934.401367 2883.260254 2891.769287 2932.211426 2979.300537 2907.879395 2851.654785 2816.676514 2869.041748 2915.827881 2836.666016 2809.310547 2725.667969 2559.025635 2559.062500 2527.425049 2577.427246 2608.438721 2632.433594 2578.156250 2580.785645 2596.487061 2641.614502 2717.793457 2842.732178 2927.291992 3058.166504 3078.521484 2941.667480 2838.575439 2611.071289 2558.199219 2557.072021 2459.067139 2388.081299 2460.055176 2544.265381 2610.712402 2492.961914 2363.054932 2295.240234 2212.092773 2091.503418 1990.127075 1810.607422 1676.309326 1591.973267 1584.634888 1472.839722 1402.083618 1390.232666 1415.860229 1497.080200 1623.489136 1706.494507 1790.909424 1830.128540 1894.222900 1935.285156 1960.755615 2021.782349 2081.040039 2171.094482 2281.078613 2351.636963 2357.589600 2334.909912 2362.239746 2473.223633 2417.003174 2226.427734 2159.019043 2187.477539 2248.074463 2280.349365 2363.845215 2360.895020 2293.054443 2256.543213 2275.814453 2163.215820 2117.098145 2031.977295 1919.429443 1816.542969 1712.384644 1670.697510 1725.324707 1841.653198 1883.912476 1848.539429 1797.707153 1721.630493 1654.525635 1581.602539 1521.296631 1466.325806 1443.338745 1375.706055 1284.844849 1152.721558 1040.917236 1062.632202 1111.268921 1210.667969 1304.332764 1391.510864 1487.916992 1580.043457 1687.734375 1775.541016 1865.144043 1934.835205 2024.371582 2135.514404 2218.915527 2120.614258 1941.895752 1821.453857 1721.779907
2111.990234 2067.205078 2100.278809 2181.523438 2251.921143 2317.356201 2409.676270 2521.157227 2448.423340 2350.692139 2342.935791 2430.750977 2507.593506 2573.616943 2530.229736 2485.561279 2476.218750 2446.155273 2417.051025 2241.802002 2090.277832 2048.908936 2030.776001 1982.969727 1967.287842 1938.364990 1949.326904 1979.341431 2037.918945 1963.594238 1891.754272 2030.544556 2205.191895 2265.765625 2243.019531 2332.650879 2502.639404 2580.171875 2554.874268 2341.514404 2164.843262 2026.860107 1999.453491 2121.835205 2201.137207 2259.573975 2242.327881 2113.946777 2151.289551 2288.753906 2480.964355 2559.599609 2611.338623 2639.963623 2490.044678 2499.154297 2522.594482 2350.875000 2167.010010 2012.599121 1859.599121 1823.173218 1856.572144 1668.064209 1530.656616 1432.386719 1313.653564 1250.645996 1123.940552 1011.738342 1033.487061 1218.722290 1416.306274 1542.651245 1597.775269 1620.547363 1668.450195 1820.639771 1993.105591 2195.031494 2403.043945 2348.731934 2382.050537 2404.509277 2434.485107 2343.172607 2214.470459 2134.581299 2066.761719 1976.658325 1875.975586 1756.922729 1725.754395 1724.328491 1744.951050 1773.359497 1680.328613 1606.874268 1563.065552 1586.605835 1633.105469 1679.326660 1743.766113 1807.783691 1901.528687 1998.630493 2107.832764 2212.420654 2303.248291 2410.795654 2487.264893 2423.235352 2397.243408 2400.070068 2431.377686 2547.446289 2642.081299 2672.852051 2829.675293 2887.802490 2804.046631 2663.365967 2629.809814 2644.998535 2805.164795 2959.258057 3021.681396 2905.424316 2929.425293 2888.140625 2752.329834 2643.389404 2644.865479 2661.582764 2613.705566 2596.151367 2623.854248 2599.882080 2540.274658 2458.464355 2325.192139 2142.113037 2016.076782 1945.112915 1829.600464 1759.600464 1759.810425 1831.484009 2000.531860 2144.807373 2309.826660 2429.317139 2512.648926 2586.315186 2611.137207 2640.097412 2701.219482 2754.985840 2848.199219 3015.773682 3157.821289 3066.804932 2971.373535 2903.364014 2870.222656 2854.363037 2879.935547 2954.204590 2844.906250 2658.403564 2561.876953 2447.778564 2323.203613 2177.755127 2042.282227 1987.473999 2051.460938 2161.982422 2293.416016 2420.233154 2542.354004 2658.241943 2787.525391 2950.494629 3040.180908 3046.850830 3060.401611 2957.460693 2852.676270 2850.784180 2835.428223 2793.274902 2649.497559 2572.128418 2492.384521 2556.306885 2632.944092 2678.026123 2755.491455 2809.260254 2860.736084 2961.987061 3043.070068 3034.258545 3017.196777 3030.153076 3080.255371 3034.570312 2971.683838 2906.778320 2888.673340 2892.977051 2822.934082 2817.997314 2664.077148 2531.763184 2450.432861 2331.460205 2185.136230 2063.291748 1950.543213 1836.631104 1803.955933 1726.239746 1590.377319 1527.482178 1539.857422 1610.577026 1680.305054 1694.781860 1741.035156 1822.097900 1938.624878 1993.955444 1944.642578 1832.562378 1705.223267 1648.202026 1807.592163 2015.604248 2100.791260 2172.271973 2272.223633 2394.222412 2483.408691 2523.957764 2557.541016 2618.438477 2657.561035 2739.814209 2862.816895 2869.019775 2887.381348 2891.533936 2918.635254 2926.155518 2966.604492 3067.986816 3032.677979 2833.541260 2768.415771 2770.395752 2843.959717 2940.551025 2937.963379 2815.103271 2839.631104 2782.656006 2699.098877 2670.239990 2728.051514 2668.105713 2521.580566 2516.454834 2506.908691 2489.071777 2504.207275 2497.310303 2507.325195 2535.073975 2575.441162 2593.766357 2647.551758 2752.401123 2881.758057 3015.327393 3035.986084 2879.483154 2724.283936 2586.557861 2588.927734 2588.801758 2441.281250 2449.593262 2522.479492 2597.980957 2531.147461 2364.710938 2214.974609 2120.194580 2016.165039 1884.985718 1760.130737 1651.953125 1621.760742 1636.886353 1738.022705 1606.854858 1452.085083 1378.794189 1378.157471 1403.032959 1438.416748 1504.137329 1579.951294 1614.677368 1690.904297 1765.332642 1811.923950 1870.901733 1953.649658 2060.859619 2142.807617 2205.123047 2247.870605 2228.623291 2256.443848 2393.980713 2420.431396 2356.534912 2343.260498 2410.570557 2444.959473 2445.906494 2338.843506 2250.896484 2195.894775 2126.604004 2129.961670 2051.517578 1961.412598 1888.959717 1814.474731 1760.698364 1742.885742 1795.315552 1873.302246 1891.687744 1823.706299 1779.467896 1733.990601 1649.381714 1585.301270 1545.765503 1430.252075 1355.441772 1355.178101 1322.130249 1263.316284 1131.569946 1018.917847 1060.476440 1120.520752 1249.302612 1373.736084 1444.083496 1543.195312 1625.583984 1705.444702 1796.140259 1890.172974 2010.360596 2101.806396 2178.314697 2160.098633 2016.882812 1912.797974 1749.330688 1577.198975
2108.413086 2086.513184 2150.106445 2217.531250 2293.375000 2353.864502 2431.680908 2538.425537 2505.438477 2401.157959 2357.755371 2394.438477 2454.336426 2509.820557 2537.456055 2522.089111 2553.892334 2522.377197 2468.872070 2280.866699 2137.511963 2150.122070 2188.411621 2064.989014 1978.303345 2019.979126 2084.255127 2138.489746 2211.429688 2055.949951 1911.913940 2015.604980 2205.485352 2363.102051 2387.182129 2387.828857 2499.976807 2660.240234 2551.025391 2382.908936 2144.541504 2030.485229 2078.325684 2206.979492 2285.213135 2350.544434 2289.981689 2199.447021 2298.457275 2315.231689 2409.689941 2542.888184 2679.012451 2764.836914 2690.427734 2654.793457 2476.150146 2304.934082 2167.032715 2068.691650 2001.424316 2046.337769 1987.493164 1866.876465 1755.281494 1644.039551 1440.356567 1243.947998 1054.929810 1012.738281 1207.734497 1352.755127 1427.865601 1510.203369 1614.642090 1728.873657 1851.208618 1939.279297 2071.126465 2252.451660 2406.227295 2411.766846 2485.742920 2554.977051 2479.108643 2349.067139 2240.794434 2146.083740 2061.681152 1984.455078 1872.478394 1808.726074 1880.302246 1861.431641 1893.288940 1900.608765 1798.307251 1705.318359 1619.849243 1587.593018 1639.735596 1679.983887 1753.267700 1843.141357 1948.799194 2062.750977 2158.984375 2247.514893 2319.225586 2431.300537 2534.361084 2548.500244 2498.266113 2457.814453 2465.166260 2571.031494 2667.441162 2709.527588 2861.767090 2984.819824 2937.855225 2799.998291 2714.908936 2710.142090 2880.079834 3011.630859 2947.089844 2871.492676 2808.839111 2746.835938 2764.747559 2700.125244 2615.969238 2584.973877 2536.021240 2539.571289 2526.640381 2506.957764 2455.947998 2394.485840 2291.948486 2125.864990 2030.136597 1934.534546 1799.797607 1759.631348 1759.674805 1832.309326 2035.549194 2192.895752 2285.795898 2345.357666 2441.401855 2511.982178 2560.338867 2619.791016 2659.257568 2728.399170 2856.397949 2987.982422 3188.609863 3264.284912 3121.830322 2920.433838 2841.337891 2797.019287 2797.023682 2837.890137 2824.101562 2675.524902 2521.012207 2407.979004 2258.625244 2101.146729 1995.279297 2004.017090 2129.414795 2280.516846 2390.859131 2490.742920 2631.840576 2755.741455 2871.040527 3024.086914 3051.919189 2958.572266 2973.626465 3005.664795 2987.670898 2994.967773 2976.806396 2934.942871 2761.878174 2619.091797 2533.287354 2573.074707 2657.886719 2793.877686 2876.026611 2905.294922 2967.566650 3069.019287 3099.444580 3076.263672 3111.565430 3037.150391 2996.883545 2986.837158 2941.744385 2868.523926 2796.141602 2808.003418 2785.259521 2763.313721 2676.625244 2508.724609 2353.271484 2237.330566 2121.255859 1990.234619 1880.250488 1749.615723 1670.514160 1576.027344 1533.346680 1606.928955 1689.770020 1769.223633 1824.617432 1860.804932 1941.782471 2022.414673 2106.128906 2141.862549 2050.370850 1930.131348 1772.412231 1671.859619 1712.380859 1888.449097 2003.374023 2080.016846 2173.473633 2274.403809 2338.004395 2403.464355 2450.817627 2494.486572 2550.368164 2659.173828 2715.319336 2687.740479 2708.761719 2783.888916 2864.741943 2908.283936 2975.933594 3036.709961 2990.554688 2766.842529 2714.632080 2753.172852 2783.603760 2861.391357 2823.928955 2664.460938 2702.748535 2613.041992 2544.008301 2617.700195 2652.238037 2516.889648 2405.089600 2414.476074 2392.851318 2398.553711 2451.685791 2466.630127 2477.891602 2544.586426 2603.685791 2627.055420 2653.413818 2703.063965 2860.045898 2991.967285 2925.666992 2853.322266 2679.794189 2600.099121 2638.864746 2525.241211 2481.843018 2513.630371 2560.366943 2606.966064 2416.357666 2272.985596 2149.679199 2047.709106 1901.164917 1730.115723 1646.583374 1664.908325 1737.804443 1754.696533 1652.801392 1540.564575 1434.452393 1376.116089 1366.201294 1364.319458 1365.904907 1365.756836 1400.453125 1464.034302 1509.798340 1582.472534 1659.362549 1721.133423 1818.887695 1921.940063 1969.175659 2022.507568 2097.253662 2155.895508 2190.409668 2262.873291 2311.734375 2400.425293 2446.902344 2454.806396 2466.816406 2394.231201 2287.083496 2218.458740 2160.575195 2070.480713 1998.170898 1918.707031 1859.375854 1812.581543 1802.254517 1825.610718 1860.014404 1916.658203 1906.208008 1846.866821 1766.199585 1699.410156 1652.052612 1579.400146 1495.675537 1473.000122 1404.657715 1308.215576 1242.749634 1227.571045 1179.462402 1086.411621 1009.574585 1070.993774 1125.838501 1234.952393 1341.159912 1422.656372 1516.785400 1616.942261 1729.059326 1839.155151 1950.546143 2069.867920 2119.827881 2105.416992 2089.272461 1878.084961 1733.448486 1605.208496 1512.889404
2111.562988 2111.026367 2172.485352 2246.022949 2312.718262 2403.130615 2467.682617 2570.295410 2543.290771 2441.491455 2390.244629 2381.588867 2420.769287 2479.172119 2577.342529 2619.538818 2654.959229 2589.508057 2486.588623 2344.567383 2223.025146 2275.009766 2330.491455 2143.787109 2029.928955 2147.855225 2237.724365 2323.403076 2319.705078 2121.705566 1945.642822 2049.770264 2166.351562 2305.409424 2472.053467 2543.868896 2572.484863 2665.219238 2524.339600 2319.683594 2149.193115 2068.258301 2148.908936 2263.581299 2360.959473 2423.326660 2359.221191 2306.002441 2430.739990 2468.522705 2485.619873 2541.248535 2596.371826 2759.812012 2812.471191 2645.636963 2499.653564 2431.848145 2346.419678 2327.153564 2236.175293 2248.696289 2068.501709 1959.216309 1825.219849 1602.278809 1366.228760 1135.878052 1015.711975 1150.405151 1302.199219 1342.635010 1421.387573 1561.481934 1693.606689 1812.296875 1986.861938 2151.047607 2259.147461 2358.040283 2423.388428 2455.931396 2575.738037 2645.035889 2479.514160 2339.843506 2256.464600 2175.870361 2098.886475 2011.203613 1898.622559 1907.397461 2015.606567 2026.069824 2016.374878 1956.209229 1844.030029 1771.895386 1679.741577 1615.867188 1613.258301 1653.395508 1731.172485 1821.772217 1939.924072 2031.370117 2145.660889 2223.004639 2289.813477 2364.269531 2442.474365 2555.430908 2613.417969 2614.323975 2616.042969 2643.201904 2710.340332 2778.546387 2850.835449 2915.139893 3023.229736 2920.158691 2790.414551 2776.018799 2825.990967 2962.012939 2895.891846 2811.279785 2765.693848 2694.447021 2657.897705 2706.908203 2672.126465 2556.844238 2470.970947 2462.856445 2432.026123 2367.315430 2295.739502 2248.460938 2198.192627 2123.027832 2019.461792 1874.439453 1763.798828 1759.578247 1759.841919 1855.257812 2069.486816 2245.012939 2360.036865 2366.321289 2405.993896 2487.988525 2537.530762 2586.566650 2636.047363 2730.324219 2814.843506 2951.448242 3140.727539 3253.508789 3196.311523 3019.042480 2860.334717 2776.691895 2732.287109 2717.063477 2664.457764 2573.293213 2457.371826 2348.869141 2182.949219 2032.198242 2028.729614 2096.476807 2288.503174 2474.439941 2585.122070 2653.012207 2813.718750 2942.117432 3040.963867 3128.589844 3033.951904 2914.176025 2880.310059 2863.559570 2865.861084 2868.593994 2864.345459 2838.867432 2704.142334 2605.164795 2596.727783 2625.758789 2762.552490 2973.314209 2998.785645 3005.762695 3082.838867 3178.330811 3179.410645 3203.812500 3152.332520 3033.522705 2936.294678 2914.403564 2890.337891 2777.072510 2694.579590 2706.713623 2731.301514 2702.819336 2615.310059 2469.446045 2321.125488 2186.349854 2038.716431 1922.121216 1774.926270 1639.723145 1564.362549 1557.859375 1642.373535 1773.300781 1868.952515 1946.951416 1989.187378 2035.236938 2096.706543 2180.113770 2260.231934 2250.035645 2129.335205 1983.321899 1855.447021 1758.445068 1660.618286 1813.699707 1916.156006 1975.726074 2036.064209 2119.760986 2180.766846 2257.809570 2349.261963 2433.209717 2504.076904 2575.847168 2620.125000 2641.269531 2715.112793 2768.898438 2796.880615 2803.906738 2827.347900 2890.222412 2939.218018 2726.751953 2675.961914 2752.344482 2830.974121 2832.453613 2754.855713 2579.684570 2614.747314 2520.393311 2518.308594 2549.943604 2492.184570 2375.859863 2341.662842 2314.438721 2314.794189 2350.080322 2423.741943 2463.447510 2472.715820 2524.474365 2565.983398 2618.579102 2673.372070 2707.342285 2804.952881 2941.760010 2857.755859 2754.324463 2651.983643 2638.067139 2669.812988 2528.190186 2544.805420 2573.052734 2597.737061 2624.900879 2452.822266 2309.229492 2143.399414 1971.768188 1829.069092 1694.842529 1698.048828 1775.631592 1824.886230 1685.344604 1597.260376 1569.349365 1466.273926 1395.579468 1377.484497 1357.213501 1348.874634 1343.791016 1344.980957 1358.921265 1371.080811 1431.304443 1541.276001 1614.671875 1707.989624 1765.701294 1790.167847 1844.307251 1908.629883 1956.147583 2004.141724 2104.027100 2230.600098 2303.736816 2307.005615 2283.248779 2286.705078 2248.008057 2250.864258 2239.860840 2162.820801 2080.548340 2012.369263 1940.748169 1900.666016 1910.307495 1941.077881 1957.609985 1986.267944 1938.121460 1873.269531 1801.449219 1736.248169 1656.861816 1608.796021 1549.864258 1443.145020 1370.169678 1332.576782 1267.779663 1161.717163 1125.284546 1080.501343 1040.001099 1009.944458 1074.111938 1148.485352 1270.973877 1384.996582 1466.201904 1541.595581 1634.780396 1725.408325 1820.182739 1936.909790 2062.592529 2031.442749 1987.904419 1975.676270 1779.207520 1612.484253 1434.368774 1333.619507
2109.274902 2128.130127 2200.432617 2266.126953 2356.267578 2451.447998 2526.276367 2586.765137 2551.815186 2475.973633 2437.389893 2412.458252 2430.952881 2495.191650 2585.720215 2697.789307 2739.409668 2638.901611 2560.561035 2461.853027 2326.624512 2380.015381 2417.184082 2190.828857 2095.804932 2204.361572 2341.223633 2454.597412 2384.607178 2134.470947 1990.724854 2116.051758 2239.434570 2331.636230 2446.020264 2603.766602 2709.867676 2673.067627 2501.304443 2337.927490 2172.077637 2091.158691 2186.707031 2290.633301 2393.043701 2482.144531 2420.387939 2372.771729 2502.205566 2635.849854 2679.870605 2612.748535 2655.232178 2794.853760 2751.869873 2722.627197 2704.095703 2647.932617 2605.884277 2536.000000 2376.720703 2128.627686 1922.003296 1773.288696 1703.423950 1538.142212 1230.042358 1071.791016 1065.317383 1156.364136 1204.638550 1309.640259 1456.418945 1641.230957 1859.978271 1957.170410 2104.838379 2260.124268 2310.233398 2381.241699 2404.725342 2443.764893 2579.509277 2639.587158 2537.033447 2386.617920 2303.556885 2258.698242 2168.395020 2035.889282 1937.485718 2010.653931 2120.695557 2148.030762 2073.994141 2002.787598 1897.125977 1782.637573 1718.937012 1671.743530 1625.723999 1631.706909 1703.556152 1790.180908 1900.456787 1994.329102 2093.692383 2159.795898 2217.169434 2278.335693 2380.294434 2458.795654 2503.379883 2605.838623 2725.947266 2737.081299 2733.073486 2811.994873 2889.588379 2935.506592 2998.885986 2969.325439 2919.312256 2896.197266 2963.031494 3057.721191 2982.707520 2839.504150 2758.702881 2690.732666 2625.924805 2595.051270 2569.444580 2513.501953 2419.031494 2370.436035 2306.485596 2225.408691 2178.694580 2156.865234 2119.697754 2081.162109 2003.670044 1845.735107 1759.943848 1759.573853 1763.681519 1898.431641 2102.310303 2292.171143 2475.946533 2454.756592 2441.019287 2483.882080 2554.067383 2610.472656 2694.782227 2786.129883 2883.827393 2953.161621 3155.500488 3111.579834 3089.465088 2966.256348 2901.216309 2792.051514 2751.372314 2688.583740 2560.927979 2480.914307 2412.108643 2276.784180 2109.986328 2025.076904 2088.894043 2215.447266 2439.727295 2599.405029 2801.303223 2889.069824 2978.649170 3125.870605 3132.838623 3090.603516 2994.129150 2944.388916 2899.721191 2858.749756 2821.942139 2799.601074 2753.692871 2735.336670 2658.614502 2630.996094 2629.962646 2688.703613 2901.562988 3103.976562 3101.427979 3071.532715 3233.845215 3267.855957 3255.652832 3212.451172 3083.594482 2960.137451 2876.270508 2821.544678 2822.098389 2800.723877 2687.151855 2629.377441 2645.035400 2605.646729 2536.402588 2390.464111 2276.420898 2136.990479 1973.400391 1808.754761 1657.473389 1559.109009 1601.956177 1682.971436 1833.561401 1960.050171 2031.476318 2107.694092 2147.297607 2197.912842 2241.735840 2330.021973 2375.247559 2311.868408 2182.690918 2019.394897 1922.394043 1779.339478 1653.563354 1816.896362 1993.948975 2055.396729 2040.517212 2030.469482 2052.620605 2114.263428 2194.926758 2293.247314 2380.653809 2483.006836 2551.465088 2594.040771 2650.114746 2654.351562 2696.058594 2717.591309 2747.610352 2815.077881 2878.921387 2697.535889 2626.949219 2711.952637 2708.953125 2637.281006 2564.255615 2444.322021 2497.257812 2458.194092 2459.001465 2427.272705 2350.968262 2308.069092 2305.065430 2303.204590 2310.239258 2369.436768 2409.213379 2443.267334 2452.594971 2490.556641 2546.084961 2623.901855 2694.164062 2725.877686 2817.801514 2953.569824 2824.429688 2706.312988 2653.726807 2677.354248 2683.430176 2581.030518 2603.539062 2640.740234 2659.327393 2537.403809 2409.586182 2288.299316 2094.991699 1913.781128 1758.150513 1700.449219 1795.169922 1871.608521 1798.033691 1658.358765 1707.298584 1677.951660 1567.048462 1507.304688 1460.631836 1424.311768 1379.724731 1353.133301 1339.265869 1332.062866 1335.129883 1357.949463 1416.512085 1495.673950 1537.151367 1566.994629 1623.471802 1698.140137 1737.217163 1759.021851 1845.171631 1955.400513 2063.321045 2164.372559 2189.426514 2167.537842 2134.803467 2133.609619 2070.607422 2065.329834 2077.602539 2088.180908 2089.134033 2042.687622 2038.056519 2081.243164 2108.311523 2050.086914 1963.850830 1887.396362 1843.036499 1782.467285 1700.261108 1628.085938 1567.453125 1503.196411 1405.696411 1295.876221 1224.327637 1199.159912 1113.532227 1057.683472 1017.125916 994.642395 1026.033813 1095.889038 1183.580566 1291.311157 1377.196533 1440.297485 1532.323730 1625.652466 1724.782227 1837.507080 1946.572876 2044.381836 1974.076904 1848.998047 1831.215698 1669.594849 1504.191406 1431.895508 1246.593384
2118.831543 2156.023926 2236.814209 2310.804443 2397.824463 2471.960449 2578.177246 2641.540527 2622.819824 2549.939453 2510.158936 2490.373535 2513.558350 2583.179688 2648.022949 2743.588135 2895.675781 2713.337646 2636.146240 2598.572510 2429.212891 2451.966309 2434.901611 2214.046875 2158.238525 2282.566406 2406.711670 2520.856201 2383.630615 2178.904297 2025.958984 2154.570068 2286.495605 2393.939209 2537.746094 2610.025391 2754.875732 2731.446289 2578.605469 2364.439209 2183.200439 2104.855225 2201.181885 2314.622070 2434.408447 2545.266357 2459.331787 2397.713867 2563.503174 2674.832275 2798.169678 2762.699463 2840.099365 2914.382812 2825.540039 2822.766357 2889.656738 2816.918457 2679.621826 2581.854492 2425.268799 2206.582764 1963.613647 1735.703735 1550.294678 1386.011230 1217.880615 1101.831299 1016.248596 1069.706421 1173.272461 1360.882202 1528.774780 1688.325806 1885.773926 2148.587646 2262.127197 2289.783691 2291.582764 2288.985352 2291.299072 2353.045410 2464.370850 2523.607666 2502.970703 2448.262451 2374.760742 2285.590332 2172.203369 2046.679932 2015.336792 2122.477051 2222.588867 2176.396729 2078.757080 2015.954468 1902.799927 1836.947876 1766.942505 1713.223389 1663.680176 1661.578369 1664.304932 1741.510376 1839.756226 1936.718384 2024.623047 2091.244873 2152.325684 2231.788818 2298.062012 2342.199707 2444.022949 2593.699707 2754.607178 2836.301270 2819.215820 2855.869141 2892.352539 2875.010986 2836.372314 2838.102539 2939.081299 3028.937988 2982.368164 2982.918457 3051.003662 3005.763672 2867.843750 2743.897217 2649.013428 2570.222412 2516.977051 2417.447998 2327.909180 2263.588867 2237.777344 2233.278320 2235.475342 2224.531982 2189.889160 2168.457764 2050.148193 1865.942627 1760.804810 1759.550049 1785.788208 1949.618530 2170.148438 2359.062744 2550.282959 2613.849854 2583.430176 2563.221680 2619.162842 2709.109863 2826.108154 2932.144043 3036.260986 3085.270264 3133.618408 3060.178711 2976.221191 2842.374756 2804.318115 2771.677979 2689.770020 2647.716064 2614.596436 2479.917725 2352.952393 2190.864258 2047.142822 2055.870850 2145.934814 2335.658203 2498.325684 2659.759521 2863.778320 3107.790283 3170.989746 3167.237793 3100.279053 3031.143311 3005.421143 2974.843750 2908.264893 2833.302490 2793.926270 2745.925049 2716.075439 2671.700439 2679.433350 2675.933838 2670.752930 2824.458740 3034.428223 3212.877930 3157.107178 3129.618164 3217.264893 3173.782227 3143.526611 3073.233887 2986.211426 2899.427246 2869.388428 2839.992676 2794.353027 2777.426025 2713.552246 2627.298340 2580.851807 2483.798584 2407.396973 2319.218018 2189.885742 2037.752930 1882.742676 1700.290405 1579.867188 1593.654297 1688.869995 1820.147461 1945.766113 2130.269287 2211.373291 2250.842041 2299.918457 2354.269531 2385.959717 2448.215332 2433.039062 2351.441162 2211.246094 2030.254395 1884.073364 1751.591064 1661.330566 1836.968994 2020.374268 2167.938965 2220.621582 2194.513184 2132.248047 2100.042969 2102.361084 2134.768799 2226.976562 2335.462891 2420.395264 2476.297119 2511.221191 2565.145752 2626.975830 2662.131836 2708.063721 2784.596191 2851.945068 2670.077881 2553.931396 2499.711426 2468.880371 2484.461670 2393.665771 2330.592529 2367.635254 2367.010254 2344.293701 2307.537842 2266.219727 2246.627197 2256.634033 2326.996826 2370.195068 2410.508057 2442.406738 2454.166992 2487.905762 2540.919678 2566.457275 2611.697510 2733.457031 2766.847168 2804.438965 2914.368408 2832.396240 2728.507812 2663.779785 2697.570068 2680.050293 2661.775146 2670.564697 2726.071289 2667.215332 2473.997070 2330.620117 2204.643555 2014.007812 1824.386230 1726.214111 1786.044800 1889.348511 1892.814941 1700.560303 1745.947876 1823.260986 1756.830444 1675.847046 1601.918457 1554.090454 1525.080200 1482.517578 1422.983765 1365.035400 1335.932129 1325.138428 1326.028442 1344.829956 1361.313354 1407.497681 1460.391357 1497.474731 1566.824829 1605.516724 1658.646484 1781.699463 1861.642456 1934.922363 2024.915161 2063.234375 2102.861572 2057.625000 2034.856445 1965.455200 1908.819702 1937.909790 1970.202393 1976.260864 1953.503662 1988.971924 2074.511963 2104.553223 2054.491699 1978.925781 1888.392822 1805.252930 1736.987793 1668.643677 1596.928711 1540.510986 1462.121094 1388.212524 1269.078979 1160.015991 1098.829834 1056.686279 1018.703430 996.222839 1056.287598 1098.559570 1158.566040 1225.101196 1301.436890 1359.963745 1460.391724 1537.100586 1620.067017 1689.926636 1754.585449 1842.291870 1915.157227 1864.685547 1692.488037 1616.883423 1511.417358 1329.671631 1258.388184 1152.013672
2128.836914 2194.153809 2263.380859 2328.366211 2407.791748 2469.223877 2544.370117 2624.183838 2705.738037 2653.984863 2565.920410 2574.242920 2631.597412 2704.748047 2743.268311 2803.030273 2945.927002 2785.597656 2698.787354 2672.622070 2516.236572 2540.710449 2472.871582 2228.306885 2236.718262 2354.689697 2505.311035 2592.825439 2428.486572 2241.415283 2071.239014 2187.204346 2320.922119 2428.839111 2601.734619 2726.324707 2788.671875 2753.740967 2587.382812 2375.315430 2205.435059 2130.585449 2219.628906 2346.340820 2474.985107 2596.204590 2513.660889 2482.009521 2614.681641 2742.466309 2874.438232 2975.890625 3015.855713 2950.664795 2840.412842 2783.163330 2767.594482 2753.918213 2603.327637 2448.973145 2339.252197 2203.972900 2045.119873 1836.041382 1594.060303 1392.393066 1227.892822 1118.387939 1032.079224 1089.427002 1276.675171 1476.898071 1679.648315 1872.059326 1968.770020 2224.405518 2276.669434 2259.413818 2223.022949 2196.742920 2182.922119 2242.190430 2342.972168 2383.856445 2407.466309 2386.385254 2333.720215 2252.891357 2156.026367 2071.763916 2093.598877 2226.961914 2274.095459 2167.508301 2072.067627 2040.962524 1991.820557 1908.656128 1817.188965 1747.123779 1699.682739 1692.065430 1678.181519 1684.421509 1760.889771 1841.828003 1927.694702 1978.776978 2074.634277 2169.760010 2202.889893 2284.717529 2406.902100 2555.117188 2685.207031 2704.670654 2703.538818 2707.119629 2718.110840 2723.250488 2713.468018 2774.434082 2924.023682 2955.834229 2887.141113 2909.234863 2922.537598 2939.931885 2810.011719 2785.222412 2738.667969 2612.279297 2449.312744 2343.766602 2271.622803 2284.333008 2326.150391 2343.183594 2360.843750 2368.906982 2352.110107 2279.163330 2111.294434 1893.536865 1763.249756 1759.605103 1820.716553 2006.443604 2192.239502 2373.566895 2570.039795 2729.060303 2758.329346 2712.461670 2752.923096 2852.043701 2997.724854 3104.381348 3196.275635 3254.142578 3154.639160 3111.586426 3005.036865 2832.353271 2780.294922 2751.307373 2714.479004 2677.069580 2620.750488 2500.760742 2338.703613 2149.597168 2053.414307 2076.548584 2253.111572 2416.779541 2550.442871 2723.098389 2934.407471 3135.248047 3282.148438 3264.329346 3139.407227 3050.083496 3028.062256 2990.423096 2905.046387 2819.645752 2780.879395 2748.675781 2719.655029 2694.316406 2707.351562 2707.046387 2702.659424 2839.859375 3054.346924 3159.098633 3127.319336 3149.922852 3219.522705 3130.509033 3089.391846 3034.123047 2967.078613 2911.383545 2890.637451 2845.080322 2790.472412 2776.129639 2696.259277 2607.103516 2550.383057 2459.666016 2353.024658 2231.705811 2090.913818 1930.124756 1749.881104 1606.258301 1580.824463 1661.520264 1806.998413 1952.924561 2076.660889 2184.218018 2322.122070 2384.974854 2424.713623 2522.878662 2558.081787 2552.171387 2452.442383 2347.133545 2210.029785 2041.122559 1872.437622 1730.364746 1686.860107 1851.909424 2029.220947 2206.591797 2327.113770 2381.903320 2347.624512 2275.291992 2228.887939 2179.559326 2144.472900 2198.164795 2301.985596 2372.718994 2462.581055 2541.733643 2625.225342 2693.816162 2770.823242 2864.056396 2842.609375 2601.198730 2471.773926 2390.077881 2342.231934 2311.491455 2232.806641 2251.550537 2296.923340 2252.507568 2205.700684 2230.611084 2236.711670 2233.054932 2264.093994 2325.260986 2404.921875 2460.604980 2508.300049 2541.036865 2569.374023 2603.311279 2620.536377 2652.210205 2758.403809 2816.454102 2830.143799 2901.814697 2907.411377 2838.607666 2749.525391 2742.340820 2661.299805 2630.928711 2620.463867 2733.771484 2600.359619 2406.257080 2228.659668 2077.987549 1906.798462 1762.331543 1763.929321 1884.823853 1960.803955 1767.365479 1719.366699 1831.436646 1903.561279 1827.548218 1774.895386 1688.997803 1648.746704 1619.028809 1566.347656 1528.876099 1417.408203 1347.910034 1336.907471 1324.309570 1316.213745 1321.562866 1348.522827 1360.625732 1378.902588 1420.808716 1465.453613 1582.907715 1671.888794 1735.577637 1850.643555 1887.751465 1912.992188 1925.852783 1962.032959 1913.323853 1855.754028 1807.658325 1807.866943 1828.862915 1865.708008 1878.160522 1898.925903 1940.402222 2003.102295 2001.134521 1948.245361 1869.202271 1758.536011 1688.026611 1626.916382 1553.541504 1472.887207 1405.302002 1324.529907 1229.617554 1137.027466 1049.753052 1022.411377 992.455078 1049.390015 1145.891846 1196.424072 1242.279419 1304.847656 1350.247437 1354.521729 1384.136108 1396.049561 1453.921265 1487.615967 1572.413818 1602.327148 1650.113770 1722.381836 1647.255249 1441.734985 1283.434814 1137.250610 1126.869141 1181.388062
2144.192139 2236.604248 2310.948730 2370.834473 2426.724854 2486.704590 2568.230469 2636.364014 2715.452148 2715.214600 2632.501709 2687.229248 2785.152344 2835.168701 2899.357910 2952.014160 3027.162109 2879.897461 2788.563721 2758.449463 2603.097168 2612.958740 2477.041016 2261.698242 2288.924316 2412.671875 2558.283203 2649.690918 2458.433594 2250.956299 2091.243652 2187.256104 2317.226562 2438.989258 2572.698242 2716.469971 2811.854736 2717.253906 2531.943115 2349.168701 2208.318604 2202.337158 2276.194824 2373.678223 2489.337646 2620.087891 2572.645752 2573.275879 2715.250244 2854.440674 2999.493164 3044.832764 2884.728027 2767.062012 2702.387451 2630.059326 2595.991943 2645.802979 2524.872070 2391.665527 2263.367676 2132.352783 1968.687012 1795.727295 1611.084595 1422.940308 1255.218506 1135.945679 1031.370972 1214.658813 1473.814941 1636.489258 1791.130127 2001.704224 2120.464600 2155.232666 2150.592773 2136.528076 2114.817871 2079.221436 2076.095703 2153.579346 2223.612793 2319.110596 2418.143066 2385.599121 2343.828369 2258.441162 2157.655518 2128.971924 2206.067139 2308.300049 2254.520508 2150.981689 2086.040039 2062.273438 2061.946045 1979.012451 1879.707153 1781.901611 1739.255859 1734.898193 1694.507935 1683.239380 1695.054932 1755.886108 1826.469116 1894.361816 1977.786255 2055.531006 2106.120117 2230.689209 2360.198242 2484.800537 2583.942383 2554.563965 2535.764404 2543.459229 2567.739990 2636.056641 2685.422119 2782.816162 2979.324463 2903.184814 2827.610107 2832.971924 2829.216064 2833.044678 2756.942383 2687.536865 2642.227783 2536.935303 2374.735840 2324.519043 2359.207520 2401.160156 2474.015869 2519.431396 2558.602051 2557.303467 2421.872070 2261.211914 2086.914795 1903.684570 1767.140259 1759.937012 1855.831909 2043.949829 2203.903076 2377.838379 2545.251465 2712.448242 2843.124512 2780.931152 2745.084717 2871.217773 3038.517334 3135.817627 3207.956787 3341.688721 3257.267822 3234.485840 3090.046387 2871.447266 2774.352539 2735.635254 2705.326416 2666.345947 2622.866943 2534.177002 2332.491211 2132.672119 2062.795166 2130.983643 2375.900879 2561.771973 2683.871338 2791.837402 2916.787598 3032.334229 3224.619873 3318.041504 3196.942139 3121.809082 3099.787109 2988.565186 2867.223877 2820.588379 2795.099854 2772.237061 2739.370850 2715.213379 2721.042969 2737.518066 2763.396729 2800.529053 2926.616211 3012.887695 3023.595215 3091.921143 3195.841309 3132.532715 3071.570557 3021.412109 2952.496582 2899.549072 2852.716553 2796.718018 2737.914551 2690.232178 2619.901123 2553.007080 2543.673584 2480.552979 2360.759521 2192.224609 2003.470215 1828.311768 1667.540405 1587.989990 1643.177368 1796.543091 1942.138428 2110.848633 2224.733887 2310.981934 2413.825684 2513.910889 2531.319824 2637.873047 2702.225098 2580.895020 2450.229492 2339.487793 2210.794189 2045.031006 1888.482544 1735.771729 1728.631226 1862.204712 2045.108032 2229.910156 2340.448975 2435.807617 2511.059082 2464.356445 2443.203613 2383.797852 2249.835205 2189.668701 2202.472412 2306.059570 2421.759521 2539.341797 2616.356689 2712.572021 2728.322754 2768.761475 2768.266113 2608.126465 2519.528320 2434.533447 2398.666748 2288.616211 2190.579102 2166.034912 2180.116211 2123.170410 2108.912109 2193.015869 2229.548340 2249.796387 2325.154785 2391.598389 2420.924805 2519.628174 2567.866699 2608.122559 2621.024170 2650.134521 2686.840576 2727.793945 2784.979492 2738.586670 2704.338623 2775.410156 2902.274414 2828.439941 2711.745605 2652.880859 2539.258789 2541.490723 2595.937988 2651.696045 2492.416992 2303.767578 2126.847656 1971.218262 1814.894897 1772.788452 1857.482666 1977.193481 1904.254883 1750.486572 1815.176270 1925.028442 1984.835938 1924.467163 1832.726929 1767.584106 1748.481812 1740.009766 1686.763916 1533.957397 1435.515015 1378.194946 1350.731934 1346.195068 1333.169922 1316.649658 1330.206909 1354.213013 1303.728027 1305.459106 1382.380249 1477.291870 1547.529663 1646.616089 1742.166992 1722.883423 1794.067993 1769.832764 1850.620117 1805.998535 1757.375488 1718.288696 1716.893921 1728.959351 1764.284302 1778.777710 1794.613159 1858.778198 1933.352417 1941.382568 1902.504517 1829.454834 1734.165771 1633.701172 1585.243408 1534.751221 1456.971436 1377.770386 1285.313110 1211.840454 1105.742188 1023.929993 973.105469 1012.978271 1127.341431 1210.821045 1250.734131 1264.223389 1267.812866 1249.642822 1219.293457 1182.188477 1195.127319 1241.914551 1263.497192 1353.461060 1366.166504 1433.497681 1490.536621 1483.792480 1307.874878 1106.606689 1100.729370 1150.902954 1189.433594
2170.619385 2257.468506 2350.878174 2423.724365 2462.333496 2513.494629 2607.677979 2708.695557 2776.659912 2748.421875 2715.194580 2779.450439 2769.548584 2766.264160 2819.208252 2902.712158 3010.123291 2988.561768 2948.166992 2862.776855 2690.076172 2677.637451 2510.878418 2309.151123 2296.721680 2425.819092 2589.617920 2614.294189 2392.766113 2207.704102 2112.558105 2215.281250 2320.058350 2443.836426 2568.213135 2700.037842 2750.449951 2617.754150 2466.993164 2319.425781 2214.004639 2273.624268 2354.234619 2385.502686 2502.080566 2622.316406 2628.475830 2620.671631 2833.912842 2968.949707 3055.322754 2932.707031 2769.343506 2648.814209 2582.369385 2570.753662 2480.128418 2477.403809 2427.846191 2308.202881 2183.324951 2062.479980 1943.011597 1763.098267 1571.605713 1414.469360 1275.188721 1128.071533 1034.666870 1223.275024 1448.619629 1619.820679 1845.220459 2053.469971 2073.874268 2057.016113 2029.410889 2003.595337 1983.995605 1967.411011 2008.831665 2091.011963 2198.149658 2318.334961 2420.902100 2471.811035 2425.113037 2283.615479 2167.296875 2196.535400 2311.215820 2366.646973 2273.465332 2178.947266 2099.415771 2085.223389 2110.840576 2059.231445 1933.371094 1828.978027 1764.408813 1791.942749 1757.996094 1720.682007 1704.235718 1710.206177 1752.445068 1818.171021 1888.690674 1948.875488 2058.839111 2165.587402 2267.549561 2398.985840 2447.266113 2405.062500 2389.475586 2434.258545 2537.612793 2645.290527 2723.723877 2857.500000 2990.401855 2881.704834 2786.893799 2767.115967 2744.701660 2726.846924 2668.200684 2620.562500 2526.723145 2415.110840 2348.709717 2399.936768 2492.955078 2579.226318 2669.134766 2714.983643 2724.984131 2561.196289 2373.437744 2211.466797 2059.672607 1903.630249 1770.501099 1761.449585 1865.678589 2055.187500 2196.298340 2321.713867 2460.300293 2593.144775 2683.892578 2656.241943 2682.073730 2806.041016 2939.268555 3075.064941 3216.951660 3358.499756 3260.791016 3178.653564 3164.502686 3018.099609 2885.432129 2888.487793 2750.682373 2602.775391 2543.046143 2461.329102 2256.672119 2144.634033 2091.013184 2217.347168 2410.856689 2562.100830 2681.947510 2764.855957 2882.833740 3033.633789 3214.045166 3332.489502 3253.158447 3219.076904 3168.416748 3017.769775 2942.591797 2882.336182 2880.458984 2853.266602 2816.543213 2785.161377 2736.818604 2758.511963 2785.023682 2805.029785 2831.157715 2888.602295 2969.629150 3060.424561 3221.996582 3153.332520 3062.097656 3007.559570 2936.842041 2844.479248 2773.655273 2719.643799 2673.083740 2616.348389 2523.776611 2460.915771 2427.977295 2413.765625 2302.790039 2140.780518 1943.336426 1758.470825 1633.345703 1619.415649 1756.395508 1931.825806 2095.916504 2246.612061 2378.251465 2483.098389 2580.128906 2661.402100 2660.464355 2736.799561 2707.729980 2553.225586 2424.007568 2317.749756 2212.145264 2057.242676 1886.122803 1713.221313 1794.247192 1924.022217 2076.614014 2202.180176 2321.131592 2427.262451 2528.947266 2560.963379 2599.236084 2552.738525 2418.122070 2311.531250 2236.398193 2252.395508 2384.580078 2493.969238 2535.188232 2512.138672 2523.485352 2563.333008 2540.227539 2499.624512 2590.606934 2552.169922 2553.978516 2417.375977 2180.730225 2056.509277 2017.344971 2019.112549 2084.276611 2148.508789 2209.251709 2234.733398 2352.229004 2429.742676 2457.760742 2505.761963 2609.106201 2692.837646 2713.202393 2741.148682 2809.767578 2802.674561 2703.948242 2615.103027 2622.351562 2696.886719 2799.418213 2645.611084 2548.380859 2512.947266 2471.081055 2495.575439 2480.825684 2521.562744 2363.314697 2195.168701 2004.964600 1853.206909 1789.363647 1859.069580 1947.833862 1980.505615 1805.497681 1774.168579 1887.075195 2016.456909 2049.704590 1975.580200 1879.617920 1840.795410 1848.561523 1805.730713 1608.360352 1534.503052 1559.492432 1500.383911 1425.456787 1404.895508 1380.928345 1354.733154 1340.310669 1398.338867 1366.246948 1260.755737 1283.578613 1349.061523 1439.451294 1557.569458 1552.303101 1555.872070 1629.409302 1642.391846 1688.076538 1678.815063 1660.302246 1601.460693 1633.651001 1654.326538 1676.689819 1691.880005 1704.414429 1773.761353 1849.206543 1858.610962 1853.617188 1801.173706 1723.853882 1640.182495 1543.977783 1448.546631 1400.601074 1325.802979 1252.281128 1177.237915 1085.557129 995.538818 981.913879 1056.440918 1173.200806 1240.126221 1257.594727 1206.453735 1134.307495 1072.645996 1021.765625 993.312683 997.859436 1019.682495 1061.402222 1126.978271 1171.005493 1237.781860 1297.918823 1275.647949 1115.861084 1063.635498 1108.133667 1144.340820 1184.954956
2200.064697 2288.123047 2367.344971 2450.550781 2497.796631 2563.651123 2618.218994 2714.762939 2766.105469 2756.430420 2801.124268 2779.222412 2640.539795 2616.374268 2684.621338 2778.296631 2886.303711 2889.353027 2881.689941 2914.455811 2808.874512 2759.022949 2605.264893 2405.949707 2358.941895 2479.152344 2626.853516 2532.827148 2366.296875 2223.473389 2157.399170 2253.706787 2358.407227 2465.383301 2585.249268 2690.127197 2690.079102 2535.330078 2403.774414 2273.982910 2249.407471 2341.656250 2428.832764 2414.711670 2520.628418 2643.745361 2719.298096 2694.435791 2904.432129 3045.067627 2981.542969 2874.307129 2697.354248 2581.309082 2516.553223 2525.393311 2426.258301 2335.561035 2287.355225 2201.360596 2089.702393 1965.773804 1805.300781 1638.291260 1494.947632 1373.930664 1251.882690 1102.649658 1045.475220 1226.280273 1456.167847 1687.839233 1903.823364 1968.181274 1951.538818 1925.396484 1880.577026 1852.535889 1865.700439 1924.158691 1995.288940 2091.663818 2186.131348 2266.004883 2352.387207 2464.517334 2463.860352 2323.191162 2193.322021 2246.303223 2391.375977 2423.614014 2301.305664 2185.737305 2130.096191 2150.445312 2198.409180 2117.124023 1976.686035 1866.018677 1795.620483 1821.470093 1852.402466 1818.554443 1777.028687 1744.790039 1741.175293 1757.427979 1814.466797 1875.367310 1961.710083 2051.618408 2174.146973 2283.483643 2286.173584 2293.065674 2339.085205 2400.817627 2476.371338 2567.938477 2674.608398 2816.328857 2911.181885 2823.441162 2757.419678 2736.673096 2710.306152 2676.947754 2600.132324 2527.087646 2437.720947 2406.149658 2429.482422 2536.447021 2668.460938 2782.275391 2840.759521 2871.811035 2746.933105 2558.866211 2389.427002 2207.803711 2047.913818 1885.088867 1776.042236 1762.004028 1888.488159 2076.351807 2210.973389 2327.240723 2439.284668 2549.461426 2620.642822 2625.890137 2707.957031 2843.185303 2985.814209 3111.654541 3194.440918 3268.468994 3241.218018 3093.874268 3013.644531 3004.067871 2991.119385 2931.008057 2754.754395 2580.358398 2473.556641 2351.062988 2226.226562 2168.856201 2151.578613 2303.280273 2519.399902 2700.846680 2800.449463 2846.486572 2971.058594 3144.954346 3203.449707 3316.391113 3355.410156 3296.206543 3185.497070 3054.094482 3008.897461 2975.832275 2952.418701 2931.375244 2925.968506 2935.410156 2816.364014 2794.311035 2823.053223 2844.943848 2859.730957 2892.719971 3011.741211 3079.699707 3120.926758 3038.367432 3015.903076 3040.043701 2975.424805 2857.803223 2753.182129 2643.549805 2546.701416 2518.616455 2437.171143 2366.598633 2287.277588 2261.135742 2215.666260 2048.728516 1875.287109 1727.805176 1625.623535 1692.139648 1856.101074 1997.842407 2180.556885 2360.448730 2515.547607 2661.416016 2758.267090 2875.118896 2830.972168 2791.823486 2670.777344 2532.248047 2404.082031 2289.309814 2185.385010 2046.923584 1868.824341 1721.306885 1800.395142 1976.757812 2109.893311 2194.508545 2270.044922 2382.761719 2488.632812 2569.302979 2671.666504 2692.126953 2592.951416 2463.893555 2322.667969 2255.803955 2336.255859 2470.411377 2440.759766 2337.891357 2353.498779 2367.893311 2358.628174 2388.926514 2479.361328 2460.749268 2547.411133 2396.905762 2145.127197 1999.769653 1978.017456 2048.649414 2122.427734 2148.689209 2171.914062 2241.742432 2393.799805 2509.150879 2548.550049 2592.952881 2624.479004 2620.370361 2755.225586 2877.093506 2829.896973 2670.641357 2594.666504 2548.947998 2568.722900 2668.417969 2745.097412 2620.397705 2521.491211 2455.679443 2403.102051 2328.470947 2273.282715 2297.109619 2282.746582 2109.791260 1908.828247 1819.096436 1875.878418 1955.354614 2061.379150 1944.184814 1784.412109 1849.461914 1981.045898 2097.810303 2125.281494 2044.281616 1935.210083 1905.176392 1919.861694 1763.410522 1570.661987 1646.316284 1663.870605 1608.101562 1522.050415 1453.999268 1425.077637 1395.755981 1356.103882 1358.458984 1384.176392 1324.407104 1240.479370 1244.953735 1357.733521 1425.731689 1412.686890 1416.789429 1480.878174 1515.158813 1521.048706 1548.360840 1510.914307 1493.408569 1537.057983 1577.618286 1609.894531 1635.615601 1643.578369 1682.103149 1720.076904 1720.615967 1769.487061 1763.355835 1703.690552 1629.351685 1547.762817 1444.273804 1346.712769 1268.130005 1189.988403 1125.028809 1050.359497 978.798401 977.862061 1054.425903 1154.646606 1205.901367 1177.866821 1088.369141 997.419678 953.147400 948.801270 951.846497 957.102783 964.939697 972.810852 996.479065 1022.069275 1040.207153 1076.853394 1045.712402 1043.891602 1069.035889 1098.560791 1145.825195 1226.963135
2230.905762 2316.453857 2402.683594 2468.650879 2530.298096 2621.197510 2663.245117 2683.825928 2702.260498 2754.321289 2848.336914 2719.954834 2554.125000 2473.087891 2562.569336 2705.495850 2725.927734 2697.794678 2717.676758 2774.365967 2847.919678 2862.934082 2712.862305 2523.806885 2430.442139 2550.508301 2614.027832 2488.737793 2378.143066 2226.255615 2197.940674 2295.690186 2387.256348 2473.958740 2583.861084 2698.343018 2638.348389 2472.509277 2322.267822 2240.752197 2302.662842 2401.332275 2484.401611 2446.725586 2516.205322 2653.071045 2776.905518 2826.310059 2958.706055 2993.076660 2850.136963 2767.236816 2669.917236 2526.701904 2468.276611 2506.062500 2463.314209 2307.120117 2150.988281 2063.626953 1987.451904 1897.028809 1755.091553 1551.131592 1422.470459 1338.877441 1211.945679 1083.148560 1047.207520 1199.106567 1457.106445 1653.544678 1760.251343 1760.953125 1742.241699 1766.288330 1743.320312 1789.541382 1869.926636 1963.858398 2068.205322 2140.213379 2258.546387 2315.544678 2371.593018 2433.128174 2479.230713 2343.082520 2240.343750 2292.957031 2447.882568 2380.640381 2302.848145 2215.369141 2173.350830 2240.203857 2266.170166 2161.898682 2031.684814 1923.092285 1831.593628 1850.075439 1947.597656 1949.081665 1901.071655 1843.337646 1811.055542 1780.232788 1774.756104 1811.736694 1874.671753 1969.993774 2056.689697 2121.967041 2210.415771 2314.056152 2429.400879 2533.650146 2551.096436 2619.594238 2738.228027 2895.630371 2950.064941 2822.431885 2752.393066 2712.086670 2689.113037 2640.718262 2580.467529 2485.838623 2447.556396 2480.435059 2582.760010 2767.800537 2864.829346 2786.069824 2726.609375 2738.260986 2724.904053 2607.866455 2441.920654 2286.411133 2125.128906 1922.396606 1769.035889 1762.581787 1892.817871 2101.760010 2264.126221 2403.031982 2511.444824 2570.602051 2623.182129 2702.259277 2807.181396 2961.225586 3159.662598 3229.546875 3113.707764 3110.515625 3176.953857 3060.656250 2918.349609 2854.807861 2843.616455 2776.540039 2650.304199 2486.848877 2368.627686 2305.812744 2285.623535 2203.793945 2223.120361 2373.253418 2577.735107 2776.916504 2969.990723 3004.171875 3106.267822 3125.572021 3104.599121 3175.789307 3313.784668 3267.817383 3156.143311 3074.535400 3041.037842 3006.206543 2987.390381 2980.014893 3069.564209 3098.316406 2972.578369 2854.244873 2874.709961 2889.616943 2890.379150 2943.060547 3091.599121 3030.205078 3004.750244 2962.463867 2923.609863 2937.340576 3021.597412 2946.043945 2787.441406 2606.967773 2481.429199 2414.923584 2359.051025 2270.652344 2166.855957 2091.317139 2053.469971 1947.213135 1819.780762 1695.353516 1669.082153 1814.374756 1934.339233 2057.031738 2225.138184 2410.879883 2546.907715 2698.531494 2894.822021 3041.957031 2912.809814 2703.082764 2574.269531 2474.203613 2425.720459 2321.951660 2172.226318 2017.546631 1848.320923 1745.368896 1831.877319 2009.234375 2123.566895 2203.255127 2268.492432 2346.693115 2463.239258 2533.416992 2672.604736 2791.775146 2770.998535 2664.190674 2464.137207 2311.945801 2319.273438 2442.052734 2414.347412 2267.703369 2213.071777 2187.007324 2209.800049 2289.842285 2348.680664 2388.875000 2485.293701 2288.576904 2092.119141 1967.747803 2046.542236 2143.942627 2241.625244 2266.263184 2300.045166 2335.998047 2455.352051 2622.314697 2681.086914 2741.623047 2557.411377 2530.861084 2656.739990 2701.013428 2633.191650 2525.287598 2443.942627 2434.149902 2503.128174 2667.990723 2815.866211 2724.338867 2563.000732 2454.921387 2337.017578 2300.661377 2234.022461 2172.197266 2120.338623 1975.839478 1864.215454 1897.688965 1973.533081 2074.499756 2088.581787 1878.812988 1845.876465 1969.690918 2066.785889 2148.417236 2175.987793 2076.677490 1990.746826 1992.497070 1908.161133 1702.355469 1586.243896 1711.342163 1763.945312 1697.368408 1627.223389 1508.370361 1447.702881 1414.833740 1376.035522 1357.107910 1364.293701 1328.319580 1287.645752 1191.461060 1260.528809 1295.747681 1298.177368 1280.723633 1340.324585 1389.440186 1412.856201 1443.519531 1376.696411 1386.632324 1449.432495 1499.077271 1544.667358 1558.197021 1562.988159 1578.393799 1598.305542 1611.004883 1649.780273 1709.208984 1665.425293 1601.896606 1534.949829 1470.421021 1386.281982 1296.829834 1205.455200 1093.467285 994.406006 964.591553 957.216187 999.522827 1066.371338 1096.119263 1048.526733 990.466858 944.458923 942.980713 946.854614 951.511719 958.664612 972.702576 976.189575 978.378357 986.538208 1001.748657 1015.780151 1029.172363 1045.697510 1082.997070 1129.090820 1200.542114 1299.706055
2259.972412 2328.139404 2424.187500 2509.417480 2566.958252 2638.430420 2680.125488 2653.106934 2679.824463 2783.659424 2840.676514 2681.488281 2506.306152 2351.124756 2427.180908 2515.814697 2540.412842 2530.645020 2576.773682 2642.684082 2725.339600 2821.789795 2779.959961 2609.311035 2515.246338 2582.774902 2601.985107 2467.060059 2351.114990 2224.913330 2237.945312 2336.436523 2436.201660 2523.307129 2598.023438 2694.864746 2590.244629 2421.578125 2283.334229 2259.069336 2344.983643 2450.202148 2537.065674 2486.343018 2510.589844 2636.337646 2769.547119 2881.152832 2858.219238 2787.753174 2669.557617 2620.450195 2649.547607 2502.106445 2409.053711 2422.598877 2480.366211 2353.462402 2168.948975 1993.734619 1864.721313 1779.824341 1724.053467 1597.385864 1396.465698 1255.197021 1148.764648 1056.114868 1033.819580 1143.644897 1288.101196 1526.223389 1528.193970 1514.535522 1581.213867 1673.419189 1789.808105 1890.436035 1959.334839 2012.932007 2128.217285 2231.855713 2313.925537 2384.010254 2405.491455 2456.737793 2499.007080 2363.915771 2295.060791 2352.732422 2478.918945 2400.093750 2352.743652 2275.134521 2279.107178 2359.749756 2292.806885 2150.187256 2043.822998 1933.404785 1851.192139 1882.834961 2011.601318 2094.285645 2058.005615 1967.051025 1893.045898 1857.365479 1817.422485 1793.946167 1815.267090 1873.104370 1969.448608 2126.805908 2270.851318 2429.267090 2587.187500 2680.716309 2650.214111 2694.596436 2790.656250 2975.404785 2977.804199 2841.814941 2757.092529 2663.414307 2640.257324 2575.068604 2533.625000 2519.465332 2535.767822 2612.395020 2723.310059 2846.095703 2915.837158 2815.048828 2694.364014 2646.324463 2601.162109 2535.250000 2430.814209 2329.043213 2155.337158 1955.980225 1784.479736 1764.815796 1880.768799 2086.291748 2311.295898 2542.637207 2695.055420 2705.648438 2715.498047 2827.192627 2975.468018 3167.791992 3312.378906 3151.906738 3027.854248 2994.979004 3016.688721 3024.744873 2869.671875 2782.256104 2771.767090 2711.160156 2567.380371 2416.376465 2359.868896 2402.143555 2325.380615 2239.685303 2296.551514 2460.553711 2684.218018 2840.585693 3001.306396 3133.978271 3174.023438 3053.584473 3044.596191 3072.917236 3242.416992 3210.728271 3160.807617 3101.410156 3070.637695 3036.634766 3021.722412 3055.166748 3187.798828 3115.921631 2982.295166 2907.942871 2915.571045 2918.541260 2929.220947 2962.327637 3066.275391 3010.826416 2929.251953 2906.398926 2852.421875 2868.649170 2910.022461 2906.139893 2782.166016 2653.385254 2519.102051 2393.506836 2274.594238 2194.081543 2066.178711 1961.603027 1909.600220 1832.777954 1745.346313 1678.095581 1770.839111 1915.116455 2009.107788 2144.564453 2309.308838 2447.934570 2540.520264 2664.355225 2858.832031 3085.221924 2959.774170 2739.589600 2571.957031 2477.843018 2430.276123 2347.726318 2201.708984 2030.856812 1828.829468 1766.063477 1912.445435 2028.351074 2133.428223 2222.202637 2269.454102 2341.590088 2454.419678 2518.748779 2616.066650 2713.151123 2806.993896 2800.578125 2606.583008 2409.646973 2335.133789 2423.976074 2462.625000 2352.644287 2229.771729 2109.830322 2074.514648 2123.109375 2176.642578 2267.084229 2339.190186 2168.951660 2008.525391 1933.473389 2036.087646 2128.967773 2247.321777 2347.399414 2366.779053 2373.102295 2434.433594 2535.000000 2644.742676 2720.718994 2472.048096 2437.880615 2507.149658 2506.085205 2435.636719 2395.439941 2377.492676 2412.896484 2502.434814 2655.082764 2828.165039 2771.835693 2618.473389 2483.110352 2355.732666 2316.491455 2206.792725 2093.362549 2004.015259 1927.435791 1936.150391 1993.628418 2061.729248 2154.304932 2042.640747 1859.238892 1898.615967 2073.508301 2161.081299 2244.629150 2260.339111 2183.451416 2072.989014 1936.483398 1779.286255 1652.917847 1655.349365 1801.126343 1860.851929 1813.471924 1726.908081 1582.314697 1462.934448 1422.379761 1388.832275 1362.248901 1329.069092 1301.197144 1244.708618 1149.391357 1149.532959 1174.005859 1180.921143 1175.609253 1227.818726 1257.893433 1315.135010 1329.052124 1275.967041 1308.198242 1360.229126 1408.756836 1446.728027 1462.427002 1467.600342 1466.974243 1495.506226 1515.269287 1546.986450 1609.496948 1597.711060 1555.546509 1505.494751 1437.608154 1349.461060 1274.274414 1180.454224 1068.561279 979.994507 952.323181 948.219421 951.938293 990.625427 1015.534851 997.327698 964.204590 942.985046 944.913391 947.321533 978.397034 1061.787476 1101.820435 1106.635986 1064.887207 1051.201050 1041.899780 1086.510620 1133.109619 1148.403809 1184.433105 1244.317261 1305.511353 1390.750977
2272.616455 2362.537354 2453.163330 2536.182861 2611.736816 2680.012939 2654.565186 2621.329102 2647.149170 2762.243652 2812.629883 2665.956787 2485.083984 2302.018311 2280.618652 2335.269287 2361.764893 2403.062012 2525.956787 2608.486328 2670.373535 2746.343018 2806.613037 2689.106689 2624.374512 2666.074463 2573.843750 2425.946289 2314.559814 2258.228516 2268.586426 2351.456299 2469.430420 2573.429443 2658.475830 2685.847168 2532.854248 2379.200684 2287.001221 2279.681152 2361.291016 2446.812500 2543.542480 2558.239990 2546.865967 2647.608154 2785.367432 2846.757568 2702.505615 2624.825928 2557.492676 2522.865479 2577.853271 2489.793213 2359.827148 2318.947021 2344.996094 2330.326172 2221.020752 2060.765625 1922.696655 1782.766724 1634.622681 1526.789185 1347.791626 1152.108398 1085.820923 1058.547363 1168.794434 1307.422363 1288.159424 1311.225220 1389.442261 1556.759399 1681.912598 1751.442017 1851.171997 1974.034302 2087.636719 2144.932373 2175.500000 2304.005615 2411.646973 2499.972412 2543.976074 2592.157959 2594.035889 2436.436035 2382.166504 2439.896973 2523.785400 2495.778809 2433.592529 2403.264893 2464.414062 2483.514404 2326.494385 2206.017090 2099.726074 1945.874512 1869.675415 1920.767578 2061.068848 2171.872314 2153.946289 2054.331055 1983.322266 1971.054688 1934.616699 1869.256714 1822.006958 1825.802002 1897.654053 2121.069824 2334.218262 2504.753662 2666.344971 2790.269043 2738.947021 2798.193359 2832.306396 3002.379150 2971.512695 2850.764404 2795.293213 2704.649414 2658.339600 2607.156494 2595.640381 2617.919922 2653.170166 2711.676758 2832.802002 2924.353027 2906.156494 2851.451416 2733.966064 2632.196289 2574.301514 2519.253418 2450.559570 2363.907959 2189.671387 1977.434326 1802.854980 1774.917725 1889.025757 2070.528809 2309.489014 2499.174316 2680.958252 2825.672363 2843.733154 2938.635498 3104.804688 3326.545410 3255.111328 3080.796631 3002.065186 2930.501221 2899.859131 2947.535156 2790.725098 2705.332520 2681.830566 2621.956299 2507.834229 2406.416748 2430.685303 2472.800781 2351.523438 2294.289795 2377.469482 2530.667480 2715.368896 2838.546387 2933.076172 3014.730713 3051.312500 2994.333496 2996.346191 3003.842285 3124.899658 3208.769531 3153.173828 3126.124512 3119.155518 3105.318359 3092.377930 3168.616455 3221.226562 3125.305176 2993.346436 2946.218750 2937.613770 2955.021973 2965.649170 2999.834717 3123.576904 3061.916016 2930.085693 2861.969971 2801.409180 2799.491455 2813.232910 2825.871582 2718.168945 2643.496094 2495.882324 2329.046875 2200.541992 2073.989990 1964.245972 1866.558228 1768.529541 1699.077026 1693.520264 1750.025269 1858.104126 1987.110718 2106.068604 2251.342529 2405.340088 2537.412842 2610.836426 2723.926270 2895.814209 3048.837646 2933.544678 2800.258789 2626.057617 2546.425049 2453.434082 2366.608887 2225.610352 2032.539551 1831.636841 1776.848999 1922.557617 2032.840332 2116.311768 2193.287354 2262.741699 2360.818848 2469.479492 2539.344238 2616.667236 2668.572266 2784.477539 2877.905029 2715.546631 2498.359375 2379.750244 2409.851318 2478.687500 2473.728760 2303.171143 2120.066162 2057.583252 2004.628784 2036.078369 2133.227783 2149.242676 2052.030518 1894.207520 1906.143921 2020.393799 2115.163330 2237.377441 2365.007812 2466.847412 2489.472900 2462.667969 2495.446777 2599.882324 2633.792236 2404.986328 2303.164551 2343.453857 2353.557617 2335.245850 2344.628418 2376.642090 2420.037109 2494.291504 2599.022705 2771.352295 2625.584961 2462.741699 2411.293945 2336.680420 2213.046875 2117.101562 2076.678223 2013.640259 1996.930664 2046.766357 2110.247314 2172.931152 2167.919189 2012.268066 1885.361328 1992.089844 2123.012695 2239.114502 2338.457764 2318.673584 2198.168701 2082.391357 1930.375732 1748.540161 1715.424072 1776.725342 1864.082275 1933.851196 1869.601318 1744.919067 1637.598755 1519.953491 1456.496460 1424.514282 1377.417725 1327.718750 1285.419312 1226.075806 1167.339844 1133.777100 1093.345825 1089.568604 1098.869629 1120.341064 1157.851318 1187.518433 1206.979858 1194.254028 1242.105591 1294.523315 1312.635254 1351.088867 1366.895020 1368.709351 1377.145264 1417.144165 1419.614014 1434.529297 1483.123291 1510.642456 1500.654419 1437.846802 1395.366089 1306.436523 1200.551880 1114.708862 1033.949219 975.482910 955.171753 947.905701 944.474426 948.916077 970.351257 980.496582 950.539917 940.339905 944.778992 964.270386 1082.749634 1189.380493 1266.753052 1282.681152 1251.857422 1225.706787 1213.817017 1319.007690 1389.720581 1373.098022 1334.600586 1370.912231 1447.066040 1530.205200
2277.413086 2364.385986 2445.582764 2524.238037 2605.326416 2714.221680 2718.229736 2595.603760 2570.718750 2629.380127 2688.994629 2637.895020 2452.921387 2311.949463 2201.751953 2243.458496 2298.952393 2363.840576 2459.507812 2560.314453 2634.531494 2737.184326 2843.908203 2807.429688 2773.573486 2697.941406 2526.589111 2413.610107 2349.235107 2307.183594 2311.906006 2355.162842 2434.182861 2546.625488 2661.495361 2699.592041 2568.289795 2457.318115 2331.608643 2335.112305 2410.785645 2452.616455 2517.473389 2621.875977 2658.588379 2713.573975 2815.535156 2789.734131 2667.195801 2565.807617 2529.931885 2462.100830 2470.628418 2458.353516 2299.579346 2204.454834 2212.525879 2252.593750 2178.771240 2021.202393 1857.591431 1738.986328 1615.142944 1496.424194 1281.213379 1092.906982 1065.514404 1275.956055 1462.363770 1544.541626 1414.851196 1241.644897 1404.216187 1601.393921 1703.169189 1768.824951 1850.390015 1968.804199 2122.923340 2251.200928 2297.956299 2339.101807 2417.571777 2459.525391 2497.970215 2551.570312 2627.246826 2556.762939 2510.415039 2551.378174 2588.663818 2564.736572 2590.131348 2544.522949 2563.788330 2459.691406 2306.968262 2193.346924 2080.953613 1941.698120 1903.214355 1964.898193 2104.618896 2225.593994 2217.519531 2125.755859 2133.976562 2105.900879 2070.023926 2010.791504 1934.644409 1846.653198 1871.208130 2025.648438 2271.188965 2413.073975 2618.656738 2828.772461 2902.838623 2896.038086 2931.100342 2947.608643 2912.013672 2934.826660 2903.593994 2756.527344 2717.347168 2721.566895 2717.805420 2698.742920 2780.826172 2881.543945 2856.012451 2787.532959 2747.140869 2710.887939 2691.947754 2688.276611 2664.190674 2609.458496 2489.713623 2375.302490 2212.886963 2007.335938 1825.187134 1809.131226 1900.902222 2095.953857 2304.144775 2488.217285 2665.209229 2710.714600 2753.699463 2876.171631 3081.153076 3229.978027 3324.734863 3146.010498 2971.358154 2898.758545 2833.658203 2845.557617 2756.949951 2646.571533 2604.396240 2531.892334 2460.933105 2453.581787 2541.062256 2593.059570 2443.662842 2387.402344 2467.130615 2575.981445 2705.031006 2807.072266 2838.820068 2877.457031 2934.490723 2943.061768 2956.135498 2964.395508 2990.008789 3058.669189 3111.391113 3206.183350 3234.875244 3218.522949 3228.807861 3190.695068 3172.512939 3144.331543 3031.512451 2987.038574 2990.843994 2989.704346 2989.135498 3022.246582 3011.769775 2918.613525 2841.934570 2754.756836 2736.540771 2734.771240 2730.233154 2721.588867 2686.234375 2558.172607 2408.206299 2258.838623 2114.577393 1988.963013 1880.573120 1757.105835 1718.060303 1788.213867 1779.021851 1829.968750 1929.151855 2061.249023 2192.186279 2339.550049 2505.587891 2639.874512 2722.293213 2853.746338 3004.167236 3011.215088 2893.947021 2773.790283 2634.587158 2573.759766 2472.979492 2395.786133 2241.577148 2022.776733 1822.225708 1794.860474 1920.873413 2055.404541 2147.402344 2199.178711 2275.510010 2397.290039 2494.456543 2566.853271 2694.262451 2772.937012 2857.496582 2958.208252 2850.276367 2605.730713 2431.668701 2422.851318 2503.272949 2508.589355 2358.005859 2191.403076 2143.370850 2041.991943 1990.855347 1967.617554 1947.917969 1935.208618 1815.149292 1881.514160 2000.363037 2066.675781 2191.125488 2319.923096 2432.260010 2526.149658 2568.957520 2543.321289 2593.124512 2472.754395 2296.273926 2236.074463 2277.749268 2319.920166 2352.363037 2382.980713 2410.532959 2453.918701 2493.377930 2553.020508 2651.854492 2530.407715 2415.791992 2356.159180 2274.618164 2142.641357 2133.792480 2157.408447 2077.209229 2092.131104 2162.395264 2228.140137 2274.252197 2160.918213 2012.862549 1916.420898 2022.458618 2161.776123 2239.223633 2355.495850 2347.559082 2232.591797 2049.416260 1882.083252 1736.192993 1757.272461 1868.155640 1938.315918 1988.570923 1864.476318 1770.515503 1675.459473 1603.750122 1489.420044 1434.968994 1394.915771 1324.072144 1248.919922 1194.286377 1156.227051 1138.284912 1127.218750 1134.602905 1109.902222 1060.384399 1056.567017 1054.826904 1082.475220 1113.822998 1170.045288 1206.024780 1228.700317 1235.234619 1268.399536 1276.274292 1276.887451 1332.645386 1340.105469 1346.818604 1373.080566 1390.156250 1398.186035 1334.901489 1273.825317 1224.027222 1140.232422 1064.863159 1012.826172 971.598877 953.575317 945.903320 942.974548 943.280762 945.170898 945.106201 940.543152 940.900391 954.946716 1049.057373 1170.293701 1312.006104 1420.045166 1440.150024 1422.271729 1392.580078 1370.976318 1399.828857 1482.531738 1554.348022 1512.934326 1497.136353 1622.442383 1670.952393
2296.739502 2363.454102 2429.757324 2490.234863 2561.127197 2671.628662 2637.125488 2520.678955 2480.479004 2488.249023 2555.569580 2549.857422 2378.822998 2204.484131 2203.005615 2312.888916 2388.870117 2430.334229 2482.359863 2560.039795 2654.028320 2774.115234 2842.561523 2854.743652 2862.467285 2728.701904 2586.885498 2492.321777 2416.431641 2368.467529 2368.610840 2404.854492 2460.699219 2554.133789 2650.909912 2762.243896 2675.861328 2560.319580 2423.858154 2432.853516 2489.440918 2555.744385 2597.566895 2691.838867 2810.886719 2803.007324 2732.817383 2664.433105 2659.695312 2575.655273 2456.705811 2407.204102 2385.518555 2385.172363 2310.743652 2167.797119 2121.660645 2117.431641 2079.007568 1983.001587 1801.245728 1631.786621 1519.735718 1424.997314 1293.107666 1099.430908 1111.865234 1447.423950 1594.430298 1518.720093 1400.589233 1242.669800 1406.201538 1595.464478 1665.043091 1742.698242 1869.186523 2003.077515 2104.666016 2232.617920 2271.542480 2271.655273 2288.114014 2301.219482 2337.096436 2400.738281 2481.785645 2554.789795 2588.831299 2640.794922 2697.552246 2672.445312 2630.910889 2542.246582 2489.157715 2365.510742 2253.298584 2162.221436 2056.675049 1945.904785 1936.339233 2004.633179 2117.483154 2251.540283 2280.716309 2237.758545 2243.264648 2265.403564 2179.353516 2160.185303 2099.741943 1952.325684 1904.539185 2003.734497 2211.240234 2421.718750 2640.750244 2833.048340 2971.475342 2874.573486 2807.188721 2775.709717 2793.251953 2852.437988 2939.994629 2876.975586 2840.621582 2815.155762 2770.962402 2785.161377 2915.645264 3012.123047 2867.345215 2781.168213 2708.327881 2642.341064 2629.298828 2609.116455 2581.230713 2515.379150 2405.969727 2313.502441 2167.238037 1992.974243 1859.101440 1834.221558 1939.374390 2157.554688 2377.414307 2508.183594 2586.510010 2623.405029 2727.565674 2863.385742 2962.494385 3094.083008 3264.059326 3173.672363 2990.335449 2884.358643 2787.142334 2758.004883 2665.969238 2609.629395 2541.221924 2495.214600 2511.333252 2572.859131 2688.994141 2738.862549 2583.859619 2522.580078 2538.875244 2570.312012 2657.262695 2752.955566 2806.351074 2845.296143 2887.936523 2921.657471 2942.076172 2962.466553 3006.819824 3057.295898 3078.399902 3163.053223 3339.746094 3314.408936 3259.009521 3181.300781 3153.981445 3131.130127 3075.092285 3031.311768 3025.576904 3016.240967 3015.246338 3048.650391 2967.146484 2857.072510 2790.059814 2709.478271 2665.101074 2653.240234 2607.194336 2600.190674 2582.261475 2456.214355 2338.183105 2190.437744 2031.489746 1911.473145 1791.755859 1710.593994 1855.802002 1885.888428 1866.327637 1921.693726 2002.532349 2162.185791 2303.270996 2420.634277 2525.425293 2657.800537 2835.195312 2985.626709 2943.709961 2887.831787 2776.627197 2665.431641 2583.153809 2510.077148 2456.984131 2364.308350 2176.945557 1987.573853 1808.635254 1808.570435 1919.983276 2049.628174 2124.150391 2194.632568 2297.589111 2410.864014 2495.945801 2575.390869 2720.249756 2808.225586 2889.301025 3001.608398 2978.824707 2744.017334 2488.685303 2448.392578 2530.724365 2526.979492 2444.313721 2304.693115 2239.622314 2138.964111 2067.671387 2025.950806 1936.162720 1864.147827 1782.504028 1831.736938 1889.508179 1959.554810 2094.796631 2210.487061 2296.754395 2379.345703 2436.303711 2409.827148 2532.911377 2471.749268 2251.679199 2183.118652 2231.923340 2269.673584 2374.421143 2442.363770 2468.853027 2491.289551 2539.376221 2597.004395 2660.824463 2579.826660 2481.609131 2346.277100 2237.370361 2148.063965 2206.349609 2212.131104 2162.992676 2170.214355 2264.252686 2353.307129 2279.231934 2147.461182 2023.202881 1919.827515 2044.509155 2156.164307 2289.272949 2375.702881 2361.732422 2191.401855 2038.080200 1853.746582 1749.303589 1836.113647 1949.311279 2007.115723 2019.049683 1892.971924 1807.274780 1769.784912 1701.121094 1546.643311 1502.821045 1443.252686 1397.328979 1315.396973 1241.284790 1187.390015 1154.173828 1136.591309 1120.583862 1102.989136 1073.505981 1047.284058 1025.666260 1030.507324 1048.194946 1082.859863 1113.685547 1130.927124 1151.135498 1188.056152 1180.835571 1201.963623 1231.633789 1251.601685 1255.828369 1250.610596 1255.671997 1246.436523 1202.985474 1155.447998 1111.654419 1076.950806 1052.716309 1010.402283 965.233704 949.215210 941.213013 941.685181 940.275513 940.182495 940.795837 940.104553 940.246765 988.740540 1108.525391 1233.965698 1388.380981 1477.474243 1557.661499 1599.245728 1578.950562 1538.703125 1523.298340 1569.141968 1676.599609 1694.686768 1648.172607 1752.932739 1807.150513
2297.755127 2374.902344 2436.430420 2482.023682 2545.168945 2596.914551 2569.619385 2510.959473 2362.572754 2346.145508 2412.132080 2389.136475 2280.336914 2157.520508 2232.486572 2345.636230 2438.458496 2529.197998 2584.052002 2658.528809 2690.743164 2704.417236 2741.601807 2797.646729 2906.010254 2808.748535 2698.662598 2614.060791 2564.356445 2485.483887 2461.501953 2481.833740 2555.017334 2652.695312 2763.101318 2845.530518 2710.557129 2631.039795 2498.506348 2521.539795 2583.750488 2672.122070 2701.809326 2797.090332 2956.747070 2844.665039 2701.254395 2593.999756 2548.657471 2489.852783 2428.654785 2377.485107 2330.088135 2285.701660 2276.303955 2214.465820 2095.961914 2020.705078 1935.380615 1878.074585 1760.630615 1572.712891 1424.975342 1330.155151 1218.017700 1081.285889 1182.165649 1517.953369 1588.702026 1444.489990 1317.414185 1264.965332 1434.640503 1560.068848 1622.677124 1726.038696 1871.521484 2013.109253 2152.356201 2184.370361 2163.873291 2146.236084 2160.138428 2164.859131 2212.531006 2274.098145 2363.751953 2472.219727 2536.501221 2633.822998 2709.421387 2636.121582 2524.478516 2440.213867 2377.484375 2301.136230 2239.915527 2187.665039 2076.117676 1957.190796 1935.005859 2046.746948 2158.186523 2263.033936 2330.175537 2318.620361 2297.497070 2321.808838 2266.103516 2246.423340 2247.985352 2121.040771 1985.760986 2019.435913 2239.798584 2483.062256 2657.390137 2801.774414 2860.351318 2778.952881 2710.735840 2699.475830 2762.477051 2857.154053 2957.436035 3041.636230 2930.047607 2855.058350 2885.309814 2958.848389 2999.911621 3068.482910 2969.455566 2896.598877 2801.221924 2689.944092 2582.832031 2541.261719 2485.467529 2399.287842 2297.949219 2190.922607 2071.195801 1942.848022 1887.396118 1885.647095 2006.445557 2212.181396 2377.044922 2461.880859 2517.233887 2614.513428 2760.434570 2873.332520 2999.325195 3131.571289 3167.495117 3061.405762 2973.437256 2907.341797 2752.061768 2702.408447 2670.659912 2600.592285 2548.887207 2554.485352 2609.528076 2713.645508 2810.328613 2757.138672 2646.911865 2595.643555 2580.971191 2620.090820 2667.814209 2734.079102 2821.653809 2852.220459 2902.422852 2933.255371 2948.722656 2994.543945 3073.573975 3080.512695 3096.317383 3164.443848 3341.508057 3323.032715 3242.575439 3182.065674 3154.666016 3132.121338 3080.080322 3056.670898 3044.495605 3038.232178 3039.487793 3116.320068 3049.985840 2941.537109 2824.242432 2718.860840 2683.421143 2635.450439 2562.650391 2493.594971 2428.288086 2351.451904 2268.525635 2143.140381 1977.676025 1814.549072 1719.592529 1770.676025 1923.280762 1952.842896 1962.972290 2029.611938 2107.847656 2275.304199 2433.278564 2545.337891 2584.103271 2692.848633 2902.548096 2985.281006 2861.108887 2780.447998 2770.600830 2737.480713 2642.571289 2516.520996 2459.958252 2307.022705 2107.878174 1943.745850 1814.190430 1793.795288 1911.151001 2059.615723 2130.995117 2196.396973 2303.799072 2395.574463 2470.261719 2531.944092 2613.684082 2672.526611 2753.924316 2836.876953 2919.492432 2777.751221 2556.281494 2474.553955 2536.412598 2556.809814 2542.694580 2398.286621 2333.910889 2296.867432 2180.128906 2155.766602 2086.110107 1950.941406 1776.146729 1792.240601 1850.718384 1940.353882 2027.845459 2140.990479 2237.329346 2320.475342 2342.971924 2343.492188 2473.877686 2487.440430 2243.167725 2135.076904 2141.598145 2181.066406 2333.037842 2405.863037 2524.925293 2592.179199 2643.117432 2692.674561 2686.248047 2576.327637 2508.712158 2376.151611 2227.200195 2185.970459 2269.752197 2316.951416 2300.407227 2292.052490 2324.671875 2382.380859 2287.902100 2190.642822 2033.729736 1947.281860 2064.458496 2188.461426 2296.614014 2418.794434 2343.554199 2189.432861 2017.730835 1840.768066 1795.436157 1925.850830 2066.080566 2091.531006 2011.698975 1936.163208 1894.386841 1814.420654 1706.595581 1615.560547 1635.091919 1598.223267 1512.744751 1431.452881 1372.054443 1298.979248 1220.815674 1180.035156 1137.791748 1120.148438 1094.584595 1045.446045 1030.694214 1016.026001 1013.795837 1007.825623 1017.682190 1040.286133 1072.734009 1090.467896 1095.595703 1136.348755 1143.918213 1151.698975 1150.713989 1132.507202 1134.163330 1117.557495 1087.740356 1069.817871 1061.860840 1056.529053 1047.223755 1013.263062 972.525574 950.704224 941.262329 940.049500 940.000000 939.998901 939.849670 939.880920 941.795166 1043.465088 1192.511475 1337.198730 1428.131104 1518.027466 1583.541992 1631.469116 1630.250244 1566.460815 1601.434448 1635.254517 1715.521484 1791.822510 1773.039551 1829.865845 1917.238770
2293.835938 2388.992188 2456.684326 2504.782715 2569.871338 2619.328857 2623.052002 2606.221436 2418.333496 2244.758789 2238.683838 2229.989014 2227.480713 2137.919678 2260.490967 2362.859131 2469.480713 2553.362793 2564.669922 2604.360352 2605.133545 2694.872314 2774.172852 2882.521240 3006.147461 2904.366943 2809.090820 2775.539551 2735.253662 2649.721191 2604.854004 2614.437988 2657.794678 2765.070801 2870.905029 2959.243652 2818.937012 2688.699463 2570.839355 2582.770996 2677.600342 2782.402344 2790.419922 2854.324951 2919.188477 2824.215820 2755.035400 2682.255127 2586.560059 2540.580811 2547.144043 2430.523682 2313.616699 2248.444580 2208.535645 2167.771484 2079.336914 1963.750366 1836.435669 1743.891235 1672.366455 1546.628296 1396.005737 1334.795410 1172.494385 1060.335815 1239.723267 1570.819702 1565.881714 1390.559448 1272.547241 1302.317749 1430.464478 1505.110840 1596.580566 1734.372559 1895.875732 2048.850830 2103.574219 2070.870117 2046.487915 2029.812012 2064.283447 2150.249023 2248.443359 2313.384766 2368.696777 2420.808350 2512.694336 2612.725586 2675.817383 2692.125977 2565.994385 2464.730225 2386.497314 2326.274414 2257.629883 2196.652344 2087.556396 1973.566406 1948.580566 2071.882812 2236.332275 2367.007568 2386.822021 2401.411865 2419.383789 2375.147217 2341.762207 2337.985596 2379.288574 2265.817627 2129.163574 2110.098145 2196.134277 2344.401611 2526.135742 2632.771240 2681.553467 2679.923584 2663.442627 2690.367188 2775.348389 2899.635986 3018.194824 3133.999268 3073.145996 3025.335205 3078.001953 3122.177490 3042.805908 2937.490234 2913.354004 2971.123047 2893.139404 2762.433594 2610.381348 2499.005127 2431.912109 2348.093262 2277.618652 2182.672852 2048.370850 1937.134888 1888.950073 1908.846313 2006.976685 2194.574219 2343.783691 2445.501953 2508.217529 2623.211182 2774.559082 2908.449951 2997.047363 3079.078613 3101.028809 2975.694824 2900.460205 2868.294922 2765.817383 2706.911133 2654.698975 2615.229980 2636.677246 2685.838867 2748.559326 2855.151123 2758.237793 2673.375488 2623.781494 2614.277588 2619.953857 2652.803955 2683.531250 2748.553467 2908.791260 3006.747559 3046.020508 3038.732422 3053.077393 3106.456543 3116.099121 3108.927979 3151.725830 3181.222656 3326.360596 3357.168213 3239.412598 3209.709229 3157.944824 3120.093262 3087.841797 3072.383301 3060.608643 3056.000000 3076.853516 3155.302002 3000.795654 2849.137207 2784.325195 2722.727783 2716.401367 2625.484375 2565.566895 2489.309082 2380.622070 2254.739258 2163.834961 2040.016846 1891.271118 1752.908813 1723.885742 1838.909546 1964.001465 2023.574341 2083.600098 2170.615479 2270.894287 2350.189453 2473.649658 2582.984375 2652.092529 2805.185303 2992.851318 3021.035156 2935.104492 2852.598389 2843.184814 2771.042969 2664.750488 2560.900146 2474.170410 2318.991211 2117.976562 1929.304565 1805.411377 1797.915894 1927.459106 2054.639160 2152.918945 2224.956299 2324.218994 2397.881104 2464.486572 2514.475586 2581.941406 2620.904053 2716.502441 2832.066406 2917.634521 2878.643799 2619.512939 2524.669922 2556.346436 2594.401367 2608.259766 2505.652832 2461.895264 2483.254883 2315.808350 2231.595459 2072.996826 1914.595703 1749.050537 1795.039551 1826.912231 1926.630737 2012.806030 2099.229004 2177.641602 2243.642578 2244.312744 2266.560059 2384.105225 2435.291504 2222.934082 2118.820312 2128.715332 2161.604980 2249.108887 2346.951904 2453.488770 2512.619629 2572.727539 2649.507568 2737.068359 2632.891357 2501.338867 2372.570312 2246.687988 2225.176025 2304.724854 2367.025635 2382.664551 2378.143066 2404.880127 2425.574463 2343.027344 2183.466309 2037.155029 1999.946167 2126.109131 2234.963867 2327.836182 2412.773682 2334.714844 2182.418701 1990.223022 1826.780151 1849.147461 1986.303467 2117.759766 2156.231689 2056.499023 1987.025146 1936.186768 1821.929077 1755.656616 1718.558594 1752.025269 1686.397461 1581.998291 1502.884155 1486.095215 1421.461426 1358.806519 1327.830811 1288.366089 1252.130859 1246.980713 1185.379272 1127.645630 1082.335815 1032.554810 996.858398 987.406006 983.274780 989.365601 998.670166 1009.205505 1034.244263 1047.444458 1046.154785 1034.601562 1011.578491 1019.727966 1011.440613 998.896606 978.463257 976.170532 967.162903 964.636108 963.320435 958.213074 950.866760 940.473206 940.000000 939.985046 939.697449 939.137390 939.416016 941.085876 1041.897461 1175.010498 1309.762939 1422.119629 1508.135498 1579.667236 1600.818115 1497.637695 1394.426758 1449.034790 1547.277954 1635.547119 1689.215698 1706.407959 1723.002075 1793.967285
2306.202393 2380.760254 2452.789307 2541.701172 2633.150391 2706.197510 2700.198486 2579.027344 2409.518311 2219.758057 2163.319580 2131.438232 2132.435547 2102.528320 2218.237549 2326.931152 2395.148926 2420.586914 2390.409424 2439.484131 2532.354004 2710.434814 2896.933105 3029.245361 3153.663574 3097.990479 2987.350830 2949.087646 2910.915283 2855.869141 2791.848145 2811.922119 2775.393555 2877.586670 3015.701416 3109.138184 2979.450684 2826.517090 2662.462158 2643.444336 2757.780762 2871.145752 2835.963623 2852.806152 2772.318359 2683.679199 2636.422607 2623.133301 2610.961670 2530.235596 2506.513672 2430.471680 2318.797119 2227.269775 2164.888916 2127.332275 2031.919800 1952.825317 1844.919800 1705.055298 1602.934448 1511.782837 1427.404175 1357.959473 1172.437744 1064.709106 1358.435425 1569.975220 1537.151123 1382.195679 1274.194702 1314.529419 1385.351929 1474.580322 1593.472534 1733.406738 1878.811523 1982.334106 1990.283691 1946.088135 1929.016113 1971.550049 2100.631592 2250.028076 2374.132812 2405.945557 2430.952637 2462.641113 2514.453613 2574.598389 2656.439941 2764.039062 2701.187988 2617.134521 2525.803955 2384.910645 2288.304199 2244.895752 2112.728271 1998.840454 1971.140503 2096.567139 2267.618408 2424.346680 2469.429199 2501.847900 2502.223145 2443.605957 2405.795898 2452.174072 2520.937988 2381.229736 2252.540527 2177.918701 2156.453125 2227.323730 2392.742920 2469.001709 2561.250977 2639.856445 2655.044434 2672.914795 2787.150635 3012.163574 3115.731445 3111.183350 3030.199463 2995.481201 2986.241943 3004.710205 2991.418213 2900.605713 2833.017090 2843.113037 2873.812744 2738.600098 2619.825928 2522.076172 2443.115234 2373.886475 2288.539795 2170.837402 2030.380371 1930.027954 1887.584595 1910.988281 2020.526245 2185.100586 2350.342285 2477.586182 2587.963135 2676.451660 2788.570557 2823.639893 2859.890625 2945.831299 3041.797363 2995.851807 2890.462646 2834.769775 2778.024170 2717.543213 2664.496826 2666.092041 2762.562500 2907.894043 3002.382324 2986.249023 2804.515869 2718.758057 2682.138672 2692.719971 2741.900391 2796.148926 2806.456543 2867.539307 3020.601074 3143.732422 3236.815186 3195.083252 3201.172363 3199.281738 3187.531494 3176.551758 3228.201172 3277.656250 3427.764893 3384.076172 3285.509277 3234.744141 3177.113770 3125.747559 3099.354004 3082.275146 3076.493652 3082.215576 3167.429932 3087.978516 2953.041992 2851.271729 2771.551514 2740.332275 2779.838379 2719.770508 2637.795166 2551.867188 2449.753662 2318.664062 2156.088623 1985.056885 1832.256592 1742.225952 1776.121948 1923.639404 2072.610840 2164.996094 2215.833252 2313.354980 2413.209961 2453.152588 2517.780762 2597.493896 2704.541748 2836.865967 2935.579346 2885.309570 2845.456787 2827.560547 2835.383057 2748.693359 2657.832031 2564.183838 2447.471924 2287.531494 2108.653076 1920.123291 1797.140015 1818.415039 1955.418335 2081.313721 2179.952881 2269.261963 2343.519775 2418.947266 2487.519775 2532.468262 2582.375488 2668.738770 2769.845215 2820.657715 2903.044434 2878.342529 2648.643799 2563.658691 2578.606445 2658.957520 2738.605957 2629.737793 2571.074219 2498.580078 2350.134033 2173.492920 2018.487305 1873.820068 1722.281494 1760.693481 1759.817139 1849.796997 1962.545410 2028.576904 2060.654785 2123.720947 2159.418457 2209.861816 2303.664307 2302.935059 2147.208008 2064.266846 2021.951660 2056.968262 2179.834473 2277.371826 2331.263916 2419.135010 2511.806152 2663.781738 2766.915527 2631.764404 2467.819824 2369.401123 2249.736328 2263.987793 2332.064697 2398.069580 2442.794189 2453.535400 2529.283447 2491.271240 2349.193115 2214.323730 2099.084473 2053.014648 2178.520264 2352.211426 2438.899902 2410.989502 2289.760742 2148.059326 1974.244507 1878.112793 1947.595337 2068.214355 2164.845703 2208.802734 2133.588623 2026.828125 1911.175049 1843.696045 1806.499756 1815.506470 1796.950806 1717.525757 1608.478516 1559.999268 1572.996582 1539.135986 1488.792725 1475.932983 1448.307861 1418.321655 1406.517944 1335.882690 1274.985840 1237.249268 1179.754761 1099.635742 1018.543762 981.736328 973.274597 977.930481 974.026672 969.651062 970.430420 975.147766 965.062439 958.008545 955.817871 954.152527 952.743469 951.477905 947.764893 945.507935 944.975281 943.965759 942.900208 943.343933 940.930359 940.432922 939.562439 938.852173 938.399902 938.872253 939.665771 1004.049316 1087.501709 1179.560059 1272.734741 1393.828735 1487.914429 1455.131470 1325.181641 1282.466675 1346.451660 1434.664551 1495.863281 1512.437622 1527.036011 1576.486816 1633.269287
2315.436523 2380.686768 2460.696777 2556.725098 2659.763184 2740.218506 2637.608154 2483.715332 2336.932129 2268.422363 2244.148193 2193.990723 2117.428955 2067.979736 2125.835205 2203.989502 2257.288818 2257.262451 2327.978760 2480.418457 2602.480225 2758.479736 2913.280273 3010.941162 2974.077393 2896.808350 2870.256104 2855.097656 2867.755859 2784.499268 2766.262207 2823.483887 2860.982910 2922.265625 3081.887939 3227.250977 3126.909912 3014.879395 2817.395020 2715.794678 2768.458740 2772.165039 2730.540771 2757.703369 2692.454102 2589.381104 2529.631836 2502.369873 2505.106445 2445.081543 2405.825928 2372.035400 2310.850830 2219.334717 2136.883057 2070.040527 2005.942627 1937.852539 1862.958374 1767.174438 1684.284790 1613.345459 1536.156738 1365.421875 1137.736694 1091.101685 1400.596924 1514.038818 1493.126831 1414.887329 1312.489136 1301.871338 1369.069458 1451.127563 1549.724976 1653.671509 1760.725708 1847.296753 1852.367310 1819.161621 1904.581421 2053.020508 2133.727539 2211.779785 2329.243164 2444.913330 2537.500732 2562.813965 2601.035889 2663.951660 2668.171631 2678.217285 2701.045654 2603.152832 2501.029541 2412.010986 2350.243164 2274.278809 2138.331299 2026.351074 1983.028076 2111.187256 2287.273926 2444.250000 2603.192383 2621.998291 2535.960449 2485.864258 2471.007324 2546.995850 2627.857422 2520.644775 2388.555176 2316.430176 2238.442627 2208.557861 2282.738281 2386.316406 2531.240234 2637.809326 2670.178467 2744.746338 2809.554443 3026.563232 3169.400879 3099.203857 2959.539795 2911.158691 2896.664062 2909.042969 2923.331543 2876.579834 2799.004150 2745.426758 2844.198975 2840.307373 2721.907471 2603.118164 2495.177246 2392.741699 2283.462646 2186.808105 2056.594238 1963.201294 1920.195801 1935.834351 2050.656982 2205.258057 2373.858887 2477.207031 2558.012207 2641.731689 2726.394775 2761.233643 2815.347168 2882.833984 3015.062012 3051.276123 2933.366455 2820.035645 2780.470459 2754.088623 2734.877441 2763.810059 2853.456787 2955.385986 3055.735352 3073.066895 2912.119629 2844.250977 2821.487305 2841.587158 2906.589844 3007.298096 3015.296387 3050.804443 3145.706055 3262.323486 3326.553223 3291.328613 3267.831299 3260.077637 3233.509521 3292.982666 3361.943115 3371.351074 3457.345947 3407.717041 3321.114990 3255.393311 3188.142090 3159.666992 3132.333008 3100.641113 3106.001953 3147.264893 3296.278076 3185.815674 3046.767578 2984.746338 2870.462158 2822.396729 2831.539307 2898.749023 2798.535156 2651.466309 2503.386719 2328.364990 2129.579346 1932.644043 1786.044800 1780.409546 1864.288574 2056.487061 2245.602295 2359.404053 2377.165039 2453.432373 2517.207275 2565.942383 2645.300049 2685.725830 2821.806885 2950.011230 2962.492188 2863.333496 2759.834229 2705.974365 2693.093262 2674.593262 2625.146729 2539.939453 2421.828613 2246.152344 2053.473389 1889.151978 1800.073120 1845.796387 1984.557983 2112.772461 2207.955078 2301.864746 2393.773682 2467.360107 2518.259033 2544.565918 2598.017578 2653.965820 2775.770264 2893.562744 2945.166748 2901.629639 2681.412354 2588.854248 2623.826904 2722.162598 2736.302979 2683.312988 2483.960693 2323.635742 2212.417236 2107.360840 1978.352539 1859.013794 1698.817017 1645.281860 1684.566650 1789.486816 1888.323120 1911.367676 1926.816528 1988.749268 2069.479004 2158.111328 2207.774170 2139.253418 2038.322510 1974.825562 1918.780396 1971.199829 2083.012451 2150.388916 2265.796875 2384.738770 2466.537598 2541.838135 2641.321777 2591.289307 2465.794678 2435.269287 2314.045654 2349.078857 2390.411377 2460.756104 2514.832275 2505.862061 2501.907471 2475.725830 2358.188965 2237.273438 2168.785156 2149.821289 2235.095947 2398.372070 2523.720215 2414.757080 2307.540039 2141.807861 2019.309326 2034.422363 2067.549072 2137.984375 2193.080322 2234.457520 2140.262207 2015.862671 1897.579102 1863.259521 1874.658203 1880.586182 1810.295532 1715.846313 1647.961670 1623.747681 1641.827515 1611.988159 1578.627930 1584.178833 1567.673950 1525.163574 1502.224365 1446.534302 1401.162109 1354.779541 1303.174927 1192.990112 1085.707642 1020.032166 985.879028 976.706665 973.268494 968.367371 964.415222 961.439148 958.786194 954.176208 951.432861 953.248169 957.799011 957.043396 952.729126 957.333740 984.680969 983.796143 969.616272 969.267273 946.701538 940.613159 948.034058 937.544067 937.645081 938.103271 938.930054 972.806702 962.708191 1011.899109 1137.328491 1253.714111 1302.757202 1229.222290 1169.130737 1149.967651 1183.158936 1238.806519 1294.332153 1316.646973 1369.816895 1456.492432 1536.555542
2351.460205 2402.731201 2461.527344 2533.696777 2658.309082 2669.329102 2518.079834 2441.562500 2375.852051 2397.687744 2382.698242 2328.604980 2232.321045 2128.332031 2055.777588 2106.684326 2137.766846 2214.264404 2370.277344 2524.767090 2605.784424 2668.644531 2725.531250 2804.604004 2763.333740 2737.781006 2699.468018 2694.276855 2769.560059 2656.492920 2695.259033 2826.205566 2897.632080 2998.304199 3105.951416 3097.816895 3134.151123 3075.229004 2969.848145 2851.552734 2784.423096 2664.746582 2633.866699 2644.711182 2630.785889 2531.321045 2489.261475 2427.121094 2390.469727 2346.297607 2299.758057 2261.369141 2232.389160 2202.546143 2168.231201 2087.618896 2012.709595 1943.615479 1871.070190 1765.538086 1689.580200 1631.861084 1555.238037 1369.393921 1184.205566 1124.611328 1418.958862 1442.828857 1413.359009 1383.828003 1318.398682 1307.095703 1338.861694 1399.767700 1480.148438 1550.953857 1641.480469 1743.595581 1730.363525 1824.109253 2006.159424 2151.368652 2250.727295 2302.260254 2352.074707 2444.818115 2548.029053 2633.161621 2653.644775 2704.284424 2611.907471 2570.364014 2599.949707 2589.893555 2514.801025 2449.810791 2397.610352 2293.066406 2183.227539 2073.486816 1998.215576 2094.994141 2276.470703 2463.355225 2652.186523 2637.881104 2566.756104 2552.821289 2606.112305 2672.246338 2612.820557 2553.180176 2471.351807 2422.416504 2324.483643 2210.009033 2242.236816 2409.663574 2603.778076 2713.795654 2813.656982 2840.613281 2934.979004 3207.401855 3150.979980 3061.725098 2934.527832 2880.845703 2835.406250 2842.555908 2836.000488 2797.482422 2729.407959 2656.086914 2725.623047 2786.968994 2708.920410 2608.851562 2504.973633 2419.418945 2346.590820 2260.453369 2156.414062 2071.690186 1960.777466 1955.564087 2064.015137 2235.470459 2376.491699 2448.142090 2559.475830 2644.654785 2719.957764 2843.923096 2963.269775 2970.282959 3093.985107 3079.875000 2941.083496 2894.058350 2880.499023 2926.329102 2915.839355 2874.434326 2881.582031 2915.123291 2981.828857 3038.490967 3004.845459 2993.898926 3014.557373 3047.114746 3125.769531 3232.107422 3245.527588 3251.250977 3284.157471 3374.597168 3355.173828 3337.405273 3318.729004 3303.590820 3315.980225 3388.701904 3452.489746 3469.094238 3493.495850 3466.529541 3329.300293 3257.236328 3214.971924 3188.043213 3178.837158 3169.636963 3194.937256 3235.405029 3329.776123 3238.906738 3161.589600 3124.029541 3055.268066 3000.289551 2936.099609 2869.279053 2731.828369 2606.014893 2447.963379 2217.535889 2007.581421 1852.473145 1775.243042 1834.902466 1957.075439 2118.657959 2347.103027 2502.529297 2556.938232 2564.267822 2630.712891 2664.946045 2768.766113 2812.688232 2938.313232 3046.451904 3059.700439 2925.432129 2779.414551 2705.945312 2661.014404 2616.964111 2597.296875 2510.153076 2360.901611 2192.477539 2011.166748 1865.527222 1807.862305 1862.880737 2005.258911 2130.538818 2240.395264 2316.352051 2432.407471 2505.578857 2586.038818 2622.064941 2654.528809 2686.606689 2720.035645 2853.863770 3013.887451 2909.161133 2742.088135 2643.291016 2680.219971 2731.473877 2581.164795 2571.791992 2429.851807 2249.078613 2104.157471 1972.969482 1820.375732 1745.292725 1669.708740 1608.127930 1610.769775 1723.293213 1813.631836 1831.250610 1847.025513 1895.104492 2021.929688 2090.719482 2101.119141 2016.336426 1932.663818 1869.036987 1851.625732 1874.846436 1954.588135 2049.661133 2175.871826 2247.397217 2320.690186 2400.632568 2510.481445 2587.783691 2521.078857 2511.180420 2400.946289 2426.680908 2442.334229 2482.331543 2426.177002 2384.585449 2351.025391 2327.269531 2348.208740 2319.279785 2248.989990 2262.985596 2334.445801 2461.299561 2571.354736 2415.746582 2284.405518 2144.284912 2076.147461 2119.491943 2177.241943 2217.992920 2256.118164 2192.353516 2091.573730 1980.801392 1925.443970 1927.247803 1937.331177 1873.441895 1801.654785 1747.169922 1702.981567 1689.174438 1682.677979 1659.847900 1637.419067 1635.328369 1628.384521 1598.607178 1569.294434 1524.225342 1481.812500 1434.224487 1367.650513 1233.900269 1121.022095 1077.910522 1057.316772 1021.669556 976.569885 973.855103 966.843323 961.629333 960.357971 957.731567 954.721375 960.638000 967.671082 966.370300 978.463379 1048.994263 1076.517578 1107.499756 1102.871582 1099.118408 1013.404724 956.955688 938.420227 938.827820 938.233093 937.362305 938.402649 939.057556 939.049927 939.998352 974.824829 1072.534424 1110.139771 1074.547852 1068.647095 1055.948486 1058.384399 1091.760620 1133.640625 1220.687866 1314.555298 1400.886963 1467.935059
2410.421387 2443.333252 2503.624756 2544.655029 2614.387207 2603.143555 2494.669922 2495.305664 2503.699219 2542.281982 2544.776611 2450.187012 2350.079834 2212.975098 2071.245605 2041.536499 2115.092773 2227.017822 2347.071533 2445.608154 2464.560059 2504.805420 2652.276611 2673.825195 2608.642578 2619.951172 2542.919922 2566.170898 2672.882568 2582.579834 2661.855469 2708.748779 2795.151123 2934.216553 3014.928223 2966.607178 2970.429932 2939.388916 2887.974121 2854.220459 2749.347900 2596.457764 2545.877197 2530.514648 2503.752686 2454.540527 2414.852539 2339.450684 2283.081299 2253.301025 2206.735596 2162.979736 2131.436279 2089.051025 2065.873535 2026.767578 1962.810913 1859.554688 1754.892944 1663.429321 1587.745605 1515.379761 1446.230225 1273.142944 1119.184204 1158.902344 1344.362549 1395.163818 1413.457275 1399.515259 1339.839722 1313.224121 1341.104858 1371.525757 1421.085571 1495.614502 1560.278809 1632.681885 1695.731445 1877.807495 2052.557373 2179.411621 2265.152588 2364.668457 2438.780029 2525.139160 2604.922607 2561.680664 2560.660645 2617.073242 2534.375977 2490.788574 2519.905518 2588.466309 2638.192871 2531.217529 2382.204590 2285.791748 2240.811523 2167.168945 2052.787842 2077.734131 2244.401123 2453.084229 2651.016846 2694.223633 2700.540283 2751.897217 2826.408447 2777.524658 2667.366211 2567.641357 2509.305908 2437.638428 2337.110107 2215.569336 2262.347412 2447.987793 2639.848389 2762.030273 2945.898682 3009.762695 3112.874756 3260.801270 3143.552734 3050.584961 2949.160400 2873.911865 2822.530273 2790.698242 2778.146729 2710.107422 2618.117676 2563.425293 2601.630859 2628.723389 2606.896484 2533.749512 2429.931152 2377.974365 2317.242188 2242.212402 2160.538330 2077.720947 1942.174805 1946.676636 2092.220703 2281.483398 2449.617676 2550.844971 2672.386719 2750.530273 2776.369873 2983.297363 3131.827148 3158.903564 3212.740479 3132.541748 3036.908691 3008.451172 3036.091064 3083.394287 3009.260254 2973.385010 2997.466309 3037.864258 3112.823242 3088.583740 3076.096436 3109.916260 3163.583252 3251.431396 3305.494629 3313.187500 3298.214844 3361.715820 3420.676514 3405.300049 3382.249756 3390.999268 3398.184082 3409.863037 3453.295654 3496.703857 3547.958252 3560.175293 3598.047852 3487.340332 3366.961182 3266.045654 3232.418457 3216.407471 3200.843262 3118.344971 3118.865234 3261.424316 3199.836670 3073.646729 2983.782471 2949.583740 2983.447510 2874.436035 2780.786133 2719.571533 2620.074463 2512.474365 2336.468750 2133.659424 1960.617065 1815.694946 1812.449463 1942.135010 2125.616943 2223.006592 2310.574219 2547.363281 2701.683594 2690.606445 2776.892090 2792.072510 2896.488770 2974.338135 3071.056641 3097.557373 3069.985596 2941.587402 2862.415771 2728.553711 2635.674561 2584.110840 2555.032471 2493.284180 2322.285156 2140.149414 1971.958862 1858.585205 1825.670044 1876.849121 1984.350464 2084.002441 2217.745117 2311.966064 2442.948975 2544.625000 2662.813721 2730.138672 2751.606445 2739.395264 2733.600098 2780.920410 2880.600342 2865.416504 2757.955078 2702.331787 2724.713379 2605.181885 2451.218750 2427.034180 2306.190430 2191.447266 2042.654175 1863.409546 1722.239502 1733.971191 1801.150024 1711.016846 1599.855103 1614.616089 1678.189819 1715.994995 1774.345703 1848.915161 1947.173828 1989.934082 1933.203613 1857.799194 1786.461060 1772.477539 1795.193970 1814.952637 1846.975098 1949.603882 2059.459473 2153.045166 2259.313965 2347.750244 2444.843994 2553.770264 2570.840088 2603.250977 2538.761963 2524.820312 2522.936279 2483.130859 2416.097900 2342.858643 2272.895996 2254.485840 2254.451904 2341.138184 2395.775635 2410.235352 2457.720947 2535.412842 2556.934570 2482.432129 2367.565430 2217.178955 2174.536621 2190.968018 2250.721191 2339.587402 2322.349854 2265.137451 2139.430420 2031.101562 1985.762329 1994.368286 1963.360229 1906.902466 1870.281738 1859.954346 1822.269531 1790.663818 1780.679688 1749.153198 1711.627319 1686.389038 1663.715454 1659.580078 1641.406494 1596.330200 1552.463257 1494.912231 1377.645752 1223.664917 1140.428101 1103.743408 1026.308716 1009.084656 1025.886353 1044.808716 1031.250854 1016.071472 1007.861511 1014.229919 1039.036621 1029.164795 998.834412 1026.069214 1068.383423 1151.942139 1180.371826 1194.661133 1211.893066 1210.801636 1175.056030 1047.721313 965.040894 939.430786 950.917847 938.977844 938.949463 939.200012 938.887451 937.608398 938.220520 949.371887 954.874573 949.974854 979.693359 984.644409 997.094910 1019.005249 1068.762817 1156.760742 1270.329956 1326.764893 1333.805176
2430.843750 2484.231689 2557.654541 2598.437988 2594.288818 2621.645752 2598.572998 2588.116455 2624.554199 2690.498291 2677.610352 2579.018555 2417.342285 2268.034912 2129.917480 2018.386353 2045.536133 2154.070801 2287.297363 2334.050781 2312.528320 2395.777100 2586.901855 2565.101074 2473.474854 2520.678955 2423.488525 2493.887207 2584.364014 2505.644531 2564.736572 2624.513184 2696.596191 2814.872314 2929.893799 2865.033691 2812.525391 2795.390869 2747.114014 2723.018555 2752.505859 2566.808594 2495.286377 2445.602539 2400.778076 2363.843994 2328.421143 2265.935547 2187.530273 2160.594482 2117.915283 2064.246582 2033.986816 1983.593018 1928.440674 1877.443359 1810.518433 1733.130981 1634.333130 1501.290405 1432.124023 1353.420776 1315.742432 1173.406128 1061.308594 1167.433716 1308.415649 1377.513184 1418.119629 1444.473999 1370.978638 1321.336670 1342.157959 1368.491455 1427.312500 1538.564697 1620.410645 1677.361084 1786.701538 1905.316040 2001.265381 2064.351807 2171.802246 2303.863770 2432.437012 2562.967773 2552.934814 2468.766357 2442.779297 2512.785400 2454.771240 2407.701416 2452.739746 2539.000488 2629.243408 2521.950439 2399.406738 2352.352783 2343.897705 2264.358154 2143.923584 2085.301514 2212.651123 2395.814941 2571.958496 2684.821777 2814.292969 2917.240479 2916.006836 2850.789062 2743.777344 2638.378418 2559.886475 2461.049316 2342.458496 2223.283447 2286.941895 2471.000732 2626.416992 2784.156982 2946.974609 3050.134277 3148.888428 3100.984375 3045.224121 3027.596436 3023.171875 2994.229980 2878.666260 2785.418213 2733.574707 2707.196777 2651.642090 2562.874512 2546.264404 2540.639648 2494.598145 2437.042969 2348.364990 2269.390137 2209.000244 2164.095215 2155.064697 2079.716553 1934.693481 1975.544312 2115.104736 2298.628662 2479.873047 2622.233398 2745.950195 2869.386230 2910.480713 3013.527832 3017.327393 3126.708496 3103.623535 3100.540283 3044.446533 3115.697021 3226.593018 3222.943115 3161.171143 3119.106934 3129.028564 3213.697021 3269.495117 3249.750244 3198.327148 3205.838623 3219.291748 3214.292480 3220.702148 3247.279053 3253.287109 3299.383545 3424.396484 3415.292969 3439.861328 3498.720215 3431.800781 3441.060547 3490.669434 3593.652832 3679.564941 3603.271973 3474.742920 3397.344482 3299.434814 3273.659424 3289.174561 3269.726074 3137.573730 3033.559326 3069.352051 3180.762939 3084.120850 3000.840576 2883.852295 2820.410400 2806.791016 2708.159180 2635.708984 2584.875977 2506.865479 2399.254395 2233.521729 2044.937256 1863.240234 1816.903809 1920.273560 2086.133301 2245.071289 2382.938721 2412.667480 2483.928955 2638.525635 2782.184570 2890.862549 2944.919434 3035.964844 3130.065430 3160.233887 3083.942383 2977.484863 2863.552734 2759.722168 2669.260742 2603.505127 2572.324951 2524.154297 2423.384766 2259.411621 2087.917236 1935.792236 1841.281250 1835.533569 1938.546143 2035.493652 2120.648682 2172.989014 2238.794189 2355.637939 2490.803223 2579.231201 2629.987305 2686.528320 2769.833496 2818.930176 2850.946045 2910.360107 2918.732422 2800.629883 2799.424316 2728.737549 2512.725342 2388.156982 2304.040527 2153.805664 2044.912354 1939.037842 1781.890503 1727.479614 1867.591797 1934.562622 1839.497925 1725.121948 1647.888672 1593.685181 1571.013062 1652.008667 1767.772583 1902.035645 1911.444946 1779.228394 1721.108643 1760.230713 1823.698364 1910.091431 1911.028687 1865.197632 1869.670288 1971.286987 2085.556641 2217.108154 2335.444580 2435.007324 2544.739746 2636.598877 2668.307129 2659.487305 2606.732422 2547.266846 2469.375488 2390.090088 2322.398438 2234.422852 2173.947998 2201.182373 2288.625000 2365.827637 2416.860352 2512.396973 2452.801514 2375.747803 2317.438721 2342.482422 2298.321533 2252.379150 2229.634277 2217.030762 2258.129639 2241.121338 2277.436279 2211.281738 2145.194336 2089.787598 2066.775146 2043.510986 2043.673706 2070.299316 2080.592041 2062.608154 2035.514893 1998.409180 1964.930542 1912.885620 1821.890137 1758.145386 1717.026978 1687.776978 1627.679321 1552.154663 1440.908691 1268.558472 1165.873657 1104.858887 1083.187744 1104.907227 1135.459717 1108.562500 1135.060303 1129.179932 1131.993896 1128.053711 1132.562866 1164.308838 1163.407471 1051.661133 1092.986206 1201.529541 1263.832275 1260.142334 1272.603394 1320.543091 1329.195679 1246.992798 1172.237427 1099.236938 991.894043 940.972412 955.124268 953.499451 941.294617 938.349976 936.619629 936.480408 936.823975 935.517151 936.213379 938.384338 942.568481 968.908508 993.022156 1015.519409 1067.492798 1140.250122 1182.850586 1210.882690
2424.625732 2531.696533 2643.546387 2718.043213 2695.636719 2699.686279 2688.374756 2715.550537 2699.813721 2771.986816 2775.724609 2660.914795 2492.738525 2359.155029 2205.439453 2071.416992 1985.172974 2015.722900 2157.633545 2189.617920 2174.947021 2350.545654 2550.152100 2485.701172 2347.989990 2412.714844 2341.576904 2372.353027 2407.348389 2404.599121 2489.371338 2563.946045 2652.056885 2779.655029 2934.687012 2831.524170 2743.949951 2677.813477 2638.744873 2651.820068 2710.498779 2531.622559 2444.864746 2377.397461 2307.207275 2262.229492 2227.857666 2193.903809 2114.461670 2060.848389 2013.941528 1972.091187 1952.516479 1888.411377 1819.201416 1746.686157 1677.284180 1609.296021 1514.856812 1369.046875 1272.574341 1206.291504 1164.430542 1066.958862 1055.545654 1158.829102 1290.052368 1391.202637 1440.307617 1452.363281 1414.417114 1342.910522 1336.816895 1353.825073 1397.466187 1515.276245 1587.113037 1691.461182 1793.401001 1852.518433 1900.809204 1976.340698 2094.830322 2229.518311 2384.674805 2514.322510 2458.865967 2375.074463 2331.781494 2401.411865 2353.604248 2325.720947 2416.544434 2543.220459 2626.430664 2516.320068 2485.348389 2495.430908 2414.767578 2319.329346 2224.466797 2132.559326 2187.812500 2345.076172 2503.734619 2597.453125 2742.440918 2796.218018 2737.004395 2686.373779 2624.832031 2562.374268 2502.827881 2435.454834 2339.560791 2225.006348 2298.571533 2503.678955 2694.199707 2788.703369 2838.705078 2939.222900 3069.901367 3030.483887 2976.103271 2935.705566 2930.444092 2978.446777 2961.262207 2863.443848 2808.180664 2836.799561 2801.504883 2620.803223 2518.691895 2455.045410 2382.359619 2337.510498 2267.222656 2196.434570 2163.798096 2171.866699 2162.452881 2075.557617 1956.818970 1984.674316 2111.239258 2296.580322 2422.277100 2513.335938 2633.811035 2767.089355 2903.648682 2912.523438 2878.318115 2977.049316 3064.705078 3027.154053 3031.384033 3013.061768 3150.034912 3268.873535 3275.554443 3230.470459 3244.429443 3325.123291 3288.245117 3245.320557 3269.977783 3287.812012 3185.019775 3156.553711 3160.647949 3186.577393 3214.917480 3287.982178 3341.375977 3347.449951 3452.267334 3516.571045 3473.716309 3439.913818 3527.632812 3640.584717 3647.051270 3555.354004 3449.065674 3340.001465 3256.274902 3208.593750 3261.088379 3241.526855 3095.501221 3006.380859 3053.663330 3110.980957 2972.231934 2872.506592 2809.612305 2718.437500 2631.232910 2569.615234 2523.048828 2445.054932 2376.332520 2252.541016 2081.654297 1896.019653 1848.918823 1921.571777 2048.889160 2208.848145 2364.048584 2494.765137 2552.770264 2571.920898 2602.865479 2673.650391 2801.863770 2959.292969 3090.431396 3206.022461 3210.611084 3137.924561 2991.923340 2823.102051 2728.763672 2629.716064 2570.344238 2551.950439 2465.674561 2322.616455 2170.114014 2019.095459 1910.847534 1850.235474 1872.045776 1997.379883 2121.968994 2229.866211 2275.663818 2283.753662 2283.308105 2364.133789 2509.107910 2608.563232 2699.855225 2781.268799 2898.472168 2936.932617 2970.285645 2989.757324 2870.709961 2763.119873 2553.416504 2364.138672 2291.430664 2204.656250 2088.615967 1968.680908 1830.763062 1740.830078 1815.949951 1933.664429 2031.156006 1932.382568 1847.942505 1800.953613 1734.795166 1629.684204 1535.741821 1672.264526 1787.791870 1766.940674 1662.905762 1738.264526 1839.914917 1913.615601 1985.577637 1992.140381 1949.319702 1868.279541 1921.157471 2072.923584 2172.276367 2289.147217 2411.632568 2510.826416 2667.541992 2744.258545 2666.762695 2609.861328 2518.830566 2399.710938 2301.400879 2241.784424 2166.775635 2022.534424 2026.311523 2134.774658 2164.036621 2249.233398 2324.960205 2213.947510 2178.492432 2141.001465 2180.909668 2249.072021 2203.545654 2072.827148 2046.935913 2078.650635 2060.091309 2101.037598 2059.562500 2129.336914 2086.354004 2085.471191 2042.353149 2064.174805 2121.462402 2115.600342 2040.866577 1964.187134 1899.790161 1810.229614 1769.421875 1683.788452 1610.800659 1554.594971 1477.096802 1398.191284 1309.996826 1226.491211 1170.079590 1168.442139 1203.030518 1219.894165 1236.939209 1223.476074 1202.173828 1229.541870 1244.167725 1243.513306 1245.982666 1280.417358 1324.160767 1264.968384 1073.861572 1121.368896 1287.948975 1394.861938 1430.532959 1405.515991 1431.440674 1417.173462 1372.324341 1319.008057 1247.945801 1131.763672 979.992920 960.423584 940.839966 936.375916 934.379578 934.866516 935.418762 935.482971 932.254822 931.660522 933.323669 934.537048 948.859009 964.254395 969.828430 969.204651 1004.255249 1056.295654 1147.510254
2417.326660 2519.301025 2662.392578 2796.340088 2784.914551 2788.403564 2811.571045 2837.101074 2848.242432 2779.840088 2660.872070 2584.543701 2457.739014 2333.444336 2256.477295 2227.599365 2079.919189 1954.022827 2001.246948 2022.622681 2131.377197 2269.583008 2403.562988 2394.514160 2239.295166 2251.372559 2235.901367 2285.411133 2348.074219 2430.710449 2504.285156 2580.362061 2684.916016 2814.364258 2956.927979 2864.699463 2689.489990 2609.030273 2568.781006 2631.466553 2668.458252 2509.074707 2383.039551 2303.479980 2226.389893 2157.015137 2124.652344 2099.198730 2048.249512 1965.193970 1923.955200 1888.589722 1867.000244 1803.196167 1726.167480 1647.609863 1563.118042 1468.056152 1378.707153 1263.605103 1179.888428 1114.739136 1054.717163 1037.365967 1094.038818 1177.886230 1318.838623 1417.391846 1477.302979 1515.607544 1485.477295 1412.316528 1352.042603 1347.867798 1368.942139 1440.992554 1510.182861 1623.503052 1702.308838 1755.951294 1842.707886 1966.972900 2085.625244 2202.657715 2347.549316 2468.913818 2371.356689 2267.097656 2232.172852 2285.281494 2242.728760 2283.742920 2414.880127 2531.624756 2561.234131 2608.770996 2630.837158 2537.147217 2463.334473 2378.428955 2286.550781 2192.117676 2193.677979 2326.600830 2508.900391 2670.846680 2797.955566 2721.211426 2674.794678 2627.348389 2583.878906 2540.634033 2485.177734 2415.147461 2338.744873 2233.850342 2287.861084 2499.328613 2629.795410 2669.289062 2785.280762 2899.977539 3050.607666 2973.081787 2923.818604 2869.994141 2871.144287 2863.172852 2929.130859 3014.606934 2967.230225 2962.953613 2871.666016 2751.020508 2589.497070 2461.527344 2398.750977 2337.361572 2273.277100 2215.345459 2222.528320 2231.334229 2221.532471 2150.982666 2039.003662 2015.288452 2057.185791 2203.156250 2369.247070 2445.818115 2540.338623 2656.182617 2786.874023 2803.246826 2782.219482 2867.009033 3006.217529 2956.019043 2964.122803 2983.979980 3044.262207 3223.779053 3383.509033 3357.828125 3313.511230 3239.059570 3195.616211 3186.244629 3189.356201 3167.746094 3124.557861 3124.107666 3123.486572 3139.636475 3171.895020 3284.864014 3270.589844 3285.285400 3368.752686 3409.592041 3315.800049 3306.479492 3381.951660 3494.035889 3452.822998 3486.204102 3471.291992 3321.201172 3235.856445 3182.652832 3176.481201 3191.670166 3087.795898 2979.373535 2983.915527 2964.564453 2961.489502 2853.708008 2738.068115 2635.540283 2518.171631 2471.401855 2412.353271 2311.110352 2242.812988 2084.918213 1904.900635 1838.515503 1975.569702 2089.186523 2167.734619 2357.884766 2491.907471 2651.457764 2688.512939 2657.275879 2635.875488 2662.523438 2751.612305 2841.102783 2984.884033 3161.171631 3108.956055 3010.645020 2926.604248 2891.422119 2776.451416 2644.934570 2574.252930 2512.766846 2373.259033 2221.542480 2091.816406 1951.778076 1873.255371 1888.591797 1919.777344 2055.910400 2195.468018 2283.348633 2356.289551 2426.402832 2401.200684 2352.902588 2398.553467 2536.720703 2650.646729 2784.371338 2803.305908 2802.250732 2846.230225 2898.061768 2907.115967 2660.458984 2377.791016 2227.535156 2193.553955 2125.136230 2020.153931 1899.649902 1773.018311 1784.929810 1906.701416 1998.705933 2079.459229 2013.638062 1952.997437 1924.342651 1846.753418 1688.650024 1514.789307 1523.811401 1607.118896 1621.538452 1631.084229 1782.497437 1918.311157 2017.185913 2102.405518 2092.248535 2024.047485 1929.530396 1897.994507 2054.570068 2192.265625 2268.843994 2359.643066 2490.872070 2637.399902 2762.613770 2656.253174 2576.452393 2427.183838 2269.902832 2163.444580 2083.431396 2007.241699 1930.093384 1905.996948 1942.156006 1977.573120 2082.250977 2149.701904 1996.269775 2014.895996 1985.601929 2010.347046 2044.655396 2022.185303 1919.897339 1874.055908 1880.048218 1840.479370 1855.600098 1871.160522 1929.171753 1897.072266 1839.980591 1776.733276 1877.340454 1974.131348 1910.744995 1842.641968 1764.452515 1704.383911 1608.586426 1541.001221 1456.748657 1389.648804 1328.231567 1275.202148 1202.788818 1167.188110 1169.833008 1207.854980 1252.679077 1300.390991 1320.413330 1329.715088 1318.249756 1328.855957 1322.024658 1338.368896 1315.140503 1361.443604 1427.357300 1420.234497 1273.218750 1083.120239 1105.023560 1255.001709 1411.965698 1540.723145 1582.080200 1569.697266 1520.509521 1494.400513 1447.201294 1365.270020 1223.535767 1057.779419 1029.350830 1013.761292 965.162476 937.163452 937.505737 938.663208 938.284790 936.853760 934.637939 932.163879 931.421143 933.901367 939.302368 942.794556 949.879822 975.182922 1000.281677 1045.169800
2422.867920 2500.726318 2590.262695 2700.423340 2832.640869 2813.830566 2706.009277 2741.224609 2727.890381 2691.037109 2635.734375 2544.724854 2444.499268 2412.885498 2386.138184 2348.269531 2161.967529 2021.600220 1915.693726 1943.726440 2020.581909 2171.252441 2226.814941 2236.949219 2132.732422 2161.947266 2258.851562 2337.979248 2419.900879 2480.399414 2541.864746 2616.905762 2739.831299 2893.448486 2929.639893 2799.907227 2619.204590 2526.534912 2479.150391 2552.014404 2595.072754 2475.832031 2353.975830 2243.797852 2147.364990 2088.675049 2041.557617 2016.729614 1994.131470 1930.853149 1855.200562 1813.507080 1792.528564 1726.764893 1650.684204 1567.809814 1473.868164 1371.744873 1269.432861 1201.921997 1127.353516 1068.477173 1039.941162 1072.286377 1133.067261 1245.649170 1378.811646 1466.157959 1574.017578 1645.443970 1612.441895 1569.539185 1474.290283 1371.626099 1373.032227 1414.731934 1464.702515 1543.021484 1623.762207 1726.233521 1846.080933 1964.897217 2091.214355 2199.775879 2320.425049 2383.900146 2319.002930 2174.394043 2142.905029 2144.365723 2174.959717 2300.760742 2412.257080 2434.318604 2482.098633 2630.809082 2703.177979 2641.140137 2557.452637 2461.424805 2363.058105 2249.211914 2206.733643 2337.631592 2513.073975 2715.409424 2909.141113 2805.434814 2662.028076 2621.721924 2579.360840 2539.835938 2512.390381 2455.887695 2370.160889 2275.417725 2291.626465 2431.575928 2559.920410 2634.105469 2746.678467 2864.087402 3020.105225 2937.026367 2883.976318 2853.134766 2831.706543 2789.475342 2814.283203 2939.757568 2958.696289 2862.260986 2774.388672 2774.691162 2675.189941 2532.584717 2445.975342 2373.516357 2310.232666 2280.735596 2326.531982 2340.073486 2336.713623 2239.351318 2144.092041 2081.906982 2063.660156 2143.952148 2299.865234 2424.026123 2475.070801 2559.868408 2677.618164 2722.652832 2706.326172 2786.442383 2893.368164 2889.450928 2920.693359 2972.007812 3041.709717 3248.775391 3460.610596 3461.488281 3331.389160 3206.845947 3163.059570 3149.804688 3133.122070 3097.341797 3079.951172 3070.789307 3088.989990 3102.398926 3135.980469 3194.025635 3221.903076 3261.407227 3309.976074 3364.016113 3243.095215 3193.098877 3233.339355 3270.701172 3264.039062 3319.046631 3404.875244 3389.582764 3245.885742 3131.252930 3061.681152 3056.310791 3029.382812 2939.117432 2931.087158 2854.999268 2801.372803 2748.044922 2637.143799 2504.914795 2395.230713 2334.844727 2287.503418 2202.786865 2051.649414 1918.091187 1853.201904 1936.629150 2088.068115 2241.214355 2305.702881 2410.951416 2591.442871 2753.902588 2803.024170 2749.948242 2782.482910 2740.927246 2763.691895 2821.646729 2912.481934 3072.728027 2969.338135 2888.352295 2842.446533 2823.610840 2781.546387 2682.059326 2558.633789 2501.183350 2330.299072 2162.399658 2007.521240 1910.315552 1890.267456 1908.665283 1976.642212 2122.730225 2267.455078 2340.103760 2457.243896 2560.037842 2578.296143 2487.543457 2409.640869 2439.389648 2565.969727 2649.092041 2685.373535 2747.534668 2820.216553 2875.320557 2800.626465 2543.644043 2340.984619 2234.619629 2162.160645 2074.469727 1968.891113 1838.545776 1765.577881 1857.145630 1968.912720 2052.865234 2138.331787 2098.991943 2018.801636 1916.376465 1822.206299 1660.312134 1490.371948 1425.988892 1481.638428 1545.684082 1626.045288 1730.943359 1866.291504 2000.762451 2145.782959 2213.777344 2103.790283 2016.283813 1937.450073 2020.763916 2168.262939 2288.859863 2356.725830 2437.648682 2544.352539 2657.906982 2559.413330 2478.306641 2439.456787 2335.986572 2197.100342 2046.568481 1932.523071 1895.842529 1803.193115 1707.534790 1762.255371 1833.048950 1854.115967 1804.959351 1866.444824 1841.089722 1863.420044 1872.768311 1811.282715 1727.564941 1650.730469 1615.086548 1602.411499 1612.088989 1626.060059 1666.592529 1667.999023 1593.839233 1649.203735 1724.015869 1757.119995 1685.182617 1640.213867 1583.292480 1499.399414 1394.915894 1326.591675 1270.278442 1226.779419 1195.215942 1195.660400 1215.812378 1229.428467 1280.528564 1339.546387 1363.479248 1373.794067 1388.275146 1409.541748 1400.786255 1401.386841 1403.833374 1428.732788 1397.771851 1457.638672 1492.623169 1401.079468 1234.239990 1074.967285 1106.056030 1247.216675 1376.737183 1519.185547 1653.307251 1687.303955 1648.121826 1546.770630 1431.733643 1320.162964 1222.868896 1140.530762 1174.374512 1166.268188 1108.925415 998.511780 964.247131 951.906128 946.688110 946.621216 946.570374 945.010071 951.198242 938.589722 934.455811 933.312317 941.770020 949.752808 964.785522 996.739868
2506.450684 2551.235107 2600.267334 2646.536865 2756.872070 2796.893066 2599.875977 2564.765137 2587.705078 2526.002441 2514.360840 2546.672363 2558.188965 2559.560303 2535.193848 2437.032715 2290.142334 2111.489502 1979.464111 1874.654663 1913.425781 2004.653076 2040.292725 2052.335938 2052.870850 2176.954346 2299.505127 2387.230469 2460.837402 2529.882568 2616.603027 2701.026367 2793.196289 2867.226074 2800.211670 2695.434814 2543.746094 2418.555420 2392.696289 2473.389893 2505.736084 2434.415039 2303.604248 2220.217529 2130.000244 2039.083984 1980.456909 1932.282471 1885.415649 1870.412231 1813.605957 1755.790161 1733.404175 1683.917358 1611.869507 1536.148682 1426.207764 1310.375610 1211.029419 1153.202271 1089.721069 1044.622314 1124.299683 1211.903809 1260.860229 1344.590332 1439.915649 1544.717285 1687.138428 1763.030029 1741.805786 1689.773071 1604.256714 1458.908325 1374.151001 1409.578003 1455.227539 1514.268311 1632.568359 1740.049927 1833.963257 1952.795654 2079.356201 2158.430420 2199.252197 2251.816406 2200.637695 2099.829590 2040.002686 2086.862549 2207.223145 2292.895020 2302.996338 2336.391602 2438.168213 2566.282715 2647.458008 2701.633545 2654.049561 2553.590576 2414.819824 2276.917480 2210.425293 2332.857910 2520.407715 2716.314941 2847.201904 2851.196533 2760.286133 2710.291504 2700.847412 2664.756592 2643.025146 2581.674072 2438.277832 2379.573486 2349.173096 2433.086914 2591.777344 2732.945557 2827.461914 2919.822754 2993.979980 2943.536377 2882.077148 2859.128174 2832.898193 2795.496582 2735.131348 2764.560059 2805.647949 2808.695312 2740.373047 2710.801025 2641.288330 2509.756348 2424.454102 2372.582520 2312.306641 2333.115723 2440.892578 2521.781982 2498.574463 2380.826416 2263.209961 2161.348633 2088.351318 2096.175049 2245.561279 2351.723145 2400.834473 2447.859863 2534.155762 2566.559570 2612.604248 2687.102051 2766.511963 2840.291016 2927.874023 3000.250977 3125.613770 3358.248047 3469.552002 3431.382568 3359.793945 3219.692871 3142.245850 3116.648926 3084.711426 3054.997803 3042.558105 3039.838623 3043.928223 3060.146729 3093.196289 3158.579102 3192.710205 3255.681885 3347.516357 3411.931152 3259.933105 3164.904297 3130.001709 3073.993652 3097.419922 3139.995850 3207.761230 3260.161865 3241.265869 3064.064697 2972.655518 2936.639648 2987.395508 2925.814697 2871.952881 2798.379639 2708.169922 2607.844238 2481.391846 2364.870117 2289.761719 2227.163086 2150.829834 2048.060547 1890.590698 1853.380371 1985.681885 2095.230469 2225.707275 2375.408936 2481.027344 2507.447266 2657.989502 2788.358154 2868.189209 2861.835693 2883.519775 2818.263428 2891.535889 2965.144531 3030.558350 3124.085938 2983.133789 2883.050537 2813.568359 2772.173340 2721.069336 2634.863281 2537.937500 2423.924316 2262.370850 2121.350098 1954.606079 1874.533447 1906.303955 1924.297974 2036.994385 2173.011719 2305.263428 2398.993164 2523.350342 2642.393799 2739.175049 2636.982422 2522.743896 2440.334229 2492.920166 2583.759033 2657.206299 2727.953857 2778.339355 2868.936279 2735.509766 2489.719482 2353.433105 2239.426514 2139.004395 2036.702148 1931.769165 1803.175415 1805.311401 1924.343750 2021.234375 2107.771973 2166.527344 2183.667725 2010.399414 1825.027100 1708.500610 1569.931885 1452.637085 1390.279907 1422.818604 1531.407104 1609.489502 1731.036743 1864.647339 2009.157104 2162.974854 2293.631104 2193.035645 2080.602539 1997.192383 2093.147461 2156.897949 2243.548584 2386.075195 2522.044922 2654.014404 2610.748291 2451.814941 2363.486328 2272.337646 2166.576660 2076.219238 1994.157715 1921.169067 1915.588379 1736.050659 1621.662109 1604.757568 1598.600098 1604.573730 1623.420776 1646.681396 1660.745361 1715.139404 1724.293945 1673.974854 1535.401123 1459.817505 1432.153931 1431.275513 1438.085083 1426.278809 1448.376831 1468.254150 1479.493530 1500.307251 1579.565918 1577.453613 1518.632812 1458.274414 1375.615356 1298.005371 1247.951904 1218.880005 1218.731934 1219.251099 1238.288818 1268.990479 1297.365112 1340.031982 1403.801025 1445.955200 1440.433228 1422.058960 1434.915161 1497.694824 1510.218384 1505.673096 1543.449951 1559.246948 1541.866089 1603.151367 1543.652710 1380.636597 1200.347168 1068.156006 1134.027710 1265.225952 1368.217407 1501.592163 1649.680054 1756.836060 1712.989624 1572.453247 1430.564697 1367.011841 1310.585938 1284.303467 1302.984985 1289.664185 1206.590088 1121.663818 1072.466187 1021.024109 990.860352 989.277100 988.678528 972.314453 964.372253 950.861267 939.497192 929.061157 933.888367 936.412903 950.591125 973.120239
2636.137207 2670.516113 2661.563477 2679.783447 2774.581543 2806.150879 2610.197266 2416.489746 2417.906982 2367.589355 2364.493164 2412.553223 2470.001221 2525.255127 2608.915283 2562.286621 2401.896484 2224.031250 2074.489746 1919.028198 1837.923340 1896.085571 1911.067139 1968.960083 2078.949707 2192.506836 2290.195068 2392.440430 2484.420410 2548.686768 2633.562012 2718.704346 2750.533203 2815.348145 2755.361572 2614.347656 2484.688232 2363.508057 2335.695801 2395.813232 2405.513184 2377.020264 2307.528809 2199.932861 2104.752686 2012.590210 1938.933105 1867.170654 1806.831177 1820.840210 1763.359985 1704.512085 1674.231201 1635.446289 1598.040039 1549.733521 1455.452026 1340.002930 1200.781982 1102.055908 1054.238770 1122.975464 1310.630493 1386.886108 1415.618530 1440.487183 1517.575317 1625.483398 1715.216675 1760.807495 1744.337891 1700.032227 1607.534302 1467.176636 1378.730225 1399.212524 1435.906738 1501.446899 1614.051514 1739.429688 1862.104736 1958.417969 2032.162598 2023.361694 2038.141479 2087.304688 2052.226562 1991.782104 1998.129150 2082.307617 2134.407715 2171.830811 2204.310791 2286.332764 2374.595703 2458.332520 2550.432129 2660.933838 2646.566650 2513.402100 2413.841309 2305.831299 2214.813232 2315.257080 2523.692627 2633.267090 2675.513916 2736.383545 2842.528564 2867.520996 2830.712402 2767.475586 2724.479248 2624.869629 2568.959229 2527.244629 2429.257080 2407.942627 2539.890137 2702.138916 2784.082275 2843.060547 2882.059570 2975.944580 2913.588867 2869.268799 2819.789307 2803.707764 2716.928955 2666.477783 2656.837646 2649.141846 2639.423584 2600.591064 2568.934814 2518.289551 2431.228271 2394.164307 2346.302490 2384.187744 2528.822266 2677.834717 2633.012939 2498.535889 2403.646484 2257.492432 2151.129883 2092.325439 2162.278564 2236.593506 2273.118896 2306.533691 2374.956787 2434.145264 2516.648926 2647.972168 2798.859375 2901.682129 3003.414551 3149.625000 3317.517334 3380.672119 3429.519287 3396.528076 3332.959961 3250.607422 3129.375488 3079.194580 3042.127686 3007.420898 3004.825439 3010.408203 3006.719727 3018.697266 3061.877441 3123.478027 3159.902100 3277.762695 3307.542480 3470.179443 3371.504639 3178.111084 3080.210449 3023.266357 3019.137207 3009.567627 3046.347412 3125.894531 3082.860352 2965.525879 2862.182129 2831.010742 2933.490234 2943.778076 2815.986084 2734.762207 2643.097412 2517.547852 2390.794434 2275.331055 2213.062500 2146.937012 2033.380859 1934.569092 1858.158203 1949.407104 2129.816650 2252.494873 2376.808350 2500.823975 2620.061523 2676.745605 2765.536133 2822.321045 2925.403320 2994.285645 3015.054688 2942.153320 3051.840088 3177.808105 3157.099365 3130.464355 3037.879883 2866.136230 2768.533691 2719.783691 2625.485352 2582.281494 2493.281494 2354.447998 2214.130371 2064.909180 1912.574341 1882.140381 1912.257812 1963.934937 2073.483398 2190.296875 2305.656006 2407.696045 2553.580566 2645.917480 2776.905029 2772.793213 2648.719238 2529.791992 2499.727539 2554.273926 2620.453857 2708.843018 2797.242920 2780.164307 2545.839600 2409.585938 2364.818604 2240.523682 2091.021973 2002.550415 1913.841797 1808.919434 1873.108643 2002.322754 2129.951416 2174.268066 2197.004883 2116.691895 1944.278687 1823.696655 1702.570679 1564.585571 1435.208252 1376.140625 1454.422241 1527.868652 1631.032349 1741.990601 1867.776245 2018.753540 2164.715576 2319.662109 2271.367676 2157.588623 2060.791748 2108.139648 2227.278564 2259.034668 2360.118896 2500.702148 2658.603271 2590.302246 2517.138428 2444.148193 2302.534912 2183.940674 2035.360107 1966.784058 1924.938965 1818.191162 1720.303345 1670.386963 1610.989258 1513.779175 1494.795654 1516.014160 1498.988281 1464.683350 1458.653687 1447.416748 1439.110474 1398.788208 1378.443115 1365.849243 1360.737915 1354.345215 1349.139893 1353.912109 1386.305176 1414.499390 1401.366821 1392.186768 1402.341309 1355.227417 1292.430664 1251.135132 1231.320068 1229.834351 1252.245483 1295.867188 1323.142578 1345.698975 1399.024048 1397.701782 1426.519775 1494.502686 1507.206299 1495.058105 1498.287964 1497.866577 1561.789185 1624.265991 1620.072876 1684.660522 1710.500488 1685.537842 1606.298584 1458.477051 1304.615479 1127.577271 1099.164795 1187.354492 1335.254883 1408.569214 1485.324951 1587.458740 1710.578735 1716.223267 1588.447388 1541.727417 1468.041016 1448.942749 1406.032837 1412.441284 1399.736694 1274.151733 1254.646484 1173.089844 1124.181030 1121.382812 1082.680054 1061.452637 1016.832397 988.975403 959.230835 945.491821 935.721680 929.989868 926.054016 923.123901 937.942627
2708.599121 2795.391357 2761.574219 2738.970703 2820.406982 2760.350586 2597.356201 2426.825928 2271.744629 2268.957520 2233.662842 2275.224609 2344.696289 2425.583984 2491.143799 2492.281006 2453.113037 2332.200684 2113.259766 1952.210815 1830.771729 1826.862671 1904.939575 1977.879761 2081.576172 2175.377197 2262.614014 2352.527100 2421.253906 2459.127197 2533.819824 2601.110107 2655.449707 2763.776367 2748.842041 2627.760498 2465.419678 2332.960449 2272.940674 2307.703369 2312.969482 2302.292725 2293.783691 2249.548096 2104.614258 1984.787964 1919.303589 1834.617065 1727.989502 1742.265625 1713.379761 1671.126831 1650.374023 1622.346069 1599.020630 1549.271729 1461.584595 1357.257202 1202.080811 1070.072632 1059.397583 1219.280396 1341.343872 1426.721436 1477.326782 1532.816040 1615.613892 1683.342529 1698.503540 1666.579346 1639.519653 1613.658081 1561.478394 1485.881470 1393.560059 1390.922363 1413.355591 1477.998047 1574.015381 1718.242554 1814.784668 1888.449951 1896.354736 1861.692505 1882.869995 1933.847534 1917.049805 1903.403687 1953.621704 1991.367554 2042.513794 2087.502197 2150.639160 2223.718506 2313.127686 2406.058838 2516.646484 2641.495850 2599.012451 2497.056641 2485.080322 2374.456787 2247.559326 2302.039551 2460.484619 2549.161133 2612.459473 2683.000244 2786.951172 2934.305420 2899.312012 2797.256104 2709.866699 2659.705322 2621.500488 2573.796875 2484.991699 2482.067627 2619.286377 2718.560547 2746.114990 2852.809082 2888.036865 3001.614502 3005.186279 2891.813232 2812.946045 2768.866211 2738.552246 2668.788330 2615.964844 2557.642334 2541.541992 2499.979980 2469.973145 2438.902588 2423.493896 2434.479492 2413.456543 2452.059326 2598.020752 2687.548340 2595.644043 2535.593750 2458.062500 2340.361572 2226.400635 2130.521973 2134.520752 2172.168213 2233.760498 2292.074463 2363.843994 2430.513184 2472.367432 2593.570312 2797.272705 2878.303955 2974.918945 3209.760498 3381.704346 3313.983398 3294.125000 3270.923340 3248.302979 3204.375977 3117.938477 3050.616455 3010.645020 2966.054199 2954.770508 2973.327148 2980.489258 2998.091553 3045.849365 3090.587158 3134.126465 3220.595947 3274.855225 3457.525879 3423.914795 3259.204102 3109.847656 2988.775391 2966.333252 2939.447754 2955.111572 3076.191406 2988.459473 2868.261475 2765.001709 2797.651367 2928.588379 2882.904541 2757.932861 2640.601074 2549.430420 2419.176025 2297.256348 2202.817139 2138.110352 2081.564941 1993.345825 1895.347290 1902.887207 2074.690186 2224.403320 2382.201172 2508.235107 2636.309082 2743.837158 2851.028076 2903.038574 2912.819092 3000.949951 3058.139648 3117.155029 3049.287598 3154.120605 3239.122559 3094.237549 3003.427490 3001.813965 2940.387695 2801.099365 2699.916992 2605.426758 2525.208008 2428.610352 2289.059814 2151.901367 1994.293945 1883.330200 1908.398926 1946.674316 2044.191040 2169.674072 2243.628418 2289.491455 2362.999756 2490.197266 2613.674561 2724.166016 2850.570801 2742.670654 2612.556885 2563.282471 2574.063477 2640.109131 2721.712646 2811.085938 2625.342773 2471.256348 2404.787842 2330.363281 2186.475098 2090.234375 1966.851807 1877.481445 1855.327637 1941.812988 2044.689697 2172.526123 2216.516113 2234.640869 2097.809814 1978.546021 1876.280151 1732.976074 1590.268188 1420.222534 1346.453857 1408.267456 1523.503662 1692.803833 1795.899536 1899.374634 1979.453735 2105.326416 2285.355469 2313.200928 2256.167725 2155.068115 2112.649414 2242.374268 2349.338379 2384.672363 2470.645508 2565.056396 2583.402832 2503.920898 2441.017578 2319.845215 2163.517090 2020.919067 2013.716064 1969.654907 1841.453857 1816.919434 1791.206787 1731.447266 1603.243652 1540.941406 1504.554443 1481.308228 1486.665894 1495.065796 1460.606201 1431.485596 1421.405029 1436.506592 1442.747437 1439.985352 1435.761963 1401.623535 1362.566406 1347.836670 1350.403809 1326.469727 1302.198120 1278.360474 1262.459961 1252.317017 1258.810181 1285.502075 1342.458862 1406.618896 1418.085205 1467.789551 1476.017578 1533.663818 1497.000244 1516.236084 1553.207153 1571.357544 1566.292725 1591.850708 1606.243408 1625.402466 1714.246460 1750.755371 1763.932129 1720.333618 1611.188354 1488.785645 1346.718872 1181.816162 1095.267700 1138.049438 1225.237061 1300.882568 1351.235229 1432.800171 1525.164795 1640.605225 1724.995728 1700.808350 1650.709351 1565.359619 1581.262207 1536.225098 1534.390259 1447.772827 1362.674194 1398.059082 1295.458984 1244.418701 1239.669800 1157.014526 1206.185059 1202.973511 1128.516357 1049.403076 1041.615112 1047.745483 1023.078369 953.338135 923.960022 917.026123
2841.465088 2929.033447 2907.498779 2854.057129 2800.736816 2716.343018 2593.302734 2419.278809 2247.453857 2191.253418 2129.320557 2168.315430 2226.802002 2287.186523 2300.995361 2326.661133 2315.894531 2259.779785 2092.203857 1948.084229 1818.318604 1809.838989 1882.066040 1955.193848 2049.193359 2146.106934 2231.012939 2294.331299 2326.136230 2362.314453 2441.252686 2510.433350 2600.030762 2696.823242 2651.426270 2580.780029 2473.591553 2334.468506 2231.286133 2219.865967 2213.736572 2206.253418 2213.387695 2211.534912 2121.210938 2015.451172 1912.714233 1819.240112 1709.361206 1632.321655 1645.385010 1619.876831 1604.989014 1573.076294 1537.413452 1482.123535 1382.270264 1279.374878 1155.203979 1044.203491 1073.202759 1214.805420 1380.118286 1509.711670 1536.452637 1608.939575 1672.460205 1673.939819 1663.994629 1638.464966 1607.491943 1583.720337 1553.127319 1490.985352 1407.578125 1400.197632 1417.750854 1448.024902 1533.816895 1636.629517 1712.904541 1761.581299 1734.316528 1722.723267 1773.105347 1822.631226 1866.972656 1910.491455 1963.157227 2002.237793 2025.537476 2049.744385 2094.663086 2187.559814 2330.936768 2451.885986 2526.074951 2606.498535 2669.732910 2588.714844 2607.837402 2466.760986 2313.118652 2286.840576 2397.221191 2547.125488 2700.052246 2759.967285 2855.465820 2949.991455 2860.878662 2801.766602 2740.704346 2697.692871 2628.743408 2580.071533 2513.887695 2591.506592 2729.808350 2775.847900 2789.362793 2855.646973 2970.079590 3001.749268 2999.662842 2883.362793 2844.365234 2775.442139 2732.567871 2689.742920 2656.255615 2586.381348 2572.066162 2560.861084 2558.471924 2536.068359 2513.559814 2486.053711 2449.162842 2479.072998 2633.697021 2745.445801 2667.372314 2610.615479 2521.363281 2426.556152 2325.447021 2212.165527 2177.263184 2204.906738 2282.648926 2378.678955 2482.113525 2526.329102 2508.121338 2553.532227 2682.484863 2847.600098 3046.002197 3233.503662 3275.280029 3313.193848 3232.938965 3189.870850 3173.426758 3126.879639 3083.216553 3029.140625 2985.129395 2928.168945 2904.655029 2935.993896 2947.043701 2967.194824 3022.630127 3072.389893 3136.504150 3219.504150 3320.858887 3367.364014 3381.188721 3239.599121 3112.277588 3000.369629 2932.686523 2892.618652 2905.948975 2980.586426 2938.081543 2782.784912 2687.612549 2750.876465 2824.340820 2755.296631 2651.489502 2580.765137 2481.152832 2342.706543 2220.196777 2121.105957 2042.735596 1980.954346 1889.804321 1899.724976 2011.051880 2197.981934 2349.014404 2487.643066 2619.102051 2779.953369 2905.483398 2976.958252 3065.219238 3085.075195 3061.835693 3084.161865 3158.636230 3182.372559 3266.849854 3276.288574 3106.107910 3007.936768 2909.743164 2826.988281 2737.499023 2681.616699 2578.678955 2470.611572 2321.136475 2201.108398 2071.189941 1934.657349 1895.704102 1924.245850 2026.018921 2166.838379 2275.725098 2348.913818 2357.539795 2346.084229 2402.012207 2540.911621 2665.481445 2794.115967 2801.392822 2679.670654 2628.937012 2630.625000 2676.650635 2719.797852 2766.441162 2582.253906 2531.526123 2416.185303 2216.296143 2122.300781 2055.459961 1921.884766 1863.890625 1928.031250 2015.786011 2111.213379 2211.984619 2267.886475 2285.895996 2093.900391 1970.007202 1862.118286 1724.837402 1584.441284 1449.994263 1348.046997 1345.039673 1481.173096 1706.086670 1894.023682 1988.458618 2040.098633 2104.341309 2245.659424 2311.683594 2319.537354 2254.572266 2170.509766 2188.584961 2325.888916 2417.901367 2495.135498 2586.715576 2519.380371 2385.477783 2314.162354 2191.185791 2109.636475 2029.937256 2038.586426 2025.935059 1962.702393 1947.140259 1881.322876 1774.369995 1696.535400 1696.170776 1643.497803 1631.271362 1594.170410 1603.622925 1562.678833 1550.906616 1540.118042 1561.071167 1579.212280 1575.682129 1561.684692 1535.146973 1477.460205 1400.903198 1371.898560 1353.163208 1314.117188 1311.116699 1324.655396 1320.471436 1352.706299 1388.361206 1489.640137 1557.416748 1527.241455 1593.143555 1619.861206 1637.076904 1593.870117 1614.035278 1629.418823 1640.526489 1648.217041 1702.223145 1725.954956 1742.741821 1781.797852 1767.661133 1659.659302 1570.565063 1478.122314 1345.155029 1201.043091 1114.420166 1127.653320 1209.212402 1297.572388 1384.060791 1439.220337 1429.470459 1545.551147 1701.465454 1812.738525 1845.903931 1758.170044 1722.940186 1746.922729 1695.013428 1598.565430 1512.362671 1448.150391 1476.156616 1419.575317 1372.232056 1304.474976 1262.613159 1375.201782 1395.442749 1298.803467 1196.329102 1188.753418 1151.380371 1119.646606 1060.978516 997.099670 956.505188
2805.134277 2897.464844 2908.551270 2789.064697 2696.789551 2577.162354 2466.940430 2371.851318 2256.721680 2157.563232 2089.418945 2079.321289 2098.068359 2115.515625 2120.595459 2123.553955 2135.286377 2091.801758 2012.143066 1931.238281 1820.700806 1775.169312 1845.835327 1910.391479 1991.111084 2057.986084 2110.528320 2182.776611 2231.909180 2296.765625 2364.358154 2475.915771 2585.556152 2646.252197 2591.500732 2493.632324 2414.239990 2324.710449 2216.145752 2154.031494 2122.976318 2105.567627 2110.416992 2125.447754 2067.777832 1997.099365 1934.688843 1869.631470 1750.257568 1625.099243 1528.330200 1531.870117 1515.257935 1520.395386 1480.848145 1373.363525 1266.905884 1171.848755 1084.315186 1042.825562 1076.497681 1229.812378 1425.843018 1555.476318 1626.219238 1690.169312 1715.898071 1700.363525 1684.132080 1641.050171 1618.515747 1586.502930 1547.217407 1477.602539 1407.731689 1408.278442 1428.669067 1451.420044 1491.285522 1583.085083 1637.610107 1654.768799 1664.652466 1758.427124 1809.111206 1876.604858 1938.984497 1979.990967 2015.321289 2053.326172 2102.417236 2144.446533 2110.238770 2132.888184 2278.652344 2443.004150 2596.812500 2658.981201 2664.382568 2697.372803 2676.463623 2532.068115 2393.037354 2305.558105 2348.238525 2513.413818 2687.324463 2722.521484 2863.919434 2985.072510 2865.036133 2805.661621 2764.792725 2708.467285 2655.956055 2609.045898 2570.734863 2637.613525 2711.585205 2780.300293 2852.856934 2986.497070 2948.371582 2879.635010 2954.821045 2964.935791 2914.877441 2922.579102 2793.111572 2747.328125 2752.125000 2735.826660 2776.541748 2734.949463 2676.341797 2622.918213 2545.627197 2474.915527 2492.338379 2531.333984 2641.562012 2817.082764 2761.908203 2715.370605 2595.732422 2497.041016 2400.431885 2321.009521 2254.385010 2341.939209 2473.669434 2529.748047 2662.649414 2673.967285 2591.970459 2606.572021 2674.871582 2790.884521 3029.984863 3178.954346 3170.709229 3263.409180 3245.532227 3173.150879 3122.718506 3077.228027 2993.649170 2936.073730 2900.846436 2881.120605 2860.258057 2897.524170 2895.944336 2947.032471 3026.419189 3056.495850 3120.423340 3226.233398 3333.916504 3254.888916 3247.536133 3182.323242 3104.707275 2980.706055 2884.457031 2842.662109 2830.417969 2859.494629 2860.738770 2747.772461 2632.008057 2650.283447 2713.139648 2645.363037 2586.391113 2507.042236 2394.516113 2282.324951 2169.178223 2049.330811 1945.507080 1878.644897 1928.834839 2032.794189 2129.175781 2322.244873 2481.309326 2596.409668 2706.544189 2841.557861 2979.318115 3049.180908 3042.250000 3015.999512 3088.473145 3141.591309 3238.866211 3308.389404 3307.390137 3249.298096 3143.913574 3018.398926 2864.621338 2716.256348 2638.843262 2601.306152 2513.530762 2362.886230 2212.181152 2101.873779 2006.344360 1912.696899 1937.953857 1995.100220 2130.415771 2239.388672 2332.317139 2422.009033 2465.665527 2438.549561 2384.968750 2425.893066 2562.778320 2692.662598 2866.131104 2774.734131 2687.056152 2690.314697 2713.269287 2746.567383 2774.415039 2590.037842 2439.299561 2289.699219 2142.591797 2089.420654 1998.342773 1897.839478 1914.322754 2009.614990 2099.166260 2213.766846 2293.095703 2386.788330 2247.439453 2113.682861 1983.953735 1887.449463 1791.762695 1652.606689 1521.135010 1390.019897 1329.641113 1488.017212 1696.203369 1887.003296 1987.911377 2038.254028 2108.188477 2179.231201 2255.363525 2323.777588 2366.076416 2249.937988 2215.364990 2282.753418 2388.820557 2483.588135 2580.787598 2505.471191 2418.849854 2296.104248 2192.429443 2131.427246 2054.196533 2083.255859 2107.216309 2109.026123 2044.374512 1935.399414 1794.473999 1766.749634 1766.810425 1736.753906 1728.186523 1725.910156 1681.796265 1663.189087 1655.490112 1645.370605 1674.206543 1674.153564 1671.200073 1653.006104 1619.115601 1526.657227 1464.609863 1453.657593 1433.938110 1399.287109 1406.362793 1430.707031 1457.152466 1508.965454 1471.576904 1526.268433 1641.171509 1630.908813 1665.798462 1724.464355 1704.063599 1700.437500 1715.978027 1724.248779 1731.174561 1728.728027 1763.854004 1753.776245 1708.558838 1694.551392 1658.739624 1538.311646 1420.882812 1309.636475 1192.009521 1131.603271 1159.293823 1185.895630 1245.195557 1366.016479 1459.469604 1542.466675 1557.433105 1524.037476 1663.551147 1862.175049 1958.868286 1904.341919 1860.698608 1854.832642 1782.126465 1678.344360 1563.125244 1544.836426 1579.206787 1549.021362 1484.804077 1338.200928 1396.029541 1496.467285 1515.500244 1419.106567 1340.386719 1301.834351 1265.823364 1211.768921 1170.854004 1130.558105 1009.106445
2794.338379 2807.472656 2763.052734 2651.160156 2555.254150 2464.828369 2336.778809 2297.821289 2210.072510 2109.303223 2052.607666 2006.479980 1996.763428 1984.584351 1993.304932 1988.820923 1978.631470 1953.651123 1909.480713 1886.981323 1814.040161 1743.213501 1815.986938 1862.881836 1923.160400 1965.653687 2026.544678 2073.093506 2137.549316 2212.880127 2346.883789 2479.045898 2598.410889 2630.042725 2546.027832 2440.726562 2356.100342 2273.581299 2198.640137 2097.332275 2014.204712 2000.941040 2009.136841 2045.281250 2007.425415 1947.582397 1886.031982 1825.444824 1730.369629 1631.464600 1538.537109 1439.450684 1383.788330 1406.561768 1341.407227 1254.012207 1151.659912 1062.560425 1043.403076 1045.431152 1132.030640 1317.619629 1498.532104 1610.140137 1685.507935 1711.772827 1731.763184 1732.214478 1714.004028 1678.830688 1634.222656 1605.907227 1595.509766 1540.989868 1453.171021 1413.063965 1429.706909 1462.673584 1515.227905 1543.102051 1567.500366 1619.016235 1680.521362 1762.746094 1852.356934 1908.267090 1990.536865 2041.821777 2083.420166 2120.230957 2207.632812 2288.940186 2224.903809 2139.405029 2209.366699 2360.610840 2483.048584 2543.866211 2574.438721 2646.764404 2726.463623 2613.392822 2466.104980 2384.624023 2379.392090 2514.489746 2655.822754 2719.512451 2840.054688 2935.800537 2866.857178 2789.299805 2751.358643 2717.060059 2668.461426 2628.085449 2614.865967 2684.210693 2771.617432 2899.135498 3002.799561 2933.010986 2870.301758 2809.665527 2858.897461 2967.686035 2966.785645 2958.120850 2977.993896 2944.072021 2882.262451 2903.015869 2857.736816 2764.332764 2720.568359 2647.783203 2577.591553 2578.850586 2604.027832 2588.794922 2625.016113 2780.909424 2687.567383 2621.493652 2546.511230 2472.881836 2443.832764 2396.338135 2389.739502 2503.738770 2646.630371 2731.628906 2771.818359 2716.047607 2710.337891 2736.542969 2736.030273 2759.119385 2960.298828 3068.527832 3091.521729 3151.556885 3225.676025 3142.289795 3089.973877 3036.799805 2966.789795 2923.566406 2877.923828 2819.607910 2800.215088 2808.481201 2874.350830 2923.701660 3015.595703 2992.620850 3065.948730 3194.258301 3363.320068 3262.328125 3143.720459 3121.781738 3027.800293 2947.502686 2854.887207 2773.409912 2743.058594 2740.849854 2766.826904 2706.539795 2599.697510 2572.507568 2608.924561 2582.501953 2526.843018 2434.993896 2360.648926 2245.258057 2125.993652 1971.850220 1889.234253 1913.428467 2058.679199 2183.297363 2200.424561 2324.830078 2442.382324 2541.022705 2642.538086 2732.001709 2812.551270 2858.283203 2885.654297 2947.802246 3032.589844 3092.995605 3228.581055 3298.276123 3154.183350 3074.793701 3034.557617 2962.531982 2813.647949 2662.660400 2604.330078 2542.692627 2439.279785 2272.762695 2116.350342 2026.839600 1963.816406 1933.828979 2006.098145 2062.819092 2203.644287 2299.760498 2393.494629 2483.422363 2573.181885 2595.906006 2487.317871 2416.578369 2467.183838 2608.787842 2752.812988 2846.598389 2761.453857 2726.403320 2747.416016 2782.863525 2705.603271 2498.048340 2350.264404 2198.737305 2120.376221 2054.078857 1963.800537 1945.223267 2021.149048 2133.818604 2204.145264 2284.338379 2350.645752 2440.154053 2276.105225 2162.478271 2083.149902 1999.939453 1869.254272 1687.372437 1493.440308 1334.526367 1340.272827 1544.070312 1702.085815 1735.291382 1784.030762 1873.792358 1956.668823 2028.738770 2136.863037 2246.889404 2342.674561 2340.730957 2293.552490 2310.461914 2372.854736 2457.002441 2532.226807 2556.820312 2482.255859 2332.362061 2264.354492 2203.036865 2116.795166 2129.827637 2161.717529 2194.630615 2076.615967 1923.143433 1810.362915 1829.238403 1808.623047 1777.816284 1778.428711 1785.961304 1759.677368 1754.652466 1743.394409 1733.391479 1734.019043 1726.565918 1739.398193 1710.772827 1646.144409 1545.976440 1552.584717 1521.662598 1493.161987 1474.621094 1503.781494 1538.075195 1579.172119 1624.643066 1615.009521 1539.328857 1653.778809 1711.893921 1700.641968 1775.747070 1770.919067 1778.523560 1807.244019 1802.379639 1784.940796 1776.318481 1732.032715 1636.382446 1559.446899 1536.573853 1515.549683 1415.443237 1273.805542 1178.450317 1154.022339 1214.204712 1272.012085 1305.036987 1266.771729 1372.756104 1513.415161 1631.109497 1713.655273 1643.953247 1619.943237 1810.403564 1981.359253 2026.006104 2006.611084 1913.156860 1822.772095 1776.237183 1626.954590 1656.649170 1694.446045 1664.577393 1510.993896 1419.382446 1496.602295 1583.512207 1594.128418 1538.308472 1455.048096 1401.832031 1349.392944 1296.536621 1224.554810 1068.116577 982.242981
2693.564209 2680.148438 2638.585449 2556.408447 2413.159180 2306.666748 2226.769287 2168.077148 2098.279053 2045.968994 2016.080688 2002.954102 1984.250854 1963.366333 1926.991455 1902.390747 1872.610840 1849.076050 1807.188232 1783.273560 1768.889038 1711.712524 1756.595581 1821.024780 1856.381348 1903.388550 1952.705444 2011.206909 2085.140869 2193.266602 2312.354492 2444.399902 2600.219238 2639.742920 2534.521484 2483.842041 2408.623779 2305.692871 2208.529541 2077.646729 1954.999878 1886.688354 1909.953247 1962.398682 1941.659302 1866.987305 1807.035034 1746.233032 1679.697266 1602.199829 1529.297729 1449.450317 1303.215454 1236.813354 1199.415283 1119.308838 1059.823975 1049.903076 1057.501831 1137.648315 1297.866333 1441.662598 1516.920410 1625.718872 1699.915283 1723.987793 1728.958496 1745.855591 1734.670532 1736.671631 1717.367065 1713.357910 1729.430542 1679.622559 1548.113159 1425.491699 1424.238770 1492.567261 1559.171143 1589.017090 1642.915894 1705.321289 1764.894409 1858.959961 1947.043091 1967.688843 2042.771362 2104.875000 2164.335938 2202.494873 2275.740723 2385.031494 2359.856201 2230.644043 2182.667480 2279.262451 2405.273682 2514.624023 2561.460693 2633.206299 2720.996826 2622.208008 2512.865723 2448.159180 2472.035400 2617.171387 2701.804932 2776.181641 2782.264160 2828.500244 2884.676758 2840.637939 2792.351807 2743.431641 2708.739990 2702.235840 2707.821533 2783.542725 2886.737305 2919.558838 2976.845947 2906.284180 2816.032959 2743.816162 2767.227295 2796.323486 2849.352539 2853.300293 2956.466064 2943.310791 2995.171143 2938.761963 2834.258789 2788.150635 2750.649658 2668.639160 2657.034424 2691.093506 2688.546143 2629.942627 2670.841064 2810.897461 2696.976562 2603.999023 2570.653076 2545.733643 2504.544922 2449.375244 2517.837158 2639.748779 2841.145508 2889.751221 2833.565674 2825.330811 2828.619385 2796.271484 2774.188477 2773.469971 2968.216797 3031.147705 3051.205078 3113.665527 3214.630371 3146.009033 3089.879639 3048.498047 3003.143066 2961.856934 2906.928223 2858.241699 2801.497070 2750.988770 2779.001221 2884.765625 2933.852539 2955.314941 3038.482422 3181.389893 3290.620605 3187.300781 3086.777100 3066.149902 3008.250488 2974.439453 2914.758545 2763.898438 2676.064941 2628.824463 2652.722900 2613.153809 2562.134521 2487.698486 2506.857910 2497.156250 2465.690430 2393.516113 2325.437500 2201.686768 2084.743652 1952.236938 1887.547241 1988.481323 2161.517822 2317.524414 2327.206787 2413.587646 2472.465088 2494.127441 2555.280273 2636.809814 2709.330566 2767.097412 2858.652588 2941.937500 3044.211426 3122.092529 3193.276367 3232.864502 3100.764160 3000.936035 2901.835449 2824.301270 2769.923584 2683.896484 2584.011230 2489.267822 2350.219482 2207.780762 2043.484619 1964.838745 1958.198608 1975.846680 2042.298340 2119.211426 2253.989014 2352.990479 2436.916504 2532.880615 2606.516113 2696.257324 2639.499756 2504.302734 2444.185059 2509.912109 2654.925781 2797.836182 2901.488525 2846.402832 2794.187500 2806.451172 2611.968506 2433.933105 2293.165771 2184.160400 2085.667236 1989.906372 1966.776123 2002.009888 2093.348633 2185.408447 2295.142822 2338.123291 2398.992188 2457.193115 2384.378418 2232.457764 2087.263916 1937.692261 1795.417358 1656.032227 1493.295410 1321.749756 1344.220215 1465.181763 1523.721802 1597.035522 1692.345337 1798.111328 1856.489014 1931.821533 2030.135376 2102.322021 2213.251221 2361.700195 2355.298096 2344.430176 2375.335205 2444.402832 2545.956543 2592.375244 2571.951172 2440.167480 2362.666016 2274.900146 2199.659180 2197.407715 2231.452148 2206.128906 2080.959473 1937.768555 1846.649048 1859.770874 1846.392944 1840.935791 1826.065186 1815.235229 1815.907959 1839.708374 1804.207153 1787.409668 1779.925903 1779.452026 1781.825317 1730.357544 1662.554443 1614.447510 1635.442749 1585.988647 1588.421753 1568.311523 1596.951782 1653.205566 1683.641602 1751.687622 1721.971191 1596.746704 1668.786987 1758.709595 1757.774536 1807.442017 1833.504517 1828.974243 1832.026978 1813.485352 1773.057251 1726.425049 1621.417480 1481.203125 1391.202759 1364.366943 1342.587524 1262.762939 1182.696899 1177.489624 1255.962158 1348.613525 1408.705688 1441.481689 1379.457031 1336.736450 1487.052368 1668.024048 1835.038208 1820.446777 1681.395874 1773.602173 1959.889648 2087.870117 2075.984375 1925.883545 1899.297363 1838.384766 1706.670532 1784.276855 1793.630981 1641.980713 1541.626709 1563.602173 1582.190796 1654.790527 1662.671631 1631.593628 1552.584229 1480.305664 1431.135498 1331.741699 1170.567139 1028.029785 1007.819153
2660.863281 2663.437256 2604.751465 2492.631104 2356.094238 2265.320068 2193.250244 2126.191162 2081.835938 2057.436279 2067.514893 2068.760254 2047.657837 2014.083984 1967.445312 1926.044800 1904.689453 1886.088379 1858.127197 1812.299438 1736.605835 1687.665894 1715.416992 1785.259888 1854.035889 1929.496826 1995.751587 2078.996094 2169.250732 2256.913818 2348.191650 2473.505127 2627.375732 2719.294678 2673.854980 2618.442383 2453.366211 2338.837891 2204.330078 2046.247070 1913.544189 1825.759033 1817.492798 1888.440430 1868.878662 1795.652222 1736.553101 1672.411011 1606.934814 1524.038208 1477.778564 1388.649414 1268.701782 1165.249146 1128.052246 1061.240356 1061.708618 1089.484985 1200.595337 1308.841064 1421.666382 1514.993286 1598.982300 1680.739258 1741.476929 1776.626587 1792.295288 1767.480835 1749.494263 1785.989136 1834.166992 1853.648926 1811.956299 1747.489624 1613.294434 1444.731689 1420.486084 1498.787842 1575.310059 1659.835449 1737.085449 1806.384644 1871.097656 1961.829712 2037.539062 2056.983154 2067.447021 2145.579590 2228.249512 2303.691162 2340.991943 2408.030029 2463.697754 2354.543457 2247.477539 2253.531982 2379.194580 2494.471924 2565.506592 2678.353027 2763.597412 2678.175537 2569.046143 2514.604248 2543.593018 2631.888916 2710.219971 2722.170410 2769.695312 2843.106689 2935.518066 2932.846191 2891.617188 2830.578369 2839.165039 2835.427734 2852.417969 2884.195557 2943.766357 2913.153809 2843.883545 2832.937256 2843.512695 2726.107910 2725.440430 2741.597412 2706.625977 2714.952148 2795.932373 2791.745850 2893.959473 2905.958740 2927.300049 2918.851562 2870.676758 2763.842041 2764.071533 2768.114746 2719.472900 2674.163330 2702.318848 2797.655518 2723.952148 2688.587402 2649.886475 2610.667969 2571.013184 2524.143555 2595.864502 2727.595459 2890.438965 2881.651123 2863.608643 2844.162109 2824.589600 2812.006104 2804.262207 2803.543457 2955.085938 2993.091797 3020.835938 3132.418945 3231.357422 3232.924072 3135.734863 3067.061523 3023.482178 3003.029053 2964.327148 2873.753174 2822.219971 2741.093262 2724.731445 2828.464844 2884.357178 2917.145020 2993.207275 3132.599365 3236.978027 3104.235352 3019.013428 2986.515381 2951.595947 2949.782715 2859.331543 2750.479492 2632.878174 2528.890625 2509.799561 2454.826172 2419.762939 2372.654053 2375.053955 2369.954834 2353.681396 2296.348389 2240.684814 2127.132812 2010.960571 1903.265991 1912.802734 2058.167236 2224.125000 2364.071289 2449.089844 2569.800049 2631.834717 2597.249756 2622.164062 2656.022949 2707.939941 2778.209961 2862.052002 3009.090820 3028.374268 3047.044678 3129.265869 3239.392334 3149.395752 3033.591309 2923.898926 2840.461670 2729.345703 2630.359619 2526.402588 2430.570801 2278.231934 2140.190430 2017.375244 1994.876099 2025.092651 2047.102783 2083.893066 2178.093018 2281.785645 2377.927734 2483.132324 2577.212891 2638.351807 2697.816406 2785.380127 2629.834717 2515.177979 2463.319092 2560.919189 2716.633545 2879.416260 2978.784180 2871.125732 2758.046875 2553.512695 2409.913330 2325.356689 2194.693359 2076.325928 1988.701660 2002.143188 2126.334717 2182.699219 2210.926025 2325.589600 2414.122070 2438.181885 2495.256348 2430.593018 2262.824219 2138.289307 1988.524902 1845.510376 1684.614014 1506.750000 1340.903076 1306.253418 1323.547729 1434.236572 1546.177368 1675.654541 1762.740845 1798.213623 1867.821533 1953.363037 2040.605591 2155.612549 2334.141113 2445.765381 2427.208008 2432.134033 2484.483154 2586.479004 2648.813477 2681.871582 2568.902100 2464.586914 2364.657715 2318.036621 2317.098389 2293.839111 2233.483887 2097.603027 1989.298950 1895.191406 1906.472046 1916.224731 1900.766846 1852.393066 1853.701416 1882.874390 1897.799561 1841.070679 1822.768799 1818.800781 1825.716919 1813.199097 1766.375000 1701.287109 1691.074219 1691.319702 1663.028564 1691.030396 1673.791748 1693.763428 1746.335938 1808.021118 1818.176147 1750.474609 1653.501465 1723.586914 1806.493652 1820.689575 1853.865112 1843.680664 1782.094360 1692.493652 1692.851074 1624.252075 1545.575806 1451.002441 1347.503906 1287.972168 1260.666748 1249.427490 1238.593384 1204.527710 1258.422363 1377.697388 1481.793945 1518.136353 1571.743408 1537.361572 1368.784058 1413.041870 1604.925171 1812.775024 1930.862183 1774.823608 1747.494385 1937.165649 2105.504639 2073.754150 1981.800293 1982.811523 1895.362915 1799.498169 1889.737305 1779.494141 1703.238647 1719.838623 1705.397705 1704.252930 1738.951782 1770.965332 1732.985718 1648.324829 1558.978760 1461.196655 1332.281494 1149.172485 1070.515625 1146.662231
2682.796387 2615.593262 2541.285645 2474.020996 2397.452393 2329.839844 2228.901123 2124.487061 2095.186768 2126.059326 2170.423096 2178.741699 2153.605225 2108.229736 2050.503662 1987.980347 1960.586670 1923.612183 1912.763916 1867.741943 1776.853760 1668.079834 1707.133301 1799.466309 1883.823730 1983.594604 2081.407715 2136.113281 2233.992432 2352.883789 2467.963623 2579.401367 2704.177979 2789.078369 2724.770264 2639.061768 2478.531250 2352.359131 2236.218750 2105.336182 1930.815674 1781.264771 1734.688354 1819.960693 1793.376465 1719.660400 1655.836670 1586.464722 1499.171021 1437.158813 1390.115723 1293.455200 1181.068359 1122.361572 1094.514160 1081.662720 1163.930908 1227.042969 1320.484497 1407.180664 1469.446411 1559.281616 1644.702271 1758.233887 1809.538452 1843.415894 1819.331909 1815.354126 1794.300903 1869.419556 1937.594604 1936.299072 1875.218628 1799.282593 1642.840576 1450.225708 1420.095459 1477.113159 1584.963379 1700.776367 1768.739136 1864.452148 1946.555908 2030.392578 2110.810303 2131.990967 2111.523438 2173.117432 2265.898438 2396.631592 2472.083008 2497.246582 2532.690918 2457.475586 2364.032227 2320.336670 2344.151855 2458.316406 2559.685547 2643.608154 2688.627686 2755.553955 2683.152344 2563.125732 2557.768555 2609.541016 2671.268066 2747.762695 2864.414062 2902.708252 2965.835205 2946.858887 2867.707275 2790.559082 2755.722412 2731.238281 2767.740234 2788.636719 2844.968018 2835.681885 2791.625977 2734.143555 2730.709717 2659.153320 2631.589844 2693.574707 2646.150879 2632.895264 2669.290283 2701.754639 2818.139404 2860.461182 3003.056152 3040.218262 2926.638672 2872.187744 2840.501953 2765.516113 2733.627197 2738.625732 2768.067627 2846.002686 2756.261230 2728.877930 2708.082764 2709.720215 2704.568115 2648.794678 2688.291260 2791.807617 2878.986084 2899.290527 2894.667969 2874.999756 2840.328857 2828.450684 2830.407959 2844.663574 2926.846191 2979.615967 3025.926514 3196.802734 3329.068359 3308.576660 3223.619873 3208.830566 3168.590820 3145.635010 3122.290771 2933.914062 2823.544922 2735.288086 2698.208496 2748.176758 2810.094238 2895.598633 2978.279541 3125.526855 3175.510498 3045.564941 2961.975830 2888.829590 2823.904785 2798.676025 2748.178955 2623.303711 2503.969238 2412.013428 2348.000244 2308.370605 2274.367432 2246.130859 2211.602783 2184.595947 2174.788086 2168.170654 2116.764404 2033.805420 1930.175537 1904.609985 1964.790405 2132.907227 2278.018555 2425.385010 2538.531006 2665.049561 2760.314941 2783.579834 2787.814941 2775.758057 2752.053467 2784.263916 2828.312256 2915.130615 2962.804443 3002.895508 3108.301758 3240.660156 3193.640381 3130.406006 3041.585693 2858.745117 2693.763672 2598.850342 2484.498535 2367.278320 2230.412109 2102.055420 2013.681152 2023.541870 2080.688721 2119.335938 2150.350830 2218.782959 2261.396240 2367.295410 2476.285645 2595.356689 2660.328857 2744.792969 2853.085205 2771.004639 2604.508301 2493.152588 2508.166016 2659.192627 2791.979736 2880.457275 2772.536377 2595.448242 2483.386230 2411.938232 2320.221436 2143.702148 2079.040283 2027.140869 2070.153076 2221.919922 2286.018555 2267.223633 2334.112793 2413.960449 2491.010986 2578.643799 2545.583984 2352.741699 2140.745605 1961.151245 1769.709717 1642.156372 1547.342041 1488.577393 1380.633301 1315.582764 1421.077759 1538.316895 1625.787720 1679.263794 1730.081421 1801.636353 1881.651489 1987.793457 2145.735840 2276.227539 2403.280762 2541.417236 2555.640869 2485.849609 2455.429688 2461.497314 2574.514160 2554.621338 2532.570312 2488.187256 2415.960205 2376.601318 2357.624756 2276.310791 2147.941895 2068.246094 2004.527954 2025.207764 1990.363892 1947.626831 1914.459473 1915.155884 1933.220825 1940.209717 1883.540894 1865.171753 1858.940186 1895.834473 1883.324463 1829.598999 1763.342163 1755.460571 1735.460693 1738.770264 1750.840210 1747.898682 1767.318359 1808.359619 1863.111328 1830.567017 1772.326904 1721.968262 1782.463867 1882.963501 1891.641357 1849.668091 1723.708374 1670.939941 1588.871338 1525.169189 1462.261108 1410.876221 1360.247070 1295.369507 1268.800171 1324.176514 1396.164429 1380.483887 1255.585815 1283.779541 1448.537109 1580.910522 1635.851196 1707.470215 1684.823975 1496.258179 1385.364746 1530.261475 1732.017578 1909.115356 1880.903931 1780.642944 1867.356567 2047.197876 2100.967529 2071.961670 2029.539795 1926.391602 1885.552368 1916.328003 1878.175903 1883.043823 1877.709961 1820.947876 1804.700928 1843.752808 1852.481079 1763.600830 1653.391479 1555.565918 1447.971558 1342.291626 1173.941650 1097.654297 1263.865234
2700.885254 2617.159424 2610.598633 2625.002930 2560.769043 2467.435547 2286.517578 2151.671875 2144.165771 2220.448486 2302.482178 2297.334473 2263.766846 2197.541016 2104.684326 2062.269043 2058.038818 2022.943604 1983.669556 1940.820557 1842.376343 1697.525269 1675.174927 1781.890503 1871.249756 1997.577881 2162.612549 2255.432617 2325.231445 2423.135010 2548.761963 2669.901367 2718.458496 2701.827881 2631.134033 2547.209229 2437.656006 2311.399170 2200.782227 2090.636963 1960.531982 1802.649780 1672.151611 1728.949463 1716.943115 1648.108032 1583.486206 1503.661499 1415.057007 1338.900024 1262.085205 1162.597046 1095.576538 1083.602295 1069.087891 1191.794189 1291.176025 1370.527832 1437.946411 1497.406250 1575.418091 1629.113525 1715.185303 1817.008301 1861.204224 1850.569458 1838.322144 1847.291504 1852.026489 1917.164429 1955.121704 1928.629761 1892.386963 1745.590576 1578.714722 1441.157471 1425.057129 1503.916870 1630.292114 1698.818604 1765.743530 1853.914062 1928.065430 2015.727905 2117.867920 2173.776367 2172.959229 2189.030518 2285.103271 2405.898682 2523.659912 2637.471924 2685.330078 2616.480957 2486.782227 2396.565674 2371.528809 2425.848877 2506.541504 2560.715332 2626.051514 2695.654785 2770.567627 2684.996338 2607.775146 2639.560303 2687.164307 2808.372314 2902.235107 2819.221924 2803.350586 2826.072021 2786.917725 2713.130615 2666.082520 2624.641602 2674.235352 2722.614990 2807.155029 2762.934570 2737.430176 2689.122314 2648.642578 2589.052979 2586.116699 2618.936768 2605.229248 2598.309326 2639.336670 2699.414062 2829.325195 2935.346436 3013.958008 2969.312988 2927.207520 2890.403320 2823.357178 2785.876953 2783.963379 2798.865234 2839.655518 2923.062256 2826.048096 2811.891846 2846.443359 2857.981934 2861.050049 2773.117188 2844.113281 2916.909424 2926.805176 2926.681152 2920.558105 2909.236816 2888.599365 2867.732422 2854.217285 2897.713867 2961.554443 3014.228271 3106.733154 3324.473877 3406.728760 3298.013916 3145.513916 3113.210938 3172.869873 3228.579346 3156.719971 2983.736572 2853.160156 2744.830322 2682.285645 2689.727051 2741.788330 2821.783203 2941.023926 3048.103271 3122.892578 3018.312012 2932.310303 2868.567627 2755.422607 2639.577637 2595.130615 2489.088135 2382.766846 2304.349609 2236.149658 2176.050781 2138.183838 2119.238281 2070.684814 2032.894287 2019.917603 2019.967896 1987.131226 1941.710938 1908.787964 1969.245605 2039.550659 2194.238770 2316.275879 2438.604492 2569.969727 2711.062988 2791.718262 2907.276367 2989.885986 2982.995605 2914.444824 2835.196777 2854.728027 2915.174805 2972.156982 3018.096436 3165.927979 3239.700439 3190.595459 3121.804199 3026.987061 2897.632568 2721.166992 2611.961670 2462.595703 2315.995605 2173.454102 2085.929199 2039.020142 2078.571289 2120.730469 2201.449707 2267.539551 2298.293945 2265.792969 2300.109619 2406.003662 2545.144287 2664.771240 2797.801025 2895.455322 2907.062012 2692.745850 2556.436035 2513.712646 2632.831055 2806.189453 2885.472656 2712.381104 2558.299805 2487.829834 2448.197266 2302.119873 2110.265869 2066.905518 2046.409546 2135.892334 2241.688232 2344.130127 2334.075439 2350.095459 2434.338135 2482.443604 2548.756104 2580.319824 2347.809326 2142.740723 1983.839600 1876.890015 1818.418335 1738.596924 1644.214233 1481.186279 1300.237305 1346.333862 1467.677246 1565.216553 1643.747803 1696.052124 1757.506104 1819.714233 1928.638428 2120.285156 2275.745361 2440.298340 2542.375488 2490.444580 2359.677002 2278.435303 2320.855957 2416.512695 2360.520020 2350.052979 2379.530029 2413.209717 2438.337402 2427.085205 2321.883057 2181.697266 2102.796875 2100.840088 2089.137451 2039.185425 1997.398560 1981.001953 1976.755859 2006.422485 2004.103638 1932.753540 1922.042603 1966.846558 2006.958618 1936.979736 1868.384277 1827.161987 1805.256470 1791.887817 1799.628296 1803.348511 1824.746948 1841.734497 1862.727295 1917.926636 1854.262329 1837.115601 1814.551636 1855.873657 1933.712646 1906.943848 1805.599365 1686.690063 1575.014160 1520.680542 1473.497437 1467.871216 1514.184082 1456.359741 1298.323486 1352.516357 1493.336670 1578.246826 1518.447754 1327.777588 1276.045654 1421.730835 1603.290039 1753.714233 1859.477417 1817.136841 1603.510864 1434.811768 1479.030884 1683.287720 1882.318115 1996.254761 1873.085205 1854.928955 1976.860596 2157.123047 2194.125732 2081.983398 2005.248169 1981.764771 1965.174683 2044.220337 2043.275635 2001.392090 1950.736206 1929.114258 1928.385254 1841.882812 1700.842773 1579.756226 1495.732178 1405.250122 1275.882690 1127.108765 1171.785156 1323.217896
2707.968018 2576.925781 2604.486816 2655.723877 2572.726562 2468.826904 2287.616211 2198.355957 2207.651855 2274.794922 2389.719482 2425.656738 2366.639404 2268.400146 2212.085693 2180.347168 2215.483398 2183.244629 2099.623535 2049.049072 1909.023438 1727.614502 1631.475830 1749.698486 1856.483154 2011.289551 2149.565674 2273.536377 2383.293457 2469.684814 2529.000732 2595.810059 2614.841064 2571.717041 2518.747803 2448.943115 2362.326904 2251.699219 2156.656494 2046.638794 1947.920044 1821.023682 1678.695312 1611.666382 1657.320312 1606.787231 1552.385986 1467.150757 1353.883789 1243.734253 1143.137817 1073.518188 1061.056030 1061.396851 1163.044678 1272.069458 1367.299316 1448.281982 1522.258057 1601.614136 1660.161865 1725.120239 1802.450317 1863.261719 1882.071167 1907.674805 1923.353271 1914.654053 1895.787109 1923.872803 1882.999512 1851.594971 1798.893921 1675.439087 1526.621460 1432.289551 1446.132690 1572.578857 1674.744995 1719.916626 1780.828979 1865.603027 1949.472656 2044.880127 2135.809326 2216.421387 2226.631592 2231.388916 2274.393555 2366.023926 2500.407959 2648.744385 2742.520508 2682.226318 2597.760254 2500.180908 2418.765381 2433.883789 2514.683594 2581.791992 2720.547607 2810.533203 2840.587402 2761.079346 2741.853271 2761.686523 2776.898682 2810.038086 2805.693115 2740.640137 2702.512207 2693.994873 2717.973145 2640.099609 2602.840576 2604.734619 2662.205566 2708.132568 2760.525391 2742.685059 2683.359863 2700.095947 2614.489746 2525.258301 2509.427002 2539.953857 2533.020020 2540.666504 2663.437744 2781.545410 2858.217529 3047.776611 3062.355469 2988.229980 2924.997070 2860.448730 2836.645752 2821.425049 2819.625732 2851.466553 2917.464600 2981.782959 2933.681152 2975.875732 3019.324219 3008.947021 2972.089600 2927.048340 2945.870850 2957.020752 2949.074951 2940.389893 2925.676514 2911.985596 2898.076172 2882.349609 2899.197021 3036.374756 3112.060791 3155.979004 3256.654297 3397.820068 3390.372070 3271.312500 3158.390137 3065.954590 3036.031494 3049.470703 3127.866211 3087.594238 2910.011719 2784.450684 2672.333496 2627.201172 2675.388184 2719.016846 2826.874512 2924.500000 3017.800293 2977.538574 2892.710205 2811.874023 2691.330322 2550.107178 2452.804688 2385.543945 2299.045166 2226.021240 2131.541504 2067.020020 2038.641724 2016.256592 2005.697632 1998.612671 1998.179810 1975.501709 1962.159790 1951.392944 1972.779785 1969.506104 2087.445068 2204.324951 2321.586182 2449.796387 2581.860107 2711.637695 2807.372559 2890.452148 3032.408936 3099.058350 3103.336914 3017.463867 2969.740479 2999.715576 3024.108887 3060.195801 3128.373779 3207.075684 3238.008057 3108.734375 3013.975586 2886.882080 2708.367920 2550.764893 2388.019043 2199.320312 2085.874023 2062.255371 2109.876221 2198.755615 2170.169189 2253.938232 2390.726074 2447.946289 2373.024658 2296.562256 2318.186768 2474.703857 2642.381836 2784.111328 2937.456787 2942.260986 2735.602051 2622.587646 2556.612549 2622.002930 2765.426270 2856.312500 2701.960938 2613.177979 2573.446777 2555.362305 2323.496338 2109.895020 2065.109131 2064.404297 2151.878174 2231.900391 2369.309326 2454.554932 2415.874268 2421.161133 2514.276123 2596.823975 2580.215088 2376.493164 2234.575684 2161.624756 2051.458740 1964.280029 1838.579346 1680.900879 1497.054443 1289.127197 1270.994019 1388.605591 1488.086182 1556.625366 1601.699585 1660.263062 1731.015137 1866.135864 2029.562744 2201.629639 2378.211914 2459.239014 2340.050049 2257.746338 2217.078613 2275.293945 2303.005859 2221.756104 2200.641846 2237.426514 2293.401611 2370.630371 2340.477539 2337.608643 2233.577148 2140.387695 2136.139160 2134.890625 2087.555420 2046.055298 2042.201294 2035.526489 2078.015137 2090.684326 2018.459961 2004.996826 2064.892822 2049.708008 1978.331543 1922.894409 1879.767822 1861.574707 1857.792725 1851.000366 1846.419312 1867.553711 1888.799927 1908.944702 1944.510620 1907.079590 1911.074341 1912.018066 1933.298462 1904.071655 1769.890381 1661.121094 1576.952881 1532.764282 1539.808716 1575.370850 1639.731812 1650.665771 1572.388184 1364.484863 1413.842285 1614.658569 1728.747681 1646.606567 1445.444946 1314.597900 1384.074829 1562.290039 1748.048706 1920.086792 1886.027100 1737.273315 1531.384766 1477.453247 1632.743774 1831.184448 1995.697876 1987.924927 1929.223145 1969.350952 2134.071777 2288.428955 2201.844727 2147.780273 2074.684814 2071.361328 2158.454346 2128.220459 2068.770264 2019.498779 1929.190552 1826.402466 1721.785034 1633.844238 1533.090088 1416.476562 1304.392334 1176.994751 1135.984985 1229.660889 1387.201050
2693.595459 2560.489502 2544.098389 2507.455811 2438.544434 2366.796387 2277.907227 2296.062500 2312.775146 2309.816895 2428.218506 2535.382812 2485.574219 2386.591309 2355.397461 2323.988037 2345.519775 2331.798096 2257.326904 2193.389648 1940.395508 1760.113525 1609.926147 1716.297607 1839.919678 1992.200684 2118.865723 2249.547119 2352.791748 2424.836914 2458.222656 2497.869629 2512.846191 2473.778809 2422.731934 2357.803467 2279.036865 2180.589111 2095.600098 1988.913330 1896.032959 1796.757690 1698.731323 1554.151611 1535.028564 1557.006470 1500.932617 1399.727173 1268.471313 1151.381470 1066.393555 1056.921265 1059.883789 1135.021851 1239.190430 1362.782227 1457.864136 1514.957275 1605.390015 1656.742310 1727.681885 1816.193115 1901.110229 1919.751709 1974.716797 2052.455566 2070.237305 2000.780151 1934.257568 1920.343018 1833.414185 1750.394409 1647.013794 1572.273438 1470.815674 1435.203369 1467.622925 1583.799316 1687.037354 1745.593262 1798.978882 1874.422607 1975.959351 2089.079346 2198.393799 2282.052979 2285.274658 2266.813721 2286.847656 2317.192139 2412.097656 2513.098145 2616.370850 2725.528320 2658.001221 2536.932373 2479.572754 2463.086670 2530.489258 2589.922363 2714.132568 2880.873779 2919.185059 2795.637207 2777.697266 2762.953613 2718.040771 2705.381836 2689.241699 2662.255127 2658.521484 2648.187988 2639.875244 2591.660400 2554.391602 2543.121826 2585.827637 2647.153809 2715.529785 2718.579834 2608.374512 2587.303467 2543.736816 2467.255859 2450.690430 2462.028320 2463.708252 2562.243164 2705.331299 2786.878174 2885.540283 2991.704346 3072.944092 2972.125000 2910.851074 2883.857910 2869.698975 2858.165771 2869.213379 2900.889160 2940.999268 3045.741455 3105.016846 3109.975830 3073.596680 3045.127197 3014.111084 2994.893799 2985.480469 2974.636719 2958.618164 2944.505615 2929.917236 2920.349365 2914.236328 2918.585938 2968.015381 3030.029297 3168.274658 3300.836670 3295.847168 3331.070068 3313.885986 3224.866699 3158.079102 3080.009277 3016.243164 2978.246094 2990.794678 2998.459229 2920.945557 2793.403076 2693.532959 2595.430420 2606.771973 2648.083740 2711.476562 2771.188721 2856.366211 2856.111816 2797.056152 2712.202393 2569.829346 2452.156250 2358.628174 2283.702393 2206.937988 2114.437744 2049.805176 2044.939087 2080.548584 2076.270996 2076.402588 2092.328369 2105.187500 2088.103271 2074.316162 2090.787354 2068.237549 1982.961182 2072.199463 2211.305176 2333.341309 2462.533203 2589.834717 2704.979248 2797.041992 2856.458252 2911.843750 2978.903076 3081.565430 3205.798096 3138.575195 3095.230713 3091.991455 3119.839600 3194.107910 3255.539551 3158.663574 3044.201416 2952.684326 2827.662842 2661.390869 2476.845459 2300.291504 2139.740723 2100.024658 2139.055176 2196.120361 2292.914795 2240.996582 2267.145264 2434.398438 2560.157715 2568.166016 2429.252441 2311.992920 2381.099121 2558.844727 2706.886719 2857.900879 2957.856445 2775.092285 2703.200928 2625.457764 2606.375732 2691.644531 2836.221191 2790.357910 2690.663818 2658.761963 2481.580566 2264.261475 2115.173340 2083.632568 2103.149170 2185.328613 2246.551758 2386.900635 2597.013428 2573.744873 2479.883301 2544.510742 2680.005127 2661.230469 2471.344971 2423.004883 2294.433350 2135.447021 1947.329712 1767.032104 1575.660767 1408.048828 1278.710449 1201.465332 1299.002075 1397.553955 1474.792236 1536.228638 1604.041992 1692.004883 1825.716675 1995.249146 2165.312988 2313.116211 2330.976562 2228.023682 2142.513428 2140.567627 2241.585205 2199.391602 2103.241943 2065.235840 2089.488281 2161.781250 2243.192383 2244.064453 2272.969727 2282.865479 2207.736084 2186.295410 2189.777832 2175.380615 2107.471924 2102.584473 2098.229980 2162.013428 2164.959229 2074.184082 2064.214355 2131.638672 2077.467285 2036.011230 1985.400635 1957.345337 1923.185669 1926.263550 1915.112793 1915.064575 1917.374146 1954.742554 1971.749390 1987.376587 1965.785156 1963.445068 1966.137085 1954.602295 1827.790527 1708.727661 1624.488037 1592.271362 1622.219482 1642.737793 1689.113281 1773.050659 1820.581177 1643.765991 1452.596069 1428.465088 1614.036011 1801.720947 1767.767090 1541.404663 1385.335571 1371.000244 1514.454712 1715.328003 1909.900146 2017.900391 1848.935425 1646.936523 1505.500000 1580.804443 1768.559326 1928.298462 2060.280273 2023.794800 2024.942383 2097.258301 2281.929688 2347.890137 2260.515625 2168.735596 2162.408691 2101.572266 2030.119507 1960.841919 1919.283325 1847.023560 1703.088379 1590.400635 1515.440186 1445.223267 1338.068237 1206.315796 1157.102417 1251.278687 1286.450317 1438.179688
2719.231201 2573.491943 2499.749756 2427.641357 2382.310059 2358.076660 2350.794678 2362.433838 2415.845703 2392.800049 2433.640869 2576.557373 2628.175049 2538.034180 2516.713623 2391.569580 2302.942627 2304.536377 2259.608398 2163.854492 1944.271851 1752.721924 1588.079468 1678.590576 1800.663452 1942.363037 2060.600342 2186.560303 2290.463623 2315.999268 2333.133057 2361.921631 2390.645508 2368.481445 2311.982666 2249.972900 2176.142578 2086.909424 2010.803833 1927.190063 1842.501221 1748.818726 1651.089111 1510.425903 1409.157593 1438.095581 1400.486938 1307.818115 1177.634766 1069.974365 1069.376343 1086.050415 1187.488037 1297.717773 1345.189087 1442.709351 1528.470703 1602.572388 1731.357056 1792.551880 1840.745117 1935.583130 2006.353394 2055.372070 2106.702148 2161.066895 2139.675781 2050.186768 1977.334717 1937.677856 1826.199585 1731.711548 1612.034180 1522.132202 1452.482910 1437.750000 1481.473022 1557.599121 1649.240356 1754.912842 1844.092407 1936.371338 2040.448608 2135.748779 2214.671143 2326.940430 2364.433105 2332.772461 2317.041260 2334.138428 2367.427490 2422.687012 2498.294678 2614.900391 2694.663330 2628.790771 2586.666504 2578.095459 2573.033936 2603.389893 2705.122803 2837.881836 2826.428467 2719.429199 2698.392578 2662.626953 2632.073975 2612.026611 2617.829102 2619.089111 2609.415527 2577.980469 2565.589355 2551.127686 2515.972656 2500.108643 2541.525635 2604.068359 2631.932617 2689.866699 2599.466309 2534.233154 2474.541504 2392.790527 2378.530762 2437.028076 2525.774414 2651.859375 2800.857178 2845.586670 2859.437500 3067.910889 3087.578369 2971.502686 2940.051270 2920.357422 2919.157227 2931.327393 2988.967773 3004.807861 3046.234131 3142.193604 3234.538818 3157.995605 3094.044434 3054.332520 3029.937500 3014.871582 2996.259277 2979.936279 2969.135498 2955.774902 2942.414307 2938.427979 2943.699707 2952.058350 3030.643311 3137.932373 3284.636719 3290.247559 3290.911621 3302.201904 3290.260010 3218.000732 3167.578369 3103.861084 2983.762451 2931.061523 2930.375977 2911.096191 2867.066162 2766.538818 2682.557129 2604.133057 2554.427979 2565.126465 2615.170654 2658.799561 2714.910400 2772.118652 2709.615479 2613.297852 2501.697998 2400.862061 2293.629395 2183.565918 2114.176514 2069.086426 2135.692139 2211.070557 2265.583252 2246.990234 2260.577637 2286.337158 2301.707764 2274.265869 2252.676758 2266.702637 2144.893311 2012.775757 2052.479492 2205.798584 2317.002441 2422.612549 2543.167236 2666.012939 2769.321777 2823.618652 2859.435059 2971.392334 3106.210449 3278.927246 3344.343018 3248.890137 3200.722412 3231.480469 3334.551514 3295.320801 3118.467773 2977.361816 2854.478027 2710.210693 2592.118164 2428.468018 2287.039795 2124.776367 2127.998291 2206.564453 2237.014160 2298.234619 2273.659180 2268.274658 2400.573975 2536.253906 2613.350830 2586.341553 2399.643066 2334.139648 2476.507812 2667.705566 2813.167480 2962.812744 2823.754395 2798.999512 2719.038086 2639.705566 2691.455322 2835.817139 2883.543457 2788.430908 2645.235107 2438.183105 2254.645996 2151.052734 2099.547119 2131.362305 2225.476318 2279.995117 2378.210449 2524.555664 2631.369873 2603.254639 2590.602783 2719.661133 2692.314209 2590.091797 2464.357910 2286.240967 2098.167725 1914.571533 1724.189209 1551.723022 1506.490479 1414.652100 1214.240112 1228.133423 1336.982178 1429.705322 1521.708984 1629.943970 1722.800537 1863.755859 2011.902588 2137.392578 2174.223877 2177.476562 2125.066650 2028.382568 2057.059570 2125.668945 2061.779785 1975.172607 1928.251221 1966.230713 2075.719971 2129.562988 2159.533447 2212.890869 2264.486572 2270.689941 2242.779541 2288.971191 2270.122070 2184.286621 2184.581055 2185.238281 2254.309326 2232.264160 2174.498535 2144.279785 2184.408936 2126.849365 2089.323242 2045.034912 2015.892212 2009.674683 1999.521118 1989.375366 1984.366943 1997.764404 2021.727905 2033.058594 2068.537842 2026.416260 2012.776367 1988.829956 1894.713989 1835.817017 1822.536499 1816.119141 1807.052856 1797.442261 1745.906738 1802.352539 1896.307373 1904.331177 1747.604736 1527.335938 1460.791748 1649.404663 1857.319336 1820.190552 1678.812866 1454.485107 1376.139893 1504.789551 1698.126587 1911.161865 2042.525635 1893.827026 1755.219849 1568.737427 1557.427856 1717.626465 1887.535156 2034.956177 2116.028320 2086.685303 2124.177979 2247.429199 2356.729736 2272.574219 2159.942139 2086.936035 2043.379761 1925.936157 1828.188110 1767.498535 1713.420044 1624.155029 1559.276978 1457.365845 1374.685425 1268.589966 1193.568970 1232.143066 1367.382446 1380.605591 1467.032471
2694.301025 2585.029541 2516.277588 2443.465332 2406.152832 2446.983398 2474.590088 2462.643555 2500.147217 2544.506592 2524.088867 2582.408691 2720.121582 2662.846680 2532.754150 2349.595459 2182.249756 2117.420410 2101.841309 2053.048096 1896.038574 1720.876953 1564.143555 1644.073120 1733.032104 1852.977783 1976.659790 2091.329346 2169.871582 2176.272705 2185.663818 2221.448730 2288.995850 2306.984375 2216.661377 2135.937012 2062.084473 1990.813599 1940.429199 1869.574219 1798.417969 1717.529785 1643.448120 1536.779907 1384.976685 1291.592407 1282.855591 1215.963379 1138.174805 1069.367676 1101.695068 1175.893066 1261.702271 1330.384888 1385.950195 1472.653198 1561.102661 1722.171265 1851.980469 1916.078613 1989.642456 2055.554443 2133.875244 2198.250244 2232.082275 2223.604248 2202.830811 2119.247803 2008.639893 1960.349121 1869.089478 1761.306641 1618.119507 1526.335815 1448.235352 1440.991089 1530.385132 1609.937378 1652.019409 1741.727661 1848.682739 1954.216797 2064.843750 2160.496582 2244.769531 2365.525146 2428.171875 2469.275879 2438.940430 2424.727051 2416.941895 2421.497314 2465.670166 2544.787842 2672.991211 2754.046143 2736.182129 2650.628174 2635.374268 2682.462646 2793.012695 2774.512451 2742.004150 2669.432617 2638.673828 2625.233887 2588.838623 2532.835693 2544.551270 2587.841309 2572.850098 2538.096436 2495.040771 2497.171143 2476.841064 2423.285400 2417.954346 2497.755371 2535.936035 2626.279785 2613.387207 2517.381592 2441.007568 2317.090820 2326.776611 2508.765137 2657.297119 2733.561523 2723.980469 2835.742432 2867.596924 3019.276123 3097.033691 3055.739990 3031.022705 2987.647217 3004.338379 3062.667236 3139.910156 3154.944092 3209.437988 3276.049561 3278.310303 3183.707764 3116.447021 3080.486328 3046.660889 3023.895020 3002.232178 2987.400879 2982.996094 2984.028564 2981.336914 2980.741699 2971.347168 3017.546631 3198.121094 3325.434082 3285.044189 3266.563232 3257.426270 3251.826416 3270.265381 3302.848145 3250.942627 3107.889404 2984.176514 2886.764404 2843.142090 2835.253662 2792.263672 2729.593750 2693.736572 2673.503418 2608.744873 2532.706299 2518.058838 2560.824463 2607.029541 2690.754883 2659.221436 2566.066162 2472.990479 2363.619873 2250.229980 2124.474609 2099.040039 2199.415771 2297.509277 2417.720215 2441.177002 2417.033936 2426.693848 2463.079102 2477.713379 2463.911865 2450.419189 2365.124756 2180.961426 2031.953735 2048.276123 2200.019287 2375.229736 2483.388916 2525.488281 2601.214600 2705.355225 2789.818115 2859.031982 2949.927490 3134.425049 3290.819824 3448.503418 3447.355957 3390.900391 3319.510986 3306.610840 3197.408203 3139.538330 3001.381104 2828.809326 2689.482178 2548.397705 2383.814941 2271.142090 2127.565430 2162.206299 2246.244873 2339.511719 2328.433105 2276.402832 2260.703369 2312.445068 2411.554932 2494.477783 2570.841553 2511.251221 2354.316162 2379.537354 2535.668701 2692.299805 2849.531982 2907.596680 2911.235352 2815.015381 2717.071045 2723.302979 2836.592773 2858.851074 2709.953613 2575.628418 2437.660156 2298.687012 2196.053223 2115.922607 2150.771240 2252.605713 2288.484863 2339.462158 2448.300293 2536.323730 2610.944336 2675.923340 2658.342285 2557.481934 2450.428467 2315.214355 2137.298584 1963.184937 1815.864624 1674.249023 1612.779297 1634.769653 1472.850342 1304.567383 1151.780396 1278.687866 1426.107544 1537.023926 1658.782349 1771.176880 1935.566040 2015.226196 2054.300049 2068.580322 2113.256348 2090.134277 1960.205811 1916.235474 2003.926025 1940.325928 1875.707275 1841.043579 1900.311035 1996.015015 2017.266724 2062.160400 2154.424316 2222.926270 2309.408936 2344.316650 2322.723877 2244.657715 2207.354004 2220.167725 2269.329346 2284.624756 2281.123291 2249.673096 2217.941895 2214.520752 2152.597900 2109.388184 2075.420166 2046.278931 2033.041382 2037.680298 2054.898438 2041.667725 2038.090820 2038.955200 2086.344971 2097.129883 2092.758057 2074.672607 2031.062988 2019.382935 1936.775513 1916.518066 1959.721313 2028.893188 1962.265381 1856.262085 1869.431641 1964.113892 1973.133179 1752.429565 1555.219238 1519.854858 1680.241821 1859.728516 1925.130249 1729.453369 1544.461670 1401.804199 1493.071533 1679.036255 1847.522339 2017.528198 2056.876465 1903.060303 1693.148804 1585.777588 1690.932007 1836.141968 1982.789917 2164.612305 2176.881104 2196.896484 2277.484619 2267.782227 2200.351807 2111.570557 2014.526123 1914.794434 1816.015991 1714.563110 1612.822876 1548.148071 1492.934448 1475.290771 1417.144043 1325.190308 1245.068481 1302.918945 1310.807983 1443.781372 1551.171021 1555.431396
2710.749756 2583.194092 2522.928711 2454.496338 2440.224609 2520.459961 2604.933594 2615.389648 2621.539551 2697.021240 2681.144043 2687.649658 2763.799561 2625.656250 2475.881348 2345.028564 2194.321289 2010.600220 1925.176880 1879.806274 1786.443359 1677.785645 1558.639038 1567.064819 1663.724609 1766.628662 1889.521973 1992.062622 2053.376953 2035.703735 2067.099854 2121.655762 2188.246338 2228.380859 2160.113525 2047.187256 1970.387451 1909.145386 1863.739014 1810.602905 1744.769043 1699.678711 1641.563477 1600.971558 1506.296143 1377.790771 1236.555786 1167.139160 1136.510498 1081.564331 1126.377686 1214.968018 1286.898315 1423.887329 1544.098267 1574.779541 1635.314697 1739.333984 1903.419800 2029.140015 2075.569580 2150.751953 2252.307373 2347.468750 2397.533936 2326.584229 2238.138184 2164.466309 2020.105957 1941.515503 1875.886230 1769.087402 1632.791260 1520.148438 1448.778076 1453.825195 1550.805542 1637.077515 1719.543091 1777.721069 1865.501831 1945.558105 2040.777832 2130.425293 2245.965332 2347.204834 2414.358398 2508.214844 2609.142090 2602.608154 2551.383301 2519.473877 2540.063965 2582.665771 2631.209473 2668.954834 2767.373291 2742.740234 2741.786621 2754.985107 2823.514404 2741.961914 2694.424805 2633.570312 2598.716309 2576.627441 2553.451172 2492.794678 2485.990479 2522.390381 2510.121094 2486.580078 2448.888916 2435.424805 2430.327881 2351.968750 2331.882080 2408.696777 2478.511230 2544.939697 2525.483154 2487.079834 2397.114990 2274.390625 2311.254639 2513.431396 2607.118652 2619.694336 2651.562012 2742.801270 2808.269775 2976.109375 2996.951172 2944.556152 3072.251953 3106.092773 3125.774170 3214.257080 3338.498535 3353.435547 3370.904785 3354.252441 3266.830078 3184.209473 3146.202881 3111.256836 3073.980225 3033.259277 3011.035645 3004.929932 3004.234619 3013.267090 3011.530518 3026.164795 3016.942383 3097.613525 3234.229980 3329.354736 3260.114746 3245.565186 3232.064453 3212.707275 3210.114990 3266.364990 3262.860840 3162.024170 3046.002930 2903.496826 2841.083008 2797.435059 2767.795898 2759.490479 2762.535400 2755.462158 2693.375488 2604.590332 2508.897217 2464.521484 2502.270264 2593.363037 2605.991455 2539.182373 2457.864990 2354.906982 2216.309814 2106.744629 2248.123291 2396.079346 2410.337158 2550.495117 2563.159424 2561.111084 2587.571777 2627.547607 2641.081055 2638.573730 2539.631592 2391.365234 2198.401123 2054.528809 2079.440674 2220.682861 2422.718506 2567.897949 2588.157227 2599.410156 2655.611816 2715.886719 2807.222412 2904.789551 3042.844727 3201.898682 3301.042969 3323.228516 3352.575195 3247.526611 3235.687500 3103.089600 3027.230469 2902.021484 2759.757812 2631.137451 2490.423096 2342.211914 2204.058838 2114.760986 2195.863525 2260.663086 2396.543457 2473.646729 2369.159180 2285.228027 2264.460205 2286.393066 2348.221680 2455.692139 2540.933105 2459.204590 2352.446777 2424.152832 2579.164795 2738.277832 2885.458984 2990.440918 2938.220459 2847.043945 2838.117188 2879.391357 2901.182617 2812.006836 2698.353516 2547.742188 2431.815918 2287.296631 2167.027344 2197.967529 2271.021240 2347.097412 2381.844727 2438.096924 2564.641846 2625.661865 2694.098389 2566.227051 2429.372314 2339.593018 2205.868164 2072.752441 1958.665405 1856.122437 1755.059937 1755.962036 1714.355469 1571.979370 1337.332764 1097.723633 1233.710327 1495.137817 1622.043945 1726.237183 1842.065186 1920.806763 1935.417603 1949.156372 1980.309448 2043.360229 2040.897827 1953.678711 1807.083740 1876.193970 1846.666382 1791.283203 1763.295898 1842.180298 1902.901611 1922.022949 1968.899414 2069.152832 2143.146729 2225.702637 2221.144043 2157.496094 2081.122803 2043.276001 2079.885742 2190.092529 2136.494629 2117.051758 2136.278564 2103.893799 2081.544922 2028.953003 1993.207520 1987.758301 1974.357178 1994.738037 2002.321899 1984.677368 1947.213135 1900.801758 1904.207642 1976.184814 2024.711060 2098.788818 2084.208740 2151.539062 2212.612549 2085.367676 2019.521973 2055.035645 2067.792236 2071.308838 1956.036865 1956.434692 2027.487549 1920.063721 1723.931763 1583.414062 1591.970215 1715.787354 1866.208496 1975.281250 1771.548950 1569.432251 1446.934937 1501.903198 1630.759399 1775.620117 1966.741821 2113.666504 1982.456299 1775.837280 1637.448120 1686.203003 1829.416870 1976.136353 2149.451416 2282.940918 2273.962402 2252.014648 2131.787354 2085.831055 2049.952637 1954.761475 1824.301758 1733.651001 1631.829346 1556.499634 1558.155640 1479.776489 1368.432373 1312.487183 1281.376465 1294.488647 1411.442749 1427.948364 1424.282104 1579.349121 1744.475342
2680.194824 2587.482666 2544.579346 2480.679688 2468.463379 2548.373535 2649.942383 2743.656006 2791.580322 2842.596436 2857.559814 2840.942139 2809.612305 2631.617920 2475.275635 2318.595215 2154.907227 2022.875122 1923.389893 1820.045166 1748.646606 1699.948853 1596.237793 1505.299927 1605.095215 1692.844727 1781.211182 1876.817261 1922.205078 1926.047485 1960.986084 2019.439819 2092.043701 2111.551270 2055.518799 1963.548462 1909.572388 1877.704468 1837.526001 1772.896729 1725.329712 1691.377808 1650.718750 1594.462524 1526.471802 1417.151855 1286.697021 1175.627686 1131.646851 1071.068604 1136.626099 1228.334473 1390.090942 1568.384399 1650.566284 1705.244629 1766.923462 1822.920288 1883.906982 2032.574829 2128.599121 2254.009033 2405.056641 2535.625977 2626.886963 2476.137695 2322.633545 2194.324219 2073.463623 1932.646240 1847.792725 1736.787842 1634.638428 1505.279419 1450.678955 1476.221313 1576.768799 1701.069214 1772.293213 1836.698730 1945.908447 2010.089844 2048.387939 2140.696777 2251.944336 2336.548828 2388.197754 2465.809326 2572.196777 2730.143311 2738.453613 2652.154785 2563.489502 2587.190430 2639.080566 2707.841797 2793.818115 2843.629150 2790.792236 2718.507812 2695.621338 2714.691650 2651.421143 2593.104492 2538.347168 2518.833740 2500.221436 2424.265625 2420.607178 2449.906006 2438.394287 2433.347656 2336.567627 2323.339844 2359.611572 2285.333740 2260.474121 2339.916748 2396.633301 2431.475586 2368.392090 2385.139648 2343.162842 2238.460205 2322.138184 2469.275146 2526.118164 2598.603027 2683.892822 2787.189941 2881.486572 3007.715088 2965.482666 2894.375244 3021.697510 3192.003662 3231.232422 3254.680420 3401.147461 3483.894043 3410.690918 3328.160645 3248.693359 3196.175781 3172.129883 3140.042480 3100.089844 3073.004395 3040.669678 3019.653076 3031.379883 3040.328857 3047.801758 3059.358643 3048.865479 3179.710205 3272.862061 3315.737305 3231.882568 3223.498535 3207.495117 3184.639404 3170.444824 3185.086426 3222.460449 3101.989502 3027.370361 2942.401367 2878.635498 2849.333984 2832.631348 2836.502197 2836.724121 2826.520508 2765.687988 2683.783936 2592.475586 2479.024902 2415.383301 2482.502686 2542.253906 2508.791016 2414.669678 2264.364746 2126.664062 2193.522461 2422.937012 2544.482666 2519.567871 2656.939453 2714.661865 2727.671387 2758.104980 2796.102539 2787.179199 2708.876709 2554.056885 2382.272949 2202.561035 2080.158691 2079.892334 2245.466797 2441.254395 2604.692383 2684.887451 2699.741699 2734.917480 2745.345947 2775.523682 2861.057617 2925.871094 3025.308350 3093.846680 3145.584717 3251.543945 3231.087891 3160.634766 3017.439209 2923.956299 2831.058350 2683.587646 2560.278809 2416.892578 2254.859131 2145.746582 2182.294922 2246.552734 2319.960938 2448.889893 2570.099365 2551.387451 2427.151123 2323.367676 2285.802979 2280.385742 2329.374023 2458.522949 2558.131348 2442.610596 2391.079346 2482.034180 2616.612793 2734.498535 2844.775146 3008.450439 3014.527344 3060.473145 3027.621338 2979.469238 2920.659180 2818.338379 2686.595459 2551.073242 2390.448730 2263.442627 2258.689453 2314.618408 2448.510986 2458.686768 2455.412354 2530.923096 2634.680908 2744.685059 2552.928711 2444.760498 2413.027832 2274.609863 2098.127441 2015.164185 1964.784668 1916.148071 1800.377930 1670.582764 1466.016479 1264.924805 1099.914673 1161.747314 1376.284912 1579.854004 1775.590942 1830.380249 1859.547485 1851.333374 1878.183838 1910.673950 1950.190063 1961.793091 1907.901123 1738.771973 1728.582031 1717.875122 1699.744995 1680.920898 1747.602051 1816.956909 1825.618530 1926.785767 2014.328003 2082.305908 2059.289062 2004.889648 1959.961670 1917.462646 1891.632935 1981.739380 2087.800781 2006.902100 1932.187866 1934.676636 1935.638306 1935.334351 1911.495361 1878.951294 1864.448120 1882.349121 1881.575439 1861.067139 1831.873901 1781.716187 1793.808105 1850.551025 1894.929565 2001.979248 2022.239014 1994.641602 2097.981445 2238.166748 2324.360107 2146.692383 2097.957764 2140.230713 2160.198486 2063.139160 2045.821045 2071.041504 1905.985352 1705.367920 1626.321045 1708.586670 1815.482910 1967.635620 2021.214600 1830.682373 1634.759155 1492.565552 1533.215332 1653.497192 1802.286865 2005.547241 2155.970947 2035.344116 1846.864624 1686.828247 1659.418701 1781.810791 1957.348633 2104.831543 2251.593506 2324.817627 2195.148438 2069.951172 2000.372681 1965.840332 1899.644531 1776.507446 1665.521484 1637.170898 1691.132568 1674.297607 1552.184570 1370.057495 1416.049683 1430.568726 1383.067871 1499.105469 1591.504028 1521.727173 1652.249878 1805.956665
2649.266357 2587.749023 2557.918945 2518.300781 2527.687988 2576.893555 2670.738770 2740.435303 2772.214600 2811.644287 2812.669434 2803.516602 2827.323730 2682.246094 2509.057129 2347.023438 2260.999023 2142.246826 2058.515381 1942.485840 1906.129517 1810.331909 1679.184204 1537.790405 1515.450195 1623.845825 1686.887329 1766.485474 1792.260742 1832.199829 1859.532104 1903.522217 1972.265259 1990.837158 1954.021362 1910.070068 1882.434448 1861.270142 1816.717896 1735.741089 1703.075562 1676.519287 1632.464966 1580.406494 1526.702759 1421.936890 1313.396851 1189.001099 1126.070801 1073.868652 1114.561890 1269.848022 1489.419312 1652.223267 1732.666138 1806.068481 1889.778320 1946.148193 1919.706177 2041.116943 2204.710938 2371.746094 2556.850830 2731.537598 2714.225586 2589.539307 2392.131104 2240.238770 2111.649170 1978.905640 1865.405640 1752.309326 1636.448853 1505.957031 1457.791504 1503.651978 1636.192749 1763.155762 1840.141357 1907.903076 1993.854004 2026.982178 2052.791504 2171.406006 2309.070312 2406.906006 2448.786133 2473.137207 2530.765381 2666.388916 2827.331787 2687.928223 2602.309814 2604.242920 2700.229736 2816.954590 2765.724854 2762.895264 2742.477783 2678.290039 2645.565674 2642.646973 2645.883301 2533.643311 2452.598145 2430.266357 2453.896729 2400.181885 2373.072266 2377.763672 2322.400391 2330.058105 2219.965820 2203.787354 2248.328125 2179.023926 2168.500244 2194.854980 2256.802246 2268.914062 2196.077148 2257.075684 2247.486816 2218.001953 2353.339111 2458.630615 2573.594971 2702.922363 2809.764404 2920.890869 2917.204102 2884.707031 2815.162598 2810.833008 2986.552490 3067.868164 3122.876953 3191.256348 3364.705566 3459.796631 3420.656982 3357.395752 3268.708740 3209.195312 3188.631104 3141.256104 3109.910156 3091.020264 3070.761230 3064.546875 3059.827148 3051.190674 3069.721191 3089.780029 3111.538574 3155.864258 3188.659424 3209.794434 3212.309326 3203.042725 3188.348145 3169.555908 3150.424805 3135.670654 3171.343018 3106.917725 3026.303467 2974.677246 2929.718506 2903.825684 2881.158447 2878.393799 2900.858643 2936.844727 2823.474365 2722.340820 2632.675537 2533.902588 2401.747070 2359.238525 2436.272949 2408.140137 2271.608398 2148.967285 2180.761230 2334.920654 2552.473633 2661.770508 2638.730469 2725.233398 2859.505127 2843.601562 2912.982422 2870.251221 2783.595459 2690.425293 2559.739746 2373.228516 2202.492432 2084.334717 2087.927246 2281.643799 2458.093262 2630.293701 2742.747803 2847.377686 2902.187256 2846.187988 2791.177002 2813.507080 2882.768311 2954.088379 3024.422363 3164.392578 3276.921143 3194.169434 3120.628662 2953.921143 2846.812744 2773.980225 2623.786621 2499.943604 2338.644775 2199.700928 2178.808594 2245.699707 2342.192383 2401.000488 2506.876465 2628.112549 2720.482178 2648.458008 2478.409668 2417.563477 2326.855713 2294.706787 2340.749512 2471.661377 2552.385498 2479.491699 2443.762207 2473.072021 2573.160889 2716.529297 2846.203857 3017.897949 3182.783447 3207.167725 3056.693604 3016.157959 2857.234863 2710.591309 2578.167236 2448.920410 2322.000000 2320.775635 2378.489746 2494.879395 2574.049805 2506.038818 2562.721924 2598.084961 2729.767334 2671.921875 2550.167969 2525.397949 2371.214600 2168.468018 2153.311768 2139.070068 2015.189575 1875.396729 1698.433472 1498.197388 1369.331787 1099.728394 1112.390991 1264.590454 1497.960449 1662.331177 1686.612305 1736.742920 1776.278442 1830.473511 1850.286377 1880.630127 1858.147705 1818.373291 1728.101685 1609.962036 1594.068481 1601.952637 1602.924316 1663.075439 1722.427002 1804.311890 1873.804077 1893.033325 1948.847656 1881.536499 1819.032837 1772.778320 1775.320801 1774.492310 1904.023560 1985.405640 1887.848389 1776.033081 1713.311401 1749.679199 1774.364746 1788.542847 1773.405273 1781.827148 1735.459351 1713.030762 1690.037476 1707.988770 1724.400635 1757.276367 1784.303833 1849.848511 1928.105347 1900.539062 1947.303955 2084.476318 2252.024658 2407.287109 2306.613037 2183.348389 2217.648682 2252.391357 2238.412842 2157.482666 2072.863770 1885.805908 1682.148071 1642.632324 1794.090942 1927.112305 2019.249756 2090.150391 1881.121094 1663.604980 1515.306641 1555.144409 1693.433228 1855.594604 2043.863892 2221.171387 2136.530518 1964.139404 1791.030151 1698.444092 1729.298828 1874.218872 2032.225708 2160.049316 2218.864502 2146.975098 2043.938477 1945.769653 1876.511353 1788.480835 1728.150146 1733.727051 1766.952515 1819.002686 1744.034546 1561.344482 1402.287842 1538.671265 1515.623901 1458.597168 1571.318970 1692.850952 1660.657471 1749.557129 1828.071655
2684.116943 2663.678955 2626.340088 2607.603760 2624.069092 2672.396240 2722.973877 2664.618896 2632.365479 2657.119385 2662.105957 2668.312012 2717.687256 2716.122803 2578.118408 2487.828369 2398.677979 2280.790527 2152.239258 2114.323730 2058.124268 1896.056641 1732.617188 1615.616211 1484.193359 1534.225220 1602.595825 1655.389282 1678.477661 1719.005737 1750.768066 1780.805908 1841.681152 1881.197144 1872.379150 1848.511230 1834.428711 1789.850708 1734.678223 1679.830566 1674.364868 1648.906860 1618.424927 1577.879272 1496.621826 1373.625488 1271.910400 1192.602051 1122.208496 1081.278198 1160.388794 1296.242554 1487.460449 1689.389404 1805.818359 1910.917114 2033.503906 2084.226074 2049.939209 2120.885498 2275.982910 2446.499512 2656.754150 2736.030518 2597.519287 2520.604492 2418.042969 2275.760254 2147.317139 2020.370361 1916.617920 1803.223633 1668.904907 1545.956909 1477.852661 1499.464966 1683.296143 1827.212158 1903.822388 1967.724976 2017.494629 2030.231689 2070.295410 2194.183105 2388.595703 2525.957031 2580.549072 2525.335938 2562.090332 2621.268311 2736.123047 2681.642334 2643.540039 2677.093750 2759.102783 2762.967285 2677.450684 2660.650635 2672.177002 2645.265869 2585.788574 2559.116211 2587.687500 2558.158447 2443.392578 2377.942139 2349.175537 2351.723145 2308.734863 2302.333008 2202.201416 2206.612061 2138.494629 2087.435303 2110.051514 2072.782471 2062.967285 2056.504639 2090.957520 2107.246826 2093.729492 2154.836914 2141.358643 2185.442383 2316.184814 2489.621582 2584.686035 2659.949707 2834.738525 2931.413574 2777.425537 2717.842285 2680.740479 2743.209473 2908.077637 3009.342529 3106.384277 3213.616211 3325.707031 3415.236816 3419.995850 3384.309082 3329.595215 3282.183350 3245.483398 3191.317871 3153.410645 3135.514893 3130.775635 3114.823242 3093.559082 3092.388672 3118.750977 3118.978516 3138.197998 3162.462158 3186.213623 3211.510498 3226.153320 3205.994385 3174.582764 3146.733154 3117.500244 3099.007324 3088.902588 3116.587158 3084.172119 3049.506592 3007.033203 2984.187012 2983.858643 2946.780518 3001.344238 3012.402588 2878.814697 2774.847900 2672.508301 2550.348877 2444.573975 2307.868896 2258.592773 2253.558594 2151.003662 2186.646240 2322.630371 2487.593750 2666.598877 2742.396973 2726.459229 2752.251221 2920.468994 2925.011963 3020.197998 2929.636475 2806.437012 2692.839355 2554.826660 2349.711426 2189.831543 2088.529785 2114.865479 2320.662842 2494.035156 2659.051514 2784.999512 2903.388916 3007.368652 2994.270752 2884.169922 2859.302002 2906.485107 2947.651855 3000.735352 3082.188721 3191.268066 3164.204346 3101.472412 2916.791504 2803.061523 2715.481445 2566.284424 2424.328857 2252.830322 2239.818848 2225.210693 2314.041016 2444.851562 2512.313232 2573.174316 2683.958984 2825.799316 2859.704590 2612.564453 2559.566162 2495.960449 2338.769775 2311.134277 2374.774170 2522.360840 2603.949219 2535.388916 2484.399414 2482.075684 2569.356689 2722.443115 2870.434814 3017.998535 3138.430176 3147.072998 3081.268066 2861.319336 2742.988281 2641.165527 2517.077881 2427.924072 2392.136719 2448.795898 2496.860596 2603.971680 2603.444092 2586.807129 2591.488770 2672.911621 2720.000732 2576.853760 2456.377441 2381.884277 2251.547119 2293.668945 2259.992432 2129.033691 1939.936279 1743.360107 1565.417847 1277.694702 1070.224365 1083.346069 1220.360229 1456.715088 1581.647461 1577.945801 1582.767700 1620.255127 1657.707275 1654.850342 1698.134399 1742.119873 1716.195679 1666.253784 1570.883667 1497.034058 1523.131836 1529.141479 1621.474854 1708.455933 1731.295654 1720.822021 1788.227783 1842.238525 1747.268799 1654.157837 1639.065308 1638.945190 1707.491089 1828.165283 1875.118896 1790.702026 1671.535889 1553.739746 1616.818237 1660.682739 1673.790405 1645.496094 1632.544189 1579.431152 1555.521240 1588.210693 1632.965454 1652.125977 1661.561523 1698.197632 1768.316040 1801.909180 1819.810547 1934.786499 2105.247314 2270.127686 2282.949463 2314.518799 2307.507812 2282.430908 2293.301270 2393.756836 2276.321289 2095.053223 1896.798584 1695.622559 1649.630005 1826.268433 2022.505005 2139.784180 2134.901855 1911.677612 1684.664795 1552.447144 1560.699097 1733.927124 1921.295532 2132.431396 2318.871338 2216.572266 2006.147949 1926.441772 1820.880859 1763.006348 1825.605347 1987.762085 2132.712891 2152.368408 2082.270264 2013.988647 1921.414673 1820.713867 1801.847900 1858.148560 1868.269287 1881.088379 1882.479736 1731.867188 1523.590698 1455.141846 1614.755371 1550.667114 1531.175049 1632.187378 1730.008423 1809.388184 1844.886230 1933.905396
2727.840332 2758.896973 2699.250977 2699.609131 2747.749756 2795.491699 2776.772949 2682.220215 2538.399414 2537.935059 2531.904541 2535.577637 2592.355225 2650.937256 2686.841064 2638.073975 2495.048340 2351.025635 2306.754883 2278.505371 2119.199219 1933.212524 1760.006958 1647.764893 1503.667480 1437.937988 1507.268799 1555.371094 1590.352051 1613.954712 1643.968994 1668.951172 1717.611206 1757.117676 1756.162720 1738.421509 1711.361694 1680.225464 1647.156128 1627.762939 1635.216553 1612.478882 1578.734497 1529.592285 1453.157959 1387.132690 1287.330933 1174.708618 1081.829224 1111.085205 1205.957764 1329.512451 1512.147705 1737.545532 1879.878174 2023.541870 2170.701172 2273.106201 2199.467041 2194.705322 2397.230469 2569.275635 2724.644531 2654.392334 2537.543213 2444.976318 2372.933838 2263.817139 2167.308838 2080.089600 1979.087158 1867.944214 1731.844360 1600.591187 1485.935303 1504.248535 1670.744141 1842.323608 1946.360962 2002.097900 2049.983398 2050.608643 2084.988525 2225.023926 2393.663574 2506.793213 2631.969482 2670.862793 2674.830566 2738.030762 2789.260742 2794.812256 2770.972168 2796.593506 2791.142822 2681.449463 2626.202881 2602.396240 2606.539062 2628.082275 2542.191895 2465.900146 2474.974365 2530.250732 2431.742676 2320.752686 2241.049316 2266.732422 2225.838623 2193.305664 2128.448975 2076.850586 2057.562744 1985.883423 1978.368530 1946.497192 1929.778076 1937.930786 1947.112305 1976.987915 2002.087891 2041.311035 2075.849365 2182.301025 2290.891846 2414.796143 2502.395264 2616.919434 2797.882080 2871.620850 2739.224854 2653.006592 2624.844482 2719.265381 2874.063721 2971.139160 3128.289062 3082.122559 3131.486328 3274.816162 3394.496582 3397.734375 3363.112793 3317.158447 3275.590576 3226.632080 3192.890625 3170.417725 3155.588867 3132.717285 3124.292236 3145.906006 3153.650146 3145.289551 3166.895508 3182.538818 3215.819092 3243.977539 3255.257568 3247.972412 3184.347412 3129.081543 3104.053955 3081.089111 3058.768311 3026.214355 2982.196289 3013.354004 3058.393799 3045.014160 3080.686279 3037.691650 3052.777100 2974.493896 2894.063477 2845.574951 2723.173096 2553.059814 2420.918457 2317.620850 2189.265381 2148.481934 2228.884277 2349.430664 2511.501953 2645.139893 2758.809570 2833.957764 2823.004639 2839.480469 3035.873291 3123.688721 3074.823242 2994.772705 2836.433105 2669.936768 2530.018311 2331.739990 2177.774658 2091.445312 2169.112061 2356.692627 2526.354248 2675.154785 2803.155762 2882.256592 2965.872803 3051.236328 3027.725342 3027.329346 2981.968262 3006.927490 3045.472168 3064.783691 3110.614502 3128.887695 3048.663086 2875.598145 2770.290039 2646.262207 2504.926025 2318.291016 2209.852783 2327.528809 2313.849854 2395.919678 2525.520020 2589.319092 2626.587891 2700.663574 2850.727051 2915.125244 2711.416748 2666.436279 2618.797363 2457.576416 2347.498535 2335.604004 2447.172119 2582.778564 2672.776611 2624.163574 2550.691895 2530.010986 2599.303711 2719.442139 2824.096680 2901.824707 3001.053711 3104.626953 2905.073975 2840.612061 2781.664062 2595.625977 2556.895264 2503.143311 2525.838867 2553.432617 2607.106201 2729.660645 2656.782715 2617.457520 2633.991455 2598.334473 2411.862793 2299.409668 2234.209229 2159.183350 2108.367432 2068.434326 2058.723389 1993.449829 1857.927368 1484.366699 1202.850830 1043.016968 1023.198242 1100.251343 1302.010742 1425.162231 1404.432983 1454.482422 1498.185181 1485.622681 1464.469116 1493.167725 1562.846069 1562.618042 1514.749146 1468.671997 1407.977905 1433.479736 1479.372925 1538.546021 1551.706909 1557.139038 1569.841309 1659.991699 1697.028809 1620.957275 1546.614624 1528.924927 1533.802856 1635.816895 1745.487793 1759.787598 1656.286987 1542.636597 1426.340210 1487.007812 1535.544678 1558.002197 1511.624146 1471.384521 1465.529175 1441.660400 1501.780518 1511.576294 1526.146240 1549.716431 1619.421631 1663.522827 1709.102417 1770.968628 1927.707764 2078.378662 2116.882812 2077.733154 2187.831055 2211.597412 2340.485596 2400.844727 2465.315674 2291.204834 2099.605957 1931.069458 1725.211182 1667.226929 1804.467041 1994.026611 2169.161133 2158.567871 1953.356323 1737.763916 1599.337646 1596.753662 1812.895996 1981.181763 2143.258789 2317.469238 2255.561279 2088.731445 2065.374512 1948.937622 1864.629395 1840.001953 1962.792969 2083.551270 2143.452393 2072.829102 1995.171143 1931.922363 1860.456055 1922.204590 1984.184570 1992.726440 1945.144897 1850.802124 1673.970215 1521.000122 1524.921753 1653.408569 1585.914429 1587.872314 1679.769653 1794.336548 1931.213989 1977.633667 1956.192383
2673.396484 2740.229004 2776.830078 2802.814697 2795.053223 2848.257812 2862.819824 2755.996582 2577.068115 2512.026367 2447.406494 2424.370605 2450.450195 2514.836670 2589.892090 2643.973633 2570.795166 2497.695557 2440.631104 2250.851807 2059.559570 1886.895752 1728.615723 1630.116699 1562.480225 1470.971924 1406.855347 1448.461914 1475.205322 1503.082397 1537.059692 1575.677124 1610.935181 1641.234741 1672.024780 1671.555298 1645.774536 1608.258057 1570.883423 1544.310181 1538.889648 1520.060791 1520.288086 1528.250122 1488.646851 1416.017578 1307.312378 1152.366943 1099.199463 1151.547729 1250.468140 1394.324707 1604.822510 1809.492798 1963.444824 2123.157715 2309.293213 2399.275146 2289.392334 2276.964355 2431.170654 2609.093506 2712.163818 2579.265625 2488.930176 2414.777588 2363.190674 2296.424316 2208.945801 2110.885254 2011.362671 1881.835449 1760.802490 1600.851074 1489.017456 1498.986328 1608.005981 1759.145020 1908.241333 1994.341187 2041.769897 2048.942627 2089.139648 2257.708252 2436.488037 2562.322021 2691.568848 2737.196289 2840.383545 2895.378418 2870.907959 2782.436279 2735.283203 2684.614014 2670.502441 2644.098633 2586.239746 2539.234619 2535.226562 2601.298584 2547.719482 2438.536377 2373.287842 2394.530518 2349.316162 2270.245117 2146.827881 2126.277344 2131.038818 2046.018188 2011.107056 1967.796997 1948.730591 1902.509033 1868.446167 1862.266479 1869.526245 1878.986328 1898.886841 1928.978271 1935.975220 1924.343872 1979.330933 2084.789062 2208.729736 2317.376953 2434.470703 2557.673584 2702.765381 2741.869385 2664.802979 2608.072266 2606.910889 2723.326660 2824.476562 2920.270752 3079.508301 3029.051025 2994.534424 3138.595215 3339.546387 3382.285400 3347.034424 3306.678711 3274.785645 3238.541748 3210.639160 3180.764404 3161.336914 3148.653076 3146.329102 3160.453369 3167.479004 3167.466309 3192.937500 3202.005859 3225.758057 3249.301025 3266.183105 3295.641357 3209.725830 3130.483154 3100.517822 3074.456543 3044.725342 3004.645752 2943.825439 2852.129883 2859.670898 2901.940186 3025.186035 3053.848877 3020.838135 2939.197266 2891.061279 2832.978760 2724.560059 2572.036133 2400.841309 2279.142578 2180.292236 2222.902344 2390.276367 2570.710449 2687.893311 2805.826172 2882.888428 2886.330078 2898.676025 2964.623047 3166.653809 3266.027100 3114.368896 3003.977783 2828.254150 2651.153564 2514.032715 2300.589600 2144.944580 2102.177246 2223.847168 2367.742188 2502.276123 2655.990723 2798.841553 2888.373047 3028.658447 3123.572266 3185.288330 3189.623535 3085.626709 3058.445312 3078.237549 3107.739746 3180.874512 3096.304443 3004.107178 2885.542480 2754.928711 2620.354004 2464.157715 2259.995850 2230.302490 2367.179688 2415.539307 2513.146484 2612.261475 2666.068604 2690.111084 2731.706787 2766.952393 2855.115234 2789.185547 2748.866211 2693.153076 2579.774170 2428.419434 2348.845947 2390.674561 2541.898193 2683.757812 2779.313965 2680.367676 2609.263428 2616.447510 2657.936035 2769.186768 2897.000488 3010.016357 3112.514160 3037.062744 2923.870361 2880.774658 2657.081543 2635.190674 2640.763428 2651.456055 2646.009277 2659.826416 2763.504150 2789.783447 2707.481445 2655.695801 2458.412354 2312.284180 2214.398193 2061.220703 1957.857178 1884.202026 1838.874512 1797.776245 1844.818970 1744.757935 1437.723267 1166.831665 1031.545654 975.453735 1001.742188 1138.321655 1182.165649 1194.787720 1224.636475 1308.365479 1370.459106 1348.342529 1369.208008 1392.825562 1387.178955 1364.748047 1335.280396 1315.453125 1332.292847 1334.306030 1304.264404 1312.344116 1385.434082 1412.535522 1495.171753 1469.644897 1485.657227 1432.350830 1404.966431 1459.325928 1550.900513 1640.896851 1593.105957 1495.389404 1410.785156 1301.406494 1336.219360 1385.843994 1417.940186 1386.911743 1354.333008 1350.547363 1353.086792 1379.858521 1388.814087 1393.592896 1436.616455 1490.851685 1552.508911 1613.828735 1727.817993 1837.165771 1929.351318 1942.327148 1919.829346 2021.728149 2031.080688 2167.151367 2247.533447 2359.502441 2283.332275 2153.570557 1967.951904 1769.812256 1688.654175 1798.492798 1941.959717 2130.028320 2218.322021 2033.516357 1828.068359 1646.572510 1606.716064 1744.602783 1851.411743 1977.437622 2152.760742 2276.351562 2248.069336 2212.222412 2078.119385 1982.052124 1964.617920 2017.281494 2083.568848 2153.345947 2104.837646 2026.563232 1958.877808 1955.421387 2016.650635 2055.829590 2070.217529 1983.184570 1839.544312 1678.910767 1518.099243 1579.763794 1682.630493 1616.440063 1656.334595 1785.766479 1908.779297 2026.743774 2012.326904 1922.275024
2621.656982 2682.126953 2774.099609 2845.109375 2713.191650 2726.487061 2739.830811 2795.463135 2691.917236 2585.110107 2476.828613 2371.164062 2347.488770 2403.020020 2462.914062 2544.505615 2543.530029 2472.392334 2347.432129 2181.691162 1993.326660 1839.187622 1753.105957 1704.024048 1633.189697 1573.128784 1484.401123 1387.145386 1359.706055 1366.108521 1385.163818 1455.709961 1515.302002 1540.882446 1575.680054 1566.589111 1538.751099 1505.115845 1462.114624 1427.801758 1412.921753 1434.474487 1482.611938 1468.706543 1359.320923 1254.649414 1163.977905 1087.740479 1135.637451 1208.525513 1310.163452 1479.730957 1741.382080 1945.160400 2032.817749 2183.468750 2388.420166 2505.710938 2387.929443 2372.593262 2467.425049 2555.370117 2673.346680 2599.190918 2479.687744 2428.211182 2382.306396 2309.302734 2206.260986 2078.818115 1993.525269 1883.842285 1759.779541 1629.516846 1502.589966 1506.411377 1590.218750 1647.825195 1779.491699 1897.157349 1966.909424 1985.856934 2038.428589 2222.608154 2395.999023 2555.449219 2711.980957 2840.645508 2761.172119 2741.793213 2744.102539 2685.216797 2643.252686 2601.185059 2585.152832 2621.671387 2546.474854 2477.150635 2455.020020 2521.311035 2554.524902 2434.074463 2292.143066 2257.747803 2244.027588 2193.645752 2137.794434 2002.333252 1989.604736 1927.620850 1885.663818 1874.502075 1844.757202 1839.905518 1855.064941 1871.378662 1888.572144 1912.887207 1923.401978 1902.629883 1893.598389 1887.292358 1914.598145 2010.880981 2116.353027 2224.272461 2349.274414 2451.293457 2549.055664 2572.393066 2540.721680 2543.121094 2595.165283 2714.913574 2828.773193 2963.631836 3088.807617 3028.682129 2925.513428 2981.247803 3175.624268 3329.036377 3306.635498 3282.276123 3265.381836 3235.588379 3207.217285 3185.800049 3169.618408 3161.325928 3161.117432 3170.699707 3178.936768 3196.520020 3222.653320 3214.177979 3242.318848 3264.956543 3285.711182 3330.132080 3237.470947 3173.809814 3131.334473 3095.754883 3048.642578 2973.335449 2892.440186 2801.223389 2767.898193 2760.214600 2869.421387 2917.253174 2923.676270 2904.487305 2852.438721 2769.827881 2671.829102 2544.800781 2385.130615 2243.428223 2192.968994 2323.840332 2524.481445 2704.968018 2832.428711 2965.741211 2945.347900 2945.165283 2975.788574 3052.740723 3234.813477 3313.795654 3105.836670 2923.927002 2765.522217 2619.802490 2465.571533 2254.583008 2117.758789 2167.562500 2251.762451 2307.824707 2426.888428 2581.797363 2706.211670 2835.523926 2955.663818 3048.334717 3111.736572 3188.985840 3185.982910 3178.114990 3239.801514 3265.119629 3259.928711 3112.671875 2990.174316 2825.756104 2708.499512 2573.494873 2406.942139 2236.686279 2278.735352 2401.620605 2526.385010 2610.490479 2684.797852 2773.648926 2790.451172 2781.026367 2817.700439 2887.611084 2847.219238 2812.062012 2778.764160 2700.188721 2564.326416 2407.621338 2376.428223 2462.443604 2598.939453 2719.290771 2854.856445 2852.605713 2733.641602 2702.574951 2744.835693 2879.644775 3015.162598 3135.269287 3236.511475 3039.653076 2847.857666 2725.389160 2678.634033 2722.166504 2781.762451 2849.255615 2822.762939 2841.260742 2877.281738 2731.512207 2578.292969 2397.988770 2228.054688 2071.775146 1925.340576 1784.361328 1690.178589 1655.004395 1620.964844 1610.511230 1482.196411 1288.631592 1144.847778 1059.306641 974.031128 940.803528 954.757385 979.113525 1005.741455 1025.608643 1079.293579 1180.923706 1226.464111 1262.783691 1276.823120 1255.442017 1243.881226 1215.379639 1227.499268 1153.540894 1124.293091 1105.040283 1140.493652 1216.800781 1265.053223 1301.661255 1269.489868 1340.334839 1315.639648 1319.440552 1392.648438 1487.049805 1479.975098 1399.152588 1336.024536 1278.573853 1197.466797 1199.706177 1257.677124 1287.655640 1244.002441 1253.080200 1267.611694 1274.587769 1293.584839 1315.978027 1331.705688 1352.461426 1386.302246 1424.493896 1483.258423 1580.595703 1667.313354 1752.148560 1751.599121 1768.001099 1810.917114 1875.941895 1959.560791 2062.632080 2191.607422 2306.131104 2172.517822 2011.817017 1850.743042 1709.274902 1772.873291 1941.697632 2153.511963 2299.275391 2098.656738 1911.573242 1716.999146 1629.296265 1744.779053 1845.876099 1927.554321 2020.053345 2138.826416 2261.168701 2357.487549 2182.562744 2073.478760 2070.532715 2090.498291 2125.044434 2210.205078 2149.411133 2093.863037 2090.090332 2075.807617 2077.890625 2111.004639 2096.708740 1974.439941 1824.511108 1682.980347 1552.711792 1623.387329 1725.378174 1673.264038 1752.587646 1903.296265 2006.360352 2010.188843 1981.571533 1921.687500
2583.216309 2627.889648 2732.888916 2740.860352 2658.464111 2654.702637 2643.074707 2685.389893 2704.358643 2604.371582 2486.262695 2367.846680 2291.360107 2306.003906 2349.203613 2405.146240 2433.672852 2373.751709 2308.890625 2179.639160 2063.326660 1977.698364 1919.106079 1868.783081 1723.558228 1628.293945 1570.743408 1508.213623 1458.807739 1392.504150 1329.835327 1309.991455 1403.634033 1459.025513 1444.672974 1415.869507 1382.518433 1358.762695 1323.011841 1295.840454 1307.468628 1360.622070 1415.166382 1313.040649 1209.965576 1137.420532 1100.135010 1083.443726 1167.703979 1300.797241 1391.961792 1611.059082 1775.694702 1869.508911 2000.495605 2189.428223 2432.272949 2645.936035 2545.376953 2500.913818 2621.129150 2594.970703 2626.736328 2619.338867 2558.148926 2515.721924 2427.101562 2304.790771 2157.868896 2068.967285 1989.833984 1863.348511 1752.505615 1648.555908 1548.295776 1511.389160 1533.173462 1564.020142 1645.387329 1770.410156 1850.829224 1861.438232 1961.571289 2115.323242 2263.451172 2423.904541 2618.729736 2716.363281 2645.113770 2653.435791 2706.048584 2641.158203 2579.527588 2535.733887 2516.830811 2525.917480 2561.788574 2469.089111 2401.883301 2399.195557 2458.414062 2376.658447 2265.463867 2127.377930 2111.258301 2061.436035 2017.712891 1929.301758 1847.562134 1818.853760 1812.434326 1835.618164 1860.484619 1922.791138 1975.731323 2011.477295 2034.317261 2049.740479 2050.600098 2043.676392 1987.094849 1945.667358 1898.594360 1923.886963 2019.308105 2128.007324 2258.098633 2360.641602 2414.325928 2431.225098 2450.226562 2495.968262 2630.588379 2805.811035 2911.915283 3000.718506 2965.009033 2912.456299 2888.500000 2888.582520 2983.904297 3216.450439 3291.214600 3252.826660 3238.515137 3202.712891 3176.505859 3169.590820 3161.931641 3158.973145 3169.848389 3184.906982 3193.459473 3245.741943 3244.727051 3253.826660 3296.535889 3298.486084 3311.209229 3345.702148 3276.860840 3221.237061 3188.760010 3178.344238 3079.568848 2971.354492 2899.367188 2835.319580 2729.811279 2675.039307 2739.882812 2789.832031 2802.778809 2779.226807 2748.827881 2672.601562 2583.541260 2452.727539 2315.142578 2210.364990 2264.500488 2420.026611 2596.273682 2777.755127 2949.839844 3062.540039 3011.450684 3021.052490 3031.110107 3083.836426 3188.965820 3249.014404 3064.872803 2862.740479 2694.221680 2547.228027 2376.816162 2208.246094 2125.250732 2230.893799 2390.840088 2440.080322 2437.178955 2523.509277 2633.715820 2718.510986 2821.021729 2913.029785 2959.916992 2990.149658 3046.183105 3150.895996 3277.622559 3324.607666 3166.791992 3041.718994 2936.064453 2763.957520 2633.440674 2526.437256 2380.258545 2239.690918 2319.942139 2439.062256 2560.738525 2633.916992 2703.824219 2776.897949 2832.624023 2882.055908 2963.386230 3035.819092 2928.413086 2879.766846 2840.284424 2838.745605 2705.782227 2516.763916 2409.938232 2441.572754 2543.821045 2654.979736 2785.065674 2941.936523 2990.885498 2848.104492 2794.259766 2906.342041 3050.617920 3183.404785 3318.145508 3067.024902 2929.627686 2849.846924 2784.105225 2799.876953 2950.376465 2909.061523 2878.044678 2781.735107 2746.957031 2548.030029 2417.472900 2281.741943 2145.834961 1982.530151 1842.033325 1703.509644 1600.757568 1544.555298 1502.089111 1383.152588 1269.247559 1176.969116 1103.098267 1082.427856 1060.759277 1020.206726 1004.894592 1018.573425 1011.489624 977.551636 939.299622 935.617310 940.163879 1055.155273 1108.980103 1107.199585 1104.332153 1087.560791 1024.526733 972.131775 920.138306 933.350769 982.924133 1056.183838 1113.136475 1092.147949 1108.754883 1179.619263 1210.631592 1231.028687 1326.129028 1370.607666 1297.516724 1234.990356 1164.960693 1117.634155 1076.509277 1119.887207 1169.377808 1191.595337 1236.085938 1280.208252 1317.501343 1356.432373 1368.849731 1379.462280 1375.868652 1353.291382 1341.407349 1356.261963 1373.809326 1428.239746 1506.249390 1573.682983 1581.213135 1615.676636 1654.057007 1731.812378 1829.014526 1924.476318 2045.939941 2216.494141 2252.633057 2099.982910 1961.520386 1769.282715 1744.057617 1910.070923 2110.498291 2281.199707 2139.015625 1993.138550 1757.284546 1685.503296 1784.509399 1920.874878 2023.088257 2069.875488 2148.340820 2263.343994 2386.341553 2280.352295 2167.774902 2169.708984 2186.362305 2208.002441 2273.228760 2226.309814 2174.044434 2185.460205 2179.781494 2174.921875 2191.662354 2102.445312 1938.505981 1799.855835 1643.227905 1601.349243 1673.704346 1789.438477 1777.784424 1901.429321 2021.621826 1979.209351 1924.222534 1893.186279 1832.507446
2525.733887 2588.281006 2649.169678 2606.061768 2572.878662 2582.373047 2594.318115 2550.994873 2559.039795 2525.500244 2454.417969 2384.177734 2289.794678 2240.590088 2247.900879 2294.997559 2316.235352 2302.955811 2242.326416 2240.964844 2217.378906 2129.636719 2073.352539 1976.586182 1842.601807 1723.035889 1708.038818 1640.246582 1567.633057 1537.371460 1443.935303 1328.626343 1271.313354 1352.218140 1347.830078 1319.165405 1280.243530 1246.801514 1219.144897 1200.032837 1208.508545 1250.784424 1216.011230 1151.879883 1103.616455 1094.359497 1108.911743 1147.075806 1290.434204 1453.972900 1570.342773 1679.588867 1830.074097 1974.162598 2160.076660 2343.557373 2511.195801 2632.568604 2633.438721 2546.641602 2635.484863 2702.537109 2632.746826 2554.050049 2517.473145 2445.616211 2350.890625 2293.131348 2172.016846 2039.071045 1928.586304 1840.807129 1740.416138 1640.184082 1556.760620 1526.608643 1511.978394 1528.244019 1571.327759 1645.582886 1724.272949 1828.709595 1955.001831 2081.288330 2219.727783 2373.376221 2470.018799 2519.117432 2571.043213 2607.471680 2685.744873 2627.476074 2548.612061 2497.752930 2471.252930 2435.046875 2507.251953 2512.016357 2399.840332 2330.250977 2334.708740 2284.200439 2211.771973 2116.377197 1984.194824 1927.305542 1861.675537 1805.993530 1781.408203 1823.313599 1894.800903 1964.990723 2001.365845 2058.534424 2093.773193 2163.774170 2179.456787 2156.675293 2163.204590 2182.770020 2142.443848 2103.935547 2015.565674 1937.529907 1936.520874 2057.160645 2171.053955 2252.463379 2322.702637 2355.864014 2398.742432 2494.952637 2674.753174 2769.500244 2800.144043 2836.659424 2862.798828 2845.845459 2820.330811 2825.355713 2879.122559 3088.432861 3205.735840 3179.958008 3194.060791 3162.439697 3123.311035 3110.824463 3131.267090 3148.804688 3170.024414 3199.460938 3233.488281 3280.478271 3277.262939 3309.972900 3325.039307 3325.849365 3350.465332 3262.925049 3203.310791 3173.440918 3132.489502 3107.589600 3051.838867 3011.734863 2940.863770 2818.839600 2698.908936 2616.090088 2631.525391 2689.326660 2696.940430 2667.669189 2634.755859 2545.987061 2432.045166 2330.068848 2241.060059 2254.613281 2376.140381 2526.063232 2664.202881 2846.758057 3044.525879 3136.405029 3088.124756 3069.534180 3092.548828 3187.086426 3233.667236 3164.009766 2971.784424 2804.337646 2643.296875 2470.715088 2309.546631 2185.232178 2163.466309 2293.177979 2487.988770 2609.766113 2563.007324 2596.240479 2646.605957 2710.272949 2796.131836 2882.873047 2927.471191 2971.654785 3021.318604 3064.438965 3134.389160 3219.309814 3111.265137 3016.883545 2860.146729 2688.486816 2585.162354 2462.244141 2313.414795 2271.227295 2316.717285 2425.746094 2555.603027 2646.474609 2722.429443 2776.042480 2807.271973 2851.776367 2898.074707 3002.284668 3041.340088 2960.250244 2914.708496 2902.267334 2792.586914 2670.762451 2518.914551 2455.196533 2535.291748 2627.156982 2748.504883 2946.649414 3122.230469 3155.038818 2988.328857 3000.958252 3063.452881 3127.542969 3204.938477 3121.099365 3100.255615 3050.335449 3005.487793 2860.993896 2846.979980 2765.767578 2693.842285 2639.453369 2607.738037 2418.379639 2236.430664 2108.993164 2040.975830 1931.905884 1799.009155 1635.454956 1505.440186 1426.487915 1357.099365 1296.668579 1226.339478 1149.740967 1157.717407 1152.931519 1140.013550 1105.777466 1106.259277 1114.558228 1107.323608 1058.482300 1037.548584 1011.062561 928.084656 874.198242 895.190186 910.353638 933.139465 871.091248 803.020142 795.794861 789.460144 801.820312 831.632629 899.877808 938.545532 953.634399 981.262512 999.311584 1054.725342 1131.092163 1228.684204 1207.606201 1122.869385 1058.041016 978.977478 1022.164490 1102.266602 1151.983276 1224.496338 1285.829834 1344.308472 1410.684814 1493.427246 1538.763184 1528.277710 1523.375732 1526.751099 1512.775635 1444.534546 1403.974731 1404.541016 1390.796631 1410.843384 1467.037964 1512.594604 1543.978271 1578.143677 1642.960327 1776.285645 1866.461426 1971.635620 2155.494873 2313.108154 2165.379395 2066.943359 1865.716675 1742.243164 1841.507812 2032.963257 2192.935059 2203.749023 2037.903076 1815.483276 1765.823486 1831.565796 1935.836060 2060.570557 2161.983398 2245.241699 2315.113281 2394.243652 2353.788574 2262.746338 2266.677002 2266.895508 2216.251953 2211.331543 2224.752441 2152.475342 2113.562500 2137.130859 2205.453369 2236.986328 2071.597900 1916.942505 1786.383545 1672.064209 1684.583618 1707.803833 1809.365112 1891.572388 2047.125244 2060.522949 1982.549927 1918.764282 1857.843994 1784.095093
2470.892334 2529.995361 2550.734375 2515.947754 2491.327148 2498.137939 2539.246826 2519.636719 2471.453857 2443.371826 2390.567871 2333.973145 2263.588135 2209.893799 2174.223877 2211.422119 2208.880615 2211.047119 2149.999512 2142.884766 2146.028564 2127.357666 2112.434570 2037.712036 1930.171387 1883.462158 1893.766602 1796.191895 1698.914429 1642.759521 1549.452637 1441.980591 1315.696655 1250.028564 1227.712891 1224.500366 1212.145264 1190.586548 1171.406860 1146.597046 1130.678589 1110.503540 1092.895752 1087.528687 1099.914307 1132.726440 1191.126343 1297.534302 1471.211792 1619.163940 1738.556763 1837.998901 1949.078369 2088.668213 2234.884521 2352.241211 2466.980469 2602.340088 2676.583740 2668.494385 2702.118652 2663.549805 2592.195312 2505.374023 2424.157227 2352.023438 2238.408203 2218.358154 2168.789062 2038.092651 1920.406982 1823.590576 1738.939087 1631.454224 1587.784668 1558.225342 1519.799194 1515.109131 1546.764160 1598.259033 1664.505737 1777.677979 1887.642090 2012.826782 2139.679688 2202.021973 2259.097900 2352.434570 2497.510498 2601.643311 2649.098877 2584.567871 2542.254639 2469.397461 2424.017822 2389.704102 2410.302490 2453.262207 2374.750732 2258.778564 2219.139160 2196.095215 2095.860596 1989.547363 1892.075806 1824.792603 1788.424561 1761.017578 1821.773560 1930.000000 2016.428467 2086.137207 2125.598633 2189.066162 2233.826416 2268.701660 2293.348877 2281.071045 2272.510986 2252.434570 2225.995361 2198.612305 2125.616699 2031.729370 1937.375610 1944.091919 2014.338379 2084.380371 2173.379639 2265.545654 2382.296875 2508.752197 2589.601807 2632.777344 2693.950928 2695.138184 2717.026123 2675.484863 2697.779785 2734.467773 2792.101318 2913.620361 2959.005371 2952.699463 3081.637207 3120.522949 3090.693115 3083.755859 3108.121582 3155.116943 3174.932373 3244.917480 3314.769775 3315.715820 3334.184082 3344.088623 3346.984863 3381.381348 3282.599121 3201.256104 3162.437012 3114.188721 3013.965088 2978.693604 2908.971436 2859.391113 2808.301514 2723.201904 2626.876953 2532.816406 2516.200195 2561.427734 2578.147217 2565.384766 2512.140381 2416.298828 2328.283936 2254.583252 2279.210938 2357.507324 2439.238525 2595.419434 2746.382324 2896.034912 3073.263672 3178.909180 3129.536377 3116.566406 3157.454590 3257.561523 3232.124512 3079.949951 2911.155273 2743.997803 2581.083740 2409.337646 2243.937744 2154.560791 2273.366211 2423.500488 2557.982666 2734.487793 2744.500977 2731.164307 2723.674316 2733.732666 2823.613770 2906.302979 2977.647461 3020.432617 3059.278809 3093.895020 3156.426758 3227.714111 3083.862305 2965.514893 2805.519287 2631.127441 2541.096680 2372.979004 2379.235352 2386.942139 2360.335449 2374.670410 2470.852051 2581.977295 2693.991455 2782.547607 2846.078369 2880.050049 2924.592529 2981.469971 3076.373535 3051.872070 3004.572998 3005.593750 2929.216064 2790.722656 2582.146240 2492.172852 2568.346436 2644.631104 2721.634766 2812.744385 2924.006836 3046.104248 3150.289307 3179.433350 3198.117188 3167.810303 3196.979980 3232.764893 3204.169434 3106.748047 2984.275391 2829.488525 2745.902100 2637.851318 2549.737793 2518.778076 2477.560303 2312.727539 2113.086914 1948.494385 1861.418091 1753.362671 1627.109131 1484.083374 1407.248291 1376.389160 1331.818115 1260.250610 1191.783569 1215.200928 1244.843872 1260.539795 1240.953857 1212.401978 1195.890991 1191.230347 1194.782104 1183.678589 1142.283569 1066.805420 1019.337463 900.868652 815.742554 799.376343 786.967285 787.614380 775.549744 757.298157 739.384155 732.742249 760.875610 763.425354 784.000854 830.260925 829.418091 823.986450 872.053101 970.822510 1034.463867 1006.226624 965.756897 912.786560 988.326904 1090.565308 1170.259277 1244.788696 1324.635254 1392.967896 1450.952881 1505.224365 1602.932373 1669.269531 1651.010986 1618.012451 1638.311890 1688.185547 1665.656250 1602.399902 1511.748413 1437.961304 1439.279663 1548.888672 1627.614014 1665.393066 1641.269531 1594.418091 1682.614746 1792.970581 1895.401611 2051.412842 2265.229736 2230.796387 2173.557861 1996.168091 1806.214111 1790.608887 1954.277588 2122.848877 2292.635498 2087.896484 1941.578369 1935.681274 1942.492920 1976.194336 2040.972046 2155.643799 2310.574219 2380.540283 2306.530762 2276.435791 2216.755615 2202.676270 2205.980225 2157.239502 2122.822754 2102.196045 2042.158691 2023.330688 2123.197754 2203.913086 2242.995361 2096.019287 1953.330200 1800.148071 1728.444824 1776.443604 1842.015137 1950.667114 2022.184814 2142.779785 2120.866455 2069.426025 1994.902100 1912.958862 1855.234741
2414.783203 2457.309814 2487.155273 2436.729248 2393.848145 2403.349121 2426.978027 2442.963135 2429.042236 2400.873047 2338.291504 2263.335693 2192.866455 2147.445312 2103.461182 2123.511963 2112.597900 2108.046143 2071.659668 2031.812500 2028.390747 2018.531860 2018.976685 2006.561401 1987.313354 1961.223633 1905.507812 1822.713501 1775.726318 1706.902466 1572.405396 1466.682007 1402.300781 1329.828857 1238.893677 1166.220337 1148.406616 1158.983887 1148.431885 1123.487183 1102.430176 1096.228760 1098.165283 1138.255859 1178.741821 1189.834351 1242.280029 1393.971924 1572.191895 1697.235229 1813.809326 1903.247559 2048.827393 2155.585693 2245.479248 2363.309326 2482.712891 2558.904541 2619.199707 2725.240967 2727.135010 2605.216797 2555.661133 2467.763184 2383.702637 2274.710938 2154.990479 2080.694092 2065.080078 2013.072266 1926.998657 1830.375977 1710.737305 1660.359619 1632.965942 1579.798584 1516.924438 1500.307983 1515.210693 1538.789673 1579.448608 1678.708618 1784.362183 1904.771118 1982.110107 2021.359131 2135.300049 2310.328613 2489.786865 2562.375977 2569.922363 2525.319824 2485.649170 2476.811035 2406.985107 2339.275146 2333.906982 2356.565918 2301.597168 2213.254150 2085.799805 2068.024658 1982.435669 1867.676514 1790.878418 1762.631592 1793.262207 1851.080200 1959.132690 2043.850220 2129.033691 2183.860107 2223.681885 2282.488770 2304.833496 2336.790283 2397.623779 2369.617676 2332.631348 2295.087646 2287.146729 2274.040771 2225.247070 2158.850830 2077.282715 2001.854858 1964.423218 1981.444458 2055.594482 2139.661865 2271.008301 2380.505859 2425.590332 2479.346680 2555.172607 2559.879150 2565.308838 2521.469482 2541.529785 2573.624023 2660.526123 2751.950928 2771.484375 2772.731934 2872.371094 3043.792236 3038.450439 3066.683105 3084.945312 3164.393799 3199.083740 3283.016357 3329.311279 3354.775879 3360.798584 3355.468506 3346.806152 3321.026611 3199.492188 3090.794678 3028.350342 2972.995850 2911.386719 2855.114746 2788.744873 2736.042969 2646.061768 2547.887451 2466.297607 2421.693604 2397.936035 2402.849609 2425.045166 2420.815186 2388.489746 2329.240967 2278.215088 2326.467529 2403.943115 2501.857178 2548.354248 2639.782959 2809.775146 2920.347168 3037.084717 3210.062988 3213.858154 3183.788818 3200.806152 3176.265869 3082.849365 2986.242432 2838.021240 2679.655518 2519.222656 2340.223633 2190.135010 2203.867920 2387.604980 2564.403809 2674.314453 2825.611816 2902.884766 2840.204590 2781.744873 2749.062988 2849.947510 2965.559814 3093.907715 3190.259277 3221.141113 3190.630859 3271.106934 3218.496826 3025.766357 2916.649658 2758.268066 2581.185059 2464.145752 2458.945801 2522.209473 2578.216797 2519.027832 2385.027832 2395.824951 2490.804932 2613.939209 2727.832764 2868.175293 3004.663086 3028.020264 3076.661865 3145.678711 3163.928955 3090.683350 3124.181885 3017.570068 2800.235596 2660.880615 2546.965576 2583.512207 2658.366943 2729.793701 2822.225342 2938.446533 3072.016846 3148.833496 3248.301758 3324.016357 3285.258545 3241.510010 3141.901123 3027.290283 2876.307861 2810.618408 2743.914307 2653.879883 2538.980713 2431.669678 2397.349854 2355.864990 2313.663574 2101.544434 1869.408936 1721.654297 1571.672607 1486.420166 1396.677246 1351.703735 1315.176880 1284.298706 1243.382080 1257.511230 1308.005371 1342.642944 1343.242920 1331.731567 1307.003906 1283.226074 1285.217407 1304.015381 1298.055908 1203.164429 1134.405518 1085.754272 1005.197388 952.166138 952.997986 963.982605 963.586365 912.341614 866.805664 832.629272 798.067749 748.608154 715.367493 704.468079 718.647949 700.726013 706.957458 744.458374 818.700928 873.147156 870.912842 851.869568 901.141724 1023.161316 1149.778931 1251.442627 1338.536255 1435.678223 1502.911133 1564.108276 1605.041260 1680.192627 1757.465332 1778.003174 1727.270386 1751.730835 1851.194214 1887.874878 1742.401001 1692.256104 1533.026489 1477.321411 1631.722290 1751.069336 1781.496948 1779.280396 1706.050049 1644.619385 1726.086182 1852.997803 1989.234253 2171.799072 2319.900879 2305.305908 2128.510986 1915.738525 1805.188354 1897.676392 2071.267822 2248.315674 2200.591309 2090.849365 2037.830688 2068.941895 2076.020264 2104.426758 2198.748047 2332.206543 2256.040527 2188.506348 2114.775146 2084.412109 2073.452637 2090.414307 2054.015137 2004.845703 1952.410034 1956.471313 2056.599121 2152.660156 2228.867920 2265.825439 2141.816162 1992.323242 1875.288330 1824.191895 1912.615845 1991.781738 2100.137451 2179.162842 2217.864502 2148.415039 2094.572021 2074.953857 2010.686035 1869.238281
2382.890869 2380.112793 2415.220459 2362.096680 2299.779541 2311.912598 2323.649658 2328.634766 2329.874268 2313.834229 2280.975586 2228.484619 2161.190918 2102.160889 2040.526489 2031.351440 2023.260864 2021.935425 2014.076660 1959.916138 1938.656494 1926.124512 1899.417603 1883.478760 1874.175415 1857.161987 1801.656616 1736.057983 1672.777222 1596.202637 1516.097778 1437.852173 1368.415405 1257.839355 1172.921387 1129.639038 1119.196777 1124.628784 1122.557861 1099.584473 1113.659790 1173.472656 1211.073853 1263.206299 1293.950806 1347.998291 1393.579590 1459.917969 1615.765259 1701.767822 1736.620605 1821.002686 1906.935303 1981.872925 2078.465576 2202.431152 2329.756348 2420.313721 2539.936035 2644.740967 2717.188232 2632.694824 2534.231445 2466.221680 2391.684326 2300.186279 2192.334961 2063.858887 1959.238892 1917.069702 1872.602905 1786.341797 1726.179077 1710.256958 1630.702271 1543.957153 1501.673706 1498.000000 1498.166016 1506.144287 1540.869629 1601.950317 1686.082275 1768.136597 1845.475830 1981.195557 2174.089600 2368.025391 2486.473633 2447.697510 2459.747803 2430.668213 2420.726807 2414.578125 2357.160156 2245.350830 2251.242920 2281.105713 2248.077393 2152.697510 2024.980225 1929.328735 1849.535767 1766.391357 1735.265991 1815.518921 1904.681152 1962.771118 2085.211914 2166.676758 2208.213379 2251.487061 2331.722168 2364.310303 2411.974121 2435.299316 2487.571045 2465.373047 2383.789795 2340.383057 2342.597900 2363.107910 2322.080078 2272.714844 2207.885986 2144.353271 2075.728271 2018.830200 2004.494385 2070.292725 2184.299316 2259.519287 2304.380127 2342.903320 2399.609131 2440.860840 2444.639404 2404.787109 2458.810303 2538.377197 2580.809326 2616.310791 2634.010498 2643.766113 2737.704102 2885.500000 2995.582275 3038.195557 3078.818604 3179.051758 3217.927734 3308.849121 3339.264404 3392.210693 3401.632812 3270.015625 3166.748291 3120.681152 3049.143066 2979.910156 2928.622314 2876.839600 2826.368896 2748.086426 2670.574463 2573.155273 2481.396484 2412.050049 2389.781982 2387.387939 2371.670898 2357.403809 2339.064209 2321.704346 2299.216309 2316.587891 2363.556641 2445.563477 2543.518066 2628.180420 2692.126953 2744.670410 2847.006836 2941.166260 3085.208008 3241.601074 3174.572998 3093.009766 3064.245850 3019.360107 2942.347656 2862.773926 2778.811035 2624.711182 2441.898193 2282.006836 2192.540771 2313.337891 2494.543213 2686.250977 2816.371338 2950.734863 2950.313477 2915.138428 2813.920166 2750.956543 2842.412354 2922.426025 3013.861328 3135.899170 3276.629639 3400.563965 3310.902100 3156.443848 3022.767090 2890.186768 2720.797852 2536.924805 2450.193848 2538.731201 2607.179688 2679.402588 2728.129150 2532.957275 2391.456055 2423.811768 2536.558838 2663.066162 2788.542236 2898.346680 2966.693115 3030.855713 3094.740723 3128.532227 3158.248047 3206.576416 3040.983398 2888.658447 2796.753418 2675.678955 2616.861816 2633.385986 2701.037842 2780.835938 2881.208008 2971.315430 3063.237061 3161.937500 3154.476562 3078.479736 3049.295654 2972.776367 2850.862793 2695.677734 2579.614746 2525.201904 2549.895264 2439.674561 2330.787842 2282.361816 2232.333252 2227.994873 2093.065918 1805.848633 1585.071655 1496.140625 1427.780640 1358.428955 1366.172241 1323.904907 1292.166382 1321.654785 1354.170776 1390.072754 1448.524780 1449.261475 1430.102173 1393.113281 1392.248047 1428.617065 1447.515625 1397.428833 1303.374878 1234.916504 1172.952759 1114.961548 1065.418823 1051.209473 1057.286987 1065.843384 1038.738281 1009.307556 993.303650 971.122864 863.728149 828.062622 788.046326 762.279968 751.504028 696.391907 702.114136 750.430237 782.254272 779.713989 834.935242 953.682190 1068.124023 1208.603760 1329.955322 1442.616333 1559.363159 1662.403320 1739.604004 1794.040771 1830.351562 1865.577515 1889.744995 1846.724854 1865.702026 1961.546265 2010.626221 1901.978760 1822.517334 1598.101807 1520.967529 1673.636230 1784.588257 1828.285767 1875.420654 1892.866699 1745.446777 1693.046753 1808.648193 1957.501709 2107.511475 2281.675781 2394.082275 2248.389648 2069.047119 1891.922241 1873.163940 2006.656616 2164.124756 2307.791504 2210.793701 2148.260254 2176.589844 2242.183838 2231.260986 2317.226807 2281.750244 2140.839600 2069.741211 1980.264526 1938.897705 1915.982300 1929.303101 1918.984131 1892.305908 1935.078491 2026.566406 2107.999268 2188.520264 2273.064209 2326.902100 2257.180176 2117.789062 1992.017944 1951.973022 2067.728760 2144.320557 2267.853760 2348.550537 2403.507568 2311.152100 2213.247070 2082.691895 1972.963623 1887.334595
2349.108887 2307.745361 2316.270264 2272.997559 2208.415771 2245.236816 2262.132324 2262.416016 2259.193115 2246.972900 2215.951416 2195.049072 2163.710449 2092.022217 2025.296631 1963.327026 1935.324585 1937.094116 1918.141479 1870.992798 1827.550049 1813.890625 1781.987915 1763.683228 1742.984741 1726.164185 1687.077515 1630.238037 1570.066406 1517.139893 1456.320801 1379.064331 1289.780884 1195.806763 1117.616577 1102.629150 1101.822510 1100.427124 1114.236206 1165.697632 1230.236694 1306.419678 1381.220459 1447.632446 1479.884888 1539.436646 1507.495850 1464.173828 1516.985229 1618.579590 1693.834961 1774.137939 1860.027832 1949.087891 2037.823853 2118.398438 2214.856689 2350.817871 2472.412109 2585.628662 2693.916260 2709.071289 2603.442871 2491.710693 2416.016357 2317.429688 2205.489990 2093.320068 2016.850830 1934.914917 1854.507324 1759.192993 1719.577759 1723.224121 1642.220947 1535.323364 1498.040161 1498.000000 1498.000000 1501.212646 1535.248047 1586.198364 1643.386108 1725.458252 1860.391846 2055.771240 2258.886475 2389.527100 2372.161621 2298.864258 2330.962646 2348.781982 2337.661621 2323.244385 2272.797119 2169.758545 2127.864990 2177.157227 2170.691162 2059.820068 1936.440674 1840.658813 1770.495850 1730.130859 1807.190796 1925.003174 1999.039551 2077.502930 2186.751221 2249.069092 2277.065674 2324.097412 2412.504395 2480.191650 2523.907715 2548.188965 2592.062744 2556.069580 2430.720947 2377.324951 2409.296631 2473.565186 2405.066895 2376.619385 2330.845703 2252.069092 2194.557617 2129.852783 2087.651855 2043.644653 2065.225342 2104.331055 2150.750488 2202.380127 2261.923584 2314.032715 2337.221680 2388.267334 2457.956787 2548.899414 2599.048584 2623.128906 2626.079346 2622.142090 2682.188477 2771.848389 2886.012695 3031.224609 3104.420898 3195.884766 3234.013916 3323.140869 3359.739014 3379.102783 3291.127930 3204.168457 3131.702881 3049.650635 2984.045898 2952.278809 2912.671387 2834.716797 2734.731934 2628.254150 2529.394287 2454.329834 2416.928955 2442.782715 2500.433350 2520.244141 2521.048340 2501.505371 2472.850586 2429.985840 2382.860840 2418.768799 2485.241943 2560.907959 2639.330078 2712.234131 2759.270264 2825.459961 2898.144287 2942.909912 3033.391113 3234.806396 3245.035156 3144.157471 3039.573242 2980.192871 2905.640869 2794.500244 2683.021484 2568.929688 2392.748535 2239.466797 2252.586182 2415.693359 2590.733887 2748.917969 2904.635742 3057.623047 3016.653320 2965.119873 2868.284668 2794.874512 2849.409668 2904.291992 2961.446045 3052.829102 3182.138916 3377.833252 3316.695557 3170.846924 3035.783691 2900.798340 2723.048828 2538.544922 2481.080322 2532.789551 2633.857666 2730.515625 2807.723389 2658.036621 2475.470215 2402.625000 2472.987549 2607.139893 2737.017578 2819.203369 2905.796387 2978.926514 3015.293213 3037.594971 3085.143799 3149.930420 3097.278076 2991.676025 2925.171631 2846.262451 2752.469727 2732.938965 2787.732178 2860.087158 2973.421631 3085.875977 3131.429443 3034.780762 2918.359863 2824.933594 2809.466553 2832.748047 2732.664795 2586.415039 2429.782959 2384.552490 2438.067871 2341.451660 2213.972412 2169.655029 2126.301514 2116.062500 2031.999268 1739.326660 1538.035767 1463.572754 1403.014526 1426.635498 1438.262207 1403.806519 1418.156372 1448.571533 1467.588257 1446.453003 1537.309448 1565.880005 1547.813477 1507.281616 1530.513184 1554.262817 1515.472412 1461.045898 1390.344360 1332.234497 1256.671875 1177.609863 1175.677856 1168.089966 1157.551636 1147.825806 1121.485474 1109.874634 1136.657715 1076.033447 962.338013 925.155396 881.384094 882.933411 877.826416 743.888123 682.132019 705.131042 733.467834 796.403503 906.538147 967.158813 1037.520142 1222.748901 1410.906982 1559.322144 1683.921631 1809.014160 1921.931274 1995.343506 2012.662842 2047.886108 2061.684082 2013.513306 2060.717529 2052.120361 2102.196533 2083.029541 1888.214111 1631.838013 1553.615601 1669.213379 1763.917114 1854.666138 1959.405273 2039.061646 1971.449219 1792.483521 1753.592285 1852.636841 2008.090088 2170.215576 2311.674316 2371.312500 2224.551758 2053.924316 1955.756226 1985.106445 2108.338379 2217.813477 2291.916016 2260.650146 2313.358154 2402.844971 2415.402100 2383.038330 2222.901123 2018.976929 1919.798218 1881.152466 1845.359619 1799.261353 1790.614990 1802.324097 1876.054321 1979.823853 2056.730713 2134.938721 2210.623291 2292.604248 2302.857666 2245.889160 2218.295410 2146.003906 2104.249268 2190.388184 2235.550293 2304.516846 2416.992920 2447.558594 2296.497559 2236.244873 2105.202148 2019.766479 1965.583130
2324.878174 2249.092773 2213.468750 2191.232666 2133.652344 2161.568848 2202.400146 2204.577148 2201.199463 2176.934814 2134.737305 2124.623047 2120.628662 2084.074463 2020.467163 1961.726196 1871.438599 1852.934570 1830.621704 1782.068237 1720.517700 1703.681030 1683.376709 1667.068481 1633.544800 1613.391235 1573.874390 1533.948730 1498.949097 1443.668945 1373.750366 1295.245361 1210.017456 1134.158813 1105.622070 1111.169434 1122.831421 1175.916138 1273.043701 1365.232178 1428.038330 1491.087280 1550.998169 1636.997803 1674.039062 1736.523804 1668.010620 1583.690186 1549.828613 1741.151001 1860.355713 1962.732666 2062.841553 2146.409424 2202.528809 2276.284180 2323.017334 2352.508545 2453.603760 2574.733154 2663.171143 2676.005127 2647.571533 2539.103516 2431.060303 2336.047119 2231.278320 2115.880859 2003.198853 1903.810059 1810.918945 1751.674194 1697.448975 1616.151123 1591.632690 1538.762817 1499.103149 1498.000000 1498.000000 1498.244873 1518.566162 1560.282837 1605.315796 1718.229492 1868.080322 2068.951416 2246.970703 2322.989746 2273.735596 2157.492676 2203.885254 2262.224365 2269.451904 2245.360107 2170.263916 2097.777344 1995.138306 2066.814209 2021.652588 1942.329224 1845.330811 1772.033936 1727.164917 1760.128906 1900.195923 1995.161499 2076.747803 2160.463379 2272.639404 2335.298584 2355.496094 2368.672852 2441.105957 2532.955078 2615.841309 2635.029541 2649.827881 2589.569092 2459.916260 2407.123779 2483.336182 2563.488770 2475.712402 2438.293213 2409.153564 2359.019287 2315.351807 2237.463135 2188.916016 2147.205566 2090.019531 2117.990967 2178.269043 2244.554932 2326.054199 2361.411133 2425.228271 2526.609375 2565.947510 2619.342529 2664.831299 2647.453369 2636.406006 2649.019531 2689.078369 2740.866211 2796.836182 2950.503418 3121.025635 3226.869385 3256.114258 3341.320068 3396.642578 3327.680420 3211.631348 3134.254395 3076.185059 3011.892578 2948.632080 2880.518066 2817.680908 2717.454102 2617.550049 2522.494385 2447.023926 2451.163818 2526.835693 2605.379639 2648.495605 2678.632568 2697.442627 2669.729980 2644.896729 2559.534912 2448.266846 2522.269531 2610.174805 2661.352539 2708.875732 2773.027588 2842.101807 2887.072510 2941.841797 3002.288818 3049.039307 3238.260986 3354.623779 3225.403076 3155.930176 3064.228027 2937.590820 2803.413330 2684.594727 2507.157471 2334.762695 2229.582031 2314.167725 2479.240479 2666.066162 2809.043457 2987.999512 3105.705811 3028.012939 2967.906006 2899.214111 2847.878174 2874.654297 2922.364502 2962.204346 3015.319336 3076.763428 3206.522705 3320.797363 3232.836182 3097.846680 2960.113037 2755.621338 2580.358154 2554.717529 2521.313721 2615.513916 2736.989746 2856.406982 2789.010986 2589.259521 2440.216064 2431.427490 2567.833008 2691.375000 2765.249268 2860.249512 2925.971924 2973.460449 3023.023193 3076.913086 3129.805420 3158.575195 3076.001953 3049.197021 2993.825439 2940.952148 2857.994873 2873.961670 2955.335449 3042.170410 3040.736328 2936.351562 2845.599121 2704.267090 2626.236572 2627.646973 2627.647705 2618.734375 2489.430420 2402.316406 2383.852539 2337.249756 2247.975342 2139.044189 2084.240234 2023.558105 1935.243652 1866.821533 1700.751099 1519.146729 1434.861328 1449.996338 1474.770386 1472.483276 1498.382812 1537.537720 1559.461304 1554.229126 1499.931519 1617.633057 1681.793579 1659.432617 1636.034180 1644.285645 1612.794189 1566.450195 1514.472778 1443.045410 1350.514648 1257.312012 1274.645508 1279.587769 1279.677612 1275.649292 1258.816406 1240.792725 1229.657349 1219.835083 1149.795288 1071.260498 1028.988037 1010.591614 977.779968 839.688354 705.863098 669.465454 711.057434 790.339844 870.624146 1002.021301 1120.987793 1054.655273 1121.382446 1306.476074 1498.472900 1659.227539 1776.314697 1858.962036 1973.874268 2055.171631 2131.619141 2226.465820 2202.361816 2274.690674 2187.707275 2183.814209 2130.663574 1896.324341 1695.762329 1596.258789 1679.372803 1775.853638 1889.454712 2027.464355 2149.462158 2137.618408 1973.880859 1839.801880 1819.453369 1922.058716 2071.627441 2242.541016 2403.565186 2383.373291 2221.761230 2166.749512 2077.461914 2115.311768 2179.248535 2297.397949 2320.427979 2340.310303 2444.513184 2496.472168 2320.560791 2164.485107 1974.414795 1889.028687 1890.772949 1883.891235 1870.113403 1789.790527 1736.238892 1782.159546 1870.619385 1975.057739 2056.063477 2145.824463 2221.979980 2154.356201 2096.480225 2148.775146 2223.714844 2225.568359 2201.837158 2164.394043 2234.165039 2318.643555 2371.343018 2325.304443 2282.291260 2198.877930 2097.496826 1973.319092
2326.513672 2248.749268 2199.969727 2159.346436 2089.954590 2058.467529 2095.799072 2123.602051 2130.098633 2091.520996 2052.653564 2041.036133 2020.577759 2001.466797 1975.581909 1939.019043 1853.436401 1775.844604 1739.901123 1691.175903 1636.951904 1615.734131 1598.236084 1580.921631 1551.495605 1527.878906 1497.941772 1467.046021 1430.180542 1372.429077 1300.790283 1229.151245 1145.393433 1109.915283 1115.079712 1126.984497 1178.723022 1277.696655 1373.893311 1466.455566 1556.171997 1652.815918 1711.702637 1805.739746 1872.819702 1906.999878 1829.261108 1712.462036 1599.738892 1673.663330 1827.776367 1978.650269 2112.177734 2197.237305 2252.791748 2276.340576 2349.193359 2430.497803 2505.387451 2592.850830 2603.486572 2562.797363 2532.551270 2464.805664 2410.238525 2334.636230 2259.003418 2157.619385 2049.151123 1901.491943 1786.296753 1799.794434 1770.371460 1693.024048 1652.645630 1587.590210 1539.184448 1498.873535 1498.000000 1498.000000 1500.450195 1521.643677 1554.622437 1669.498901 1838.764160 2037.618530 2153.327393 2234.109863 2185.811523 2053.016113 2081.355957 2172.473145 2168.580811 2163.622070 2096.849365 1976.216309 1914.591919 1934.783081 1872.609985 1807.123291 1732.104980 1702.892944 1693.593750 1786.068848 1925.794800 2033.761841 2136.864746 2237.369629 2357.906494 2425.774170 2455.648193 2480.991211 2547.211426 2617.776611 2700.052490 2721.559082 2646.079346 2576.413086 2484.528809 2431.777588 2507.675781 2661.701904 2556.487061 2478.497803 2472.749756 2436.476807 2407.957031 2344.254150 2289.884766 2256.218994 2194.587158 2186.333740 2268.244629 2318.942139 2373.294678 2448.579834 2532.678467 2634.767090 2656.841553 2670.327148 2716.963867 2781.262695 2753.193848 2732.008301 2746.664307 2772.649902 2821.397217 2888.459961 3022.564697 3251.640381 3290.433105 3340.526611 3287.784424 3235.434570 3170.728760 3072.423828 2998.224609 2923.462158 2868.598877 2791.363281 2700.943848 2594.928955 2522.084961 2488.440430 2508.584229 2602.883789 2687.705078 2736.654053 2780.112061 2821.412842 2839.330566 2783.039062 2698.238037 2551.573975 2491.063477 2620.987549 2694.410645 2760.456055 2789.485107 2829.203857 2877.099365 2927.727051 3035.712891 3103.651367 3103.922607 3244.518799 3328.796875 3265.079102 3200.727539 3090.557129 2991.397949 2866.427002 2710.416260 2485.915771 2303.403320 2270.440186 2379.889893 2515.971191 2692.496338 2855.097656 3033.868896 3165.548828 3156.306396 3127.865723 3013.148926 2951.138184 2925.661621 2945.740234 2974.787598 2997.978760 3042.865723 3093.557129 3175.236084 3244.333984 3160.398682 2996.982178 2830.488037 2662.919678 2612.991943 2556.257568 2607.895264 2728.843018 2852.795410 2871.091553 2714.325684 2551.022217 2425.086426 2511.634521 2664.529785 2778.450195 2838.800537 2898.978760 2953.129150 3001.202637 3085.304688 3153.673096 3225.552734 3182.314941 3151.951660 3116.160645 3093.678223 2989.925781 2926.239014 2994.176270 3004.927734 2810.068848 2695.310303 2664.212158 2514.643555 2466.272461 2461.177979 2473.701416 2467.138916 2440.437256 2376.497803 2323.633545 2212.492920 2148.182373 2107.898682 2070.205811 1997.922852 1863.132202 1739.849365 1646.231323 1496.078979 1462.388062 1492.823242 1505.475464 1544.385864 1623.083984 1648.913208 1658.598511 1614.369507 1533.096802 1722.864990 1790.490967 1765.129150 1748.792114 1741.664795 1685.240845 1629.922729 1566.680664 1485.191650 1384.488281 1322.044556 1380.246826 1386.823486 1391.325439 1391.420044 1367.081665 1331.779297 1343.104370 1331.458740 1243.209839 1172.483765 1132.895264 1062.831421 927.765381 754.847351 662.914062 654.478333 707.048096 792.651611 924.470276 1103.544678 1311.885132 1260.683838 1121.954224 1179.961792 1334.068359 1494.114014 1587.713623 1721.802979 1839.165527 1902.509277 2029.844116 2163.839111 2273.344238 2351.277588 2387.382812 2301.724854 2149.019775 1964.251709 1735.791626 1632.470459 1688.017212 1824.775269 1963.952637 2117.002197 2250.434326 2286.179932 2103.798828 1953.546143 1855.000854 1893.140381 2024.338135 2201.142334 2354.841553 2463.189209 2427.508789 2386.662598 2257.011963 2194.438965 2183.730469 2258.065918 2385.431152 2415.446777 2508.657715 2436.956787 2310.359863 2154.768066 2061.500977 2020.704956 2003.833862 1996.053467 2001.985474 1900.777954 1760.211182 1709.818359 1737.304932 1830.187378 1930.016235 2033.892578 2102.939941 2038.650269 1968.642334 2045.798218 2162.916992 2196.878174 2141.155029 2131.839111 2184.959229 2254.459229 2304.096191 2414.299072 2306.823486 2180.613281 2109.964844 2020.773926
2354.297119 2306.270996 2256.755127 2170.014404 2079.243652 1980.950684 1994.532104 2036.818359 2024.915039 1997.127930 1984.533936 1965.157471 1935.164185 1915.875488 1896.343628 1860.751221 1795.650269 1738.981567 1681.521973 1626.970337 1566.536133 1542.492065 1527.305176 1515.701294 1489.451172 1463.943604 1432.600464 1403.814697 1355.650024 1296.984009 1231.233032 1170.700562 1115.083740 1110.766968 1137.651123 1162.363037 1269.703979 1374.530518 1462.359131 1580.041016 1653.922607 1755.827026 1865.818481 1968.806396 2089.606934 2088.084473 1995.293945 1823.284790 1786.297607 1736.692505 1706.607178 1820.439331 1904.272461 2008.800293 2090.635498 2158.951172 2277.407715 2404.517090 2487.358154 2598.156250 2630.951416 2530.424316 2494.197754 2436.670898 2370.947998 2287.491211 2207.817871 2111.947266 2027.475952 1890.994385 1791.205200 1840.937500 1793.577637 1744.230957 1705.538696 1667.039551 1608.499146 1522.183472 1498.000366 1498.000000 1498.000000 1498.204712 1509.223267 1605.480591 1750.402222 1930.835083 2067.562012 2098.263916 2027.175171 1936.884644 1998.688354 2038.503540 2022.950195 2010.376709 1986.250244 1867.144287 1844.736328 1789.700439 1751.072632 1708.400024 1670.329346 1669.675659 1728.221680 1859.727295 1978.879517 2127.933838 2224.771484 2324.552002 2418.836670 2508.580811 2565.841309 2585.336182 2652.024414 2718.215576 2792.814209 2822.565186 2785.644043 2673.341064 2518.334473 2464.243408 2562.245605 2727.594482 2624.684814 2562.274414 2569.983398 2501.899658 2468.017334 2406.428467 2384.500732 2349.637207 2306.345947 2294.322754 2383.778076 2417.468506 2469.036621 2582.102783 2688.381348 2717.345947 2724.812012 2737.674072 2773.135742 2875.677246 2823.541748 2806.928711 2817.249512 2834.650635 2913.454834 2935.444824 3008.020996 3134.010986 3256.457764 3193.780518 3124.198730 3056.673340 3079.042480 3044.499512 2977.380371 2871.977539 2769.917236 2665.274658 2595.206787 2553.321533 2543.379883 2575.961182 2653.395996 2738.144043 2803.118164 2855.706055 2898.977295 2918.775635 2843.657471 2734.271973 2594.323486 2501.016846 2556.495117 2683.339111 2761.790283 2819.801514 2853.133789 2872.471191 2894.685547 2946.002441 3042.358398 3175.220459 3182.458496 3222.427246 3192.666016 3146.559570 3119.158691 3066.270752 2979.018555 2856.644287 2688.305176 2483.868896 2285.653320 2331.328857 2473.888916 2618.554688 2726.025146 2869.358643 3039.152344 3221.224854 3317.534180 3245.432129 3106.218750 3049.611572 3075.686035 3016.282715 3026.135742 3035.989990 3073.313965 3125.011230 3176.712158 3224.922852 3206.762939 3029.854736 2903.492920 2718.816895 2662.490234 2634.056885 2629.379150 2713.147949 2849.104004 2921.258789 2799.349854 2666.734863 2452.591309 2474.073975 2628.228516 2752.808105 2836.880127 2910.258545 2960.166016 3034.925293 3123.320312 3224.230957 3328.779541 3265.926025 3242.292969 3213.571289 3218.283203 3155.872559 3004.978271 3014.366943 2860.629395 2647.159180 2513.767822 2448.240967 2338.013916 2281.764160 2300.176758 2359.099854 2401.828369 2416.004395 2304.064453 2215.489502 2117.793701 2071.416992 2040.700439 2042.338867 1934.312866 1816.298462 1652.369141 1492.915039 1453.693359 1572.858643 1619.752808 1610.760010 1652.263184 1718.888794 1754.786621 1741.127075 1633.472778 1598.316772 1805.797363 1886.416504 1860.646729 1852.282227 1818.699829 1737.616089 1663.826904 1595.046143 1510.753296 1416.290283 1398.414307 1478.430664 1498.328125 1495.836914 1492.338745 1473.965088 1450.983521 1454.813721 1444.829712 1337.313354 1244.395752 1118.675903 972.606873 818.699219 690.414734 644.177002 658.028381 713.735474 821.766663 1009.770874 1213.395874 1411.024658 1486.369019 1334.584106 1179.120239 1204.691650 1318.840210 1483.823486 1623.299805 1699.930054 1825.055908 1942.638916 2044.422485 2151.168701 2244.732666 2390.852051 2407.725830 2232.817139 1992.941040 1791.533325 1685.933350 1690.624634 1835.485107 2015.612671 2171.677002 2285.789551 2368.033203 2253.870850 2108.285889 1960.513550 1914.360352 1994.713257 2122.777832 2257.257324 2417.742188 2520.321533 2483.032959 2413.796387 2380.776123 2333.000488 2322.130371 2406.518555 2575.130371 2568.372559 2424.573242 2307.376221 2193.034668 2179.380859 2103.762939 2081.922852 2085.633301 2108.166260 2006.591309 1867.527832 1755.618042 1687.524414 1706.330444 1803.905029 1912.728149 1916.719849 1907.664917 1929.266602 2040.137451 2008.130127 2053.235840 2111.706543 2176.440674 2227.748535 2287.794922 2342.341064 2389.718018 2308.342529 2178.190186 2159.248291 2094.013672
2380.558350 2330.430908 2264.472412 2173.051025 2049.450928 1927.451416 1891.779541 1921.859619 1917.108887 1906.431152 1905.272827 1892.645996 1857.235352 1825.562988 1793.869995 1761.255493 1717.386230 1687.501953 1648.207764 1595.818970 1521.661011 1480.608276 1462.940063 1449.926514 1435.365601 1407.946289 1374.784546 1334.548584 1289.134644 1249.488892 1179.776245 1122.432373 1142.064819 1159.929688 1170.871338 1248.379028 1376.066284 1472.789185 1569.047119 1673.888672 1772.702515 1869.535767 1985.168091 2154.489746 2270.552246 2235.938477 2083.843750 1927.196289 1947.394043 1887.220825 1759.704346 1797.601562 1914.666138 1965.623779 2067.319580 2180.465576 2307.867188 2426.743164 2487.197510 2560.619385 2646.223633 2536.519043 2464.914307 2417.331055 2364.935791 2306.470947 2236.318359 2138.145020 2020.038574 1893.758545 1808.284790 1885.330688 1862.865112 1816.120972 1759.326782 1698.004639 1637.215332 1570.341675 1504.785278 1498.000000 1498.000000 1498.000000 1498.301880 1543.433105 1653.667480 1808.710205 1921.374512 1919.667114 1896.389893 1835.651733 1878.822266 1882.039551 1870.978149 1842.392334 1823.258057 1769.489258 1736.745850 1719.090210 1686.404419 1665.811401 1671.803955 1694.853271 1768.667725 1888.492554 2012.042236 2139.254395 2267.427979 2348.685303 2386.870361 2489.067871 2588.095947 2669.895508 2762.687256 2831.972412 2923.839600 2955.157227 2897.853271 2731.930420 2553.790527 2500.842041 2602.318848 2801.419678 2753.623047 2694.878174 2656.129639 2541.359863 2527.773682 2473.670654 2468.549805 2418.903564 2384.047607 2361.100098 2460.971191 2539.186523 2579.882812 2680.559814 2781.849121 2772.345459 2791.582764 2803.346436 2825.965820 2933.638672 2906.153809 2899.483154 2913.922119 2922.695068 2973.059570 2996.422607 3122.530273 3172.357422 3128.545410 3078.194580 3041.906250 2995.877197 2941.613281 2906.512207 2871.045898 2793.251465 2683.816406 2618.647705 2594.201904 2579.168945 2626.173096 2707.634277 2772.403320 2850.743652 2901.860352 2953.854492 2964.150635 2898.662842 2784.141846 2642.646484 2532.954590 2529.734619 2628.527588 2712.337891 2798.889160 2875.558594 2913.232910 2925.262451 2942.154297 2996.928955 3065.394531 3200.782471 3248.148193 3155.528076 3091.434814 3034.706055 2990.709229 2967.897705 2917.780029 2796.276855 2620.686768 2441.264648 2284.701172 2355.997070 2545.775146 2709.419434 2873.939453 2962.156738 3075.986084 3199.782959 3221.947510 3230.662598 3204.522217 3172.806641 3221.172607 3155.004883 3090.723633 3100.210205 3138.341797 3180.985596 3234.861572 3279.205322 3218.649658 3084.007080 2933.520020 2749.710938 2699.548096 2704.839355 2707.600586 2745.269287 2833.192627 2955.216309 2866.701904 2727.759521 2507.316162 2458.781738 2590.461670 2748.635010 2862.381348 2940.387939 2992.398682 3065.782715 3115.386475 3166.064453 3235.083740 3313.263428 3331.874512 3299.642822 3247.307129 3131.929199 3031.774902 3016.200684 2750.061768 2547.095459 2447.034668 2347.913086 2233.766357 2152.691895 2167.705566 2225.614502 2276.543457 2268.596924 2195.591797 2067.093018 1984.227295 1933.204712 1878.409424 1858.838623 1824.395996 1650.326050 1503.962891 1522.350830 1565.379028 1665.975342 1751.589722 1754.887207 1796.673584 1828.237061 1872.365112 1834.886597 1680.663940 1659.713257 1879.198853 1993.343872 1973.727417 1941.151001 1850.835083 1743.981934 1673.163452 1604.531494 1521.964966 1440.486572 1504.988892 1578.434570 1583.984741 1590.330200 1599.765625 1592.971558 1590.068726 1559.137207 1481.863403 1347.244995 1166.192383 1022.176453 886.581848 764.055786 657.637695 643.023132 671.853027 744.021484 857.708496 1013.921631 1171.765991 1387.234619 1558.344360 1581.726562 1421.456177 1269.156372 1256.825195 1342.978638 1468.157593 1620.895630 1752.401855 1857.378906 1964.307251 2034.656616 2165.765625 2319.970947 2392.828125 2265.245605 2066.636475 1918.499268 1770.634277 1741.120605 1790.633423 1910.701782 2022.093262 2154.229492 2251.771240 2316.497559 2224.147949 2117.885742 2052.222168 2051.403564 2124.563232 2253.475586 2366.240234 2335.559082 2284.950928 2301.241211 2351.719971 2329.810303 2358.893311 2423.950439 2528.757568 2521.873535 2447.487061 2308.281006 2285.594238 2232.435303 2159.394287 2155.982910 2175.637207 2204.914307 2114.575439 1990.999512 1870.153198 1720.171021 1626.739868 1669.946777 1719.943237 1727.818970 1770.813110 1878.192261 1901.105347 1871.802368 1949.298340 2046.200073 2168.035400 2278.449951 2311.358154 2359.472412 2426.309570 2364.466553 2275.724365 2245.847412 2221.853516
2351.656738 2305.552246 2240.613037 2139.443848 2031.695801 1950.963623 1827.546021 1840.788452 1828.666016 1820.667603 1829.531982 1823.658325 1791.978271 1737.098999 1703.477295 1670.749268 1649.449463 1621.249268 1574.664185 1524.322510 1468.541992 1410.607178 1398.232300 1401.388306 1385.027222 1342.009033 1300.613770 1265.614136 1232.118042 1175.017944 1122.961548 1128.099243 1150.958618 1185.234131 1231.327026 1361.946655 1463.936157 1583.160156 1700.522217 1814.454102 1944.920166 2046.414795 2100.721191 2279.210938 2434.052246 2368.628418 2187.648682 2024.699707 2062.087891 1999.811523 1843.654541 1894.816162 2098.528320 2110.005859 2165.380615 2242.730225 2302.116699 2418.517334 2505.451660 2592.517822 2655.407959 2544.479004 2442.070801 2382.134277 2342.200684 2271.975098 2202.718018 2088.237305 1944.091187 1844.116211 1839.487305 1921.569702 1923.599487 1889.659790 1827.348755 1778.426758 1708.240845 1604.009277 1510.169556 1498.000000 1498.000000 1498.000000 1498.000000 1500.457275 1550.131958 1656.331909 1739.138062 1755.837524 1740.803955 1744.665405 1741.831909 1744.720581 1729.040283 1701.017212 1670.039429 1644.081421 1653.664429 1667.715454 1709.040405 1764.338379 1764.669067 1818.636353 1876.027588 1909.828003 1991.501465 2094.940430 2159.686768 2220.710938 2288.386475 2397.909668 2486.642822 2590.977783 2711.481689 2812.081299 2892.363525 2968.427979 2968.968994 2833.946777 2616.312744 2552.633301 2622.821777 2820.494873 2897.819092 2848.718262 2680.290527 2610.334717 2626.228271 2553.848145 2566.239990 2515.985596 2455.100830 2446.524658 2531.833008 2682.923096 2695.330078 2766.012939 2907.984863 2880.878662 2859.539062 2849.925049 2873.205322 3053.824219 3047.508789 3044.196777 3023.830566 3029.469482 3044.504150 3057.301758 3259.869385 3252.217529 3136.530518 3089.129395 3054.611328 3000.398926 2927.351318 2843.453369 2760.758545 2690.102051 2660.673340 2636.229004 2620.448486 2658.886230 2756.692627 2813.644531 2868.685059 2940.691895 2989.664062 2975.742676 2902.365234 2826.343262 2708.875732 2583.263184 2534.736572 2601.575195 2705.148926 2782.963135 2840.448730 2885.754395 2950.695312 3036.016602 3053.180664 3087.763672 3124.944092 3188.191162 3169.619629 3059.978027 2999.034424 2950.101074 2930.143066 2897.807617 2848.908691 2722.263672 2561.604736 2393.070801 2289.459229 2399.200195 2590.128662 2746.590820 2864.263184 2950.111816 2996.468506 3029.751221 3024.042480 3049.201416 3084.914795 3163.909180 3233.063721 3241.780518 3208.355957 3135.754150 3158.419678 3211.152832 3291.513916 3378.073486 3266.101074 3138.318848 2982.458740 2812.915527 2730.237305 2739.677490 2741.332520 2755.784668 2847.062500 2960.600342 2972.744873 2797.467773 2579.663086 2468.853027 2552.789307 2718.931396 2826.299072 2923.632568 2971.514160 3035.771240 3089.964600 3134.022217 3224.948730 3316.594482 3388.429932 3286.831055 3130.002197 3023.478027 2962.970215 2867.356689 2693.569092 2572.967285 2430.379639 2275.690430 2134.807129 2034.331177 1986.977539 2040.227417 2109.843506 2102.590820 1979.430908 1851.229858 1765.211426 1735.106567 1679.470947 1629.878418 1632.129883 1564.850098 1604.621338 1661.154053 1695.410767 1743.693237 1833.864502 1887.375977 1939.260498 1939.337646 1973.698975 1874.960327 1695.547607 1747.517212 1976.673828 2124.968262 2055.007080 1934.456299 1852.487183 1791.808594 1702.855103 1627.652588 1554.685181 1486.841675 1579.185669 1662.089478 1663.171387 1669.191040 1712.352905 1706.266479 1607.688599 1521.814575 1401.015137 1244.107422 1079.652588 939.292297 856.973938 740.615784 638.757446 655.918579 678.083740 762.283142 954.545410 1163.889893 1364.177368 1519.717163 1677.692627 1785.362427 1701.083008 1510.611816 1343.159790 1305.034790 1375.573364 1513.857666 1653.938721 1768.090942 1862.886841 1957.515015 2074.236816 2171.752686 2295.493408 2312.939941 2168.079590 2038.305176 1878.782349 1818.436035 1801.417236 1838.029663 1951.242554 2080.937256 2156.810547 2258.406738 2353.043213 2306.148926 2256.548096 2187.643799 2199.211182 2282.513428 2249.946777 2154.678467 2144.555908 2219.610596 2194.669922 2181.285889 2220.883057 2291.725830 2379.770996 2447.071533 2402.331299 2287.322021 2343.222168 2268.882324 2243.915527 2227.246338 2233.576904 2217.467041 2120.469971 2018.809204 1857.652954 1683.848877 1568.323730 1560.174194 1589.416748 1618.290405 1643.254883 1717.315063 1768.828857 1821.640503 1915.332275 2006.697876 2129.206299 2199.285645 2195.525146 2271.519531 2408.301270 2419.343262 2380.527100 2278.705566 2186.876953
2301.117676 2286.382568 2244.502930 2176.060059 2113.674072 1987.685303 1826.119751 1733.003784 1728.193604 1733.541260 1750.609497 1739.952881 1704.460693 1667.984131 1637.063110 1609.826904 1588.386353 1550.803345 1499.379883 1451.512329 1407.297852 1363.808228 1316.473145 1318.050537 1304.241699 1275.574341 1241.993774 1204.834961 1147.539062 1123.913452 1121.703003 1155.662231 1180.418945 1228.360352 1337.519653 1433.886475 1557.079956 1690.051270 1861.308716 1993.443237 2078.592773 2156.894775 2231.042480 2358.000977 2542.598389 2433.454346 2243.028564 2164.533447 2202.925049 2071.458008 1925.894409 2051.233643 2290.323975 2239.054443 2285.735107 2331.257568 2370.275391 2453.152344 2578.988281 2690.452881 2652.123047 2560.172852 2421.404297 2332.013428 2267.505615 2194.296631 2120.642090 1993.139771 1888.324219 1838.988281 1910.703613 1972.426758 1968.503174 1928.751953 1875.314941 1826.732422 1770.707886 1653.012573 1536.746948 1498.000000 1498.000000 1498.000000 1498.000000 1498.000000 1498.828247 1542.940796 1598.012939 1640.369873 1633.659058 1637.278809 1633.558838 1637.003662 1618.766724 1608.336670 1609.667847 1663.207886 1693.803955 1725.008911 1827.621582 1886.800903 1912.101440 1959.218994 1983.323853 1944.822876 1986.271118 2016.257080 2064.147705 2104.371094 2173.419922 2272.159912 2388.416260 2500.764160 2566.154297 2647.572998 2727.842773 2869.861572 2976.283936 2823.022217 2672.956055 2623.893311 2685.288086 2855.780029 2992.108643 2921.753906 2773.383789 2729.536133 2742.930176 2636.788818 2659.072021 2614.976318 2504.147217 2535.651123 2636.218018 2787.985596 2804.177002 2869.663818 2996.002930 2949.742188 2910.060059 2899.187744 2977.564209 3184.349854 3185.146729 3175.679443 3111.921143 3084.005859 3087.314941 3149.777100 3340.759277 3285.217529 3197.536133 3169.282715 3144.397217 3081.676025 2958.833984 2816.758789 2718.395020 2699.694092 2679.368652 2664.073730 2706.659668 2767.590088 2828.249512 2915.569336 3002.577637 3047.421631 3010.255615 2974.792725 2879.841309 2764.437988 2637.834961 2557.609863 2582.621582 2664.611084 2774.319092 2840.901855 2876.849365 2905.787598 2956.342773 3036.434570 3133.727295 3245.772461 3262.854492 3163.203857 3101.091064 3022.124268 2959.335693 2910.638428 2889.348633 2833.357178 2757.042236 2647.511475 2511.795898 2337.632568 2348.721680 2467.892090 2621.808350 2719.065674 2799.429199 2850.520752 2863.805908 2858.072266 2856.840576 2902.377930 2960.493896 3019.790771 3069.073242 3142.217041 3271.375000 3278.061035 3222.268066 3261.712158 3354.474609 3419.158936 3333.016602 3206.479736 3051.761230 2874.143066 2758.586182 2758.545898 2749.133789 2758.799805 2831.994629 2939.265137 3058.625244 2866.807861 2674.412109 2509.000000 2516.471191 2655.511963 2772.278564 2869.023926 2921.585205 2963.907959 3039.126709 3106.041748 3160.534180 3219.007324 3309.676025 3376.605225 3232.625244 3115.735840 2967.450684 2873.689941 2744.022705 2609.660400 2389.474609 2234.605469 2074.257324 1947.400879 1895.938232 1881.703247 1915.991211 1879.303711 1767.785889 1684.532471 1631.554199 1600.720825 1588.594849 1586.546265 1594.255493 1608.138550 1687.994873 1790.892334 1838.746338 1850.807739 1910.057983 1962.060791 2022.739868 2083.407227 2063.882080 1905.169556 1752.681152 1811.645020 2054.280029 2194.277344 2029.546997 1891.274170 1838.732178 1805.352173 1751.291992 1671.104004 1572.541138 1534.547363 1625.018799 1731.766479 1745.419800 1761.148438 1743.923462 1614.032227 1452.396729 1374.180786 1271.965576 1171.676270 1024.883301 879.398071 809.013855 691.416016 641.570679 681.632385 715.306580 816.746948 1060.109497 1256.809082 1402.961060 1502.673218 1652.735474 1855.774414 1955.319458 1733.920654 1540.355957 1399.131226 1347.075317 1437.450195 1622.481323 1740.776855 1842.540039 1917.320679 2006.832520 2112.665283 2212.403564 2336.990723 2349.587891 2155.733887 2009.835815 1935.985229 1889.569336 1932.149170 1997.201294 2101.633057 2186.444580 2260.926025 2400.877686 2387.330322 2333.307861 2241.214355 2170.142822 2160.941162 2062.716553 1967.979858 1981.570923 2024.511963 2042.194580 2142.615234 2266.748535 2369.366455 2462.797607 2442.283691 2269.633789 2217.615479 2278.100586 2279.870117 2224.136230 2215.507080 2158.324707 2069.764160 1995.307495 1874.113525 1726.069336 1591.309082 1524.061035 1521.053345 1542.606201 1567.671997 1590.999268 1631.397095 1694.005371 1788.566528 1943.889282 2052.858887 2089.215576 2133.695801 2155.999756 2201.785400 2319.676758 2459.008789 2377.454834 2238.913818 2112.708496
2262.241943 2248.043701 2208.784180 2171.337158 2133.950928 2001.131714 1863.460205 1748.758179 1644.798950 1651.269897 1662.364868 1645.807129 1612.776733 1600.117310 1576.454346 1548.953735 1525.428833 1487.408203 1434.534790 1365.699219 1316.212524 1269.426392 1250.847900 1247.657227 1250.995972 1222.125244 1170.259277 1138.261230 1142.975220 1168.203613 1200.815063 1251.089966 1276.265625 1256.675171 1370.146729 1495.055908 1612.807251 1754.895142 1900.335815 1993.294434 2071.246094 2180.156494 2297.129150 2423.312012 2597.383789 2453.249268 2329.008789 2319.852295 2300.286377 2193.701416 2031.561401 2184.518311 2386.232422 2343.367920 2354.604004 2400.557373 2457.334229 2553.923584 2666.220703 2702.483398 2623.979492 2529.561768 2399.611328 2290.809082 2186.180664 2125.414551 2069.837646 1952.673218 1860.765625 1894.616577 1981.401001 2025.135132 2018.719482 1990.295898 1931.360840 1863.354492 1802.830444 1690.799438 1584.261108 1500.402710 1498.000000 1498.000000 1498.000000 1498.000000 1500.581543 1506.023193 1522.450073 1550.356689 1537.790405 1546.344604 1558.564697 1574.036987 1619.498169 1660.915283 1703.747925 1757.591064 1800.243896 1811.387207 1917.175903 1994.017944 2024.523804 2093.450684 2095.765625 1996.025391 2029.702881 2113.348389 2158.713379 2145.161133 2123.203613 2151.080322 2258.671631 2389.550781 2479.918701 2592.131836 2698.062012 2824.896240 2928.716064 2838.009277 2766.843262 2730.152344 2789.095947 2931.757568 3066.453369 3018.469971 2884.994873 2848.159668 2826.748535 2751.834473 2749.685791 2680.966064 2556.617920 2587.250244 2711.434326 2802.154053 2908.955078 2984.969727 3073.636475 3029.589844 3015.982910 3028.497559 3123.329590 3302.988281 3245.494873 3238.891602 3189.886230 3138.116699 3148.338379 3248.912354 3450.076904 3381.393799 3274.721191 3232.739014 3116.499512 3055.198242 2936.260498 2784.063232 2731.255371 2721.875488 2711.344971 2766.983154 2819.130371 2905.125488 2962.561035 3016.724854 3082.387695 3051.864014 2987.989014 2932.762451 2850.695557 2724.403076 2613.880371 2569.501709 2639.529297 2722.035889 2800.022217 2889.544189 2930.066406 2952.926270 3007.153564 3049.460693 3108.852539 3217.892578 3302.913574 3148.200928 3030.323242 2963.156006 2911.757568 2843.343262 2796.079834 2723.496826 2647.433594 2561.211426 2445.647217 2317.699707 2365.248779 2458.900146 2555.707764 2613.057861 2667.321533 2679.801758 2645.846191 2642.402588 2679.853516 2743.009521 2826.161621 2914.712402 3002.916504 3052.610352 3151.742920 3269.533203 3296.800781 3280.788818 3326.041748 3460.894043 3359.537354 3172.255127 3055.338623 2885.019531 2780.712402 2780.655518 2774.183594 2787.633789 2795.333984 2889.650391 3024.687744 2991.908691 2822.605225 2611.959229 2515.937256 2587.473389 2726.592285 2824.957764 2885.300049 2947.106201 3066.039551 3140.551758 3156.067871 3222.415771 3301.327148 3348.772217 3225.107666 3097.663818 2926.842529 2846.373535 2692.554443 2505.931396 2340.027344 2212.219238 2101.030029 1935.539185 1827.766602 1790.027954 1741.092285 1702.188232 1648.251343 1609.705444 1618.392456 1644.473999 1693.130493 1715.735718 1690.038818 1656.869019 1770.855713 1881.045410 1960.454590 1984.243408 2017.889526 2064.793213 2118.966309 2181.958740 2162.560303 1974.523315 1839.442139 1890.643311 2153.657471 2202.155273 2006.271729 1889.962402 1872.511841 1872.886108 1805.049561 1663.973877 1566.247192 1605.594604 1692.529053 1793.761108 1801.088135 1801.601074 1638.551147 1496.070312 1368.184937 1234.598511 1144.832397 1072.248047 951.518738 810.556213 724.625305 645.263672 657.951599 706.032959 762.786621 868.427368 1080.997070 1226.715088 1339.882324 1473.281616 1649.926147 1889.039795 2083.535645 1932.114258 1774.494751 1602.992676 1412.060547 1413.574829 1582.557617 1793.257202 1909.902466 1968.692871 2035.581177 2139.624756 2274.195557 2316.196045 2472.862549 2394.056396 2189.915771 2161.252930 2093.908203 2066.177734 2068.841064 2150.142578 2269.157715 2300.979248 2316.221436 2249.645020 2201.269043 2120.437500 2005.128540 1949.247314 1880.229004 1841.890015 1870.618652 1920.534302 1990.780884 2113.473633 2299.012451 2455.490234 2438.144775 2334.323242 2208.507568 2140.606201 2144.698486 2145.325195 2060.942871 2070.072754 2029.875366 1925.783936 1854.484619 1727.555542 1607.581299 1524.304932 1505.937378 1536.082397 1630.781738 1649.304565 1643.703491 1664.552246 1742.048828 1839.008667 1927.800537 1971.570190 1991.687256 2063.076416 2140.947266 2215.691895 2280.002441 2445.867188 2443.698486 2272.521484 2132.080566
2204.469727 2174.902588 2140.762939 2111.653809 2072.183594 1976.841675 1849.747925 1766.134399 1674.279053 1550.517334 1547.315918 1562.727539 1544.416260 1520.909912 1501.128418 1479.619507 1456.073120 1415.357666 1358.458618 1286.392700 1240.871338 1218.868042 1199.725464 1191.927368 1179.989380 1146.401123 1144.456909 1200.109619 1218.821655 1246.046631 1353.463135 1384.685547 1381.524048 1348.933716 1308.991089 1444.284424 1552.368530 1614.096191 1758.078003 1827.444702 1901.041260 2018.672974 2144.035889 2318.683105 2544.153076 2527.981689 2483.049561 2491.463135 2439.421631 2321.227051 2175.194824 2330.030029 2445.127441 2388.012207 2389.952881 2446.698730 2492.466797 2592.333008 2708.644775 2696.329590 2594.833252 2468.833740 2380.927734 2262.277832 2158.740967 2061.220215 1989.488403 1913.855835 1908.246582 1976.729980 2056.339600 2071.109131 2051.599609 2020.511353 1962.877930 1891.439575 1834.714722 1749.397461 1631.647461 1521.129761 1498.000000 1498.000000 1498.000000 1498.000000 1498.146240 1500.365601 1505.909790 1540.136108 1601.720703 1671.515747 1647.322021 1677.016357 1745.797852 1802.232544 1856.524536 1948.361816 1976.007812 1918.144043 1980.972046 2086.697510 2163.676025 2217.079102 2169.918457 2045.137085 2086.420166 2230.647705 2307.721680 2305.518799 2276.889404 2212.611084 2203.715820 2370.132080 2510.724365 2640.736328 2762.777588 2806.017334 2838.555664 2939.402832 2894.977051 2843.390869 2883.269775 3027.383057 3146.481689 3099.849121 3006.097168 3007.387207 2908.823486 2827.120361 2854.671143 2755.404785 2650.575684 2669.508545 2791.555664 2888.904785 3022.355713 3121.625977 3164.767090 3119.620850 3127.322021 3171.997070 3290.254150 3403.649902 3311.648438 3341.202148 3267.514160 3196.006348 3221.117188 3356.079590 3429.523682 3358.497559 3244.571533 3147.614502 3027.079102 2943.591797 2866.558105 2762.646729 2751.409668 2738.009277 2787.263428 2860.044189 2929.625000 3038.470215 3081.228516 3128.025879 3094.717041 3022.858398 2962.736084 2906.465820 2805.716553 2682.381592 2603.764893 2612.802979 2695.731689 2788.428955 2847.915283 2900.358887 2975.158936 3039.476074 3071.179932 3098.006348 3164.380371 3242.209473 3207.179688 3101.108154 2989.240234 2892.885498 2829.202637 2753.522217 2685.338135 2621.981201 2559.768311 2502.198730 2438.743896 2339.313477 2348.300781 2392.816406 2419.663330 2444.279053 2482.948242 2490.978760 2508.880127 2508.054688 2531.979492 2590.502930 2682.317139 2793.914551 2908.118652 2973.417969 3019.111572 3072.397949 3114.585205 3164.570068 3255.154297 3391.473389 3385.006836 3203.778564 3106.940430 2921.526611 2804.187988 2800.045166 2802.770020 2826.437012 2815.753662 2855.683350 2952.216797 3073.501221 2996.157227 2751.842041 2597.555176 2565.622559 2632.638672 2757.052734 2857.413330 2935.084473 3018.567139 3039.592041 3087.307129 3167.845703 3264.829834 3167.716309 3043.062500 2947.639160 2868.804199 2830.940674 2654.082764 2454.995605 2316.826416 2181.374023 2071.588379 1919.434204 1796.252563 1712.592773 1652.391235 1615.339966 1602.454590 1661.797607 1706.917603 1761.506348 1815.510376 1842.206909 1765.709229 1679.096558 1781.997192 1937.573730 2070.559814 2126.674805 2106.481445 2148.201660 2216.151611 2260.348145 2209.925293 1969.813843 1889.118774 2003.172241 2247.731689 2164.087158 2016.336670 1959.479980 1991.966553 1978.609009 1815.072266 1648.200073 1581.578491 1656.504883 1776.809204 1873.451904 1866.485474 1724.755127 1532.206543 1387.746948 1237.880981 1148.472290 1059.160767 976.229248 869.861145 734.975464 643.653259 622.499023 663.403687 710.237122 793.367981 914.729675 1035.974243 1151.007568 1296.574951 1463.083618 1687.616211 1875.560059 2056.199463 2136.671143 1976.667358 1809.347168 1554.287720 1422.023804 1534.453735 1735.789307 1855.005493 1986.459351 2114.192383 2230.509766 2334.270996 2408.434082 2541.362305 2575.255615 2407.527832 2374.791748 2294.160645 2261.008057 2203.363525 2201.970703 2264.542969 2205.612061 2106.969238 2053.328857 2029.543823 1889.403687 1825.405273 1816.129883 1831.992554 1880.327515 1951.208130 2016.822754 2097.396729 2202.628418 2292.512939 2343.380127 2284.371094 2211.531982 2144.500488 2064.840332 2004.913818 2025.308105 1934.482178 1908.432129 1912.749023 1845.284546 1723.545410 1616.012207 1542.099487 1502.275269 1517.475708 1613.661255 1774.563110 1846.776855 1812.988037 1757.256470 1830.700439 1932.320312 1939.460083 1950.131836 1984.593018 2010.871704 2034.890137 2162.509033 2277.787842 2386.310547 2408.758301 2249.156738 2100.784180
2119.966553 2102.854248 2045.476685 1991.309570 1960.219116 1912.801025 1807.786133 1732.855103 1669.041260 1569.752808 1468.495117 1421.187256 1450.787598 1467.436279 1445.459106 1421.791260 1390.176758 1325.068604 1260.847778 1212.293945 1189.070801 1159.046387 1154.983276 1155.898560 1148.876953 1131.753784 1183.990723 1237.875244 1283.476196 1378.241943 1480.819702 1525.684448 1520.218872 1468.511475 1365.609009 1336.001953 1414.789673 1499.833862 1685.659546 1852.110596 2001.114136 2106.595215 2194.914307 2336.896484 2506.764160 2647.540283 2694.679688 2692.002441 2518.785400 2372.990234 2279.553955 2342.031250 2450.170654 2439.030762 2427.601074 2477.382812 2534.167236 2619.664551 2663.984863 2597.657959 2518.383789 2431.315918 2347.371338 2255.831055 2159.842773 2049.060547 1952.093872 1926.509033 1992.795044 2066.887939 2113.678467 2126.938477 2107.922852 2058.456543 1994.675415 1938.693726 1874.436768 1800.252808 1685.340820 1549.772095 1498.088623 1498.000000 1498.000000 1498.000000 1498.000000 1505.713135 1581.662109 1654.299316 1727.616821 1794.803101 1731.123047 1801.631714 1930.785645 1984.503052 2070.267822 2151.993896 2131.724609 2004.001099 2068.625488 2167.075439 2256.666748 2305.814941 2235.429688 2096.759521 2104.160400 2270.912109 2400.863281 2448.172363 2407.248291 2353.671875 2284.834229 2311.175781 2433.481201 2608.064209 2696.353516 2723.598877 2835.431152 2969.739014 3004.837646 2951.155029 2989.606689 3054.617920 3050.785156 3033.059570 3003.529541 3102.333008 3009.813965 2975.238281 2950.739014 2821.274170 2716.085205 2725.862305 2860.277832 3032.964111 3140.601807 3251.460205 3248.483643 3232.924316 3246.363281 3294.709961 3433.296143 3409.389893 3411.832275 3457.018311 3334.435059 3277.444824 3324.538330 3323.112061 3303.589600 3288.986328 3238.004883 3130.872070 3031.871094 2919.753418 2819.235596 2777.099854 2775.194336 2772.401123 2859.881348 2957.190430 3034.151855 3090.455566 3163.155762 3171.795654 3101.025146 3007.154297 2934.533691 2886.657715 2790.479248 2667.179688 2623.479980 2653.687744 2719.510010 2813.050781 2884.964844 2927.367920 2969.197998 3031.461426 3114.175537 3174.659180 3245.475830 3232.650879 3129.810791 3053.547852 2960.294678 2861.744385 2751.897217 2680.575439 2616.156250 2559.157471 2534.528076 2556.936279 2512.699951 2380.646973 2392.446289 2448.662109 2500.697754 2509.963623 2540.504883 2592.712402 2643.362549 2639.996094 2584.895752 2559.055176 2576.931885 2675.720947 2819.694580 2905.536133 2958.538574 2998.144043 3044.794189 3108.027588 3176.404053 3257.437500 3349.517578 3273.477783 3191.483643 2988.761475 2824.120605 2817.863525 2821.083008 2830.341553 2856.603760 2878.956787 2908.873291 2964.729248 3045.968506 2938.340088 2756.049805 2621.833496 2612.399902 2675.361816 2799.454590 2862.351074 2917.223145 2987.863770 3101.744873 3205.476074 3180.253906 2959.597168 2858.405273 2759.998535 2699.344482 2757.714355 2552.533447 2434.305176 2339.906250 2193.478760 2012.189331 1864.124512 1737.214966 1664.537720 1632.010742 1625.919800 1663.751343 1748.457886 1815.774048 1876.785156 1938.009033 1947.798218 1861.893311 1721.164551 1762.178711 1952.515015 2112.523682 2231.727295 2213.401123 2217.104248 2292.664551 2336.847168 2173.723389 1954.296753 1934.406616 2136.283447 2274.132324 2151.213379 2072.211426 2074.705566 2104.577637 1920.270752 1757.178833 1630.078491 1608.676270 1707.064453 1844.301514 1953.534668 1851.432617 1644.135254 1458.435547 1308.394897 1198.743286 1066.729370 975.570129 911.012634 828.979614 706.327271 621.268433 614.581055 647.561768 699.964844 818.888794 975.864990 1135.778564 1231.544800 1406.903442 1505.612915 1647.634399 1810.888672 2024.059082 2247.652832 2154.714600 1951.984009 1725.323975 1504.842651 1509.900513 1657.900391 1767.804199 1908.059326 2043.265625 2158.906738 2288.845947 2373.022217 2510.858398 2676.815430 2572.940186 2473.968262 2404.811768 2311.359863 2186.899170 2088.666748 2061.262451 1976.517944 1873.534424 1874.713745 1782.300781 1726.703857 1766.205200 1852.427856 1935.139893 1994.688843 2065.901855 2133.393311 2179.202393 2259.727295 2278.026611 2181.945312 2154.940918 2079.337891 1996.724243 1978.812134 1849.421387 1850.694946 1830.199829 1749.104492 1766.493530 1719.935425 1634.410278 1563.740967 1520.386597 1497.435059 1567.284424 1717.312744 1899.526489 2034.016235 1969.803345 1883.184937 1968.033813 2102.846436 2061.153809 2058.937012 2068.178223 2065.012207 2059.950928 2145.543701 2236.110840 2307.164551 2316.975830 2187.744873 2121.154541
2021.633179 1990.531250 1937.540405 1911.000854 1884.188354 1834.589600 1744.954224 1667.593018 1602.923218 1545.122192 1479.738770 1423.102417 1357.815063 1420.287842 1405.807129 1374.231445 1306.045410 1229.139771 1177.944336 1154.819092 1145.915283 1148.427490 1146.750977 1140.374634 1159.757935 1194.994629 1250.068237 1314.267578 1362.675659 1516.994629 1633.104614 1704.726929 1699.403931 1607.507080 1492.229980 1402.712524 1396.199097 1546.274292 1702.553101 1823.731445 1977.164673 2096.528320 2227.467529 2341.528564 2474.911621 2642.842285 2868.798340 2786.149170 2685.748535 2462.180664 2376.436523 2389.435791 2482.746826 2500.221680 2494.713379 2517.854736 2574.266846 2663.826416 2621.867188 2513.243408 2439.018066 2374.971924 2297.848389 2209.946289 2110.456055 1996.114624 1927.030029 1973.042236 2050.579834 2119.398682 2164.801514 2181.217041 2165.464355 2104.492920 2035.842529 1978.294312 1898.951904 1806.739868 1708.929932 1601.008057 1517.130249 1498.000000 1498.000000 1498.000000 1498.000000 1511.096069 1604.413696 1676.209595 1777.456909 1858.933838 1814.832764 1922.857788 2070.348389 2193.841553 2298.339844 2288.673828 2211.333252 2093.571533 2153.493164 2245.510010 2333.983887 2404.316650 2335.160889 2166.527588 2092.360352 2223.994141 2367.381592 2486.137451 2480.672363 2498.848389 2421.071289 2363.412598 2368.487549 2497.119873 2581.825195 2663.931885 2769.327881 2880.186279 2966.380859 3057.964111 3086.799072 2962.495117 2946.078369 2893.852783 2848.199951 3001.284180 3037.374756 3118.291992 3040.400146 2892.260742 2818.428955 2847.568848 2978.964111 3141.451416 3267.316162 3334.891357 3296.444580 3232.418213 3275.226318 3387.715332 3471.722900 3500.062256 3603.292480 3524.304443 3392.092041 3331.021240 3261.964600 3201.603027 3191.553223 3180.551758 3145.881104 3115.201416 3045.052002 2961.939209 2844.243896 2815.853271 2807.537109 2822.490967 2907.854492 3052.181396 3128.509521 3178.321533 3204.017822 3105.258057 3053.933838 2998.213623 2942.478027 2885.779297 2762.259277 2658.527100 2644.442871 2696.532227 2744.717773 2835.305420 2917.983154 2981.451172 2997.998779 3036.564941 3084.413574 3145.638916 3250.130859 3217.148438 3115.927979 2990.775391 2888.603516 2796.723145 2684.817139 2614.887207 2574.638672 2600.669434 2658.750488 2714.127441 2599.282959 2424.732422 2436.242188 2536.658936 2659.657959 2707.849121 2744.711914 2778.381592 2824.639893 2853.355713 2748.762207 2660.590332 2593.895996 2622.239014 2736.158447 2866.069092 2921.600586 2978.092773 3037.917725 3115.403564 3190.069824 3275.675781 3360.193604 3350.979248 3194.193848 3007.219238 2855.253662 2833.832764 2831.382324 2830.016602 2862.445312 2881.180420 2900.777832 2918.253662 2969.942139 3073.087158 2951.485840 2730.642822 2648.448242 2660.024658 2740.121338 2841.532471 2893.393555 2959.650879 3095.202148 3256.034424 3171.531006 2961.061523 2711.594727 2562.317139 2550.379150 2608.445312 2470.333740 2346.854736 2245.542236 2082.564697 1922.825562 1790.635132 1688.881714 1646.919312 1649.022827 1697.608154 1759.161621 1832.901123 1927.622803 1992.070068 2059.747070 2048.571289 1970.694824 1822.774414 1743.130005 1918.057495 2108.638672 2285.980957 2331.327393 2281.131348 2335.410645 2352.970215 2146.776611 1984.847290 2017.808350 2180.983398 2267.720459 2196.174561 2179.206787 2180.862793 2022.416992 1852.507202 1707.458374 1623.786133 1670.441650 1784.601074 1899.609741 1946.332031 1778.406738 1597.199585 1419.126587 1247.457764 1134.624756 1061.549561 963.723206 845.883911 774.331848 682.306641 623.401855 606.331665 633.116516 704.037109 853.154297 1021.718262 1194.447266 1341.995972 1483.405029 1646.030151 1784.794556 1913.804443 2089.477783 2189.319336 2283.336914 2120.877686 1937.017700 1686.157471 1540.216919 1605.655273 1741.714600 1863.480835 1978.932739 2122.707031 2297.008301 2439.546631 2537.428467 2638.263672 2544.190186 2418.896729 2276.700684 2129.549316 2067.147949 1926.459839 1833.833252 1747.382568 1721.945923 1648.875488 1622.859375 1727.509399 1843.495239 1949.771118 2046.873901 2114.621338 2181.947510 2215.906494 2243.824219 2224.159668 2133.174561 1998.569824 1987.588745 1932.995117 1845.304810 1840.841309 1762.796143 1692.796875 1724.777588 1629.121460 1613.280273 1568.970215 1525.545532 1514.117432 1497.460815 1533.820190 1656.239380 1828.406738 1977.098511 2145.820068 2071.866699 1986.563232 2046.485474 2209.018799 2258.359863 2298.696289 2231.824707 2169.583984 2179.933594 2212.652588 2279.208496 2326.460938 2356.710449 2299.167969 2260.308838
1913.825562 1867.701660 1842.139648 1835.994751 1817.417603 1764.601807 1673.188721 1598.446655 1524.284790 1474.269287 1416.194946 1394.354980 1337.187622 1352.825562 1334.021362 1289.989868 1214.448486 1168.171997 1151.219971 1161.584351 1168.851318 1170.963745 1191.240723 1219.994385 1277.810059 1363.463867 1420.429443 1468.457397 1442.028687 1607.107788 1791.018555 1851.209473 1864.320557 1749.133423 1643.277222 1544.600830 1417.446411 1552.275757 1659.062866 1796.840942 1997.419434 2130.372803 2262.493408 2390.848145 2519.750244 2696.329346 2915.469971 2924.059326 2737.200195 2574.964355 2501.466309 2461.048340 2523.698975 2544.641357 2550.861572 2574.727051 2597.913574 2644.821533 2544.622803 2458.450684 2393.118652 2325.959473 2227.689453 2141.227051 2048.527832 1951.901611 1954.341064 2025.861938 2105.681152 2159.864502 2212.445557 2229.250000 2212.163086 2145.127686 2066.806396 2002.919678 1913.239624 1816.643799 1727.894531 1659.407104 1566.677856 1498.712891 1498.000000 1498.000000 1498.000000 1498.801758 1577.009033 1692.464111 1806.158081 1896.690186 1922.888550 2048.182129 2209.224854 2391.028076 2453.458984 2384.925293 2292.543213 2214.194336 2227.109375 2325.660400 2428.018555 2507.749023 2417.286865 2260.280273 2133.178223 2177.466797 2309.344482 2447.269287 2530.469238 2611.184814 2572.992432 2487.184570 2420.329590 2433.865967 2523.062012 2628.579834 2759.704102 2860.118652 2964.895996 3054.804199 3014.133789 2877.581055 2846.940430 2779.372803 2761.368164 2877.727051 3048.406006 3166.733887 3139.643066 3030.342529 2995.597412 3025.615479 3091.969971 3280.453125 3384.350830 3306.221191 3212.725830 3157.351074 3185.677734 3295.380371 3407.230713 3457.711670 3651.514648 3547.645752 3391.839600 3293.583984 3220.261475 3150.237793 3117.539062 3092.884521 3044.181152 2994.920898 2966.959717 2903.718750 2861.346680 2843.249756 2836.224609 2881.007812 2983.619385 3151.630371 3238.711670 3242.018066 3205.988037 3082.440918 3020.226074 2965.543701 2909.828369 2842.367432 2720.343506 2662.018066 2670.175781 2735.590088 2810.174561 2883.413330 2937.416260 3007.356445 3028.865967 3047.916016 3118.598389 3168.504639 3221.957275 3119.350830 3050.744629 2967.412354 2849.332031 2721.053955 2629.226562 2599.429688 2655.435303 2765.176514 2811.811279 2725.268311 2559.935303 2444.146484 2504.790771 2599.753662 2723.066895 2842.325928 2953.955566 3019.377197 3028.329834 3039.545410 2908.812500 2784.671143 2664.497559 2637.432861 2698.884033 2823.354736 2913.116699 2971.916992 3051.606934 3147.384766 3210.862793 3229.435547 3220.814941 3297.575195 3272.975586 3073.039795 2901.335938 2852.947510 2848.365479 2841.927734 2862.081055 2895.318115 2915.776367 2928.825195 2944.031982 3013.707520 3099.745361 2887.456543 2734.938721 2691.738037 2709.651123 2822.722900 2897.401123 2979.299316 3128.724121 3111.408691 3044.257812 2945.630127 2686.878418 2437.053955 2376.635498 2405.833740 2365.541260 2271.335693 2095.345459 1926.640137 1838.506470 1741.654175 1677.287231 1692.813110 1765.149536 1824.187134 1879.227905 1907.158447 1977.546875 2057.286377 2180.133789 2180.361816 2065.311279 1871.010864 1751.363403 1920.961548 2108.802002 2244.542480 2359.055176 2380.558594 2391.098389 2370.647705 2160.922363 2051.216309 2107.453857 2224.156982 2300.411377 2258.364746 2180.111084 2063.613037 1949.017700 1814.845703 1689.750244 1705.749390 1778.496948 1868.768188 2001.737061 1978.026123 1857.212891 1665.954590 1475.485840 1267.659302 1129.713379 1016.301697 937.788025 859.660645 750.034058 671.485718 622.640381 600.901306 641.243896 717.708740 869.063354 1052.002808 1259.425171 1427.396118 1559.991577 1688.017578 1747.218750 1881.420654 1973.301636 2045.870728 2278.328613 2295.857910 2117.248047 1901.677246 1692.111328 1606.830322 1659.080200 1815.837158 2001.379639 2169.240479 2358.383301 2532.115234 2630.501709 2631.950439 2461.517334 2298.883789 2145.138916 2002.008789 1886.022949 1782.375122 1684.963257 1622.927734 1600.072632 1557.404175 1556.588989 1708.772705 1856.277100 2002.584473 2096.185547 2153.349121 2194.029541 2158.304199 2125.484131 2082.453125 1983.860229 1855.927368 1785.453003 1760.371704 1726.864502 1675.187012 1650.154297 1582.512085 1560.810425 1528.977295 1503.964478 1490.378540 1476.296021 1478.927368 1517.671143 1622.734863 1785.554321 1932.766235 2069.416748 2211.438965 2245.118652 2158.053467 2119.854736 2185.498535 2336.590088 2451.515381 2384.547852 2371.787598 2389.470459 2392.549072 2355.297607 2320.316650 2396.950684 2505.029053 2469.354980
1815.915527 1772.353516 1775.537109 1780.482910 1754.605713 1686.531860 1588.733032 1514.352905 1450.594604 1396.358887 1357.505615 1315.874512 1292.774902 1271.773438 1241.973511 1206.002686 1176.453735 1156.565308 1153.890137 1198.543091 1228.506104 1235.429810 1262.310181 1340.599976 1405.701416 1507.181274 1556.100342 1593.414673 1558.715088 1660.999512 1745.714844 1823.780518 1950.013794 1954.562744 1817.046387 1682.253662 1574.665649 1420.241577 1538.361572 1699.962158 1874.812988 2017.575562 2167.500977 2322.329102 2478.160156 2679.694092 2895.392090 2859.944824 2790.270752 2717.382324 2635.749756 2505.305908 2527.125488 2556.042480 2616.570068 2654.079102 2588.684082 2540.354736 2479.271240 2394.423096 2316.141113 2265.173584 2175.300049 2071.873779 1983.284790 1965.310791 2011.950684 2065.277832 2148.548340 2224.034912 2265.969482 2274.157471 2255.297363 2185.840576 2094.578613 2001.791626 1918.450928 1839.593628 1746.927490 1675.130737 1582.122192 1504.154053 1498.000000 1498.000000 1498.000000 1498.092285 1538.488403 1671.879639 1795.899536 1908.304810 2021.490723 2159.843506 2311.299072 2496.645264 2544.208008 2470.066895 2374.562500 2306.750488 2289.838135 2387.865234 2518.699951 2571.953613 2470.428711 2348.323730 2238.256836 2160.702637 2266.048340 2407.582764 2524.301514 2654.171631 2718.544678 2639.154541 2517.833984 2445.442383 2501.804688 2651.393311 2807.345947 2882.760986 2953.402344 3033.214355 2928.084961 2809.612061 2741.508545 2694.166016 2707.934570 2861.284424 3017.729980 3085.312012 3163.427979 3206.393311 3207.511230 3190.230225 3222.361816 3316.774170 3286.146240 3124.272217 3036.262207 3065.841797 3150.253418 3274.067627 3366.630615 3440.549561 3599.541504 3547.097168 3390.454834 3303.090088 3197.037354 3132.006592 3092.006592 3055.628906 2997.296143 2952.767822 2925.239258 2897.098145 2874.226562 2858.801270 2895.390381 2987.694336 3066.294189 3201.994141 3186.538086 3159.859375 3118.739502 3063.085449 3014.788818 2964.820801 2898.820557 2778.121338 2692.186035 2683.031006 2708.099609 2801.278320 2865.666260 2911.089844 2993.114258 3040.364258 3069.302246 3077.487061 3215.501709 3226.673828 3137.747070 3067.786133 2980.961426 2889.967285 2796.082764 2679.670898 2626.920898 2679.809082 2817.870361 2881.255859 2770.354248 2615.612305 2519.122559 2545.722656 2641.020508 2744.304932 2783.430664 2863.855713 2948.944580 3057.398682 3162.823730 3180.253418 2988.324707 2829.515137 2717.024902 2700.380371 2706.473389 2784.382324 2863.513916 2921.696289 2977.209229 3042.462158 3085.168457 3121.834717 3160.037598 3213.253418 3277.560791 3140.668945 2921.532227 2872.908203 2878.598877 2868.922119 2880.671387 2909.351807 2931.743652 2943.523193 2960.724365 2984.829102 3060.279053 3041.301025 2862.055176 2731.210205 2732.205078 2800.889404 2911.358398 2992.018311 3083.648682 3044.153320 2849.946533 2750.439453 2633.556152 2392.408936 2237.801514 2237.833252 2200.081299 2094.430664 1941.018921 1852.500732 1792.918091 1713.663330 1699.298218 1778.126343 1871.667480 1950.401123 2018.566772 2007.177124 2050.685059 2100.189697 2250.565674 2288.515137 2119.539551 1899.408081 1766.770264 1934.295166 2092.595947 2225.289307 2387.713623 2451.431641 2449.877441 2381.399170 2213.325928 2163.512207 2248.419678 2328.703857 2381.596191 2305.375732 2188.543701 2068.200195 1947.400269 1864.231689 1811.395630 1823.518188 1910.008423 1950.531494 2093.723145 2070.528320 1921.473755 1712.259888 1491.767700 1282.021606 1147.039551 1038.703125 912.147339 776.605774 712.971863 629.959534 600.221497 602.314392 684.103882 794.757324 952.183228 1027.703735 1178.340698 1313.239868 1421.963623 1511.569702 1621.260620 1768.627563 1788.677124 1980.746094 2201.961670 2307.816895 2290.603760 2120.111816 1900.158081 1767.516235 1702.410034 1764.547241 1973.330322 2137.006348 2297.667969 2434.630859 2558.337891 2526.293457 2366.275391 2199.495850 2032.725464 1874.606934 1775.296021 1695.884644 1633.795166 1640.592773 1682.534546 1554.061157 1527.354492 1673.100952 1837.966553 1947.068115 1937.769165 1999.870361 2055.446533 1965.786987 1918.406128 1915.894897 1883.496094 1783.895874 1662.102295 1621.393921 1609.170532 1544.748535 1514.606567 1510.427612 1488.447998 1468.361572 1465.389404 1462.209595 1483.371094 1533.975586 1612.476562 1700.598389 1841.431030 1989.513550 2125.363281 2227.240967 2306.246338 2347.471436 2263.907959 2258.463379 2325.881836 2410.838379 2490.573486 2518.010742 2554.630127 2441.257080 2378.953369 2385.574707 2504.691895 2618.365967 2603.023926
1743.479004 1724.882935 1725.901855 1718.675171 1685.683350 1593.430054 1506.729370 1424.679199 1366.389526 1333.361816 1308.553467 1274.136475 1247.654053 1232.681152 1217.853638 1188.080688 1156.152710 1166.833252 1216.849487 1268.683838 1315.435669 1356.773804 1383.106934 1403.865723 1514.486694 1589.077271 1652.634033 1706.551392 1716.874512 1703.371704 1778.971924 1919.616211 2062.830322 2101.594971 2001.660645 1921.524292 1690.093140 1483.981445 1480.103149 1630.874390 1779.050171 1955.928223 2129.309570 2311.142822 2494.701416 2690.524170 2832.883545 2878.183350 2874.723145 2784.558350 2614.889404 2571.667725 2560.005615 2565.133057 2651.378174 2741.277832 2615.175293 2515.798584 2445.757568 2357.674561 2250.259277 2159.029785 2101.641357 2014.953491 1985.923096 2040.985962 2106.541504 2140.930908 2178.137695 2271.471191 2318.944580 2322.277832 2296.141357 2244.246094 2143.164551 2039.036011 1944.336914 1856.760254 1787.198364 1697.678345 1594.533691 1514.814087 1498.000000 1498.000000 1498.000000 1498.000000 1542.376709 1701.809448 1816.825073 1927.493286 2055.096191 2204.502930 2365.950684 2547.856445 2600.063477 2500.004639 2478.273438 2399.174561 2352.301514 2400.888672 2543.559326 2618.609863 2543.840332 2439.164062 2314.446533 2170.912354 2234.866211 2389.140625 2525.738525 2671.766113 2806.808350 2757.712891 2622.401611 2515.373779 2517.244629 2625.405273 2765.460205 2814.927490 2957.343506 3053.728760 2863.984863 2762.489014 2669.698242 2611.499756 2701.097168 2837.149902 2947.696533 3007.767090 3081.151611 3231.877686 3280.324707 3288.498291 3237.108887 3108.926514 3108.122314 3021.777588 2939.270020 2941.041992 3057.399414 3176.037109 3304.761719 3423.332275 3491.148926 3486.286621 3346.657715 3310.511475 3213.097168 3131.795410 3090.951660 3040.779785 2996.155029 2954.160400 2926.716309 2905.641113 2905.637207 2943.727051 3043.031738 3149.108887 3140.002686 3172.214844 3141.390137 3133.565430 3075.284912 3032.989014 3000.204590 2932.699463 2825.243652 2728.177246 2716.682373 2721.259277 2762.803955 2835.018311 2901.173584 2988.973389 3050.374268 3089.236572 3102.729980 3115.254395 3248.952881 3275.205811 3183.731445 3074.893311 2964.560059 2888.582031 2772.325439 2673.364014 2670.210205 2805.820801 2943.700684 2850.561035 2699.242676 2593.415527 2599.115479 2700.101807 2802.138184 2928.927734 2916.821533 2952.949219 3006.961670 3074.980957 3153.407959 3118.349609 2980.952393 2837.345947 2764.148438 2766.051758 2770.124023 2779.585205 2849.311768 2903.192627 2952.185059 3000.127441 3058.689941 3113.293457 3153.387451 3195.338623 3245.268311 3134.521973 2941.950684 2891.640137 2902.085205 2911.720215 2934.506104 2973.477539 2997.190918 2967.554199 2984.920410 2996.240723 3035.412109 3093.070557 2980.059082 2793.341553 2762.470459 2788.605957 2895.553955 2977.968750 3074.904297 2919.157227 2713.835205 2540.791748 2424.632568 2299.308350 2133.088379 2137.493164 1991.645386 1860.119263 1815.717041 1794.711426 1751.274170 1707.242554 1755.210205 1854.420776 1948.661255 2056.044922 2144.662598 2132.282715 2129.469238 2164.545898 2255.468750 2329.157959 2149.410156 1933.326660 1782.476807 1931.263550 2095.883057 2204.987305 2329.900879 2465.873535 2538.051514 2390.760742 2265.579346 2276.866211 2402.749023 2449.244141 2471.460693 2331.065918 2203.268799 2091.766602 1994.547729 1961.836792 1955.572388 1961.349854 2034.968994 1977.365845 1890.452881 1968.946655 1813.957153 1668.452271 1529.172119 1342.908447 1174.728027 1025.166382 857.335938 723.287170 668.024536 602.575867 588.844849 647.246948 750.292603 871.886353 1014.529480 1119.718018 1110.554688 1125.350464 1224.203613 1354.916870 1499.815552 1584.433105 1704.758301 1921.854736 2046.244629 2169.609131 2307.872803 2268.152832 2101.377930 1973.152222 1832.950928 1806.236694 1945.391113 2137.939209 2276.717529 2458.251709 2495.128174 2387.653076 2253.726318 2114.738770 1944.119629 1769.200562 1673.629150 1671.023804 1723.486206 1771.879272 1811.403320 1600.411377 1502.579346 1657.410645 1785.883911 1773.105957 1809.226440 1889.409668 1942.794312 1818.776123 1758.152832 1761.970459 1750.989014 1669.460938 1584.836182 1543.280518 1506.587158 1479.417603 1465.958374 1462.607788 1456.369995 1452.958862 1463.912964 1500.201172 1573.361938 1617.585693 1728.229980 1765.984985 1805.634521 1939.193848 2094.974121 2178.790283 2246.725098 2369.386719 2421.914551 2373.592285 2400.031982 2483.647217 2558.918213 2579.643799 2525.105469 2466.896973 2466.245361 2506.159912 2545.028076 2518.134766 2468.234863
1674.845215 1674.170532 1638.034058 1622.638794 1564.059448 1484.469971 1410.512939 1353.436523 1319.429810 1285.724609 1253.420654 1218.716431 1204.544922 1203.652832 1198.309570 1172.088867 1183.540527 1245.932495 1314.023193 1378.703125 1406.527832 1432.895996 1477.669800 1521.255981 1597.168579 1641.710449 1701.388062 1780.249634 1827.935669 1841.135620 1889.882935 2014.127197 2176.121826 2253.080811 2170.849609 1980.972656 1693.397827 1531.008667 1470.633301 1612.598389 1803.168701 1971.945801 2145.817871 2312.584473 2456.121826 2562.435791 2644.353516 2776.074951 2811.685791 2719.008545 2661.041504 2669.443359 2587.261230 2571.143066 2622.320068 2650.061523 2607.818848 2506.362305 2424.326416 2346.030518 2246.637939 2135.120850 2050.187988 2009.955200 2063.808594 2126.926514 2181.971924 2228.505127 2225.114014 2304.170654 2410.150879 2410.225830 2370.274902 2311.604736 2205.013184 2086.923340 1987.373169 1912.144775 1821.733276 1713.483032 1612.034790 1528.713501 1498.000000 1498.000000 1498.000000 1498.000000 1560.504150 1747.759766 1851.084595 1961.742432 2102.909912 2250.364014 2418.271729 2590.594727 2591.740967 2538.808350 2581.289551 2474.619629 2425.437988 2449.124268 2534.720459 2663.336670 2604.532227 2494.094238 2366.440186 2217.590576 2229.555176 2377.447021 2517.850586 2688.366943 2848.587402 2818.824707 2651.672363 2557.328369 2558.374756 2648.480713 2704.145996 2773.881836 2944.041016 2982.516602 2817.890869 2724.321045 2595.880127 2603.115234 2777.212646 2938.085205 3006.689209 3023.838623 3080.302002 3151.614502 3198.096680 3194.664795 3112.465088 2991.037354 2958.795654 2994.147705 2914.107666 2873.146240 2929.523438 3058.360352 3277.484131 3382.711426 3420.050537 3424.583740 3338.158936 3294.441162 3246.023682 3171.731445 3112.747314 3051.052979 3020.247314 2990.370117 2983.718750 2997.378418 3036.080078 3096.232910 3178.206787 3129.329590 3075.588867 3053.409180 3016.690186 3070.853271 2998.111328 2959.834473 2922.962402 2843.087891 2758.716797 2732.799805 2752.389893 2766.510498 2829.532715 2886.298096 2996.717773 3079.275879 3115.736572 3136.160889 3134.800781 3146.371826 3223.125244 3342.284424 3259.609619 3072.932129 2977.815674 2881.239014 2764.917725 2686.222168 2753.200684 2894.227051 2959.233887 2801.751953 2684.058350 2629.981201 2706.901855 2840.211914 2960.822998 3083.600586 3127.793945 3125.280518 3148.761475 3215.142334 3200.973145 3064.672119 2964.649658 2878.146729 2802.383057 2812.835693 2852.127197 2856.126953 2875.846924 2916.182617 2972.320312 3016.070557 3060.232422 3116.364746 3166.343506 3221.232910 3263.514893 3119.985352 3009.951660 2922.707520 2919.100830 2929.005127 2940.955811 2989.805420 3090.942627 3066.532227 3009.342285 3017.008057 3043.547607 3076.533447 3038.768555 2851.788574 2793.076172 2805.136963 2890.699219 2981.652832 3077.811035 2877.622559 2661.608398 2516.644043 2336.771240 2178.861572 2053.663818 1941.666138 1842.043823 1797.711548 1776.194946 1777.576172 1767.889526 1792.727295 1843.120239 1905.239502 1993.942871 2137.989990 2253.851562 2253.440674 2189.163818 2220.906982 2313.477051 2317.311279 2145.507080 1967.278564 1793.102295 1919.248291 2105.124512 2218.521729 2331.977295 2489.017578 2536.140137 2375.589844 2304.718994 2336.931641 2449.620117 2577.766602 2550.421875 2395.489746 2271.459473 2149.958740 2075.708008 2034.896851 2073.454834 2102.156494 2074.339111 1867.979858 1651.084717 1723.014648 1704.139526 1539.475952 1447.227295 1342.138916 1150.503540 955.876892 801.275574 703.453552 635.075684 600.204956 607.624207 722.810547 822.617188 920.690063 1058.746094 1225.033936 1293.831787 1223.094971 1168.725464 1196.326660 1304.668213 1423.510742 1620.333374 1758.838867 1889.235840 2048.889404 2182.613525 2307.735596 2304.495117 2123.823975 1961.424438 1934.103882 1999.320679 2116.246826 2301.294189 2477.583252 2421.440430 2282.737793 2153.589844 1996.884399 1856.500488 1697.184448 1692.063965 1796.215210 1870.737061 1923.626831 1852.343750 1635.752075 1513.990479 1555.668091 1580.431763 1598.445801 1695.009033 1773.847534 1821.914429 1700.558105 1622.380859 1645.674683 1604.872192 1533.427368 1501.047852 1489.889771 1469.816162 1445.768433 1451.198486 1473.350830 1498.671387 1518.401978 1544.079834 1637.837402 1724.656250 1709.332153 1818.644653 1921.861328 1905.963257 1984.661499 2073.398438 2185.120361 2251.826660 2368.594238 2488.253906 2475.920410 2409.163086 2399.160645 2432.219727 2420.093994 2463.028076 2576.461182 2579.032227 2516.829834 2430.629395 2400.887695 2359.483398
1592.639526 1608.332520 1559.324585 1493.172485 1443.795166 1376.782227 1331.833740 1304.427490 1283.238770 1266.863403 1230.010010 1187.181396 1180.727417 1175.818237 1174.402710 1201.679688 1259.034302 1329.816162 1387.451904 1415.364990 1445.854126 1475.572144 1533.029053 1613.218140 1687.919312 1748.097656 1806.156128 1861.547852 1962.837646 2010.789185 2030.906494 2149.854492 2251.322510 2281.040283 2206.408691 2039.475098 1760.424561 1570.965698 1475.406372 1572.035645 1768.468018 1948.068726 2093.061035 2207.459229 2283.099609 2375.942383 2462.905518 2599.309326 2723.519531 2823.866211 2744.567383 2710.529297 2628.732910 2570.358887 2563.811523 2548.961914 2519.712158 2469.921875 2381.571533 2314.866943 2231.623535 2120.255371 2026.578857 2059.886719 2147.337402 2209.181641 2265.294189 2306.533203 2283.165527 2333.431885 2512.140869 2533.414062 2445.257568 2364.106201 2270.090332 2148.727783 2037.761108 1941.392700 1841.041992 1740.418335 1639.758545 1536.849365 1498.004761 1498.000000 1498.000000 1498.000000 1557.070557 1779.922241 1879.954346 2006.827515 2135.401123 2255.155273 2367.847168 2450.951904 2474.799316 2517.845703 2595.133545 2541.612305 2533.156250 2503.284668 2545.124023 2643.337646 2567.206787 2489.163818 2409.033203 2297.056152 2234.998291 2377.979004 2552.528320 2692.841064 2837.339111 2831.746094 2707.380127 2623.723877 2598.435303 2646.836182 2792.708496 2854.783691 2930.320557 2938.550537 2799.437988 2677.466309 2563.448242 2636.610352 2860.639893 3035.990479 3129.608887 3161.627930 3186.697998 3187.662354 3162.481201 3048.405029 2987.894531 2919.901611 2875.532959 2897.751221 2898.756592 2840.253906 2881.525635 3077.046875 3291.209717 3311.583984 3322.852539 3386.888916 3388.375000 3281.648682 3238.409912 3201.745361 3169.583740 3139.171387 3097.891113 3080.664062 3098.032715 3134.460449 3147.428223 3168.651855 3111.577881 3034.523926 2945.995605 2893.257812 2871.028809 2962.219971 2945.422607 2887.416504 2833.541992 2768.399414 2750.554932 2754.649170 2786.056152 2832.068115 2880.689941 2973.051270 3108.725342 3139.278076 3175.037109 3183.173828 3174.360352 3184.089355 3273.090088 3283.655518 3208.854248 3122.024170 3026.591553 2900.997314 2776.084717 2749.200439 2873.565186 3003.350830 2926.088623 2760.314697 2712.961670 2694.370850 2800.585449 2872.520752 2945.246582 3043.767578 3212.034912 3380.972656 3350.086670 3335.264404 3219.193604 3106.562012 3032.541016 2938.385010 2848.841309 2850.503418 2902.382324 2955.085449 2973.809570 3005.242920 3033.254395 3055.380615 3093.693604 3185.172852 3248.418213 3313.940674 3354.332764 3181.824463 3080.582520 2988.293213 2938.933350 2943.928711 2955.222412 2965.595459 3007.270508 3091.786621 3057.843506 3044.967529 3069.810059 3093.462158 3061.932617 2859.138916 2818.059814 2825.911621 2898.964111 3005.850830 2985.105713 2790.511475 2568.440430 2473.515381 2279.350342 2066.892090 1936.346680 1879.232422 1831.208984 1794.910889 1799.401123 1832.567261 1880.523682 1928.317383 1932.851929 1896.732788 1978.310669 2138.919189 2320.962158 2374.347656 2285.301270 2309.699463 2413.727783 2311.669434 2170.697754 2022.490723 1842.596191 1877.712402 2060.164795 2235.638184 2350.836914 2468.493164 2550.991211 2479.808838 2416.776855 2438.670654 2508.340576 2667.375977 2570.314697 2431.989990 2295.595459 2215.208496 2151.906738 2156.204346 2186.050293 2172.068359 1967.910645 1770.834106 1554.584351 1462.403320 1508.588379 1464.100586 1306.783936 1239.550781 1096.722534 906.850952 733.323853 656.298645 612.284424 584.065125 634.938171 775.704834 885.418396 969.258240 1089.395874 1219.939575 1354.896240 1416.048828 1394.060303 1325.640137 1251.197388 1303.264893 1443.961548 1630.244873 1832.142212 1953.254395 2045.605957 2214.942139 2377.897217 2284.015869 2102.669189 2061.669678 2106.138916 2195.170654 2292.059082 2445.161133 2306.523438 2171.440430 2025.122559 1879.178711 1750.094727 1700.766602 1801.042847 1908.878052 1979.928833 2027.510498 1866.897583 1717.799561 1622.306519 1470.987183 1432.382935 1455.010986 1526.379395 1644.634766 1631.056396 1557.532227 1489.492798 1526.138428 1498.184570 1434.266235 1432.606445 1439.743286 1447.327271 1487.844116 1543.745972 1602.795532 1650.018311 1682.836304 1633.862061 1728.240356 1818.149536 1792.259155 1865.681030 1978.301270 2034.873657 2054.131592 2119.457275 2189.600586 2283.128418 2329.218018 2316.239990 2296.022461 2240.706055 2273.309814 2333.552734 2335.032227 2399.392334 2498.364746 2566.558838 2495.884521 2366.966309 2315.720703 2278.183838
1496.197876 1480.022583 1424.926392 1361.614258 1325.572144 1291.869629 1282.308716 1267.729858 1263.576538 1236.873413 1204.267944 1200.946655 1206.473511 1207.125977 1278.978638 1341.402100 1384.158203 1396.307617 1432.236206 1465.825195 1496.310181 1534.437012 1602.336670 1704.213867 1784.369507 1863.824341 1925.512573 1978.875610 2060.662354 2166.048340 2152.108398 2260.317383 2352.446289 2213.147217 2074.988525 2046.156616 1839.702271 1609.958740 1511.468994 1523.082397 1699.233398 1860.164307 1970.944092 2045.286743 2131.636963 2226.425781 2283.799805 2369.047119 2573.367676 2804.805908 2783.213379 2729.132568 2663.809326 2595.835938 2545.517822 2531.885010 2499.050293 2440.119629 2352.165527 2275.565430 2195.799072 2090.479980 2027.095093 2100.649902 2204.074219 2285.354736 2359.772949 2409.451172 2356.467041 2380.836426 2534.977295 2596.822266 2544.354980 2435.251953 2313.202881 2204.437744 2104.349121 1979.722046 1864.243164 1757.140625 1639.001831 1537.775391 1498.000000 1498.000000 1498.000000 1498.000000 1547.541504 1755.047974 1934.806763 2038.068359 2127.716797 2157.820801 2207.963135 2272.166992 2320.111572 2395.270752 2508.827393 2601.416504 2638.666992 2569.367676 2604.462891 2659.202148 2595.932861 2552.391357 2491.998291 2369.874512 2284.715576 2409.682861 2555.639648 2681.286865 2799.364990 2892.010986 2805.107910 2760.206787 2693.977051 2709.357666 2874.835938 2966.497314 2974.973877 2860.182617 2734.052246 2618.127441 2539.677979 2683.813965 2869.698975 3069.453369 3240.205811 3289.457031 3266.530518 3233.845947 3118.906494 2961.770020 2840.210938 2788.139648 2791.914551 2820.274170 2839.723389 2825.096924 2848.637207 2994.538818 3168.815674 3225.477783 3256.082520 3285.714111 3298.387207 3180.808350 3105.491455 3074.109375 3067.338867 3079.039307 3071.615234 3118.670654 3154.194336 3111.817871 3051.048340 3051.870117 3007.141357 2949.763916 2863.174316 2798.820557 2758.240479 2832.535156 2886.203369 2841.236328 2799.447754 2759.900146 2777.506836 2791.836182 2840.412354 2891.778809 2930.421631 3032.331543 3174.631348 3197.586182 3232.829346 3242.315186 3229.432861 3235.481201 3220.103027 3127.044922 3077.453613 3036.335449 2979.724854 2886.721436 2780.972900 2833.625732 2986.832031 3057.256592 2920.947266 2776.402832 2747.128418 2749.696045 2858.573730 2975.707764 3050.253906 3167.444824 3271.925049 3420.316650 3439.485596 3410.692383 3296.447510 3198.943604 3124.192139 3017.379639 2928.666748 2913.331055 2953.021240 3006.932373 3046.970215 3078.052246 3116.832520 3138.407227 3145.006104 3182.011719 3214.155762 3245.454590 3296.823730 3294.663330 3169.969238 3079.941162 2975.488525 2958.593262 2963.248535 2970.360352 3002.585693 3056.237061 3127.538330 3085.985107 3101.687500 3123.407715 3048.304932 2884.495605 2842.138672 2859.066650 2918.315186 3001.990723 2880.579590 2663.294678 2427.589844 2333.645508 2143.644775 1970.391479 1863.710693 1841.340088 1819.672974 1841.698730 1881.298706 1948.342896 1992.858765 2037.767578 2057.820312 1960.694580 1926.536011 2073.966064 2282.286865 2454.514893 2453.819092 2436.657715 2505.155029 2334.823242 2232.538574 2050.983887 1885.594727 1906.787476 2060.854004 2243.548340 2367.161621 2456.261230 2548.184082 2612.059326 2510.312988 2567.150146 2593.270020 2710.891113 2585.366455 2431.740234 2320.948730 2278.523682 2259.589111 2232.896240 2087.045654 2069.329834 1909.336914 1702.443970 1523.540405 1322.724121 1225.562134 1337.874878 1217.259399 1072.475098 1000.817139 863.536438 690.096619 604.318237 582.717163 602.937744 665.910950 795.396790 923.892151 1012.447876 1124.211426 1239.005737 1343.525757 1444.983154 1559.007568 1525.229370 1422.668213 1319.065063 1351.904907 1491.509766 1682.366455 1826.679932 2023.838623 2199.409180 2324.631592 2355.389160 2278.832275 2182.697510 2220.284180 2370.710693 2392.897217 2379.051270 2240.281006 2101.157471 1914.317627 1792.315918 1727.404053 1806.519043 1895.359985 1985.234863 2071.168701 2056.709961 1925.465698 1821.988525 1698.529785 1551.403198 1402.540649 1370.429199 1398.176758 1461.959595 1447.717529 1422.486572 1405.709351 1393.888916 1382.391113 1382.316528 1420.066895 1483.871704 1554.637207 1606.600220 1683.008789 1743.915405 1797.685181 1806.656006 1709.833740 1778.639526 1884.143677 1864.617065 1892.567505 1997.381836 2099.417969 2159.210449 2235.720459 2276.022461 2258.215332 2206.219238 2183.006836 2171.808838 2145.182129 2185.650879 2213.860840 2256.709961 2331.860840 2418.254150 2497.663330 2468.044678 2348.490234 2264.619141 2240.616699
1393.420044 1349.854492 1301.159180 1237.059448 1211.240356 1206.861816 1221.295654 1210.618164 1203.173340 1209.666382 1213.298828 1219.194092 1277.823730 1328.267212 1402.100830 1457.778687 1443.999390 1444.518311 1468.103638 1526.178467 1559.928955 1629.885620 1644.156982 1739.451294 1856.504395 1974.865479 2060.323242 2130.203857 2162.439941 2270.290771 2292.015625 2368.420166 2353.278076 2218.889893 2042.654419 1852.206299 1756.412964 1594.108276 1548.573364 1516.445312 1574.353394 1709.395630 1822.011108 1911.673706 2001.700928 2085.267090 2142.052490 2231.697021 2419.209473 2684.707764 2809.889404 2745.822021 2699.610596 2636.986572 2536.371094 2502.472412 2458.491699 2397.424072 2307.963623 2207.118652 2131.302002 2066.118408 2032.410400 2122.197021 2246.562500 2354.120605 2448.088623 2505.788818 2429.587402 2434.370361 2499.661865 2597.985596 2577.473633 2467.383057 2319.133545 2229.877441 2142.503418 2018.173096 1891.381592 1791.856812 1657.221680 1541.974731 1498.012085 1498.000000 1498.000000 1498.000000 1521.982300 1682.211914 1886.977783 1965.259033 2019.193481 2059.902344 2118.985107 2166.476562 2206.242676 2276.483887 2391.390381 2503.879150 2644.416748 2704.860596 2733.713135 2738.212891 2700.672363 2661.923340 2566.105957 2432.329346 2309.758545 2409.997559 2538.816650 2651.916016 2751.416260 2859.163086 2931.605225 2896.137451 2838.574463 2856.816406 2882.365967 2853.870117 2848.704346 2770.495605 2684.533447 2560.834717 2550.723145 2734.805420 2965.378662 3197.461670 3339.684082 3313.907715 3302.660400 3229.036377 3078.746094 2923.045654 2775.932617 2694.520996 2672.971680 2743.285156 2795.178711 2824.810791 2879.220947 2970.157959 3048.803223 3113.621338 3179.302490 3218.025879 3234.247559 3115.008301 3038.424072 2982.872559 2922.922119 2933.791748 2910.872559 2970.966797 3004.580566 3007.291992 2996.941162 2947.291748 2901.680908 2866.039551 2828.756348 2740.495361 2656.454346 2706.570068 2785.803955 2775.277100 2773.830811 2785.434570 2817.080322 2845.468994 2876.503662 2913.667236 2975.583496 3052.988770 3195.287354 3259.381836 3317.046631 3379.087402 3312.295166 3263.395508 3155.898438 3087.459961 3031.075684 2971.652588 2920.925537 2843.633789 2805.073486 2860.542969 2996.620605 3090.710205 2938.553223 2822.370605 2809.908447 2825.550293 2918.880371 3016.884033 3078.663818 3152.609619 3258.577881 3293.138916 3289.142822 3331.821045 3367.677002 3300.176025 3215.209473 3112.084473 3004.514160 2996.057861 3015.810303 3042.217773 3072.678711 3106.543457 3134.117676 3156.505615 3173.300049 3197.521484 3222.306152 3244.951904 3266.466309 3306.473877 3301.195801 3134.836670 3021.528076 2987.554688 2977.930420 2991.698242 3013.099854 3041.860352 3107.660400 3130.605713 3154.140869 3180.082520 3053.769287 2959.559814 2922.235352 2922.075928 2967.039307 2949.313232 2768.652344 2539.116211 2337.475342 2164.410889 1984.052246 1882.543213 1833.948730 1826.096436 1838.955688 1918.062378 2009.203735 2098.824463 2110.128418 2115.515625 2150.592285 2094.464111 1961.487183 1983.281006 2168.785889 2322.897461 2440.379150 2550.705811 2604.031494 2407.430664 2285.057373 2075.164551 1903.896606 1931.987427 2085.207764 2256.309326 2394.548096 2484.020264 2557.406250 2671.966064 2605.671387 2669.906494 2696.348877 2719.634277 2579.116699 2464.908936 2418.502686 2376.411865 2275.120117 2125.512451 1941.892212 1833.304199 1815.852173 1715.034668 1511.652344 1255.574219 1081.145142 1150.070679 1061.380493 987.588928 870.722717 762.955139 641.949219 571.201355 603.803162 640.003479 691.357910 810.253967 936.042786 1044.030273 1141.117432 1283.619629 1410.414307 1516.640747 1670.057007 1675.021729 1635.546875 1497.071411 1421.465332 1395.806519 1503.834106 1755.340698 1955.067383 2077.075439 2139.487793 2236.026611 2376.652588 2302.805908 2288.539062 2434.299805 2415.437012 2279.218750 2165.735107 2040.817505 1883.756836 1793.155273 1822.619263 1924.470215 1998.497314 2064.221436 2152.247070 2084.383057 1982.220337 1864.661377 1738.099365 1594.192505 1440.457153 1368.970703 1339.162598 1341.389648 1350.750000 1351.044312 1354.073120 1374.498779 1406.670776 1433.156616 1494.759644 1567.474854 1616.239380 1693.520508 1773.060059 1854.608276 1915.509644 1892.149536 1760.348389 1814.944824 1918.905884 1970.036011 1951.780640 2017.430664 2080.046875 2146.565674 2242.927979 2239.210449 2150.111084 2108.439941 2075.397705 2056.140137 2032.871826 2065.998535 2143.892578 2221.449951 2285.305908 2327.037598 2401.634766 2494.358154 2430.827637 2365.138672 2361.687256
1273.229004 1224.079956 1209.977417 1241.721436 1291.214355 1304.215454 1293.441650 1277.251343 1267.681030 1286.339966 1316.192871 1264.312500 1369.047729 1405.698975 1442.037476 1464.935425 1476.367920 1510.198608 1526.827881 1561.477905 1659.539185 1752.673096 1809.070435 1778.154419 1878.375000 2038.402344 2204.958740 2285.128418 2325.596680 2388.296631 2472.489746 2441.157959 2281.077881 2163.187988 2042.918701 1830.321289 1672.317871 1610.529907 1615.239014 1564.046021 1542.960938 1611.362915 1697.001099 1789.400879 1884.357422 1960.288208 2062.047852 2120.578613 2270.301270 2508.145996 2685.322021 2747.762695 2736.952881 2629.416016 2536.956055 2467.067383 2416.101318 2352.133301 2262.573730 2169.055420 2150.850342 2128.603516 2053.399902 2108.732178 2266.210693 2421.097900 2537.207764 2600.433105 2527.641357 2505.157959 2538.846680 2625.340820 2636.324951 2547.945557 2415.179199 2298.682373 2175.308594 2040.558716 1915.218506 1818.190552 1685.117676 1560.596191 1498.075806 1498.000000 1498.000000 1498.001221 1508.921143 1596.331055 1724.925049 1844.270264 2040.006348 2128.461914 2183.846924 2213.424072 2219.202148 2227.901367 2307.366211 2433.886230 2538.304688 2628.684082 2701.713379 2766.663818 2789.934326 2715.364014 2608.898193 2479.531006 2330.517822 2381.838867 2480.708252 2565.410645 2634.354004 2726.861084 2888.056152 3002.303467 2991.769531 2945.119629 2813.584473 2759.433838 2736.563721 2680.145508 2583.718994 2498.791748 2579.016846 2782.605957 2963.040527 3148.336914 3250.679688 3205.543945 3138.796631 3129.999268 2979.311523 2879.206543 2734.291260 2630.659912 2592.215088 2664.711426 2749.754883 2812.439941 2896.157227 2983.090332 3058.694580 3100.420898 3146.605713 3212.036621 3200.177734 3100.277344 3023.307617 2960.783203 2870.749023 2810.089355 2777.342773 2785.117188 2831.337891 2877.807617 2913.637451 2894.383545 2828.117188 2787.421387 2754.498535 2697.717773 2581.987061 2674.466064 2757.127197 2753.925537 2778.417480 2847.986084 2880.977539 2904.191650 2910.621582 3017.474121 3087.319580 3107.294434 3194.833496 3310.812988 3404.789307 3366.724365 3229.066650 3207.781006 3178.840576 3140.502197 3079.589355 2969.196533 2890.475586 2836.974365 2869.402100 2935.812012 3000.752441 3071.781738 2978.307617 2879.194824 2900.620117 2919.850342 2985.276855 3047.815186 3098.143799 3144.566650 3195.892334 3234.397217 3264.501709 3294.219727 3342.471191 3360.980957 3295.413818 3218.312500 3101.127930 3079.666992 3097.407715 3135.605469 3176.520020 3159.062256 3150.703369 3159.602295 3174.863037 3203.744141 3228.263672 3249.587891 3271.720215 3305.112305 3312.659424 3141.646729 3061.980957 3045.407959 3012.922607 3009.011963 3016.082031 3046.360596 3100.801025 3140.586426 3197.715332 3244.826416 3099.603027 3052.107178 3030.735352 3027.703125 3049.200928 2918.379883 2694.668457 2521.618652 2325.292236 2062.982910 1935.605103 1885.216675 1858.896484 1841.605103 1882.361816 2003.504028 2133.675537 2229.451660 2213.514648 2209.551758 2250.813477 2213.181152 2038.065186 1957.909180 2111.974854 2270.038330 2423.312744 2586.405273 2682.136475 2529.686035 2297.836670 2075.046387 1921.660278 1971.004395 2121.429932 2272.446045 2398.605469 2519.732422 2594.450928 2708.389160 2714.597412 2777.023193 2759.155518 2674.445557 2600.240967 2492.716797 2406.255371 2322.694092 2176.711426 2034.548096 1861.656738 1664.000854 1538.408691 1467.756226 1414.932861 1245.298096 1043.839233 928.205627 866.022949 840.369629 807.772034 708.773193 606.164001 571.497314 611.438599 655.238281 704.074524 794.341003 916.698975 1020.780945 1164.535278 1313.319580 1455.515991 1614.755493 1789.618042 1863.250122 1801.435669 1679.798218 1583.990967 1447.978882 1440.305786 1573.934937 1791.354980 1894.725220 2005.906372 2114.738281 2251.423340 2381.508789 2436.253174 2440.714844 2366.708496 2299.536865 2205.660400 2071.686035 1889.356323 1828.991333 1904.927124 2001.198486 2067.183838 2130.451416 2220.867920 2102.236084 1962.334595 1826.410156 1749.016846 1600.761475 1485.490723 1377.281982 1328.572144 1318.866455 1317.612061 1348.390869 1428.736450 1492.421265 1538.652954 1544.368774 1545.869873 1625.148682 1685.085205 1772.204712 1867.310303 1951.307983 2009.767578 1963.706421 1809.623535 1834.988647 1946.350220 2041.164307 2066.373779 2080.456299 2156.458496 2223.162109 2192.686279 2128.103760 2051.317383 2013.270142 1966.627075 1920.906128 1934.980957 1989.924316 2093.927490 2171.739258 2223.415039 2275.832764 2375.052002 2523.947510 2501.238770 2457.003418 2424.977295
1243.904297 1297.356079 1344.418945 1355.305908 1350.433838 1344.573730 1353.649048 1352.224243 1375.003418 1396.629150 1394.526489 1288.336792 1404.601440 1445.012451 1470.061646 1495.769531 1532.645752 1600.831543 1611.314087 1589.489746 1701.491699 1826.239014 1938.677002 1917.456909 1874.870605 1991.210938 2135.465088 2299.376465 2439.273682 2600.475586 2648.123291 2445.881348 2247.606689 2103.809082 1963.547363 1786.346191 1687.111450 1647.244385 1737.020142 1680.887329 1603.708374 1587.092529 1626.568481 1688.780884 1785.668579 1905.580566 1980.055298 2042.903809 2195.694824 2364.657471 2515.499512 2664.659912 2728.587891 2653.388184 2562.856689 2477.066162 2394.549316 2320.391602 2240.569336 2263.975342 2318.041260 2240.028320 2111.988525 2105.866943 2274.927246 2444.556152 2601.353760 2709.253662 2639.552490 2560.233643 2569.655518 2613.916016 2623.711182 2602.876221 2496.925537 2358.481934 2205.948730 2054.545166 1934.317261 1827.464966 1694.449219 1574.527222 1501.569336 1498.000000 1498.000000 1505.454468 1529.002075 1568.066284 1681.219604 1845.286011 2039.938965 2216.813721 2306.818604 2369.254150 2359.294434 2264.171875 2293.334961 2399.005127 2482.347900 2547.386230 2601.692871 2660.143311 2746.566895 2719.495117 2605.517822 2491.686523 2355.137207 2374.438477 2459.517822 2511.373047 2583.454834 2723.661865 2862.798584 2948.140137 3071.922363 2984.340332 2846.176514 2729.762939 2676.124023 2624.361084 2519.907471 2480.928223 2602.881836 2775.832031 2934.624268 3022.902832 3113.848633 3100.340332 3025.460693 3043.700684 2972.847656 2819.149658 2677.662598 2535.429443 2516.506592 2605.946289 2745.769775 2849.475342 2908.773926 2999.820068 3146.362061 3195.461670 3226.751465 3304.824707 3219.365967 3110.176758 3038.645508 2966.699951 2879.985107 2797.204590 2732.642090 2665.487549 2660.707275 2699.656494 2792.944336 2817.132324 2739.044189 2702.914551 2639.591064 2595.216797 2519.906982 2639.997314 2726.875488 2819.633789 2890.725830 2951.899902 2957.725586 2949.888916 2962.357178 3143.270264 3192.756592 3226.238281 3266.712646 3322.743408 3393.499512 3249.848633 3080.256836 3053.234619 3099.658203 3131.352539 3113.375000 3022.291260 2921.147217 2885.807373 2939.241211 3014.912354 3068.364014 3140.168701 3074.493652 2934.113037 2937.845947 2965.517822 3015.966553 3076.208740 3117.215332 3141.549072 3178.885986 3220.940430 3266.974365 3313.964111 3394.919434 3451.031982 3364.414062 3323.827881 3196.714355 3199.417480 3167.823242 3195.357178 3256.116943 3314.227295 3246.897461 3168.291504 3171.285889 3206.496826 3235.521729 3250.130127 3269.212646 3316.619141 3337.223145 3201.688477 3111.799805 3096.624023 3101.247070 3041.497070 3038.581299 3063.364258 3098.990723 3151.068604 3176.921143 3247.568115 3203.917480 3134.670654 3127.905273 3118.090088 3087.120850 2855.921631 2695.847412 2543.673828 2328.644287 2118.579834 1982.785645 1959.647949 1932.472778 1861.475342 1920.376221 2087.493896 2228.533447 2330.870605 2297.355713 2274.660156 2293.534180 2295.635742 2112.899414 1979.177368 2077.861084 2279.970215 2419.523193 2549.312744 2742.010010 2488.987793 2236.543213 2081.364502 1957.091797 2036.294312 2174.092041 2308.762207 2412.678223 2502.654053 2663.516602 2723.237793 2719.353516 2749.565674 2719.352539 2590.143066 2472.904053 2335.827881 2231.167480 2149.621338 2155.373535 2024.631836 1863.976685 1657.776978 1450.922974 1295.199951 1178.494873 1059.942261 939.227966 874.401367 844.134583 782.064209 694.658386 616.778198 585.568665 569.830933 610.967773 665.414917 752.172485 876.348389 968.078552 1119.327881 1205.446289 1317.602905 1501.858398 1692.902710 1866.932007 2013.718750 1985.202881 1866.450317 1783.585815 1606.763306 1503.965942 1506.501709 1655.259277 1857.420532 1999.846680 2115.692871 2225.952148 2296.477539 2404.302002 2539.304199 2454.372559 2366.751221 2229.296875 2087.555176 1915.351196 1867.677246 1953.379028 2036.222778 2115.666016 2167.739258 2228.423584 2103.822021 1959.611450 1850.233032 1803.399414 1715.051758 1572.662598 1396.806030 1315.915161 1310.333740 1325.454590 1429.787842 1525.774048 1602.449829 1637.338013 1645.799072 1612.018799 1698.819702 1781.079956 1860.372437 1939.736572 2017.742432 2079.132812 2012.447632 1878.601196 1844.590942 1962.696045 2056.429199 2115.409424 2117.172852 2160.041504 2208.263916 2126.401367 2010.107300 1931.856445 1908.975098 1892.135620 1946.342773 2018.521118 2070.581787 2138.039062 2185.540283 2224.952637 2303.084229 2393.825195 2526.333740 2602.095947 2562.547119 2510.810547
1348.148804 1377.491577 1395.847046 1396.902466 1382.013428 1397.015747 1428.645142 1468.022461 1495.202637 1481.054565 1442.641357 1325.551514 1427.250977 1477.099854 1525.623657 1572.740601 1632.774658 1696.528198 1672.871582 1653.611450 1792.090088 1934.136719 2036.392578 2068.197510 2025.320435 2038.854980 2101.604248 2196.223877 2413.215820 2667.006104 2601.974365 2389.100586 2176.218262 2022.706665 1892.600464 1786.173218 1706.166992 1702.821655 1845.089233 1814.909058 1730.432983 1689.062378 1677.422485 1672.052368 1722.128540 1799.410400 1871.526978 2006.830933 2146.220703 2228.282471 2438.336914 2592.837402 2646.276611 2685.858398 2606.381836 2521.891357 2445.688721 2373.389160 2297.160889 2364.344482 2425.607910 2323.249268 2156.037598 2126.952637 2260.320312 2405.838867 2543.307861 2688.506348 2721.904297 2689.723389 2671.519775 2678.513672 2644.941162 2562.209229 2459.364014 2333.383545 2194.130859 2047.862793 1934.987549 1808.416992 1689.503418 1588.951172 1504.022217 1498.000000 1499.526733 1524.117798 1552.385132 1598.063721 1730.872314 1856.787598 2027.573364 2179.208008 2324.707275 2332.079102 2392.830811 2322.031250 2318.342529 2424.903809 2500.662598 2572.816162 2660.054932 2722.511475 2684.111816 2651.897461 2610.483154 2527.722900 2412.374023 2410.440186 2507.763428 2566.014893 2636.116211 2774.049561 2907.742920 3012.263672 3010.615234 2941.735352 2863.479736 2761.785400 2639.312500 2585.670898 2469.684082 2465.597412 2658.634033 2858.510010 2982.380371 3067.402832 3115.447998 3102.538086 2946.566650 2886.773926 2880.524170 2805.229004 2603.502197 2462.804199 2508.450195 2666.494629 2770.865479 2902.472412 3005.387451 3103.759766 3179.742432 3169.092773 3174.642090 3194.158447 3247.836914 3198.512939 3094.535400 3005.548096 2910.705811 2861.256104 2810.152100 2705.218506 2630.522461 2577.000732 2612.581787 2727.539795 2679.034668 2622.137695 2568.396240 2516.121582 2485.836670 2632.631348 2857.474854 2965.623779 3043.305908 3010.905762 2999.500244 2991.975342 3031.624512 3187.264404 3283.173340 3345.642334 3357.807129 3366.984619 3337.779297 3161.575439 3002.299072 2944.976807 2926.949219 2951.444824 3038.774658 3068.229492 2959.845215 2936.316162 2982.387939 3098.727783 3130.326416 3169.061035 3122.746094 3001.793213 2999.154297 3004.501709 3066.217773 3146.301758 3144.185303 3150.577393 3192.789062 3262.590332 3360.815918 3463.884766 3533.055176 3402.139893 3271.110107 3356.926025 3354.125977 3271.560547 3193.570068 3170.647705 3148.534668 3176.493408 3118.431396 3016.026123 3076.283203 3189.862305 3264.940430 3270.452393 3256.944092 3307.899414 3385.528076 3298.027100 3176.724854 3152.574219 3157.776367 3124.225098 3066.223389 3076.722168 3101.009033 3144.127930 3179.385254 3214.527832 3262.227539 3210.056396 3186.187988 3195.227295 3087.010498 2837.495850 2701.142822 2550.534912 2348.979492 2246.088623 2106.504150 2087.879883 2045.881470 1902.339355 1896.218018 2095.781494 2258.494873 2428.942627 2420.016357 2326.128418 2336.803223 2367.701416 2176.769531 2015.886963 2090.282471 2300.278076 2443.465576 2527.840820 2583.561523 2370.051025 2268.703125 2096.277344 2027.030762 2090.730957 2194.052979 2319.628662 2401.878418 2459.869385 2614.144287 2559.721924 2570.384033 2605.886475 2623.526855 2493.675537 2313.037842 2188.211426 2088.064453 1984.947754 1985.077271 1910.856934 1731.024048 1598.054932 1380.860962 1208.800781 1042.329956 958.375305 950.034058 939.091125 960.068970 868.694824 720.769897 609.277527 556.314636 571.919250 623.415283 701.585999 804.706909 909.730225 1054.853149 1225.013428 1347.700928 1443.042236 1566.027954 1702.288940 1854.690918 1960.899536 2060.069824 2049.336182 1903.342651 1777.545654 1632.967163 1550.220093 1575.466797 1755.957031 1916.011963 2052.957764 2188.683594 2344.342773 2474.711914 2559.364990 2434.873047 2306.503662 2162.342529 2064.337402 1929.626831 1933.338013 2020.676147 2085.504395 2140.059814 2197.914062 2251.832520 2152.996582 2009.656982 1913.512817 1872.343872 1790.970459 1592.933350 1396.712280 1308.403442 1304.907837 1352.562378 1484.845459 1584.070679 1679.374756 1718.835571 1747.305908 1681.787476 1722.549194 1819.597900 1919.514648 2004.941406 2087.201416 2117.936523 2035.906982 1964.391846 1882.998535 1962.809448 2064.093262 2171.727783 2216.795898 2211.554199 2110.532227 2034.010864 1904.263916 1824.876587 1833.136353 1965.981567 2077.587646 2171.215820 2230.156006 2289.441406 2321.937256 2332.376465 2425.020996 2517.412354 2622.689453 2694.538574 2642.233398 2563.529053
1408.103760 1439.414673 1447.440796 1432.141479 1424.684082 1488.428223 1532.525879 1567.694580 1540.507080 1477.299805 1433.284668 1329.760742 1435.155396 1518.436279 1586.661743 1655.054321 1744.831055 1803.110962 1737.671631 1710.019165 1851.144897 2049.745605 2196.872803 2259.610107 2236.236328 2181.641846 2175.330566 2213.806152 2337.651855 2532.754395 2583.279053 2398.759277 2211.945312 2126.292969 1992.848511 1817.788452 1732.269653 1787.181030 1965.543457 1976.956055 1904.418701 1839.024292 1784.644165 1742.213257 1710.658325 1743.330811 1814.610596 1939.182251 2030.465210 2138.691895 2325.609131 2480.616211 2574.030029 2677.024658 2662.816406 2586.648193 2514.909668 2423.854736 2373.489746 2426.307129 2501.523438 2367.361816 2174.656738 2156.180176 2285.077393 2425.469238 2518.598145 2606.716064 2739.969238 2824.920410 2821.754883 2728.646729 2632.161865 2515.453125 2401.531738 2287.487549 2174.609619 2041.032837 1916.231934 1767.974365 1665.616211 1572.328125 1501.179321 1498.000000 1504.586914 1535.895996 1572.155884 1607.716431 1675.217529 1780.120483 1917.937988 2026.780029 2118.390625 2160.298096 2310.574951 2366.661133 2332.674316 2432.343994 2600.354004 2708.985840 2778.448730 2743.644043 2667.006836 2631.090088 2591.176514 2535.928955 2447.329102 2463.856201 2584.165771 2673.369385 2741.977783 2844.092285 2948.218018 2974.554199 2905.605713 2826.263672 2790.072021 2778.673096 2644.295654 2559.909180 2449.526367 2469.396484 2669.700439 2905.837158 3062.448975 3214.716797 3250.623047 3136.726074 2952.336426 2830.801758 2768.007324 2716.601562 2567.030029 2416.302490 2464.959229 2703.534424 2853.166260 2969.086182 3073.666992 3081.883789 3071.033936 3072.835938 3069.528076 3144.510986 3347.752197 3313.739502 3125.649902 2987.802734 2920.199707 2882.417725 2829.735840 2785.840820 2699.405762 2574.170410 2509.334473 2640.144287 2726.035400 2610.582764 2539.663574 2455.678467 2444.345215 2600.580078 2897.419434 3113.916992 3094.632568 3043.206543 3035.577148 3035.227783 3079.638428 3185.881836 3255.848633 3260.210693 3325.309082 3307.731445 3170.320801 3024.650146 2920.229248 2874.106934 2816.790283 2792.129395 2859.523926 2980.343262 2988.510986 2984.625732 3048.948486 3168.980713 3206.111816 3221.242432 3200.211426 3075.654053 3060.092529 3061.783203 3132.087646 3225.697266 3320.087891 3254.257324 3256.104492 3328.892578 3426.268311 3475.420654 3393.670898 3235.538818 3125.705811 3171.615967 3245.442139 3098.288818 2995.993164 2954.197510 2977.537354 3041.742432 3004.584229 2871.561523 2926.367920 3062.656738 3222.766602 3256.793945 3138.843750 3181.944092 3233.615479 3296.854004 3235.335693 3216.414062 3247.351318 3222.697998 3123.196045 3092.678711 3100.396973 3123.101562 3143.337891 3206.141602 3258.885010 3329.878174 3265.264893 3248.948242 3172.047852 2943.134033 2742.878662 2544.500000 2424.101562 2359.445312 2279.148193 2234.522949 2156.761475 2013.588745 1895.896484 1948.489014 2162.632080 2408.355713 2559.750732 2447.179688 2445.711914 2398.472412 2181.523682 2042.904053 2134.783447 2351.729004 2476.937500 2555.540039 2512.796387 2377.911865 2345.593018 2177.946533 2117.579346 2153.241699 2215.492188 2306.436523 2387.371582 2488.441895 2485.075928 2383.695312 2439.443359 2465.462891 2429.921387 2448.727051 2299.225830 2162.733154 2034.322144 1902.610352 1776.311768 1731.981079 1537.817993 1353.487915 1181.394165 1076.492554 1016.604797 1035.884766 1055.165527 1065.711548 992.870972 799.870911 654.329407 578.204468 544.543884 566.718506 680.203491 815.115051 804.094055 824.856628 967.193481 1100.157837 1249.174805 1380.310669 1498.467163 1566.225830 1685.878540 1799.477295 1943.230591 2083.961914 2095.906982 1962.563599 1771.500366 1633.523804 1592.310913 1735.822021 1924.420898 2100.954590 2241.875488 2407.460938 2617.414062 2522.351074 2369.842529 2228.405273 2106.774414 2001.006470 1945.616821 2021.655396 2085.491211 2125.652588 2170.962891 2237.331055 2276.302490 2158.369873 2046.528931 1962.658569 1896.988403 1747.953125 1534.893311 1379.929443 1299.726685 1311.142090 1394.288818 1526.242676 1629.843262 1716.782837 1788.374878 1846.335693 1767.528198 1718.997559 1845.531860 1963.881714 2055.593750 2135.322266 2149.559570 2106.314209 2074.588867 1951.348267 1954.608521 2050.027100 2164.222656 2258.394287 2151.267090 2026.575684 1921.960571 1821.087402 1758.212280 1870.719238 2038.973389 2163.304688 2276.881592 2369.801025 2458.223633 2497.258301 2468.737305 2519.383301 2557.984375 2605.584717 2588.318604 2567.848633 2460.885986
1417.394775 1421.674316 1437.815796 1468.369751 1508.969482 1560.257690 1549.039551 1552.802246 1524.172363 1486.668579 1448.528442 1360.821289 1493.373535 1579.628296 1674.320801 1781.149292 1886.675537 1952.399780 1859.468018 1766.848999 1870.949097 2070.259521 2256.796143 2422.185547 2459.053467 2394.857666 2385.192139 2360.858887 2405.583496 2503.493408 2662.201416 2494.378174 2304.775391 2166.618652 2031.702515 1833.931030 1771.330688 1894.521606 2133.401367 2210.114746 2100.601807 1998.081909 1907.495239 1854.673340 1786.733643 1754.242676 1789.996948 1864.221313 1941.594727 2027.533813 2183.410400 2374.076416 2513.290771 2619.507324 2695.046875 2674.222412 2556.197021 2464.389648 2432.169678 2480.723877 2566.063477 2386.439697 2190.191650 2203.702393 2341.677002 2459.475830 2542.334961 2621.024170 2750.125000 2850.015137 2803.297607 2712.502930 2592.867432 2462.280029 2364.319092 2229.737305 2127.725586 1996.495483 1872.854370 1732.201660 1632.362183 1551.394409 1505.361694 1497.005493 1508.194214 1543.649658 1575.180054 1614.235352 1659.588745 1721.455322 1801.203369 1879.703369 1974.926392 2099.476562 2285.553467 2406.573975 2370.023438 2418.896240 2566.730225 2729.548584 2853.160156 2744.231445 2691.510254 2638.519043 2589.216797 2527.846191 2474.591553 2559.113037 2632.948730 2735.568359 2832.181885 2840.851562 2833.372070 2859.748291 2807.058594 2735.083496 2688.377197 2657.566650 2581.269287 2518.834473 2435.226074 2507.062256 2678.224365 2814.632080 2963.667725 3167.107666 3146.015381 3084.296143 2911.101807 2798.775391 2697.040771 2648.648926 2568.535889 2421.132812 2417.366455 2586.928467 2808.133301 2949.461182 2962.186523 2983.024658 2956.518555 2977.747803 3032.284180 3183.574219 3323.829590 3286.814209 3097.616699 2909.090088 2832.221436 2778.864258 2686.711914 2644.114014 2609.507324 2539.761719 2464.362061 2548.262695 2701.258057 2603.702393 2517.648193 2446.913086 2408.239502 2556.774658 2823.421631 3067.201660 3143.648926 3114.567139 3101.294922 3109.746582 3102.239014 3117.209473 3124.597656 3098.177734 3179.864014 3243.689453 3137.851807 2983.861816 2905.432373 2835.861328 2773.076172 2709.463623 2718.369141 2835.263672 3001.431641 3062.408691 3105.629395 3161.204834 3214.885010 3273.457275 3286.655029 3169.584473 3126.438232 3160.749756 3237.305176 3357.213867 3459.239502 3428.192139 3377.887939 3397.953369 3404.722900 3276.480713 3238.374268 3105.947998 3030.171875 3100.625488 3078.167725 2930.877197 2857.229980 2846.984619 2944.310303 3036.293213 2909.000000 2763.890137 2816.943848 2957.190186 3101.913086 3041.306396 2958.351807 2985.248291 3035.819092 3158.819336 3122.951172 3179.140137 3304.684570 3227.007812 3232.821045 3134.161133 3116.706055 3105.651123 3010.542480 3079.245361 3126.499512 3220.292480 3348.860352 3312.822510 3218.904785 2967.511230 2705.754639 2576.581299 2496.089600 2497.461914 2492.921387 2422.616211 2271.729492 2126.070801 1980.260254 1910.522949 2005.960083 2254.964111 2449.341309 2590.207764 2581.133545 2392.710693 2202.908691 2069.210693 2198.283691 2420.302734 2525.606201 2612.520996 2483.007812 2420.100342 2396.378662 2308.061035 2225.519287 2253.067139 2294.610840 2372.931641 2464.721680 2429.192871 2307.949951 2233.113037 2345.943115 2299.368896 2243.544434 2245.182617 2186.003662 2131.138916 2025.738281 1907.664429 1713.507690 1537.680786 1304.425903 1210.112671 1173.013062 1144.789795 1159.038208 1167.962280 1177.952637 1091.391113 907.329163 733.407532 588.231873 537.126709 536.937195 614.317688 751.899292 880.664001 988.197205 973.168640 939.276672 998.833313 1110.995850 1217.701660 1333.866577 1464.650024 1618.333374 1763.852417 1924.575806 2090.534180 2197.696045 2033.731567 1937.291382 1791.007690 1681.112061 1783.644531 1957.514526 2164.249023 2362.978271 2510.872803 2662.910400 2516.994141 2342.088135 2180.223877 2089.057617 2036.256226 2036.996948 2086.605713 2128.377197 2158.457764 2201.775391 2281.345459 2184.255859 2055.443848 1919.099731 1858.657227 1791.534546 1586.441406 1448.794312 1335.808350 1298.718018 1350.346924 1456.342773 1568.734619 1677.930542 1761.487183 1842.959961 1914.721924 1843.701660 1754.173340 1836.921387 1957.754028 2066.739014 2157.655273 2215.161377 2212.079102 2186.110107 2041.953979 1985.187744 2060.148682 2159.871826 2216.828125 2080.820801 1958.900391 1837.845581 1746.416504 1773.196655 1908.861328 2065.058594 2189.827148 2317.916016 2415.906250 2408.212646 2440.201172 2434.199707 2444.145264 2461.740967 2533.345459 2552.828369 2464.249756 2381.836670
1410.034302 1430.328003 1487.594482 1531.943848 1549.774048 1551.949341 1562.634766 1573.704834 1547.072144 1508.895020 1463.525269 1390.028442 1538.906860 1642.211670 1763.925049 1921.569214 2042.049805 2103.692627 2033.901367 1893.439941 1894.553101 2028.600952 2263.593994 2525.742188 2720.995605 2765.171387 2775.219482 2556.532959 2493.387207 2506.893799 2657.376709 2552.112305 2365.781006 2198.463867 2036.537476 1866.274292 1819.094727 1962.830444 2187.413574 2332.201660 2291.615723 2185.795654 2069.087158 1997.989136 1883.100708 1825.087891 1792.349365 1819.568726 1902.650146 2110.846924 2209.909424 2307.363281 2433.274170 2542.061035 2635.636963 2711.320312 2626.351074 2513.082764 2481.385254 2559.359375 2554.287354 2377.904541 2207.168701 2248.800293 2376.298828 2472.187256 2569.310303 2638.898682 2671.140625 2695.310059 2712.148193 2604.722900 2531.786865 2408.274170 2301.735596 2209.362793 2106.102783 1966.683716 1850.638306 1749.278320 1645.511108 1561.430420 1500.484985 1483.435425 1503.791748 1536.599854 1571.475098 1608.282104 1687.769897 1789.470215 1814.982056 1894.403931 2011.973877 2168.954346 2328.157715 2428.553955 2415.896973 2425.989990 2533.984619 2699.479004 2827.507080 2802.214844 2694.081299 2642.701660 2597.661621 2538.084229 2504.996094 2590.853271 2672.986328 2745.537109 2867.780273 2804.023438 2747.233154 2740.918701 2715.976318 2621.664795 2589.731689 2542.639893 2488.287109 2430.483643 2411.926025 2552.982178 2685.222656 2797.680908 2944.221436 3151.102051 3132.624268 3026.840820 2923.236084 2860.475098 2777.792480 2691.137695 2595.194336 2467.544922 2364.916748 2449.621582 2651.774414 2829.824707 2836.471924 2840.302734 2894.496582 2928.625244 3023.719727 3225.402588 3206.647461 3170.417725 3085.741699 2970.837158 2822.212646 2720.650146 2636.486084 2567.423828 2513.041748 2436.224121 2410.479980 2456.599609 2600.247803 2513.454102 2410.501465 2383.901611 2375.120361 2483.797363 2746.765625 2964.051758 3101.289551 3163.673584 3133.079590 3102.016602 3005.458496 2949.317871 2966.073730 3015.172119 3059.988525 3187.585449 3161.090576 2980.157227 2837.226318 2735.124512 2664.396729 2624.480713 2621.038574 2723.508789 2890.417969 3084.447998 3175.432861 3240.038086 3280.472900 3325.391846 3363.174805 3293.154541 3226.528076 3237.680908 3346.611328 3375.759521 3395.375732 3405.756592 3432.802490 3439.466309 3336.945557 3161.592041 3100.261719 2984.825439 2955.233398 3050.260742 2936.686768 2812.661133 2734.530518 2704.639648 2806.122070 2926.270996 2785.684814 2657.950195 2708.492188 2845.214355 2972.438965 2857.014404 2789.429199 2793.379150 2904.172852 3010.841797 2944.587158 3024.323730 3140.912354 3077.832520 3146.948242 3023.218506 3008.394775 2932.828613 2875.756348 2916.106201 3030.626953 3118.784424 3236.458008 3374.541748 3150.488525 2908.099365 2688.616943 2589.167969 2551.219727 2600.592285 2676.827881 2532.083008 2349.979248 2206.986084 2102.559082 2000.428467 1932.135254 2073.785889 2325.907227 2550.319092 2640.165039 2427.214111 2237.611328 2117.057373 2225.514893 2446.498291 2598.342773 2631.917480 2483.579590 2467.341553 2448.720459 2369.561523 2330.185547 2359.888428 2416.011719 2496.180176 2478.763916 2313.201904 2160.854004 2130.464111 2201.096924 2127.775146 2087.822021 2053.553467 1956.986450 1993.231079 1897.808105 1729.020874 1532.893433 1393.068237 1253.778564 1271.474854 1255.877319 1246.260986 1286.659546 1293.146606 1202.575195 1013.034729 827.049438 670.614807 547.118164 529.837646 559.296631 678.968323 805.410950 939.944153 1073.512451 1142.519165 1120.908203 1148.999878 1160.555420 1168.230835 1285.220947 1476.401733 1672.732300 1831.224487 1989.332886 2142.872070 2256.380127 2208.128174 2094.764404 1960.179443 1876.723511 1909.944824 1999.493896 2138.043701 2277.337158 2428.304932 2604.305176 2481.195557 2318.498291 2154.352539 2119.964111 2139.333496 2148.674316 2158.149902 2183.264404 2200.213379 2241.987061 2259.276855 2098.480713 1942.944702 1850.831299 1723.003296 1634.827515 1531.616211 1395.316406 1322.681763 1303.240479 1404.310547 1518.571167 1605.547974 1711.008667 1802.757935 1883.109863 1992.249146 1951.453735 1819.091309 1812.492554 1933.319946 2021.119995 2113.624268 2197.081055 2292.683838 2227.020996 2109.607422 2095.141357 2122.658447 2198.249268 2170.162598 2022.710815 1888.891235 1756.028564 1713.517944 1827.224609 1939.936890 2053.276611 2178.541748 2280.669678 2306.068115 2300.628906 2334.417480 2350.955322 2361.344238 2395.970459 2459.652588 2579.012939 2478.022949 2394.037109
1450.437988 1490.877686 1552.545532 1571.180176 1580.491821 1602.802246 1634.000977 1648.417847 1568.941895 1512.123169 1418.199829 1437.635132 1570.212280 1711.531616 1877.852417 2003.299927 2158.348633 2283.227051 2238.628418 2126.064453 2035.204956 2093.275635 2269.376465 2544.676758 2736.705322 2912.235107 2879.468262 2687.125488 2558.105713 2605.112549 2801.955078 2721.015381 2471.943115 2289.573242 2058.353516 1896.888184 1863.155151 1950.331055 2167.668701 2360.990234 2481.735840 2379.862061 2294.688477 2191.678711 2067.640625 1941.642578 1854.914795 1799.750854 1873.699707 2184.619385 2419.368652 2475.494141 2481.468262 2532.676758 2601.297363 2721.758057 2729.248535 2614.375732 2591.399902 2592.138672 2541.828857 2404.965088 2225.363525 2259.218750 2384.306885 2456.595459 2519.480225 2574.032227 2616.358398 2678.636963 2729.943604 2615.773193 2505.316406 2389.628662 2300.867432 2234.421387 2132.918701 1968.219360 1860.544922 1744.773926 1660.939453 1581.069092 1499.356445 1480.566772 1501.824707 1531.334473 1563.854980 1594.841064 1648.718872 1696.009277 1727.700928 1815.266846 1950.878906 2087.653809 2200.496582 2346.015137 2451.490479 2473.625732 2539.170654 2616.284668 2690.482666 2768.176514 2757.461426 2658.844238 2610.779785 2559.843994 2558.209717 2655.168945 2722.073975 2779.492676 2907.602783 2847.270264 2706.138916 2625.123291 2583.528564 2517.416748 2493.980713 2456.362061 2400.146484 2338.769287 2398.385986 2562.526367 2776.585938 2860.907715 3009.303223 3236.245117 3203.340576 3075.967285 3025.783691 2981.613281 2873.051025 2782.397217 2652.969971 2511.545166 2380.110596 2362.630859 2516.197510 2674.973389 2745.668213 2768.091553 2844.345459 2895.492676 3053.308350 3232.934082 3131.693359 3061.149658 2985.247559 2948.925781 2847.024414 2712.469238 2619.772705 2552.725342 2503.267090 2383.118896 2301.571533 2377.364014 2545.638184 2424.871338 2296.570312 2292.884277 2329.101318 2429.708740 2669.351318 2874.046875 2968.539307 3030.317871 3000.006348 2983.023926 2906.651123 2822.326660 2797.734863 2864.937500 2914.680176 3079.423096 3112.897217 3000.373779 2835.635986 2701.374512 2609.605957 2566.895020 2573.278320 2682.841553 2853.396973 3045.452881 3210.315186 3272.046631 3274.955566 3328.406738 3385.288818 3475.999756 3432.465820 3339.829834 3325.094971 3341.848877 3351.031738 3348.500977 3306.701904 3254.616211 3212.745361 3083.014404 2994.262207 2898.233154 2894.867432 2900.951904 2871.557373 2730.806152 2627.484131 2570.936279 2655.851074 2800.687744 2707.241211 2564.589600 2602.104004 2716.991943 2814.628418 2727.209961 2647.618408 2684.195068 2817.557129 2891.556885 2811.781250 2874.049561 2980.846680 2937.262695 2972.448486 2885.047363 2813.889648 2710.500000 2768.017334 2822.060547 2949.364014 3078.459473 3166.369629 3229.783447 3100.237305 2856.419922 2695.514160 2595.110107 2598.736328 2675.696045 2757.079834 2588.837402 2451.311035 2287.239746 2206.378662 2107.355957 1967.015625 1982.862793 2221.640137 2429.518555 2609.046631 2444.664062 2231.347168 2141.453369 2238.635742 2392.325195 2633.780029 2635.039795 2532.891846 2529.168701 2493.586670 2442.589844 2444.115479 2488.901367 2521.429932 2428.793701 2312.441406 2210.261719 2048.226074 2001.533691 1948.731567 1867.917236 1841.996094 1795.813843 1753.677734 1769.539795 1713.317017 1568.102295 1395.527344 1355.233032 1370.850952 1358.849365 1349.592285 1376.885010 1402.078125 1332.610962 1135.028076 932.394836 759.594727 616.158752 525.596558 537.102600 608.541687 726.687988 881.955200 1021.209900 1152.282593 1253.134033 1254.280640 1286.727295 1341.454224 1306.468872 1282.345825 1434.605713 1643.918823 1814.002441 1940.984375 2059.603760 2157.740967 2304.682129 2245.133545 2150.146973 2074.521973 2047.748291 2057.800537 2141.230469 2301.434814 2409.821045 2556.197021 2500.408691 2348.104248 2251.712158 2225.666260 2224.638428 2239.156006 2226.868408 2233.670654 2268.228271 2279.150635 2182.949707 2085.193848 1948.479980 1755.189209 1610.228149 1504.518433 1438.956055 1363.190308 1304.306763 1324.560181 1453.115723 1569.484619 1662.003784 1749.000488 1837.075806 1917.190674 2024.356689 2063.954834 1933.865356 1866.151489 1880.679932 1970.934937 2069.286377 2160.781738 2274.449951 2328.516113 2197.468750 2157.974121 2191.016602 2232.237305 2138.547607 1986.555298 1843.231201 1714.394043 1730.580688 1852.772217 1945.271118 2054.280273 2140.695557 2196.082031 2226.423340 2260.152100 2278.302246 2271.415283 2285.004150 2342.178223 2443.447510 2544.535156 2525.218506 2501.429688
1527.660400 1571.241333 1605.511841 1629.055786 1664.253418 1710.900879 1735.662964 1691.910522 1585.250488 1494.072632 1399.578247 1446.299805 1554.406128 1772.197632 1991.956055 2130.425537 2253.821777 2373.318604 2369.735107 2312.448975 2168.943115 2197.083984 2309.097900 2493.483887 2691.585938 2910.775146 3000.342285 2793.490967 2655.441162 2849.138916 2960.227783 2845.228027 2567.209717 2364.985596 2097.126953 1952.394409 1909.658325 1941.197388 2127.902344 2358.376709 2502.262451 2559.081543 2500.189941 2408.447266 2330.588379 2154.350586 1978.746094 1847.573364 1866.514038 2100.239258 2371.650391 2485.146240 2532.919189 2581.036377 2660.380615 2780.313721 2801.701904 2716.054199 2698.421387 2638.887207 2534.262939 2404.413330 2238.946289 2281.089600 2399.084961 2475.528320 2524.939941 2580.512695 2668.568359 2734.171875 2706.202148 2642.852295 2548.422852 2404.279297 2316.561768 2231.812256 2102.690186 1952.132202 1860.471680 1741.570190 1649.576050 1576.229126 1499.575928 1474.612671 1497.324463 1526.833496 1559.496460 1598.618896 1636.302979 1679.768555 1733.145386 1808.552979 1887.899536 1975.891602 2104.626709 2285.240967 2488.890137 2496.374268 2506.184082 2550.298096 2608.585205 2664.729004 2767.949707 2719.504883 2673.778809 2646.824951 2660.635742 2730.041260 2773.322754 2845.154297 2880.841064 2768.489990 2661.275391 2544.922607 2472.282959 2417.195801 2385.359131 2348.316406 2283.495850 2322.261719 2449.933350 2643.307617 2895.595459 3030.969482 3087.323486 3158.092529 3170.645020 3151.474854 3118.949463 3033.095459 2904.379883 2752.771729 2655.468994 2535.002197 2412.510254 2308.820801 2416.038818 2573.132324 2677.785889 2727.558594 2818.531494 2901.659424 3075.769043 3201.786621 3187.509521 3053.429932 2953.327393 2868.566162 2795.959473 2665.378906 2592.550537 2525.011963 2456.277100 2327.273926 2230.631104 2295.913818 2405.892334 2349.567627 2211.715576 2177.725586 2260.702148 2363.286377 2586.554199 2725.358643 2800.073242 2948.994385 2954.366699 2912.517822 2846.085449 2770.967773 2739.328125 2711.718506 2763.180908 2918.738770 3054.959717 3050.190186 2878.030518 2704.533203 2575.490723 2501.272949 2520.785156 2653.536377 2840.835449 3007.919678 3105.695068 3101.385498 3076.697754 3142.222900 3253.998047 3445.258789 3487.860107 3365.216309 3319.073730 3325.784668 3343.818604 3245.959229 3118.084229 3076.306152 3003.884766 2933.700684 2882.763428 2822.058838 2769.155762 2749.313477 2810.829590 2670.950439 2531.088379 2463.374023 2551.240479 2642.243408 2588.768555 2464.105713 2491.410156 2540.313232 2610.552734 2626.192139 2536.267822 2605.025635 2730.163086 2770.451172 2689.207275 2734.812500 2780.174072 2793.240479 2813.523926 2775.635010 2677.509521 2643.051025 2699.811035 2764.634277 2881.721436 2924.238770 2966.305908 3057.077881 2990.840088 2831.484375 2685.505615 2595.306885 2616.200439 2687.417725 2788.312744 2700.148193 2556.330566 2402.481934 2285.422852 2185.915283 2052.231445 1974.858643 2120.575439 2369.153320 2524.362549 2384.834961 2228.458008 2176.197998 2261.488770 2339.355225 2494.371582 2617.089844 2602.268555 2605.259033 2567.594238 2552.049316 2558.907471 2537.927734 2483.060547 2308.867188 2130.392334 1995.777588 1896.248291 1819.774780 1748.224243 1722.037231 1708.272217 1631.503906 1588.206421 1562.619019 1520.887207 1474.846313 1411.780640 1461.791504 1520.427979 1494.701416 1481.699707 1490.473267 1429.538330 1248.682007 1053.867920 855.976990 703.402039 581.012878 527.904846 567.383301 647.332825 786.372925 940.133362 1058.765747 1179.556030 1297.353149 1373.127686 1422.164551 1482.746826 1480.966431 1397.458618 1414.707153 1594.620483 1778.392578 1958.839966 2113.016602 2247.238281 2314.111328 2374.035400 2338.541260 2268.095947 2199.614014 2168.591553 2201.464600 2324.507568 2482.015381 2552.126221 2522.644775 2440.820068 2463.026855 2370.780762 2380.586426 2410.354248 2377.994385 2320.151855 2307.974365 2177.721924 2058.205078 1952.128906 1942.223511 1799.531860 1659.497559 1538.383667 1423.134277 1338.816650 1300.731812 1362.586792 1495.766846 1607.528564 1693.744507 1792.445557 1878.840820 1957.866821 2029.121826 2112.027100 2044.802002 2051.340576 1989.693970 1983.687866 2049.731201 2139.692383 2229.535400 2346.085693 2288.963379 2228.838867 2208.394287 2176.523438 2080.825928 1945.170166 1819.799927 1660.696655 1731.414062 1853.658813 1946.948120 2022.525146 2074.181396 2124.427490 2156.100830 2197.657471 2209.417969 2180.864258 2236.732666 2335.060059 2400.990967 2421.824463 2420.885986 2473.381348
