ncols        190
nrows        105
xllcorner    596080.3487547617
yllcorner    5180399.9998778952
cellsize     500.0000000000
NODATA_value -9999
12.000000 12.000000 11.000000 12.000000 11.000000 12.000000 10.000000 10.000000 7.000000 10.000000 5.000000 5.000000 5.000000 12.000000 4.000000 10.000000 7.000000 4.000000 4.000000 4.000000 9.000000 10.000000 12.000000 12.000000 4.000000 4.000000 12.000000 12.000000 11.000000 8.000000 4.000000 5.000000 5.000000 1.000000 1.000000 1.000000 1.000000 1.000000 1.000000 5.000000 10.000000 7.000000 7.000000 4.000000 4.000000 1.000000 1.000000 1.000000 1.000000 1.000000 1.000000 1.000000 6.000000 10.000000 7.000000 10.000000 7.000000 10.000000 10.000000 5.000000 5.000000 5.000000 5.000000 12.000000 12.000000 12.000000 12.000000 12.000000 12.000000 12.000000 13.000000 13.000000 4.000000 9.000000 12.000000 12.000000 12.000000 10.000000 12.000000 10.000000 12.000000 12.000000 5.000000 11.000000 11.000000 13.000000 12.000000 12.000000 13.000000 12.000000 12.000000 11.000000 12.000000 12.000000 12.000000 12.000000 4.000000 12.000000 4.000000 12.000000 12.000000 12.000000 12.000000 12.000000 12.000000 10.000000 12.000000 5.000000 5.000000 1.000000 1.000000 1.000000 1.000000 1.000000 1.000000 1.000000 1.000000 1.000000 4.000000 5.000000 4.000000 5.000000 5.000000 5.000000 5.000000 5.000000 5.000000 5.000000 3.000000 5.000000 5.000000 5.000000 5.000000 5.000000 5.000000 5.000000 5.000000 4.000000 8.000000 12.000000 12.000000 12.000000 12.000000 12.000000 4.000000 9.000000 11.000000 13.000000 13.000000 12.000000 12.000000 6.000000 9.000000 9.000000 12.000000 11.000000 12.000000 8.000000 4.000000 12.000000 12.000000 9.000000 12.000000 8.000000 12.000000 12.000000 6.000000 13.000000 6.000000 9.000000 12.000000 1.000000 9.000000 6.000000 12.000000 13.000000 10.000000 12.000000 12.000000 8.000000 12.000000 12.000000 12.000000 12.000000 12.000000 12.000000 5.000000 5.000000 5.000000 4.000000
7.000000 9.000000 9.000000 11.000000 12.000000 10.000000 10.000000 7.000000 5.000000 10.000000 10.000000 4.000000 5.000000 4.000000 4.000000 7.000000 10.000000 4.000000 10.000000 7.000000 7.000000 7.000000 10.000000 8.000000 12.000000 12.000000 12.000000 4.000000 8.000000 12.000000 5.000000 12.000000 4.000000 4.000000 4.000000 4.000000 5.000000 5.000000 4.000000 5.000000 4.000000 7.000000 4.000000 4.000000 4.000000 4.000000 4.000000 4.000000 1.000000 1.000000 1.000000 1.000000 5.000000 5.000000 7.000000 7.000000 10.000000 11.000000 1.000000 10.000000 5.000000 5.000000 10.000000 10.000000 12.000000 12.000000 12.000000 10.000000 12.000000 10.000000 1.000000 4.000000 13.000000 12.000000 4.000000 11.000000 11.000000 12.000000 12.000000 12.000000 12.000000 5.000000 12.000000 11.000000 12.000000 3.000000 12.000000 13.000000 12.000000 12.000000 12.000000 12.000000 12.000000 12.000000 12.000000 11.000000 12.000000 12.000000 4.000000 4.000000 4.000000 12.000000 12.000000 12.000000 10.000000 11.000000 11.000000 12.000000 12.000000 5.000000 1.000000 1.000000 5.000000 6.000000 4.000000 5.000000 5.000000 5.000000 5.000000 4.000000 5.000000 5.000000 5.000000 5.000000 1.000000 5.000000 5.000000 5.000000 5.000000 5.000000 5.000000 5.000000 5.000000 5.000000 5.000000 5.000000 5.000000 5.000000 5.000000 5.000000 11.000000 12.000000 12.000000 9.000000 9.000000 12.000000 4.000000 12.000000 12.000000 12.000000 12.000000 12.000000 12.000000 11.000000 12.000000 12.000000 12.000000 12.000000 13.000000 4.000000 12.000000 12.000000 12.000000 11.000000 4.000000 12.000000 12.000000 8.000000 12.000000 9.000000 13.000000 6.000000 6.000000 6.000000 8.000000 8.000000 10.000000 11.000000 12.000000 12.000000 12.000000 12.000000 12.000000 12.000000 12.000000 5.000000 5.000000 5.000000 5.000000 5.000000
7.000000 4.000000 9.000000 1.000000 12.000000 10.000000 10.000000 4.000000 5.000000 5.000000 5.000000 5.000000 4.000000 4.000000 7.000000 10.000000 10.000000 5.000000 7.000000 10.000000 10.000000 10.000000 4.000000 11.000000 12.000000 7.000000 12.000000 12.000000 12.000000 12.000000 11.000000 4.000000 10.000000 10.000000 10.000000 4.000000 5.000000 5.000000 1.000000 1.000000 5.000000 5.000000 1.000000 1.000000 1.000000 4.000000 1.000000 10.000000 4.000000 4.000000 1.000000 5.000000 5.000000 4.000000 10.000000 7.000000 7.000000 7.000000 7.000000 4.000000 10.000000 12.000000 12.000000 12.000000 12.000000 12.000000 12.000000 12.000000 13.000000 4.000000 4.000000 4.000000 13.000000 12.000000 11.000000 13.000000 12.000000 11.000000 11.000000 5.000000 12.000000 12.000000 12.000000 1.000000 13.000000 12.000000 11.000000 11.000000 12.000000 1.000000 11.000000 12.000000 12.000000 10.000000 12.000000 11.000000 12.000000 12.000000 12.000000 12.000000 12.000000 12.000000 9.000000 4.000000 4.000000 12.000000 11.000000 12.000000 7.000000 12.000000 5.000000 1.000000 4.000000 5.000000 5.000000 5.000000 5.000000 6.000000 12.000000 9.000000 7.000000 4.000000 5.000000 5.000000 5.000000 5.000000 5.000000 5.000000 5.000000 5.000000 5.000000 5.000000 5.000000 5.000000 5.000000 5.000000 5.000000 12.000000 12.000000 12.000000 12.000000 4.000000 12.000000 9.000000 12.000000 10.000000 12.000000 12.000000 12.000000 12.000000 12.000000 4.000000 12.000000 12.000000 9.000000 12.000000 12.000000 11.000000 13.000000 12.000000 12.000000 12.000000 12.000000 12.000000 12.000000 12.000000 12.000000 6.000000 12.000000 6.000000 9.000000 6.000000 6.000000 6.000000 8.000000 8.000000 9.000000 4.000000 12.000000 5.000000 5.000000 5.000000 5.000000 11.000000 12.000000 12.000000 5.000000 5.000000 5.000000 5.000000
5.000000 7.000000 4.000000 12.000000 12.000000 9.000000 4.000000 4.000000 5.000000 4.000000 4.000000 4.000000 4.000000 7.000000 10.000000 4.000000 5.000000 5.000000 4.000000 7.000000 10.000000 4.000000 12.000000 4.000000 12.000000 12.000000 11.000000 8.000000 8.000000 12.000000 10.000000 5.000000 12.000000 4.000000 7.000000 4.000000 4.000000 5.000000 4.000000 4.000000 5.000000 1.000000 1.000000 4.000000 1.000000 4.000000 5.000000 7.000000 5.000000 1.000000 1.000000 1.000000 1.000000 5.000000 4.000000 10.000000 5.000000 5.000000 10.000000 4.000000 11.000000 12.000000 12.000000 12.000000 12.000000 12.000000 12.000000 12.000000 12.000000 8.000000 4.000000 13.000000 4.000000 13.000000 9.000000 9.000000 9.000000 4.000000 12.000000 12.000000 12.000000 12.000000 10.000000 13.000000 4.000000 12.000000 12.000000 12.000000 12.000000 4.000000 12.000000 12.000000 12.000000 12.000000 12.000000 12.000000 12.000000 12.000000 12.000000 12.000000 11.000000 12.000000 4.000000 5.000000 5.000000 10.000000 7.000000 12.000000 12.000000 7.000000 5.000000 5.000000 5.000000 5.000000 4.000000 4.000000 4.000000 5.000000 4.000000 5.000000 5.000000 5.000000 4.000000 8.000000 4.000000 5.000000 4.000000 5.000000 5.000000 5.000000 5.000000 5.000000 5.000000 5.000000 5.000000 5.000000 4.000000 12.000000 12.000000 12.000000 12.000000 9.000000 4.000000 4.000000 4.000000 12.000000 12.000000 11.000000 12.000000 12.000000 11.000000 11.000000 12.000000 12.000000 12.000000 12.000000 12.000000 12.000000 12.000000 12.000000 4.000000 12.000000 12.000000 12.000000 8.000000 12.000000 4.000000 12.000000 9.000000 6.000000 12.000000 12.000000 6.000000 6.000000 12.000000 12.000000 12.000000 10.000000 8.000000 5.000000 5.000000 9.000000 12.000000 12.000000 13.000000 12.000000 7.000000 5.000000 5.000000 5.000000
4.000000 5.000000 4.000000 12.000000 12.000000 4.000000 12.000000 4.000000 5.000000 5.000000 5.000000 5.000000 4.000000 7.000000 10.000000 5.000000 5.000000 4.000000 6.000000 4.000000 4.000000 9.000000 10.000000 4.000000 10.000000 7.000000 5.000000 11.000000 5.000000 12.000000 5.000000 5.000000 10.000000 5.000000 4.000000 7.000000 10.000000 5.000000 4.000000 4.000000 1.000000 1.000000 4.000000 4.000000 10.000000 7.000000 7.000000 7.000000 5.000000 5.000000 1.000000 5.000000 5.000000 5.000000 5.000000 5.000000 5.000000 5.000000 7.000000 10.000000 8.000000 12.000000 10.000000 10.000000 11.000000 11.000000 11.000000 13.000000 13.000000 3.000000 3.000000 3.000000 8.000000 12.000000 12.000000 12.000000 11.000000 4.000000 4.000000 4.000000 11.000000 7.000000 1.000000 6.000000 4.000000 11.000000 12.000000 12.000000 13.000000 4.000000 13.000000 12.000000 10.000000 4.000000 4.000000 9.000000 12.000000 12.000000 12.000000 12.000000 4.000000 4.000000 5.000000 1.000000 10.000000 4.000000 1.000000 1.000000 5.000000 12.000000 3.000000 4.000000 6.000000 6.000000 4.000000 5.000000 1.000000 1.000000 1.000000 5.000000 1.000000 5.000000 12.000000 4.000000 5.000000 5.000000 4.000000 5.000000 5.000000 5.000000 5.000000 5.000000 5.000000 5.000000 5.000000 12.000000 12.000000 12.000000 12.000000 4.000000 4.000000 12.000000 12.000000 10.000000 12.000000 12.000000 12.000000 12.000000 12.000000 12.000000 12.000000 12.000000 12.000000 12.000000 12.000000 12.000000 12.000000 12.000000 12.000000 12.000000 4.000000 12.000000 12.000000 12.000000 12.000000 12.000000 12.000000 12.000000 6.000000 12.000000 12.000000 12.000000 7.000000 13.000000 6.000000 12.000000 12.000000 12.000000 12.000000 12.000000 12.000000 12.000000 12.000000 12.000000 9.000000 12.000000 12.000000 12.000000 7.000000 5.000000
10.000000 10.000000 11.000000 8.000000 4.000000 4.000000 9.000000 5.000000 4.000000 4.000000 5.000000 10.000000 7.000000 7.000000 12.000000 5.000000 5.000000 5.000000 4.000000 7.000000 4.000000 11.000000 1.000000 10.000000 10.000000 1.000000 1.000000 1.000000 7.000000 12.000000 7.000000 4.000000 4.000000 5.000000 10.000000 4.000000 5.000000 3.000000 1.000000 4.000000 5.000000 1.000000 1.000000 4.000000 4.000000 7.000000 10.000000 7.000000 5.000000 1.000000 5.000000 1.000000 1.000000 1.000000 5.000000 5.000000 5.000000 7.000000 12.000000 10.000000 11.000000 11.000000 10.000000 11.000000 9.000000 4.000000 13.000000 4.000000 13.000000 12.000000 12.000000 12.000000 9.000000 6.000000 4.000000 12.000000 12.000000 4.000000 13.000000 3.000000 12.000000 8.000000 4.000000 12.000000 13.000000 9.000000 12.000000 12.000000 12.000000 13.000000 7.000000 8.000000 4.000000 7.000000 4.000000 4.000000 12.000000 4.000000 12.000000 12.000000 12.000000 5.000000 5.000000 4.000000 5.000000 5.000000 1.000000 5.000000 12.000000 5.000000 5.000000 6.000000 4.000000 5.000000 4.000000 5.000000 1.000000 1.000000 1.000000 1.000000 5.000000 8.000000 12.000000 12.000000 12.000000 12.000000 12.000000 12.000000 12.000000 12.000000 12.000000 12.000000 12.000000 12.000000 12.000000 12.000000 12.000000 12.000000 4.000000 6.000000 12.000000 12.000000 12.000000 12.000000 12.000000 12.000000 12.000000 5.000000 12.000000 12.000000 12.000000 12.000000 12.000000 5.000000 12.000000 12.000000 12.000000 12.000000 5.000000 5.000000 5.000000 10.000000 12.000000 12.000000 12.000000 12.000000 9.000000 9.000000 9.000000 4.000000 12.000000 12.000000 12.000000 6.000000 6.000000 12.000000 12.000000 12.000000 12.000000 12.000000 12.000000 11.000000 12.000000 12.000000 5.000000 4.000000 5.000000 5.000000 11.000000 5.000000
4.000000 4.000000 10.000000 12.000000 4.000000 12.000000 4.000000 4.000000 6.000000 5.000000 5.000000 4.000000 5.000000 4.000000 10.000000 4.000000 5.000000 5.000000 4.000000 10.000000 5.000000 11.000000 12.000000 11.000000 4.000000 1.000000 1.000000 4.000000 7.000000 1.000000 7.000000 7.000000 4.000000 4.000000 5.000000 4.000000 4.000000 4.000000 1.000000 4.000000 5.000000 4.000000 4.000000 4.000000 5.000000 5.000000 4.000000 7.000000 4.000000 12.000000 7.000000 5.000000 5.000000 5.000000 5.000000 5.000000 5.000000 10.000000 5.000000 11.000000 12.000000 12.000000 13.000000 4.000000 13.000000 13.000000 12.000000 12.000000 12.000000 12.000000 11.000000 12.000000 12.000000 8.000000 10.000000 10.000000 4.000000 13.000000 12.000000 12.000000 12.000000 12.000000 12.000000 12.000000 12.000000 12.000000 12.000000 12.000000 12.000000 4.000000 6.000000 4.000000 4.000000 4.000000 13.000000 13.000000 12.000000 12.000000 12.000000 10.000000 10.000000 12.000000 5.000000 1.000000 1.000000 1.000000 1.000000 5.000000 1.000000 5.000000 5.000000 7.000000 5.000000 5.000000 5.000000 1.000000 1.000000 1.000000 1.000000 5.000000 5.000000 7.000000 8.000000 9.000000 10.000000 12.000000 11.000000 11.000000 12.000000 12.000000 12.000000 4.000000 4.000000 12.000000 12.000000 13.000000 4.000000 8.000000 12.000000 12.000000 11.000000 12.000000 12.000000 12.000000 12.000000 12.000000 12.000000 12.000000 12.000000 11.000000 12.000000 11.000000 12.000000 4.000000 4.000000 11.000000 4.000000 12.000000 7.000000 5.000000 5.000000 5.000000 12.000000 12.000000 12.000000 12.000000 12.000000 12.000000 12.000000 12.000000 12.000000 12.000000 9.000000 10.000000 12.000000 6.000000 12.000000 12.000000 12.000000 12.000000 12.000000 11.000000 12.000000 12.000000 4.000000 5.000000 5.000000 5.000000 5.000000 5.000000
4.000000 4.000000 12.000000 4.000000 12.000000 12.000000 4.000000 12.000000 10.000000 10.000000 5.000000 10.000000 4.000000 5.000000 5.000000 5.000000 5.000000 5.000000 1.000000 5.000000 10.000000 8.000000 10.000000 5.000000 5.000000 1.000000 4.000000 7.000000 7.000000 7.000000 7.000000 10.000000 4.000000 1.000000 5.000000 1.000000 4.000000 1.000000 4.000000 5.000000 4.000000 5.000000 5.000000 1.000000 4.000000 5.000000 4.000000 10.000000 12.000000 5.000000 7.000000 7.000000 1.000000 7.000000 7.000000 3.000000 12.000000 12.000000 12.000000 11.000000 1.000000 10.000000 6.000000 9.000000 9.000000 12.000000 12.000000 8.000000 8.000000 10.000000 12.000000 12.000000 10.000000 8.000000 12.000000 12.000000 4.000000 4.000000 12.000000 8.000000 12.000000 12.000000 12.000000 12.000000 12.000000 12.000000 4.000000 12.000000 12.000000 12.000000 11.000000 12.000000 12.000000 12.000000 12.000000 1.000000 11.000000 12.000000 12.000000 12.000000 12.000000 4.000000 5.000000 5.000000 1.000000 1.000000 5.000000 1.000000 1.000000 5.000000 4.000000 4.000000 5.000000 1.000000 3.000000 1.000000 1.000000 1.000000 1.000000 5.000000 5.000000 6.000000 5.000000 5.000000 5.000000 12.000000 12.000000 11.000000 12.000000 11.000000 10.000000 12.000000 12.000000 7.000000 13.000000 11.000000 12.000000 10.000000 12.000000 9.000000 11.000000 12.000000 12.000000 12.000000 13.000000 12.000000 12.000000 12.000000 5.000000 12.000000 4.000000 12.000000 4.000000 5.000000 4.000000 7.000000 12.000000 8.000000 12.000000 5.000000 5.000000 7.000000 12.000000 11.000000 8.000000 12.000000 12.000000 12.000000 12.000000 12.000000 1.000000 4.000000 8.000000 12.000000 12.000000 12.000000 6.000000 12.000000 12.000000 12.000000 12.000000 12.000000 12.000000 12.000000 4.000000 5.000000 5.000000 5.000000 5.000000 5.000000
7.000000 4.000000 4.000000 12.000000 12.000000 12.000000 12.000000 12.000000 12.000000 4.000000 5.000000 4.000000 5.000000 5.000000 1.000000 1.000000 1.000000 5.000000 5.000000 4.000000 4.000000 12.000000 10.000000 5.000000 5.000000 5.000000 1.000000 5.000000 4.000000 12.000000 12.000000 4.000000 6.000000 4.000000 4.000000 1.000000 4.000000 4.000000 1.000000 4.000000 10.000000 4.000000 4.000000 1.000000 1.000000 10.000000 7.000000 7.000000 12.000000 11.000000 5.000000 7.000000 1.000000 5.000000 12.000000 12.000000 11.000000 13.000000 10.000000 6.000000 13.000000 4.000000 12.000000 8.000000 12.000000 10.000000 8.000000 12.000000 12.000000 12.000000 10.000000 10.000000 4.000000 4.000000 9.000000 8.000000 12.000000 8.000000 12.000000 12.000000 12.000000 12.000000 12.000000 12.000000 12.000000 12.000000 12.000000 12.000000 12.000000 12.000000 12.000000 12.000000 9.000000 4.000000 12.000000 12.000000 9.000000 12.000000 12.000000 12.000000 9.000000 12.000000 5.000000 1.000000 1.000000 1.000000 1.000000 1.000000 1.000000 7.000000 7.000000 5.000000 5.000000 1.000000 3.000000 1.000000 1.000000 1.000000 1.000000 5.000000 7.000000 5.000000 5.000000 5.000000 5.000000 12.000000 9.000000 5.000000 5.000000 7.000000 5.000000 12.000000 12.000000 12.000000 12.000000 11.000000 10.000000 12.000000 11.000000 11.000000 11.000000 12.000000 10.000000 12.000000 12.000000 12.000000 12.000000 12.000000 7.000000 9.000000 4.000000 12.000000 4.000000 5.000000 4.000000 10.000000 5.000000 12.000000 5.000000 7.000000 4.000000 12.000000 5.000000 11.000000 12.000000 4.000000 12.000000 12.000000 8.000000 12.000000 9.000000 9.000000 13.000000 12.000000 9.000000 6.000000 13.000000 12.000000 12.000000 12.000000 11.000000 12.000000 12.000000 4.000000 5.000000 5.000000 5.000000 5.000000 5.000000 5.000000
4.000000 12.000000 7.000000 12.000000 12.000000 10.000000 12.000000 1.000000 7.000000 10.000000 5.000000 5.000000 5.000000 4.000000 1.000000 1.000000 1.000000 1.000000 5.000000 1.000000 5.000000 7.000000 5.000000 5.000000 1.000000 4.000000 5.000000 4.000000 7.000000 11.000000 4.000000 5.000000 4.000000 1.000000 4.000000 4.000000 4.000000 4.000000 4.000000 5.000000 5.000000 4.000000 4.000000 4.000000 4.000000 4.000000 10.000000 7.000000 12.000000 12.000000 12.000000 10.000000 1.000000 5.000000 11.000000 10.000000 13.000000 4.000000 4.000000 11.000000 4.000000 12.000000 4.000000 4.000000 4.000000 12.000000 12.000000 12.000000 8.000000 10.000000 12.000000 12.000000 9.000000 9.000000 9.000000 12.000000 4.000000 4.000000 12.000000 11.000000 12.000000 12.000000 12.000000 11.000000 12.000000 12.000000 12.000000 12.000000 11.000000 12.000000 12.000000 11.000000 12.000000 12.000000 12.000000 12.000000 6.000000 8.000000 12.000000 11.000000 10.000000 5.000000 5.000000 1.000000 1.000000 1.000000 1.000000 1.000000 1.000000 4.000000 1.000000 1.000000 1.000000 1.000000 3.000000 3.000000 1.000000 1.000000 1.000000 5.000000 1.000000 5.000000 5.000000 5.000000 12.000000 6.000000 9.000000 4.000000 5.000000 5.000000 5.000000 12.000000 5.000000 9.000000 12.000000 12.000000 11.000000 5.000000 4.000000 5.000000 5.000000 5.000000 4.000000 12.000000 12.000000 12.000000 12.000000 12.000000 5.000000 12.000000 7.000000 11.000000 4.000000 5.000000 5.000000 5.000000 5.000000 5.000000 5.000000 7.000000 5.000000 5.000000 5.000000 5.000000 12.000000 12.000000 12.000000 12.000000 9.000000 4.000000 12.000000 12.000000 6.000000 6.000000 8.000000 13.000000 4.000000 13.000000 12.000000 12.000000 12.000000 12.000000 12.000000 12.000000 12.000000 4.000000 5.000000 5.000000 5.000000 4.000000
4.000000 12.000000 12.000000 10.000000 8.000000 5.000000 4.000000 12.000000 7.000000 7.000000 4.000000 5.000000 4.000000 5.000000 5.000000 5.000000 4.000000 5.000000 4.000000 10.000000 7.000000 5.000000 5.000000 5.000000 5.000000 5.000000 10.000000 4.000000 8.000000 4.000000 5.000000 4.000000 1.000000 4.000000 4.000000 5.000000 10.000000 7.000000 7.000000 7.000000 10.000000 7.000000 7.000000 10.000000 5.000000 5.000000 10.000000 4.000000 10.000000 11.000000 12.000000 12.000000 12.000000 12.000000 12.000000 13.000000 13.000000 12.000000 12.000000 12.000000 12.000000 12.000000 9.000000 9.000000 4.000000 12.000000 12.000000 12.000000 13.000000 12.000000 12.000000 4.000000 9.000000 12.000000 13.000000 12.000000 12.000000 12.000000 12.000000 12.000000 12.000000 12.000000 12.000000 12.000000 4.000000 12.000000 12.000000 10.000000 8.000000 12.000000 11.000000 10.000000 10.000000 12.000000 10.000000 12.000000 4.000000 12.000000 12.000000 10.000000 10.000000 10.000000 5.000000 5.000000 5.000000 2.000000 1.000000 1.000000 4.000000 4.000000 1.000000 1.000000 1.000000 1.000000 1.000000 1.000000 1.000000 1.000000 1.000000 1.000000 4.000000 5.000000 1.000000 5.000000 6.000000 4.000000 12.000000 5.000000 5.000000 5.000000 5.000000 7.000000 4.000000 4.000000 12.000000 11.000000 4.000000 5.000000 5.000000 5.000000 5.000000 12.000000 11.000000 12.000000 12.000000 12.000000 12.000000 5.000000 5.000000 12.000000 12.000000 12.000000 4.000000 4.000000 5.000000 5.000000 4.000000 1.000000 5.000000 5.000000 4.000000 5.000000 11.000000 12.000000 12.000000 12.000000 12.000000 13.000000 4.000000 13.000000 10.000000 8.000000 12.000000 12.000000 9.000000 12.000000 10.000000 13.000000 8.000000 12.000000 12.000000 12.000000 12.000000 12.000000 12.000000 12.000000 4.000000 12.000000 4.000000 7.000000
4.000000 10.000000 10.000000 7.000000 5.000000 5.000000 5.000000 7.000000 4.000000 4.000000 7.000000 4.000000 5.000000 5.000000 5.000000 1.000000 4.000000 4.000000 5.000000 7.000000 7.000000 5.000000 4.000000 5.000000 1.000000 1.000000 5.000000 10.000000 7.000000 7.000000 5.000000 4.000000 1.000000 4.000000 4.000000 5.000000 5.000000 6.000000 7.000000 7.000000 4.000000 12.000000 12.000000 10.000000 10.000000 7.000000 10.000000 8.000000 11.000000 10.000000 10.000000 12.000000 12.000000 7.000000 7.000000 7.000000 9.000000 11.000000 12.000000 12.000000 12.000000 12.000000 12.000000 12.000000 12.000000 12.000000 4.000000 12.000000 12.000000 4.000000 4.000000 12.000000 13.000000 12.000000 8.000000 8.000000 12.000000 11.000000 12.000000 12.000000 12.000000 11.000000 12.000000 12.000000 12.000000 9.000000 12.000000 5.000000 5.000000 4.000000 4.000000 4.000000 12.000000 11.000000 11.000000 12.000000 12.000000 12.000000 12.000000 5.000000 10.000000 5.000000 11.000000 5.000000 1.000000 1.000000 1.000000 5.000000 5.000000 4.000000 1.000000 1.000000 1.000000 1.000000 1.000000 1.000000 1.000000 5.000000 1.000000 1.000000 1.000000 1.000000 1.000000 5.000000 5.000000 9.000000 7.000000 5.000000 5.000000 5.000000 5.000000 5.000000 12.000000 4.000000 12.000000 12.000000 5.000000 5.000000 5.000000 5.000000 5.000000 4.000000 12.000000 9.000000 12.000000 11.000000 12.000000 4.000000 5.000000 12.000000 11.000000 5.000000 4.000000 7.000000 4.000000 1.000000 1.000000 1.000000 1.000000 5.000000 12.000000 12.000000 12.000000 10.000000 12.000000 12.000000 4.000000 12.000000 12.000000 13.000000 4.000000 12.000000 4.000000 13.000000 12.000000 12.000000 4.000000 4.000000 4.000000 4.000000 12.000000 12.000000 12.000000 12.000000 12.000000 12.000000 12.000000 4.000000 4.000000 4.000000
12.000000 12.000000 4.000000 1.000000 1.000000 1.000000 5.000000 7.000000 4.000000 11.000000 7.000000 12.000000 5.000000 1.000000 1.000000 2.000000 1.000000 5.000000 5.000000 5.000000 6.000000 4.000000 4.000000 4.000000 1.000000 1.000000 1.000000 5.000000 5.000000 7.000000 5.000000 5.000000 4.000000 5.000000 4.000000 10.000000 5.000000 5.000000 10.000000 7.000000 10.000000 10.000000 11.000000 12.000000 4.000000 4.000000 4.000000 11.000000 12.000000 10.000000 5.000000 7.000000 7.000000 13.000000 4.000000 12.000000 8.000000 9.000000 9.000000 4.000000 12.000000 12.000000 4.000000 12.000000 12.000000 8.000000 10.000000 12.000000 12.000000 4.000000 4.000000 9.000000 9.000000 9.000000 4.000000 12.000000 11.000000 8.000000 12.000000 13.000000 4.000000 12.000000 12.000000 12.000000 10.000000 4.000000 5.000000 5.000000 4.000000 5.000000 5.000000 4.000000 5.000000 11.000000 12.000000 12.000000 4.000000 13.000000 12.000000 12.000000 12.000000 11.000000 5.000000 5.000000 5.000000 1.000000 1.000000 1.000000 1.000000 1.000000 1.000000 1.000000 1.000000 5.000000 1.000000 5.000000 5.000000 1.000000 1.000000 1.000000 1.000000 1.000000 1.000000 5.000000 5.000000 4.000000 7.000000 5.000000 5.000000 5.000000 11.000000 6.000000 7.000000 4.000000 10.000000 12.000000 11.000000 5.000000 5.000000 5.000000 5.000000 12.000000 12.000000 12.000000 12.000000 12.000000 12.000000 5.000000 5.000000 12.000000 11.000000 12.000000 7.000000 5.000000 1.000000 1.000000 1.000000 1.000000 1.000000 5.000000 12.000000 12.000000 12.000000 11.000000 12.000000 13.000000 12.000000 12.000000 13.000000 13.000000 12.000000 12.000000 8.000000 12.000000 12.000000 12.000000 4.000000 8.000000 4.000000 4.000000 4.000000 4.000000 13.000000 12.000000 12.000000 9.000000 5.000000 5.000000 5.000000 5.000000
12.000000 11.000000 7.000000 5.000000 4.000000 4.000000 4.000000 5.000000 5.000000 10.000000 7.000000 5.000000 5.000000 4.000000 1.000000 4.000000 1.000000 4.000000 6.000000 5.000000 5.000000 5.000000 5.000000 5.000000 1.000000 1.000000 1.000000 4.000000 7.000000 5.000000 5.000000 5.000000 1.000000 5.000000 5.000000 5.000000 1.000000 1.000000 1.000000 5.000000 1.000000 5.000000 10.000000 10.000000 9.000000 7.000000 12.000000 12.000000 12.000000 10.000000 7.000000 11.000000 13.000000 11.000000 13.000000 12.000000 4.000000 4.000000 12.000000 12.000000 11.000000 4.000000 12.000000 11.000000 11.000000 12.000000 12.000000 12.000000 4.000000 10.000000 10.000000 4.000000 4.000000 4.000000 12.000000 12.000000 12.000000 12.000000 4.000000 12.000000 4.000000 12.000000 9.000000 4.000000 4.000000 4.000000 5.000000 5.000000 5.000000 5.000000 5.000000 5.000000 12.000000 12.000000 12.000000 12.000000 9.000000 13.000000 12.000000 10.000000 12.000000 10.000000 5.000000 5.000000 5.000000 5.000000 1.000000 1.000000 5.000000 5.000000 5.000000 5.000000 5.000000 5.000000 5.000000 5.000000 5.000000 5.000000 1.000000 2.000000 1.000000 1.000000 5.000000 5.000000 4.000000 4.000000 5.000000 5.000000 5.000000 5.000000 7.000000 12.000000 11.000000 12.000000 12.000000 5.000000 5.000000 5.000000 5.000000 5.000000 5.000000 4.000000 12.000000 12.000000 12.000000 5.000000 5.000000 5.000000 5.000000 7.000000 4.000000 5.000000 5.000000 1.000000 1.000000 5.000000 7.000000 5.000000 5.000000 7.000000 12.000000 12.000000 12.000000 12.000000 4.000000 13.000000 4.000000 13.000000 13.000000 12.000000 12.000000 4.000000 12.000000 12.000000 12.000000 12.000000 12.000000 12.000000 9.000000 12.000000 4.000000 12.000000 12.000000 12.000000 8.000000 12.000000 4.000000 5.000000 5.000000 4.000000
11.000000 10.000000 4.000000 10.000000 5.000000 1.000000 1.000000 5.000000 4.000000 5.000000 5.000000 5.000000 5.000000 1.000000 4.000000 4.000000 5.000000 4.000000 4.000000 1.000000 1.000000 4.000000 4.000000 5.000000 4.000000 1.000000 1.000000 10.000000 5.000000 4.000000 5.000000 1.000000 1.000000 1.000000 1.000000 1.000000 1.000000 1.000000 1.000000 1.000000 1.000000 1.000000 5.000000 10.000000 12.000000 11.000000 5.000000 4.000000 7.000000 11.000000 7.000000 4.000000 10.000000 12.000000 11.000000 12.000000 13.000000 12.000000 9.000000 12.000000 11.000000 7.000000 4.000000 8.000000 12.000000 12.000000 13.000000 12.000000 4.000000 4.000000 13.000000 4.000000 9.000000 8.000000 12.000000 12.000000 12.000000 9.000000 5.000000 4.000000 4.000000 4.000000 4.000000 7.000000 5.000000 4.000000 5.000000 5.000000 5.000000 5.000000 5.000000 12.000000 12.000000 12.000000 10.000000 12.000000 13.000000 6.000000 10.000000 11.000000 12.000000 12.000000 12.000000 12.000000 5.000000 5.000000 1.000000 1.000000 5.000000 5.000000 5.000000 5.000000 5.000000 4.000000 5.000000 4.000000 5.000000 5.000000 1.000000 2.000000 1.000000 5.000000 5.000000 4.000000 4.000000 5.000000 5.000000 5.000000 5.000000 5.000000 5.000000 12.000000 12.000000 12.000000 12.000000 5.000000 5.000000 5.000000 5.000000 5.000000 5.000000 12.000000 12.000000 11.000000 12.000000 5.000000 4.000000 5.000000 5.000000 4.000000 5.000000 5.000000 1.000000 1.000000 5.000000 5.000000 5.000000 5.000000 5.000000 7.000000 7.000000 12.000000 13.000000 8.000000 13.000000 4.000000 1.000000 4.000000 12.000000 12.000000 12.000000 12.000000 12.000000 12.000000 12.000000 12.000000 12.000000 13.000000 12.000000 4.000000 13.000000 10.000000 12.000000 12.000000 12.000000 5.000000 4.000000 5.000000 5.000000 5.000000
7.000000 4.000000 10.000000 5.000000 5.000000 5.000000 1.000000 5.000000 4.000000 4.000000 4.000000 4.000000 5.000000 1.000000 4.000000 5.000000 4.000000 5.000000 5.000000 5.000000 10.000000 5.000000 7.000000 4.000000 5.000000 1.000000 5.000000 1.000000 5.000000 5.000000 5.000000 1.000000 1.000000 4.000000 4.000000 4.000000 5.000000 5.000000 4.000000 5.000000 4.000000 5.000000 5.000000 5.000000 10.000000 11.000000 12.000000 5.000000 11.000000 4.000000 12.000000 12.000000 12.000000 12.000000 12.000000 12.000000 12.000000 12.000000 8.000000 12.000000 11.000000 5.000000 4.000000 5.000000 12.000000 12.000000 12.000000 12.000000 8.000000 13.000000 6.000000 7.000000 9.000000 12.000000 12.000000 12.000000 12.000000 10.000000 5.000000 12.000000 4.000000 12.000000 7.000000 6.000000 5.000000 5.000000 5.000000 5.000000 5.000000 1.000000 4.000000 11.000000 4.000000 12.000000 9.000000 12.000000 12.000000 1.000000 8.000000 12.000000 10.000000 5.000000 4.000000 12.000000 12.000000 5.000000 5.000000 1.000000 5.000000 5.000000 5.000000 7.000000 4.000000 5.000000 5.000000 5.000000 5.000000 5.000000 1.000000 1.000000 1.000000 5.000000 5.000000 4.000000 5.000000 5.000000 5.000000 5.000000 5.000000 5.000000 12.000000 12.000000 11.000000 12.000000 4.000000 5.000000 5.000000 5.000000 5.000000 5.000000 5.000000 4.000000 4.000000 12.000000 12.000000 4.000000 5.000000 5.000000 5.000000 4.000000 5.000000 4.000000 1.000000 1.000000 5.000000 5.000000 12.000000 4.000000 4.000000 12.000000 12.000000 4.000000 12.000000 13.000000 13.000000 4.000000 8.000000 12.000000 12.000000 12.000000 12.000000 12.000000 12.000000 12.000000 12.000000 11.000000 9.000000 4.000000 4.000000 4.000000 7.000000 8.000000 12.000000 12.000000 4.000000 4.000000 13.000000 4.000000 4.000000 4.000000
10.000000 7.000000 10.000000 4.000000 5.000000 5.000000 5.000000 5.000000 4.000000 5.000000 4.000000 7.000000 4.000000 4.000000 5.000000 12.000000 7.000000 10.000000 7.000000 4.000000 5.000000 4.000000 7.000000 7.000000 4.000000 4.000000 1.000000 1.000000 5.000000 5.000000 4.000000 4.000000 4.000000 4.000000 5.000000 7.000000 7.000000 4.000000 4.000000 4.000000 5.000000 10.000000 7.000000 10.000000 10.000000 12.000000 12.000000 7.000000 4.000000 8.000000 4.000000 9.000000 12.000000 4.000000 12.000000 12.000000 4.000000 12.000000 12.000000 12.000000 12.000000 7.000000 5.000000 4.000000 12.000000 12.000000 12.000000 4.000000 4.000000 7.000000 7.000000 7.000000 12.000000 12.000000 12.000000 12.000000 12.000000 5.000000 4.000000 10.000000 8.000000 7.000000 5.000000 4.000000 4.000000 5.000000 5.000000 5.000000 5.000000 1.000000 5.000000 1.000000 5.000000 5.000000 12.000000 12.000000 8.000000 4.000000 4.000000 5.000000 10.000000 8.000000 10.000000 10.000000 10.000000 5.000000 5.000000 5.000000 5.000000 5.000000 5.000000 5.000000 12.000000 4.000000 4.000000 8.000000 5.000000 5.000000 5.000000 1.000000 1.000000 5.000000 4.000000 4.000000 5.000000 5.000000 5.000000 5.000000 4.000000 5.000000 12.000000 12.000000 12.000000 12.000000 5.000000 5.000000 5.000000 5.000000 5.000000 5.000000 5.000000 10.000000 5.000000 12.000000 11.000000 5.000000 5.000000 5.000000 4.000000 4.000000 5.000000 6.000000 1.000000 1.000000 1.000000 5.000000 6.000000 12.000000 12.000000 12.000000 12.000000 10.000000 13.000000 10.000000 4.000000 12.000000 8.000000 11.000000 8.000000 11.000000 13.000000 8.000000 12.000000 11.000000 11.000000 8.000000 12.000000 9.000000 10.000000 8.000000 4.000000 4.000000 12.000000 12.000000 10.000000 12.000000 4.000000 5.000000 4.000000 5.000000
4.000000 6.000000 10.000000 5.000000 5.000000 1.000000 4.000000 10.000000 10.000000 12.000000 11.000000 12.000000 4.000000 7.000000 7.000000 12.000000 11.000000 10.000000 12.000000 5.000000 4.000000 5.000000 7.000000 12.000000 5.000000 4.000000 4.000000 4.000000 1.000000 4.000000 4.000000 4.000000 4.000000 7.000000 11.000000 7.000000 7.000000 7.000000 7.000000 7.000000 7.000000 7.000000 5.000000 10.000000 11.000000 11.000000 12.000000 1.000000 13.000000 9.000000 9.000000 4.000000 11.000000 11.000000 12.000000 12.000000 12.000000 12.000000 8.000000 11.000000 12.000000 5.000000 4.000000 4.000000 12.000000 12.000000 12.000000 4.000000 4.000000 4.000000 4.000000 9.000000 12.000000 12.000000 9.000000 11.000000 12.000000 4.000000 10.000000 5.000000 10.000000 4.000000 5.000000 5.000000 5.000000 5.000000 5.000000 5.000000 1.000000 5.000000 5.000000 5.000000 5.000000 5.000000 12.000000 12.000000 11.000000 4.000000 4.000000 11.000000 8.000000 12.000000 10.000000 12.000000 5.000000 5.000000 5.000000 5.000000 5.000000 5.000000 5.000000 5.000000 10.000000 10.000000 4.000000 4.000000 4.000000 4.000000 5.000000 1.000000 1.000000 4.000000 5.000000 7.000000 5.000000 5.000000 5.000000 5.000000 5.000000 12.000000 12.000000 4.000000 12.000000 12.000000 4.000000 5.000000 1.000000 5.000000 5.000000 5.000000 5.000000 4.000000 5.000000 4.000000 4.000000 5.000000 5.000000 5.000000 5.000000 5.000000 5.000000 1.000000 1.000000 1.000000 1.000000 13.000000 11.000000 12.000000 12.000000 12.000000 12.000000 12.000000 8.000000 1.000000 12.000000 12.000000 12.000000 12.000000 12.000000 8.000000 11.000000 7.000000 13.000000 12.000000 9.000000 8.000000 11.000000 9.000000 9.000000 9.000000 4.000000 12.000000 12.000000 12.000000 12.000000 12.000000 12.000000 5.000000 5.000000 4.000000
6.000000 4.000000 5.000000 7.000000 12.000000 7.000000 11.000000 12.000000 11.000000 12.000000 11.000000 12.000000 10.000000 7.000000 12.000000 12.000000 12.000000 12.000000 12.000000 12.000000 12.000000 12.000000 10.000000 4.000000 5.000000 10.000000 5.000000 5.000000 4.000000 4.000000 4.000000 1.000000 7.000000 7.000000 7.000000 7.000000 12.000000 12.000000 12.000000 10.000000 7.000000 10.000000 11.000000 12.000000 12.000000 12.000000 4.000000 6.000000 10.000000 12.000000 9.000000 12.000000 10.000000 9.000000 12.000000 11.000000 11.000000 4.000000 12.000000 11.000000 7.000000 5.000000 4.000000 7.000000 12.000000 12.000000 4.000000 4.000000 4.000000 4.000000 12.000000 9.000000 4.000000 13.000000 13.000000 4.000000 4.000000 12.000000 4.000000 5.000000 4.000000 6.000000 5.000000 5.000000 5.000000 5.000000 5.000000 1.000000 5.000000 5.000000 5.000000 5.000000 5.000000 12.000000 12.000000 12.000000 12.000000 4.000000 4.000000 4.000000 12.000000 12.000000 12.000000 12.000000 12.000000 12.000000 5.000000 5.000000 5.000000 5.000000 5.000000 7.000000 9.000000 5.000000 4.000000 10.000000 7.000000 4.000000 4.000000 5.000000 1.000000 1.000000 5.000000 4.000000 5.000000 5.000000 5.000000 5.000000 5.000000 5.000000 7.000000 12.000000 12.000000 12.000000 5.000000 4.000000 5.000000 5.000000 5.000000 5.000000 5.000000 4.000000 5.000000 4.000000 5.000000 5.000000 5.000000 5.000000 5.000000 5.000000 1.000000 5.000000 1.000000 1.000000 5.000000 4.000000 4.000000 10.000000 10.000000 10.000000 12.000000 4.000000 4.000000 13.000000 12.000000 12.000000 12.000000 12.000000 12.000000 12.000000 12.000000 12.000000 12.000000 8.000000 8.000000 13.000000 12.000000 12.000000 4.000000 13.000000 12.000000 12.000000 12.000000 12.000000 12.000000 11.000000 12.000000 12.000000 12.000000 12.000000
7.000000 10.000000 12.000000 12.000000 4.000000 12.000000 12.000000 4.000000 4.000000 4.000000 12.000000 4.000000 5.000000 12.000000 3.000000 12.000000 10.000000 12.000000 4.000000 12.000000 12.000000 12.000000 12.000000 12.000000 9.000000 12.000000 12.000000 12.000000 10.000000 4.000000 10.000000 7.000000 5.000000 4.000000 7.000000 12.000000 12.000000 12.000000 12.000000 10.000000 12.000000 11.000000 12.000000 12.000000 4.000000 11.000000 4.000000 1.000000 4.000000 8.000000 12.000000 12.000000 9.000000 12.000000 10.000000 4.000000 10.000000 4.000000 10.000000 5.000000 5.000000 5.000000 7.000000 5.000000 12.000000 12.000000 12.000000 4.000000 8.000000 4.000000 12.000000 11.000000 13.000000 12.000000 12.000000 11.000000 12.000000 12.000000 10.000000 5.000000 5.000000 5.000000 5.000000 5.000000 5.000000 1.000000 1.000000 5.000000 5.000000 5.000000 10.000000 12.000000 12.000000 12.000000 11.000000 12.000000 12.000000 12.000000 4.000000 13.000000 4.000000 12.000000 8.000000 12.000000 12.000000 11.000000 5.000000 5.000000 5.000000 5.000000 12.000000 12.000000 10.000000 5.000000 5.000000 5.000000 5.000000 5.000000 5.000000 5.000000 5.000000 1.000000 1.000000 1.000000 5.000000 5.000000 5.000000 5.000000 4.000000 4.000000 4.000000 12.000000 11.000000 12.000000 4.000000 4.000000 5.000000 1.000000 5.000000 1.000000 1.000000 5.000000 7.000000 5.000000 5.000000 1.000000 1.000000 5.000000 5.000000 5.000000 1.000000 5.000000 5.000000 4.000000 5.000000 5.000000 10.000000 10.000000 10.000000 12.000000 13.000000 12.000000 10.000000 13.000000 12.000000 11.000000 8.000000 5.000000 7.000000 10.000000 12.000000 12.000000 12.000000 12.000000 12.000000 12.000000 12.000000 4.000000 12.000000 13.000000 13.000000 13.000000 12.000000 12.000000 12.000000 12.000000 12.000000 4.000000 4.000000 12.000000
5.000000 12.000000 10.000000 12.000000 11.000000 12.000000 11.000000 12.000000 11.000000 12.000000 4.000000 10.000000 4.000000 4.000000 4.000000 4.000000 13.000000 4.000000 13.000000 12.000000 4.000000 13.000000 12.000000 12.000000 8.000000 12.000000 12.000000 12.000000 12.000000 4.000000 10.000000 10.000000 12.000000 12.000000 12.000000 9.000000 8.000000 12.000000 12.000000 12.000000 4.000000 13.000000 12.000000 13.000000 4.000000 13.000000 10.000000 9.000000 4.000000 8.000000 9.000000 4.000000 10.000000 11.000000 5.000000 5.000000 10.000000 5.000000 5.000000 5.000000 5.000000 7.000000 7.000000 12.000000 12.000000 10.000000 4.000000 13.000000 8.000000 12.000000 12.000000 12.000000 13.000000 12.000000 12.000000 11.000000 12.000000 7.000000 10.000000 5.000000 5.000000 5.000000 5.000000 5.000000 5.000000 1.000000 5.000000 3.000000 5.000000 5.000000 8.000000 11.000000 12.000000 11.000000 12.000000 12.000000 12.000000 12.000000 9.000000 4.000000 4.000000 12.000000 12.000000 11.000000 12.000000 5.000000 5.000000 10.000000 12.000000 7.000000 9.000000 8.000000 10.000000 5.000000 5.000000 5.000000 5.000000 5.000000 5.000000 5.000000 1.000000 1.000000 1.000000 1.000000 5.000000 1.000000 5.000000 5.000000 5.000000 5.000000 5.000000 10.000000 12.000000 12.000000 5.000000 5.000000 1.000000 5.000000 5.000000 5.000000 5.000000 5.000000 7.000000 5.000000 1.000000 1.000000 1.000000 5.000000 5.000000 5.000000 5.000000 5.000000 5.000000 1.000000 1.000000 5.000000 7.000000 10.000000 8.000000 12.000000 8.000000 4.000000 7.000000 1.000000 12.000000 12.000000 5.000000 5.000000 5.000000 1.000000 10.000000 12.000000 12.000000 12.000000 4.000000 12.000000 12.000000 12.000000 8.000000 10.000000 4.000000 12.000000 12.000000 12.000000 12.000000 12.000000 12.000000 12.000000 4.000000 4.000000
11.000000 12.000000 12.000000 12.000000 11.000000 12.000000 10.000000 4.000000 4.000000 13.000000 6.000000 7.000000 12.000000 12.000000 12.000000 12.000000 12.000000 12.000000 12.000000 12.000000 12.000000 12.000000 4.000000 12.000000 10.000000 12.000000 12.000000 12.000000 12.000000 4.000000 12.000000 12.000000 12.000000 12.000000 12.000000 12.000000 12.000000 4.000000 13.000000 4.000000 6.000000 13.000000 13.000000 7.000000 13.000000 13.000000 13.000000 6.000000 4.000000 12.000000 12.000000 11.000000 11.000000 11.000000 12.000000 12.000000 4.000000 7.000000 10.000000 5.000000 5.000000 5.000000 12.000000 11.000000 4.000000 4.000000 12.000000 8.000000 12.000000 8.000000 12.000000 12.000000 7.000000 9.000000 11.000000 12.000000 12.000000 12.000000 12.000000 10.000000 5.000000 5.000000 3.000000 1.000000 1.000000 1.000000 5.000000 5.000000 5.000000 7.000000 10.000000 7.000000 5.000000 7.000000 4.000000 12.000000 12.000000 11.000000 12.000000 13.000000 13.000000 4.000000 12.000000 12.000000 12.000000 5.000000 12.000000 11.000000 12.000000 12.000000 10.000000 5.000000 4.000000 5.000000 5.000000 5.000000 1.000000 5.000000 5.000000 5.000000 1.000000 1.000000 1.000000 1.000000 5.000000 1.000000 1.000000 5.000000 5.000000 5.000000 5.000000 12.000000 4.000000 4.000000 5.000000 5.000000 1.000000 5.000000 5.000000 5.000000 5.000000 4.000000 5.000000 1.000000 1.000000 5.000000 5.000000 5.000000 5.000000 5.000000 5.000000 5.000000 7.000000 5.000000 5.000000 1.000000 10.000000 12.000000 13.000000 12.000000 13.000000 4.000000 13.000000 12.000000 12.000000 12.000000 5.000000 5.000000 1.000000 1.000000 1.000000 12.000000 11.000000 8.000000 11.000000 12.000000 12.000000 12.000000 12.000000 13.000000 13.000000 11.000000 12.000000 12.000000 12.000000 12.000000 7.000000 4.000000 4.000000 4.000000
12.000000 12.000000 9.000000 4.000000 13.000000 1.000000 4.000000 11.000000 12.000000 12.000000 12.000000 9.000000 12.000000 12.000000 12.000000 12.000000 12.000000 9.000000 11.000000 12.000000 12.000000 12.000000 9.000000 10.000000 12.000000 11.000000 12.000000 4.000000 12.000000 9.000000 12.000000 12.000000 12.000000 9.000000 12.000000 9.000000 9.000000 4.000000 4.000000 4.000000 13.000000 4.000000 4.000000 4.000000 13.000000 13.000000 12.000000 12.000000 12.000000 12.000000 12.000000 12.000000 11.000000 11.000000 12.000000 12.000000 12.000000 4.000000 5.000000 10.000000 12.000000 12.000000 12.000000 4.000000 4.000000 4.000000 6.000000 12.000000 12.000000 11.000000 12.000000 12.000000 12.000000 9.000000 12.000000 12.000000 11.000000 10.000000 12.000000 11.000000 4.000000 5.000000 5.000000 5.000000 5.000000 1.000000 5.000000 5.000000 7.000000 10.000000 7.000000 5.000000 5.000000 5.000000 11.000000 12.000000 12.000000 12.000000 12.000000 13.000000 4.000000 4.000000 8.000000 4.000000 12.000000 12.000000 12.000000 12.000000 12.000000 12.000000 12.000000 5.000000 5.000000 5.000000 5.000000 5.000000 1.000000 5.000000 5.000000 5.000000 1.000000 1.000000 1.000000 1.000000 1.000000 1.000000 1.000000 5.000000 5.000000 5.000000 7.000000 9.000000 12.000000 4.000000 5.000000 5.000000 1.000000 1.000000 5.000000 5.000000 5.000000 5.000000 5.000000 1.000000 5.000000 5.000000 5.000000 5.000000 7.000000 5.000000 5.000000 5.000000 5.000000 5.000000 5.000000 4.000000 12.000000 12.000000 12.000000 12.000000 4.000000 7.000000 13.000000 13.000000 11.000000 12.000000 5.000000 1.000000 1.000000 1.000000 1.000000 5.000000 12.000000 12.000000 12.000000 12.000000 12.000000 12.000000 4.000000 13.000000 4.000000 12.000000 10.000000 4.000000 4.000000 4.000000 4.000000 12.000000 12.000000 12.000000
13.000000 13.000000 9.000000 12.000000 12.000000 12.000000 12.000000 12.000000 12.000000 11.000000 12.000000 12.000000 13.000000 12.000000 11.000000 7.000000 8.000000 10.000000 5.000000 7.000000 12.000000 12.000000 12.000000 1.000000 12.000000 12.000000 12.000000 4.000000 12.000000 4.000000 12.000000 12.000000 4.000000 12.000000 4.000000 10.000000 13.000000 13.000000 12.000000 12.000000 12.000000 12.000000 12.000000 8.000000 12.000000 9.000000 12.000000 12.000000 13.000000 4.000000 4.000000 12.000000 4.000000 4.000000 12.000000 8.000000 12.000000 4.000000 12.000000 12.000000 12.000000 10.000000 10.000000 4.000000 12.000000 12.000000 12.000000 12.000000 12.000000 8.000000 12.000000 10.000000 10.000000 12.000000 12.000000 12.000000 9.000000 5.000000 5.000000 12.000000 12.000000 5.000000 5.000000 5.000000 5.000000 5.000000 5.000000 5.000000 7.000000 5.000000 5.000000 5.000000 5.000000 5.000000 12.000000 10.000000 10.000000 12.000000 8.000000 12.000000 4.000000 12.000000 12.000000 12.000000 4.000000 4.000000 4.000000 11.000000 11.000000 8.000000 8.000000 5.000000 5.000000 5.000000 5.000000 1.000000 5.000000 5.000000 5.000000 5.000000 1.000000 1.000000 1.000000 1.000000 1.000000 2.000000 1.000000 4.000000 5.000000 1.000000 12.000000 12.000000 11.000000 7.000000 5.000000 1.000000 1.000000 5.000000 5.000000 6.000000 5.000000 5.000000 5.000000 5.000000 5.000000 5.000000 12.000000 12.000000 12.000000 12.000000 7.000000 8.000000 12.000000 5.000000 7.000000 12.000000 12.000000 12.000000 12.000000 9.000000 4.000000 7.000000 13.000000 12.000000 10.000000 10.000000 5.000000 1.000000 1.000000 1.000000 5.000000 5.000000 10.000000 12.000000 12.000000 9.000000 12.000000 12.000000 12.000000 4.000000 6.000000 4.000000 4.000000 12.000000 12.000000 4.000000 12.000000 12.000000 8.000000 12.000000
13.000000 4.000000 9.000000 12.000000 4.000000 4.000000 12.000000 11.000000 10.000000 10.000000 12.000000 12.000000 12.000000 12.000000 10.000000 10.000000 4.000000 5.000000 4.000000 10.000000 12.000000 12.000000 12.000000 12.000000 12.000000 13.000000 12.000000 4.000000 12.000000 13.000000 4.000000 4.000000 10.000000 12.000000 7.000000 7.000000 13.000000 12.000000 12.000000 9.000000 12.000000 12.000000 9.000000 12.000000 12.000000 9.000000 9.000000 12.000000 10.000000 10.000000 7.000000 4.000000 13.000000 4.000000 12.000000 4.000000 10.000000 4.000000 12.000000 10.000000 12.000000 12.000000 12.000000 12.000000 12.000000 10.000000 8.000000 12.000000 12.000000 11.000000 10.000000 12.000000 9.000000 12.000000 11.000000 8.000000 12.000000 4.000000 12.000000 12.000000 12.000000 7.000000 5.000000 5.000000 5.000000 5.000000 5.000000 5.000000 5.000000 5.000000 5.000000 5.000000 4.000000 7.000000 7.000000 10.000000 11.000000 12.000000 12.000000 12.000000 1.000000 12.000000 12.000000 12.000000 12.000000 4.000000 13.000000 12.000000 4.000000 10.000000 8.000000 5.000000 5.000000 5.000000 5.000000 5.000000 1.000000 1.000000 5.000000 5.000000 5.000000 1.000000 1.000000 1.000000 1.000000 1.000000 1.000000 5.000000 5.000000 5.000000 5.000000 12.000000 4.000000 4.000000 5.000000 1.000000 1.000000 5.000000 4.000000 1.000000 1.000000 1.000000 5.000000 5.000000 4.000000 12.000000 12.000000 4.000000 12.000000 11.000000 4.000000 13.000000 12.000000 12.000000 12.000000 12.000000 10.000000 12.000000 4.000000 4.000000 4.000000 13.000000 12.000000 12.000000 12.000000 7.000000 10.000000 4.000000 1.000000 1.000000 5.000000 11.000000 5.000000 10.000000 12.000000 12.000000 10.000000 13.000000 12.000000 8.000000 11.000000 13.000000 12.000000 9.000000 11.000000 12.000000 12.000000 12.000000 12.000000 8.000000
12.000000 12.000000 9.000000 9.000000 9.000000 4.000000 9.000000 8.000000 10.000000 4.000000 4.000000 12.000000 9.000000 10.000000 5.000000 4.000000 5.000000 4.000000 5.000000 10.000000 7.000000 11.000000 11.000000 12.000000 12.000000 12.000000 12.000000 12.000000 13.000000 13.000000 4.000000 4.000000 12.000000 12.000000 12.000000 12.000000 7.000000 7.000000 4.000000 12.000000 12.000000 12.000000 13.000000 11.000000 11.000000 8.000000 9.000000 12.000000 9.000000 1.000000 8.000000 4.000000 9.000000 7.000000 13.000000 7.000000 4.000000 4.000000 12.000000 13.000000 12.000000 12.000000 12.000000 12.000000 13.000000 12.000000 12.000000 12.000000 12.000000 5.000000 10.000000 11.000000 11.000000 12.000000 12.000000 12.000000 13.000000 12.000000 12.000000 12.000000 11.000000 12.000000 12.000000 12.000000 7.000000 5.000000 5.000000 5.000000 5.000000 5.000000 5.000000 5.000000 5.000000 10.000000 6.000000 10.000000 12.000000 12.000000 13.000000 4.000000 12.000000 1.000000 12.000000 12.000000 12.000000 12.000000 12.000000 10.000000 4.000000 5.000000 5.000000 5.000000 5.000000 1.000000 1.000000 1.000000 1.000000 5.000000 5.000000 1.000000 5.000000 1.000000 2.000000 1.000000 1.000000 1.000000 1.000000 1.000000 5.000000 5.000000 9.000000 12.000000 5.000000 5.000000 5.000000 1.000000 1.000000 5.000000 1.000000 1.000000 1.000000 1.000000 5.000000 5.000000 5.000000 9.000000 1.000000 11.000000 12.000000 12.000000 12.000000 12.000000 8.000000 12.000000 12.000000 12.000000 9.000000 13.000000 13.000000 4.000000 4.000000 12.000000 12.000000 12.000000 12.000000 10.000000 1.000000 1.000000 1.000000 4.000000 5.000000 5.000000 5.000000 5.000000 5.000000 12.000000 12.000000 9.000000 12.000000 11.000000 4.000000 4.000000 12.000000 12.000000 12.000000 12.000000 12.000000 13.000000 8.000000 5.000000
12.000000 12.000000 7.000000 10.000000 10.000000 4.000000 10.000000 4.000000 10.000000 4.000000 8.000000 11.000000 9.000000 10.000000 5.000000 5.000000 1.000000 5.000000 5.000000 7.000000 10.000000 12.000000 11.000000 12.000000 12.000000 11.000000 12.000000 12.000000 12.000000 12.000000 12.000000 8.000000 9.000000 12.000000 12.000000 4.000000 13.000000 12.000000 12.000000 12.000000 12.000000 10.000000 12.000000 12.000000 12.000000 12.000000 12.000000 10.000000 12.000000 12.000000 12.000000 9.000000 13.000000 4.000000 13.000000 13.000000 4.000000 4.000000 9.000000 12.000000 12.000000 11.000000 12.000000 12.000000 12.000000 12.000000 11.000000 12.000000 10.000000 5.000000 5.000000 5.000000 11.000000 12.000000 12.000000 11.000000 12.000000 12.000000 12.000000 12.000000 4.000000 5.000000 11.000000 8.000000 4.000000 7.000000 5.000000 4.000000 4.000000 5.000000 5.000000 5.000000 5.000000 7.000000 4.000000 10.000000 10.000000 10.000000 12.000000 12.000000 12.000000 11.000000 11.000000 12.000000 12.000000 12.000000 12.000000 7.000000 5.000000 5.000000 5.000000 5.000000 5.000000 1.000000 5.000000 1.000000 5.000000 1.000000 1.000000 1.000000 5.000000 1.000000 1.000000 1.000000 1.000000 1.000000 5.000000 5.000000 5.000000 7.000000 7.000000 6.000000 5.000000 5.000000 5.000000 1.000000 2.000000 1.000000 1.000000 5.000000 1.000000 5.000000 5.000000 7.000000 12.000000 4.000000 8.000000 12.000000 5.000000 11.000000 11.000000 11.000000 12.000000 12.000000 12.000000 8.000000 4.000000 4.000000 4.000000 12.000000 12.000000 8.000000 12.000000 10.000000 10.000000 1.000000 1.000000 1.000000 1.000000 5.000000 5.000000 1.000000 4.000000 4.000000 4.000000 12.000000 12.000000 12.000000 12.000000 12.000000 12.000000 6.000000 6.000000 11.000000 13.000000 11.000000 12.000000 12.000000 5.000000 5.000000
10.000000 7.000000 4.000000 4.000000 5.000000 5.000000 4.000000 5.000000 5.000000 4.000000 5.000000 4.000000 10.000000 5.000000 4.000000 2.000000 2.000000 1.000000 4.000000 4.000000 7.000000 10.000000 10.000000 10.000000 12.000000 12.000000 12.000000 11.000000 12.000000 12.000000 12.000000 10.000000 12.000000 12.000000 11.000000 12.000000 9.000000 12.000000 12.000000 12.000000 12.000000 12.000000 8.000000 12.000000 1.000000 12.000000 12.000000 12.000000 12.000000 9.000000 12.000000 12.000000 9.000000 9.000000 13.000000 13.000000 3.000000 13.000000 13.000000 12.000000 12.000000 12.000000 12.000000 4.000000 12.000000 12.000000 12.000000 12.000000 4.000000 5.000000 5.000000 5.000000 10.000000 12.000000 12.000000 5.000000 12.000000 11.000000 10.000000 11.000000 12.000000 8.000000 13.000000 12.000000 12.000000 12.000000 5.000000 5.000000 5.000000 5.000000 5.000000 5.000000 4.000000 10.000000 7.000000 10.000000 4.000000 12.000000 12.000000 12.000000 12.000000 1.000000 10.000000 11.000000 11.000000 12.000000 12.000000 4.000000 5.000000 5.000000 5.000000 5.000000 5.000000 1.000000 5.000000 2.000000 1.000000 1.000000 1.000000 1.000000 5.000000 1.000000 1.000000 1.000000 1.000000 1.000000 5.000000 5.000000 1.000000 1.000000 1.000000 10.000000 5.000000 5.000000 1.000000 1.000000 5.000000 5.000000 5.000000 4.000000 5.000000 5.000000 4.000000 12.000000 4.000000 5.000000 7.000000 4.000000 5.000000 5.000000 10.000000 12.000000 12.000000 4.000000 8.000000 4.000000 4.000000 12.000000 12.000000 12.000000 4.000000 9.000000 11.000000 10.000000 7.000000 1.000000 1.000000 1.000000 5.000000 4.000000 5.000000 4.000000 4.000000 5.000000 5.000000 4.000000 4.000000 4.000000 12.000000 12.000000 12.000000 4.000000 4.000000 8.000000 8.000000 12.000000 12.000000 12.000000 12.000000 4.000000
4.000000 5.000000 4.000000 5.000000 5.000000 5.000000 5.000000 5.000000 4.000000 5.000000 10.000000 7.000000 10.000000 5.000000 1.000000 2.000000 1.000000 1.000000 5.000000 5.000000 5.000000 7.000000 5.000000 10.000000 11.000000 7.000000 10.000000 10.000000 9.000000 12.000000 12.000000 12.000000 12.000000 11.000000 12.000000 12.000000 12.000000 10.000000 11.000000 11.000000 4.000000 12.000000 5.000000 12.000000 12.000000 12.000000 12.000000 12.000000 12.000000 4.000000 4.000000 8.000000 10.000000 4.000000 13.000000 12.000000 9.000000 8.000000 7.000000 3.000000 11.000000 4.000000 12.000000 12.000000 12.000000 12.000000 12.000000 10.000000 4.000000 5.000000 5.000000 5.000000 10.000000 7.000000 5.000000 7.000000 12.000000 12.000000 12.000000 7.000000 12.000000 12.000000 12.000000 13.000000 12.000000 12.000000 4.000000 5.000000 1.000000 5.000000 5.000000 5.000000 5.000000 5.000000 4.000000 10.000000 7.000000 12.000000 9.000000 12.000000 13.000000 12.000000 12.000000 12.000000 13.000000 11.000000 12.000000 12.000000 5.000000 5.000000 5.000000 5.000000 5.000000 2.000000 2.000000 2.000000 5.000000 1.000000 5.000000 1.000000 1.000000 5.000000 1.000000 1.000000 1.000000 5.000000 5.000000 5.000000 1.000000 1.000000 1.000000 1.000000 1.000000 1.000000 1.000000 1.000000 1.000000 1.000000 1.000000 4.000000 5.000000 4.000000 4.000000 4.000000 8.000000 7.000000 5.000000 1.000000 5.000000 5.000000 12.000000 12.000000 12.000000 12.000000 4.000000 12.000000 12.000000 12.000000 12.000000 11.000000 4.000000 12.000000 12.000000 10.000000 10.000000 1.000000 5.000000 1.000000 5.000000 4.000000 12.000000 13.000000 12.000000 13.000000 12.000000 12.000000 10.000000 12.000000 10.000000 12.000000 12.000000 4.000000 13.000000 4.000000 12.000000 12.000000 12.000000 12.000000 12.000000 12.000000
4.000000 4.000000 4.000000 4.000000 5.000000 4.000000 4.000000 4.000000 4.000000 5.000000 7.000000 7.000000 5.000000 5.000000 5.000000 1.000000 4.000000 5.000000 5.000000 5.000000 5.000000 5.000000 5.000000 10.000000 4.000000 5.000000 7.000000 4.000000 4.000000 7.000000 10.000000 12.000000 12.000000 11.000000 12.000000 12.000000 12.000000 12.000000 10.000000 10.000000 4.000000 10.000000 10.000000 5.000000 10.000000 10.000000 10.000000 8.000000 11.000000 11.000000 12.000000 9.000000 12.000000 12.000000 12.000000 8.000000 12.000000 12.000000 12.000000 12.000000 11.000000 12.000000 12.000000 12.000000 8.000000 12.000000 4.000000 10.000000 5.000000 4.000000 5.000000 4.000000 5.000000 5.000000 5.000000 5.000000 5.000000 10.000000 7.000000 12.000000 12.000000 10.000000 12.000000 4.000000 11.000000 11.000000 12.000000 5.000000 5.000000 1.000000 1.000000 5.000000 5.000000 4.000000 7.000000 4.000000 4.000000 4.000000 4.000000 11.000000 9.000000 12.000000 4.000000 4.000000 4.000000 10.000000 12.000000 12.000000 7.000000 5.000000 5.000000 3.000000 1.000000 5.000000 5.000000 5.000000 5.000000 5.000000 5.000000 5.000000 5.000000 5.000000 1.000000 1.000000 1.000000 1.000000 5.000000 1.000000 1.000000 1.000000 1.000000 1.000000 1.000000 1.000000 1.000000 1.000000 5.000000 5.000000 7.000000 4.000000 4.000000 4.000000 5.000000 5.000000 9.000000 1.000000 1.000000 1.000000 5.000000 5.000000 10.000000 12.000000 12.000000 12.000000 13.000000 12.000000 12.000000 12.000000 12.000000 12.000000 7.000000 12.000000 12.000000 11.000000 10.000000 1.000000 5.000000 5.000000 5.000000 4.000000 12.000000 13.000000 4.000000 12.000000 12.000000 12.000000 12.000000 12.000000 13.000000 4.000000 4.000000 13.000000 7.000000 11.000000 12.000000 11.000000 12.000000 12.000000 12.000000 12.000000
4.000000 4.000000 5.000000 5.000000 5.000000 5.000000 5.000000 5.000000 4.000000 10.000000 12.000000 10.000000 5.000000 5.000000 5.000000 5.000000 4.000000 4.000000 5.000000 5.000000 5.000000 5.000000 5.000000 6.000000 5.000000 4.000000 5.000000 5.000000 10.000000 5.000000 4.000000 12.000000 1.000000 4.000000 12.000000 4.000000 12.000000 8.000000 4.000000 5.000000 4.000000 5.000000 5.000000 5.000000 5.000000 4.000000 12.000000 4.000000 12.000000 12.000000 12.000000 12.000000 12.000000 12.000000 10.000000 12.000000 12.000000 12.000000 4.000000 12.000000 13.000000 13.000000 11.000000 10.000000 12.000000 4.000000 12.000000 12.000000 12.000000 5.000000 5.000000 5.000000 5.000000 5.000000 5.000000 5.000000 5.000000 5.000000 10.000000 12.000000 7.000000 11.000000 10.000000 12.000000 4.000000 12.000000 12.000000 5.000000 5.000000 1.000000 5.000000 5.000000 1.000000 5.000000 4.000000 5.000000 5.000000 5.000000 4.000000 10.000000 12.000000 12.000000 7.000000 4.000000 13.000000 12.000000 12.000000 12.000000 10.000000 5.000000 5.000000 1.000000 5.000000 5.000000 1.000000 5.000000 1.000000 1.000000 5.000000 5.000000 5.000000 1.000000 5.000000 1.000000 1.000000 1.000000 1.000000 1.000000 1.000000 1.000000 1.000000 1.000000 1.000000 1.000000 1.000000 1.000000 5.000000 4.000000 4.000000 11.000000 4.000000 5.000000 4.000000 5.000000 1.000000 1.000000 1.000000 1.000000 5.000000 12.000000 10.000000 13.000000 12.000000 13.000000 12.000000 12.000000 12.000000 12.000000 5.000000 5.000000 4.000000 9.000000 4.000000 10.000000 5.000000 1.000000 5.000000 4.000000 5.000000 12.000000 12.000000 12.000000 12.000000 12.000000 12.000000 12.000000 4.000000 4.000000 4.000000 4.000000 11.000000 4.000000 13.000000 4.000000 12.000000 11.000000 12.000000 12.000000 12.000000 12.000000
4.000000 4.000000 5.000000 1.000000 1.000000 5.000000 5.000000 5.000000 5.000000 7.000000 10.000000 4.000000 5.000000 1.000000 5.000000 5.000000 5.000000 6.000000 4.000000 5.000000 5.000000 4.000000 4.000000 5.000000 5.000000 5.000000 4.000000 4.000000 5.000000 5.000000 12.000000 12.000000 12.000000 12.000000 12.000000 12.000000 12.000000 12.000000 4.000000 5.000000 3.000000 5.000000 5.000000 4.000000 4.000000 5.000000 12.000000 12.000000 12.000000 12.000000 12.000000 12.000000 13.000000 12.000000 12.000000 11.000000 12.000000 12.000000 12.000000 10.000000 7.000000 8.000000 12.000000 12.000000 4.000000 12.000000 12.000000 12.000000 12.000000 7.000000 5.000000 5.000000 5.000000 1.000000 5.000000 5.000000 5.000000 5.000000 5.000000 5.000000 4.000000 5.000000 10.000000 10.000000 12.000000 12.000000 12.000000 5.000000 5.000000 5.000000 5.000000 5.000000 1.000000 5.000000 1.000000 5.000000 1.000000 5.000000 4.000000 10.000000 12.000000 4.000000 7.000000 4.000000 4.000000 4.000000 12.000000 12.000000 5.000000 5.000000 5.000000 5.000000 5.000000 5.000000 5.000000 5.000000 5.000000 5.000000 5.000000 5.000000 5.000000 5.000000 5.000000 1.000000 1.000000 1.000000 1.000000 1.000000 2.000000 2.000000 2.000000 2.000000 2.000000 1.000000 1.000000 1.000000 5.000000 4.000000 7.000000 4.000000 12.000000 5.000000 1.000000 1.000000 1.000000 1.000000 1.000000 1.000000 4.000000 12.000000 12.000000 12.000000 4.000000 11.000000 4.000000 12.000000 4.000000 5.000000 5.000000 1.000000 5.000000 4.000000 12.000000 5.000000 1.000000 5.000000 5.000000 5.000000 5.000000 12.000000 12.000000 11.000000 12.000000 12.000000 4.000000 4.000000 9.000000 12.000000 12.000000 12.000000 12.000000 12.000000 11.000000 4.000000 12.000000 12.000000 12.000000 12.000000 11.000000 12.000000
4.000000 4.000000 5.000000 5.000000 5.000000 5.000000 5.000000 5.000000 10.000000 7.000000 5.000000 5.000000 4.000000 4.000000 4.000000 4.000000 5.000000 5.000000 4.000000 5.000000 5.000000 4.000000 5.000000 5.000000 10.000000 5.000000 13.000000 5.000000 8.000000 12.000000 12.000000 8.000000 1.000000 10.000000 12.000000 12.000000 11.000000 11.000000 4.000000 6.000000 5.000000 5.000000 5.000000 5.000000 4.000000 5.000000 4.000000 12.000000 12.000000 12.000000 12.000000 11.000000 12.000000 11.000000 8.000000 12.000000 12.000000 12.000000 4.000000 4.000000 4.000000 9.000000 12.000000 4.000000 4.000000 13.000000 4.000000 12.000000 13.000000 12.000000 5.000000 5.000000 5.000000 5.000000 5.000000 5.000000 1.000000 5.000000 5.000000 5.000000 5.000000 5.000000 5.000000 7.000000 10.000000 4.000000 12.000000 12.000000 12.000000 5.000000 5.000000 3.000000 1.000000 2.000000 5.000000 5.000000 5.000000 5.000000 5.000000 4.000000 12.000000 12.000000 10.000000 4.000000 4.000000 4.000000 12.000000 12.000000 12.000000 5.000000 10.000000 10.000000 5.000000 5.000000 5.000000 5.000000 5.000000 5.000000 5.000000 5.000000 5.000000 5.000000 1.000000 5.000000 1.000000 1.000000 1.000000 1.000000 1.000000 2.000000 2.000000 2.000000 1.000000 3.000000 1.000000 5.000000 5.000000 4.000000 1.000000 5.000000 1.000000 5.000000 4.000000 1.000000 5.000000 1.000000 5.000000 5.000000 5.000000 4.000000 12.000000 8.000000 13.000000 8.000000 11.000000 12.000000 5.000000 5.000000 5.000000 5.000000 12.000000 12.000000 7.000000 1.000000 5.000000 5.000000 5.000000 4.000000 12.000000 5.000000 12.000000 12.000000 4.000000 4.000000 4.000000 4.000000 12.000000 12.000000 13.000000 12.000000 12.000000 10.000000 10.000000 13.000000 9.000000 12.000000 10.000000 10.000000 4.000000 12.000000
10.000000 5.000000 4.000000 4.000000 1.000000 1.000000 5.000000 5.000000 4.000000 10.000000 5.000000 5.000000 4.000000 4.000000 5.000000 5.000000 5.000000 4.000000 5.000000 4.000000 4.000000 5.000000 4.000000 4.000000 5.000000 5.000000 12.000000 12.000000 12.000000 11.000000 10.000000 12.000000 13.000000 12.000000 11.000000 12.000000 7.000000 4.000000 5.000000 4.000000 5.000000 4.000000 4.000000 5.000000 4.000000 4.000000 12.000000 12.000000 12.000000 4.000000 4.000000 4.000000 10.000000 7.000000 5.000000 12.000000 12.000000 12.000000 9.000000 4.000000 10.000000 6.000000 12.000000 12.000000 13.000000 12.000000 4.000000 12.000000 7.000000 12.000000 12.000000 12.000000 4.000000 5.000000 5.000000 5.000000 5.000000 5.000000 5.000000 5.000000 5.000000 5.000000 5.000000 5.000000 12.000000 12.000000 4.000000 11.000000 11.000000 4.000000 4.000000 5.000000 1.000000 1.000000 1.000000 1.000000 5.000000 5.000000 5.000000 6.000000 12.000000 12.000000 12.000000 4.000000 4.000000 4.000000 10.000000 12.000000 12.000000 10.000000 12.000000 7.000000 12.000000 5.000000 7.000000 5.000000 5.000000 5.000000 10.000000 5.000000 5.000000 1.000000 1.000000 2.000000 1.000000 1.000000 1.000000 1.000000 2.000000 2.000000 1.000000 1.000000 1.000000 1.000000 5.000000 5.000000 1.000000 4.000000 4.000000 1.000000 1.000000 1.000000 1.000000 1.000000 1.000000 5.000000 5.000000 7.000000 12.000000 10.000000 12.000000 12.000000 12.000000 12.000000 12.000000 5.000000 5.000000 5.000000 5.000000 7.000000 5.000000 7.000000 10.000000 1.000000 1.000000 5.000000 5.000000 4.000000 5.000000 5.000000 5.000000 12.000000 13.000000 4.000000 4.000000 12.000000 12.000000 12.000000 12.000000 12.000000 11.000000 12.000000 12.000000 10.000000 12.000000 7.000000 12.000000 12.000000 12.000000 12.000000
4.000000 10.000000 4.000000 4.000000 5.000000 5.000000 5.000000 5.000000 5.000000 5.000000 5.000000 5.000000 5.000000 4.000000 5.000000 5.000000 4.000000 4.000000 4.000000 12.000000 10.000000 4.000000 4.000000 12.000000 12.000000 9.000000 9.000000 12.000000 4.000000 12.000000 4.000000 13.000000 12.000000 12.000000 11.000000 10.000000 10.000000 4.000000 5.000000 5.000000 5.000000 4.000000 4.000000 5.000000 10.000000 4.000000 12.000000 4.000000 4.000000 4.000000 5.000000 10.000000 13.000000 4.000000 5.000000 10.000000 12.000000 11.000000 12.000000 4.000000 4.000000 4.000000 12.000000 12.000000 9.000000 4.000000 9.000000 4.000000 8.000000 8.000000 11.000000 12.000000 11.000000 11.000000 10.000000 5.000000 5.000000 5.000000 5.000000 5.000000 5.000000 5.000000 5.000000 4.000000 12.000000 12.000000 4.000000 12.000000 11.000000 5.000000 5.000000 5.000000 5.000000 5.000000 5.000000 5.000000 5.000000 5.000000 5.000000 4.000000 12.000000 12.000000 12.000000 12.000000 4.000000 13.000000 13.000000 11.000000 12.000000 12.000000 10.000000 12.000000 12.000000 11.000000 12.000000 12.000000 12.000000 7.000000 5.000000 1.000000 1.000000 5.000000 2.000000 2.000000 1.000000 2.000000 2.000000 2.000000 2.000000 2.000000 1.000000 1.000000 1.000000 4.000000 5.000000 1.000000 4.000000 5.000000 1.000000 1.000000 1.000000 1.000000 1.000000 1.000000 1.000000 5.000000 5.000000 12.000000 12.000000 11.000000 13.000000 13.000000 12.000000 12.000000 10.000000 7.000000 1.000000 5.000000 5.000000 5.000000 12.000000 7.000000 1.000000 1.000000 1.000000 5.000000 5.000000 5.000000 5.000000 12.000000 12.000000 4.000000 4.000000 12.000000 12.000000 12.000000 12.000000 12.000000 12.000000 4.000000 12.000000 12.000000 12.000000 4.000000 12.000000 13.000000 12.000000 12.000000 12.000000 4.000000
5.000000 10.000000 5.000000 5.000000 4.000000 5.000000 1.000000 1.000000 5.000000 4.000000 4.000000 4.000000 4.000000 5.000000 4.000000 5.000000 5.000000 13.000000 10.000000 12.000000 12.000000 12.000000 12.000000 12.000000 4.000000 4.000000 4.000000 9.000000 12.000000 13.000000 10.000000 13.000000 12.000000 12.000000 12.000000 5.000000 5.000000 5.000000 5.000000 4.000000 4.000000 4.000000 4.000000 5.000000 4.000000 7.000000 10.000000 4.000000 5.000000 5.000000 5.000000 5.000000 5.000000 5.000000 10.000000 11.000000 12.000000 10.000000 13.000000 8.000000 13.000000 4.000000 4.000000 13.000000 7.000000 4.000000 12.000000 4.000000 5.000000 9.000000 8.000000 4.000000 12.000000 12.000000 13.000000 5.000000 5.000000 5.000000 5.000000 5.000000 5.000000 5.000000 5.000000 4.000000 4.000000 8.000000 11.000000 4.000000 12.000000 11.000000 4.000000 5.000000 5.000000 5.000000 5.000000 5.000000 4.000000 4.000000 5.000000 6.000000 7.000000 12.000000 11.000000 4.000000 12.000000 9.000000 4.000000 7.000000 12.000000 12.000000 4.000000 12.000000 12.000000 4.000000 13.000000 4.000000 12.000000 12.000000 5.000000 5.000000 2.000000 2.000000 2.000000 2.000000 5.000000 2.000000 1.000000 1.000000 2.000000 1.000000 2.000000 1.000000 1.000000 1.000000 1.000000 1.000000 1.000000 1.000000 1.000000 1.000000 1.000000 1.000000 1.000000 5.000000 1.000000 5.000000 5.000000 12.000000 11.000000 4.000000 4.000000 11.000000 12.000000 11.000000 1.000000 1.000000 1.000000 5.000000 5.000000 7.000000 7.000000 5.000000 1.000000 1.000000 1.000000 5.000000 5.000000 5.000000 5.000000 12.000000 12.000000 4.000000 12.000000 12.000000 8.000000 12.000000 9.000000 12.000000 4.000000 4.000000 7.000000 12.000000 12.000000 4.000000 7.000000 13.000000 13.000000 6.000000 4.000000 12.000000
7.000000 4.000000 5.000000 5.000000 5.000000 5.000000 5.000000 5.000000 5.000000 4.000000 4.000000 4.000000 4.000000 4.000000 4.000000 12.000000 4.000000 12.000000 12.000000 12.000000 12.000000 12.000000 4.000000 12.000000 12.000000 9.000000 13.000000 12.000000 4.000000 4.000000 11.000000 11.000000 8.000000 12.000000 9.000000 10.000000 4.000000 4.000000 4.000000 4.000000 5.000000 3.000000 5.000000 4.000000 7.000000 4.000000 5.000000 5.000000 5.000000 5.000000 5.000000 5.000000 4.000000 4.000000 4.000000 12.000000 12.000000 7.000000 13.000000 11.000000 13.000000 4.000000 12.000000 12.000000 11.000000 12.000000 12.000000 11.000000 12.000000 12.000000 9.000000 9.000000 12.000000 4.000000 12.000000 4.000000 5.000000 5.000000 5.000000 5.000000 5.000000 4.000000 5.000000 4.000000 10.000000 12.000000 12.000000 4.000000 12.000000 12.000000 4.000000 5.000000 5.000000 5.000000 1.000000 1.000000 5.000000 1.000000 7.000000 10.000000 12.000000 7.000000 12.000000 12.000000 12.000000 12.000000 4.000000 9.000000 11.000000 12.000000 12.000000 12.000000 8.000000 12.000000 12.000000 12.000000 4.000000 12.000000 5.000000 5.000000 5.000000 5.000000 2.000000 1.000000 1.000000 1.000000 1.000000 1.000000 2.000000 2.000000 1.000000 1.000000 1.000000 1.000000 1.000000 1.000000 1.000000 1.000000 2.000000 2.000000 1.000000 1.000000 1.000000 1.000000 5.000000 5.000000 12.000000 5.000000 12.000000 12.000000 12.000000 10.000000 10.000000 11.000000 1.000000 1.000000 1.000000 5.000000 5.000000 4.000000 1.000000 1.000000 1.000000 1.000000 1.000000 5.000000 5.000000 5.000000 12.000000 10.000000 4.000000 12.000000 12.000000 12.000000 11.000000 7.000000 4.000000 5.000000 4.000000 4.000000 4.000000 4.000000 12.000000 4.000000 13.000000 8.000000 12.000000 12.000000 4.000000 12.000000
7.000000 4.000000 5.000000 1.000000 5.000000 5.000000 5.000000 5.000000 4.000000 4.000000 4.000000 4.000000 4.000000 4.000000 4.000000 12.000000 12.000000 12.000000 4.000000 4.000000 13.000000 4.000000 12.000000 13.000000 4.000000 12.000000 4.000000 12.000000 10.000000 12.000000 11.000000 12.000000 12.000000 4.000000 7.000000 7.000000 10.000000 5.000000 5.000000 5.000000 5.000000 5.000000 10.000000 4.000000 5.000000 5.000000 4.000000 5.000000 4.000000 4.000000 4.000000 12.000000 12.000000 12.000000 12.000000 4.000000 7.000000 4.000000 4.000000 13.000000 13.000000 12.000000 12.000000 12.000000 12.000000 4.000000 11.000000 12.000000 12.000000 12.000000 12.000000 12.000000 12.000000 11.000000 12.000000 12.000000 5.000000 4.000000 5.000000 5.000000 5.000000 5.000000 5.000000 4.000000 5.000000 10.000000 12.000000 11.000000 11.000000 12.000000 4.000000 1.000000 5.000000 1.000000 1.000000 5.000000 5.000000 5.000000 5.000000 5.000000 5.000000 5.000000 5.000000 12.000000 9.000000 4.000000 3.000000 8.000000 12.000000 10.000000 12.000000 7.000000 5.000000 12.000000 13.000000 12.000000 12.000000 12.000000 4.000000 5.000000 5.000000 1.000000 5.000000 5.000000 5.000000 1.000000 1.000000 1.000000 1.000000 2.000000 1.000000 1.000000 1.000000 1.000000 1.000000 1.000000 1.000000 1.000000 1.000000 1.000000 1.000000 5.000000 4.000000 5.000000 12.000000 7.000000 12.000000 12.000000 11.000000 12.000000 11.000000 12.000000 12.000000 5.000000 5.000000 5.000000 5.000000 5.000000 7.000000 7.000000 1.000000 1.000000 1.000000 5.000000 5.000000 5.000000 12.000000 12.000000 9.000000 8.000000 12.000000 12.000000 12.000000 12.000000 11.000000 5.000000 5.000000 5.000000 4.000000 5.000000 7.000000 12.000000 12.000000 4.000000 12.000000 4.000000 12.000000 12.000000 12.000000 4.000000
7.000000 5.000000 4.000000 5.000000 5.000000 5.000000 4.000000 4.000000 4.000000 4.000000 4.000000 10.000000 4.000000 10.000000 11.000000 11.000000 12.000000 4.000000 4.000000 4.000000 13.000000 8.000000 11.000000 11.000000 11.000000 12.000000 12.000000 13.000000 12.000000 12.000000 12.000000 8.000000 11.000000 7.000000 4.000000 5.000000 4.000000 5.000000 4.000000 4.000000 5.000000 5.000000 4.000000 4.000000 4.000000 5.000000 5.000000 5.000000 4.000000 4.000000 12.000000 12.000000 12.000000 7.000000 4.000000 4.000000 7.000000 12.000000 12.000000 4.000000 12.000000 10.000000 12.000000 8.000000 13.000000 12.000000 12.000000 12.000000 11.000000 11.000000 12.000000 12.000000 13.000000 11.000000 11.000000 1.000000 4.000000 10.000000 4.000000 5.000000 5.000000 5.000000 5.000000 5.000000 4.000000 7.000000 12.000000 12.000000 12.000000 12.000000 12.000000 5.000000 5.000000 1.000000 5.000000 5.000000 5.000000 5.000000 5.000000 5.000000 5.000000 5.000000 5.000000 9.000000 11.000000 1.000000 4.000000 13.000000 11.000000 7.000000 5.000000 5.000000 5.000000 5.000000 7.000000 10.000000 12.000000 12.000000 4.000000 5.000000 5.000000 5.000000 5.000000 5.000000 5.000000 5.000000 1.000000 2.000000 1.000000 2.000000 2.000000 1.000000 1.000000 1.000000 1.000000 2.000000 2.000000 2.000000 1.000000 1.000000 5.000000 4.000000 1.000000 4.000000 4.000000 10.000000 12.000000 12.000000 4.000000 10.000000 5.000000 5.000000 4.000000 1.000000 1.000000 1.000000 1.000000 5.000000 5.000000 5.000000 1.000000 1.000000 5.000000 7.000000 12.000000 12.000000 4.000000 12.000000 13.000000 12.000000 11.000000 11.000000 9.000000 12.000000 4.000000 4.000000 4.000000 6.000000 5.000000 4.000000 9.000000 12.000000 12.000000 4.000000 13.000000 4.000000 12.000000 12.000000 8.000000 12.000000
7.000000 5.000000 4.000000 5.000000 1.000000 5.000000 5.000000 5.000000 1.000000 4.000000 7.000000 7.000000 7.000000 12.000000 12.000000 12.000000 4.000000 11.000000 9.000000 11.000000 12.000000 12.000000 12.000000 12.000000 12.000000 12.000000 12.000000 12.000000 12.000000 12.000000 12.000000 13.000000 12.000000 5.000000 4.000000 5.000000 4.000000 4.000000 4.000000 4.000000 5.000000 5.000000 4.000000 4.000000 5.000000 5.000000 5.000000 5.000000 4.000000 4.000000 4.000000 4.000000 4.000000 4.000000 4.000000 4.000000 4.000000 13.000000 11.000000 1.000000 12.000000 4.000000 4.000000 12.000000 11.000000 12.000000 12.000000 12.000000 12.000000 11.000000 11.000000 10.000000 12.000000 12.000000 11.000000 12.000000 7.000000 4.000000 4.000000 5.000000 5.000000 5.000000 1.000000 5.000000 10.000000 7.000000 5.000000 12.000000 12.000000 13.000000 12.000000 4.000000 5.000000 5.000000 5.000000 5.000000 1.000000 5.000000 5.000000 5.000000 5.000000 5.000000 5.000000 12.000000 12.000000 4.000000 8.000000 7.000000 10.000000 8.000000 5.000000 5.000000 5.000000 4.000000 5.000000 5.000000 5.000000 8.000000 12.000000 7.000000 4.000000 5.000000 5.000000 5.000000 5.000000 1.000000 1.000000 2.000000 2.000000 2.000000 2.000000 2.000000 1.000000 1.000000 1.000000 1.000000 2.000000 1.000000 5.000000 5.000000 4.000000 1.000000 1.000000 5.000000 5.000000 12.000000 12.000000 13.000000 10.000000 12.000000 12.000000 5.000000 1.000000 1.000000 1.000000 1.000000 1.000000 1.000000 10.000000 1.000000 1.000000 5.000000 5.000000 12.000000 6.000000 4.000000 4.000000 12.000000 12.000000 5.000000 5.000000 12.000000 12.000000 7.000000 4.000000 4.000000 5.000000 4.000000 4.000000 5.000000 12.000000 12.000000 11.000000 12.000000 10.000000 9.000000 12.000000 12.000000 12.000000 12.000000
10.000000 5.000000 5.000000 5.000000 1.000000 4.000000 4.000000 5.000000 4.000000 4.000000 4.000000 12.000000 10.000000 7.000000 12.000000 10.000000 12.000000 12.000000 12.000000 13.000000 12.000000 12.000000 12.000000 10.000000 12.000000 12.000000 12.000000 12.000000 12.000000 10.000000 10.000000 12.000000 12.000000 5.000000 4.000000 4.000000 5.000000 5.000000 1.000000 5.000000 5.000000 5.000000 5.000000 5.000000 5.000000 5.000000 5.000000 4.000000 4.000000 12.000000 12.000000 12.000000 4.000000 13.000000 4.000000 10.000000 10.000000 12.000000 13.000000 4.000000 12.000000 8.000000 4.000000 8.000000 11.000000 8.000000 12.000000 10.000000 10.000000 10.000000 9.000000 8.000000 12.000000 12.000000 12.000000 11.000000 7.000000 5.000000 5.000000 5.000000 5.000000 5.000000 5.000000 5.000000 4.000000 4.000000 5.000000 4.000000 11.000000 12.000000 10.000000 12.000000 5.000000 5.000000 5.000000 5.000000 5.000000 5.000000 5.000000 1.000000 1.000000 5.000000 4.000000 8.000000 12.000000 4.000000 13.000000 4.000000 12.000000 12.000000 5.000000 5.000000 5.000000 5.000000 5.000000 5.000000 5.000000 5.000000 5.000000 4.000000 1.000000 4.000000 1.000000 5.000000 1.000000 5.000000 5.000000 1.000000 2.000000 1.000000 2.000000 2.000000 1.000000 1.000000 1.000000 1.000000 1.000000 3.000000 1.000000 1.000000 1.000000 1.000000 5.000000 5.000000 12.000000 12.000000 7.000000 12.000000 12.000000 11.000000 4.000000 5.000000 5.000000 1.000000 1.000000 1.000000 1.000000 1.000000 5.000000 1.000000 5.000000 5.000000 12.000000 4.000000 4.000000 11.000000 12.000000 11.000000 8.000000 5.000000 4.000000 5.000000 12.000000 7.000000 5.000000 5.000000 5.000000 4.000000 4.000000 5.000000 12.000000 12.000000 12.000000 4.000000 4.000000 12.000000 12.000000 12.000000 5.000000 11.000000
5.000000 1.000000 1.000000 5.000000 1.000000 5.000000 4.000000 5.000000 4.000000 4.000000 10.000000 12.000000 12.000000 12.000000 13.000000 12.000000 12.000000 11.000000 11.000000 11.000000 5.000000 9.000000 9.000000 10.000000 4.000000 4.000000 12.000000 12.000000 12.000000 5.000000 4.000000 4.000000 7.000000 10.000000 5.000000 4.000000 5.000000 5.000000 5.000000 3.000000 4.000000 4.000000 4.000000 5.000000 5.000000 4.000000 4.000000 7.000000 4.000000 4.000000 12.000000 12.000000 8.000000 12.000000 9.000000 12.000000 11.000000 13.000000 13.000000 11.000000 12.000000 4.000000 4.000000 4.000000 10.000000 12.000000 4.000000 4.000000 5.000000 5.000000 5.000000 10.000000 12.000000 9.000000 4.000000 9.000000 10.000000 5.000000 5.000000 1.000000 2.000000 5.000000 5.000000 5.000000 5.000000 7.000000 5.000000 10.000000 12.000000 8.000000 13.000000 12.000000 7.000000 1.000000 5.000000 5.000000 5.000000 2.000000 2.000000 5.000000 5.000000 5.000000 7.000000 8.000000 12.000000 7.000000 4.000000 13.000000 12.000000 12.000000 7.000000 5.000000 5.000000 5.000000 5.000000 5.000000 5.000000 5.000000 5.000000 5.000000 5.000000 5.000000 5.000000 4.000000 5.000000 1.000000 1.000000 1.000000 2.000000 1.000000 2.000000 2.000000 2.000000 2.000000 2.000000 2.000000 1.000000 1.000000 1.000000 1.000000 1.000000 5.000000 5.000000 5.000000 7.000000 12.000000 12.000000 12.000000 12.000000 4.000000 5.000000 5.000000 1.000000 1.000000 1.000000 1.000000 1.000000 1.000000 5.000000 5.000000 4.000000 11.000000 12.000000 4.000000 12.000000 12.000000 5.000000 5.000000 7.000000 5.000000 5.000000 4.000000 5.000000 4.000000 4.000000 5.000000 4.000000 9.000000 12.000000 12.000000 12.000000 4.000000 12.000000 4.000000 8.000000 9.000000 12.000000 12.000000 11.000000 4.000000
5.000000 1.000000 1.000000 1.000000 5.000000 5.000000 5.000000 5.000000 5.000000 5.000000 12.000000 11.000000 4.000000 1.000000 12.000000 11.000000 12.000000 12.000000 12.000000 10.000000 7.000000 10.000000 5.000000 5.000000 10.000000 4.000000 4.000000 4.000000 12.000000 4.000000 4.000000 5.000000 4.000000 5.000000 5.000000 4.000000 4.000000 5.000000 5.000000 5.000000 5.000000 4.000000 5.000000 5.000000 5.000000 4.000000 5.000000 4.000000 7.000000 12.000000 4.000000 12.000000 12.000000 4.000000 4.000000 4.000000 4.000000 4.000000 12.000000 11.000000 12.000000 12.000000 9.000000 12.000000 11.000000 4.000000 11.000000 4.000000 5.000000 5.000000 5.000000 10.000000 12.000000 12.000000 4.000000 12.000000 3.000000 5.000000 5.000000 1.000000 2.000000 1.000000 1.000000 5.000000 5.000000 5.000000 5.000000 5.000000 4.000000 4.000000 12.000000 12.000000 4.000000 5.000000 5.000000 5.000000 1.000000 5.000000 5.000000 1.000000 5.000000 5.000000 5.000000 12.000000 12.000000 12.000000 4.000000 13.000000 4.000000 12.000000 12.000000 10.000000 5.000000 1.000000 1.000000 5.000000 5.000000 5.000000 5.000000 5.000000 5.000000 5.000000 4.000000 4.000000 5.000000 1.000000 5.000000 5.000000 2.000000 1.000000 2.000000 2.000000 2.000000 2.000000 2.000000 1.000000 1.000000 1.000000 1.000000 1.000000 1.000000 1.000000 5.000000 4.000000 7.000000 12.000000 12.000000 5.000000 5.000000 5.000000 1.000000 1.000000 1.000000 1.000000 1.000000 1.000000 1.000000 1.000000 5.000000 5.000000 7.000000 12.000000 4.000000 12.000000 5.000000 5.000000 5.000000 5.000000 5.000000 7.000000 4.000000 4.000000 4.000000 5.000000 4.000000 4.000000 7.000000 12.000000 12.000000 12.000000 12.000000 4.000000 4.000000 4.000000 4.000000 11.000000 12.000000 12.000000 12.000000 12.000000
1.000000 5.000000 4.000000 5.000000 5.000000 5.000000 5.000000 5.000000 12.000000 12.000000 10.000000 11.000000 12.000000 11.000000 12.000000 11.000000 12.000000 12.000000 5.000000 4.000000 10.000000 7.000000 5.000000 5.000000 5.000000 5.000000 5.000000 11.000000 7.000000 4.000000 5.000000 5.000000 4.000000 6.000000 4.000000 4.000000 5.000000 1.000000 5.000000 4.000000 4.000000 5.000000 5.000000 4.000000 4.000000 4.000000 4.000000 4.000000 9.000000 12.000000 4.000000 4.000000 4.000000 4.000000 7.000000 12.000000 13.000000 13.000000 12.000000 12.000000 12.000000 12.000000 12.000000 8.000000 10.000000 5.000000 10.000000 4.000000 5.000000 5.000000 5.000000 12.000000 12.000000 4.000000 12.000000 10.000000 7.000000 4.000000 5.000000 5.000000 1.000000 1.000000 1.000000 1.000000 1.000000 1.000000 5.000000 5.000000 4.000000 10.000000 10.000000 11.000000 4.000000 5.000000 5.000000 5.000000 5.000000 5.000000 1.000000 5.000000 3.000000 3.000000 10.000000 4.000000 12.000000 11.000000 12.000000 12.000000 12.000000 1.000000 12.000000 7.000000 5.000000 5.000000 5.000000 1.000000 1.000000 5.000000 5.000000 5.000000 5.000000 5.000000 5.000000 4.000000 5.000000 5.000000 5.000000 5.000000 1.000000 2.000000 2.000000 1.000000 1.000000 2.000000 1.000000 1.000000 1.000000 1.000000 1.000000 1.000000 5.000000 5.000000 5.000000 4.000000 12.000000 12.000000 12.000000 9.000000 5.000000 1.000000 1.000000 1.000000 1.000000 1.000000 1.000000 1.000000 5.000000 5.000000 4.000000 4.000000 11.000000 4.000000 13.000000 10.000000 5.000000 5.000000 1.000000 10.000000 4.000000 4.000000 5.000000 5.000000 4.000000 4.000000 9.000000 12.000000 12.000000 12.000000 12.000000 13.000000 4.000000 4.000000 12.000000 12.000000 10.000000 12.000000 12.000000 4.000000 12.000000 12.000000
5.000000 5.000000 4.000000 4.000000 4.000000 4.000000 5.000000 5.000000 12.000000 10.000000 3.000000 12.000000 12.000000 11.000000 12.000000 12.000000 13.000000 10.000000 5.000000 5.000000 4.000000 5.000000 5.000000 4.000000 5.000000 5.000000 5.000000 4.000000 7.000000 4.000000 5.000000 5.000000 5.000000 5.000000 5.000000 4.000000 5.000000 5.000000 5.000000 4.000000 4.000000 4.000000 4.000000 7.000000 6.000000 6.000000 12.000000 11.000000 11.000000 12.000000 13.000000 13.000000 13.000000 13.000000 12.000000 9.000000 4.000000 11.000000 12.000000 12.000000 12.000000 12.000000 12.000000 12.000000 12.000000 8.000000 7.000000 5.000000 5.000000 5.000000 5.000000 9.000000 12.000000 4.000000 12.000000 11.000000 5.000000 1.000000 1.000000 5.000000 2.000000 5.000000 1.000000 5.000000 1.000000 5.000000 5.000000 5.000000 5.000000 4.000000 4.000000 4.000000 7.000000 5.000000 5.000000 5.000000 1.000000 5.000000 5.000000 5.000000 5.000000 5.000000 5.000000 5.000000 12.000000 11.000000 12.000000 12.000000 12.000000 11.000000 13.000000 8.000000 10.000000 5.000000 5.000000 5.000000 5.000000 1.000000 1.000000 5.000000 5.000000 5.000000 4.000000 1.000000 5.000000 5.000000 5.000000 1.000000 2.000000 2.000000 2.000000 1.000000 1.000000 1.000000 1.000000 5.000000 1.000000 5.000000 5.000000 1.000000 4.000000 5.000000 10.000000 12.000000 12.000000 12.000000 12.000000 10.000000 5.000000 1.000000 1.000000 1.000000 1.000000 1.000000 5.000000 5.000000 5.000000 5.000000 5.000000 12.000000 12.000000 12.000000 12.000000 12.000000 4.000000 5.000000 1.000000 5.000000 5.000000 4.000000 5.000000 5.000000 5.000000 9.000000 11.000000 11.000000 12.000000 12.000000 4.000000 4.000000 12.000000 12.000000 12.000000 12.000000 12.000000 12.000000 7.000000 11.000000 4.000000 13.000000
5.000000 5.000000 5.000000 5.000000 4.000000 5.000000 5.000000 10.000000 12.000000 3.000000 12.000000 10.000000 12.000000 12.000000 8.000000 10.000000 9.000000 10.000000 5.000000 4.000000 7.000000 4.000000 4.000000 4.000000 5.000000 5.000000 5.000000 4.000000 10.000000 5.000000 1.000000 1.000000 5.000000 6.000000 4.000000 5.000000 4.000000 4.000000 4.000000 4.000000 4.000000 10.000000 5.000000 4.000000 4.000000 12.000000 10.000000 4.000000 12.000000 12.000000 11.000000 8.000000 12.000000 11.000000 11.000000 4.000000 9.000000 12.000000 11.000000 12.000000 10.000000 5.000000 12.000000 12.000000 12.000000 4.000000 4.000000 5.000000 5.000000 5.000000 10.000000 12.000000 12.000000 10.000000 12.000000 11.000000 5.000000 5.000000 1.000000 5.000000 5.000000 1.000000 1.000000 1.000000 2.000000 1.000000 1.000000 5.000000 5.000000 5.000000 12.000000 4.000000 7.000000 5.000000 5.000000 5.000000 5.000000 5.000000 5.000000 1.000000 5.000000 5.000000 5.000000 5.000000 4.000000 4.000000 8.000000 12.000000 12.000000 12.000000 9.000000 12.000000 5.000000 5.000000 5.000000 5.000000 1.000000 5.000000 1.000000 1.000000 5.000000 5.000000 5.000000 5.000000 5.000000 5.000000 5.000000 2.000000 2.000000 2.000000 1.000000 1.000000 1.000000 1.000000 4.000000 1.000000 5.000000 4.000000 5.000000 5.000000 5.000000 5.000000 8.000000 12.000000 4.000000 12.000000 12.000000 4.000000 1.000000 1.000000 1.000000 1.000000 1.000000 5.000000 5.000000 5.000000 5.000000 5.000000 10.000000 4.000000 12.000000 8.000000 12.000000 12.000000 5.000000 1.000000 4.000000 1.000000 1.000000 5.000000 5.000000 4.000000 4.000000 12.000000 12.000000 12.000000 4.000000 4.000000 12.000000 12.000000 12.000000 12.000000 12.000000 12.000000 12.000000 12.000000 12.000000 12.000000 3.000000 12.000000
4.000000 5.000000 5.000000 4.000000 5.000000 11.000000 12.000000 12.000000 4.000000 12.000000 10.000000 11.000000 8.000000 7.000000 5.000000 4.000000 4.000000 4.000000 5.000000 4.000000 5.000000 4.000000 4.000000 5.000000 5.000000 5.000000 5.000000 4.000000 5.000000 5.000000 5.000000 5.000000 4.000000 5.000000 5.000000 5.000000 4.000000 4.000000 4.000000 5.000000 4.000000 4.000000 4.000000 4.000000 12.000000 12.000000 11.000000 4.000000 12.000000 12.000000 12.000000 12.000000 11.000000 7.000000 4.000000 12.000000 12.000000 11.000000 12.000000 12.000000 12.000000 9.000000 11.000000 5.000000 4.000000 7.000000 4.000000 5.000000 5.000000 5.000000 12.000000 12.000000 4.000000 12.000000 12.000000 12.000000 12.000000 7.000000 5.000000 5.000000 5.000000 1.000000 2.000000 2.000000 2.000000 1.000000 1.000000 5.000000 5.000000 10.000000 10.000000 4.000000 7.000000 5.000000 5.000000 5.000000 5.000000 1.000000 1.000000 5.000000 5.000000 5.000000 5.000000 5.000000 5.000000 5.000000 10.000000 7.000000 11.000000 12.000000 12.000000 12.000000 12.000000 11.000000 5.000000 5.000000 5.000000 1.000000 1.000000 5.000000 1.000000 5.000000 5.000000 5.000000 5.000000 5.000000 1.000000 2.000000 1.000000 2.000000 1.000000 1.000000 5.000000 5.000000 4.000000 5.000000 12.000000 7.000000 7.000000 9.000000 10.000000 12.000000 12.000000 10.000000 10.000000 11.000000 9.000000 5.000000 4.000000 1.000000 1.000000 1.000000 1.000000 4.000000 4.000000 6.000000 5.000000 5.000000 7.000000 12.000000 8.000000 5.000000 5.000000 5.000000 12.000000 5.000000 1.000000 1.000000 5.000000 5.000000 10.000000 4.000000 12.000000 12.000000 13.000000 4.000000 4.000000 12.000000 12.000000 11.000000 5.000000 12.000000 13.000000 12.000000 4.000000 4.000000 8.000000 12.000000 12.000000 12.000000
7.000000 5.000000 5.000000 5.000000 10.000000 12.000000 12.000000 4.000000 13.000000 12.000000 12.000000 11.000000 10.000000 5.000000 5.000000 4.000000 5.000000 10.000000 4.000000 5.000000 5.000000 3.000000 5.000000 4.000000 5.000000 4.000000 4.000000 4.000000 5.000000 5.000000 5.000000 1.000000 5.000000 5.000000 5.000000 4.000000 4.000000 6.000000 4.000000 10.000000 4.000000 10.000000 5.000000 11.000000 12.000000 8.000000 11.000000 12.000000 12.000000 12.000000 10.000000 12.000000 1.000000 4.000000 4.000000 8.000000 8.000000 11.000000 12.000000 12.000000 11.000000 11.000000 11.000000 12.000000 4.000000 5.000000 5.000000 5.000000 5.000000 10.000000 10.000000 12.000000 4.000000 4.000000 8.000000 12.000000 12.000000 12.000000 11.000000 4.000000 10.000000 5.000000 5.000000 5.000000 5.000000 5.000000 1.000000 5.000000 5.000000 5.000000 7.000000 13.000000 7.000000 5.000000 5.000000 5.000000 5.000000 1.000000 1.000000 1.000000 2.000000 5.000000 1.000000 5.000000 5.000000 5.000000 6.000000 7.000000 12.000000 12.000000 12.000000 11.000000 11.000000 12.000000 4.000000 5.000000 5.000000 1.000000 5.000000 1.000000 5.000000 1.000000 5.000000 5.000000 5.000000 5.000000 1.000000 1.000000 1.000000 1.000000 1.000000 3.000000 5.000000 5.000000 5.000000 12.000000 7.000000 4.000000 12.000000 1.000000 4.000000 12.000000 10.000000 10.000000 5.000000 12.000000 4.000000 8.000000 5.000000 1.000000 1.000000 1.000000 1.000000 1.000000 5.000000 4.000000 11.000000 4.000000 9.000000 4.000000 12.000000 5.000000 4.000000 4.000000 5.000000 5.000000 1.000000 5.000000 5.000000 5.000000 5.000000 10.000000 12.000000 4.000000 12.000000 12.000000 12.000000 12.000000 12.000000 4.000000 5.000000 5.000000 12.000000 12.000000 5.000000 5.000000 12.000000 12.000000 11.000000 4.000000
7.000000 7.000000 8.000000 12.000000 12.000000 12.000000 6.000000 12.000000 12.000000 11.000000 9.000000 4.000000 4.000000 10.000000 5.000000 10.000000 10.000000 5.000000 5.000000 5.000000 4.000000 5.000000 4.000000 5.000000 1.000000 1.000000 4.000000 4.000000 5.000000 5.000000 5.000000 1.000000 5.000000 4.000000 4.000000 4.000000 4.000000 1.000000 4.000000 5.000000 5.000000 5.000000 10.000000 4.000000 12.000000 12.000000 12.000000 11.000000 12.000000 12.000000 12.000000 12.000000 4.000000 4.000000 12.000000 12.000000 12.000000 12.000000 12.000000 12.000000 12.000000 10.000000 12.000000 12.000000 5.000000 5.000000 5.000000 5.000000 5.000000 10.000000 4.000000 8.000000 6.000000 9.000000 10.000000 4.000000 4.000000 10.000000 7.000000 5.000000 5.000000 5.000000 5.000000 5.000000 1.000000 5.000000 5.000000 5.000000 4.000000 5.000000 7.000000 12.000000 12.000000 5.000000 5.000000 5.000000 1.000000 1.000000 1.000000 1.000000 1.000000 1.000000 1.000000 5.000000 5.000000 5.000000 11.000000 12.000000 7.000000 5.000000 10.000000 11.000000 9.000000 12.000000 8.000000 4.000000 5.000000 5.000000 5.000000 1.000000 1.000000 1.000000 1.000000 1.000000 5.000000 1.000000 1.000000 1.000000 1.000000 1.000000 1.000000 7.000000 7.000000 12.000000 12.000000 13.000000 10.000000 8.000000 12.000000 8.000000 12.000000 8.000000 10.000000 5.000000 4.000000 5.000000 9.000000 4.000000 5.000000 1.000000 1.000000 1.000000 5.000000 5.000000 4.000000 4.000000 12.000000 12.000000 10.000000 4.000000 5.000000 5.000000 4.000000 5.000000 7.000000 5.000000 1.000000 5.000000 5.000000 5.000000 5.000000 8.000000 10.000000 7.000000 12.000000 10.000000 12.000000 9.000000 12.000000 4.000000 5.000000 7.000000 12.000000 7.000000 5.000000 5.000000 4.000000 12.000000 12.000000 12.000000
4.000000 10.000000 7.000000 12.000000 12.000000 4.000000 11.000000 8.000000 10.000000 10.000000 4.000000 5.000000 5.000000 4.000000 5.000000 4.000000 4.000000 4.000000 4.000000 4.000000 4.000000 5.000000 5.000000 4.000000 4.000000 5.000000 4.000000 5.000000 5.000000 5.000000 5.000000 5.000000 5.000000 5.000000 6.000000 4.000000 4.000000 4.000000 5.000000 4.000000 5.000000 4.000000 10.000000 10.000000 11.000000 11.000000 11.000000 12.000000 12.000000 12.000000 11.000000 3.000000 4.000000 11.000000 13.000000 12.000000 12.000000 12.000000 11.000000 12.000000 11.000000 10.000000 12.000000 4.000000 12.000000 5.000000 5.000000 5.000000 1.000000 5.000000 12.000000 12.000000 12.000000 11.000000 7.000000 4.000000 5.000000 5.000000 5.000000 5.000000 5.000000 5.000000 1.000000 1.000000 1.000000 5.000000 5.000000 5.000000 10.000000 10.000000 8.000000 4.000000 11.000000 5.000000 5.000000 5.000000 1.000000 1.000000 1.000000 1.000000 1.000000 5.000000 5.000000 4.000000 7.000000 7.000000 11.000000 7.000000 5.000000 5.000000 12.000000 12.000000 3.000000 12.000000 12.000000 5.000000 5.000000 5.000000 5.000000 1.000000 5.000000 2.000000 5.000000 1.000000 1.000000 5.000000 1.000000 1.000000 1.000000 1.000000 5.000000 5.000000 5.000000 5.000000 4.000000 10.000000 10.000000 5.000000 1.000000 5.000000 6.000000 10.000000 5.000000 5.000000 5.000000 5.000000 7.000000 4.000000 1.000000 1.000000 1.000000 5.000000 5.000000 4.000000 4.000000 10.000000 4.000000 4.000000 4.000000 4.000000 5.000000 5.000000 5.000000 4.000000 7.000000 1.000000 1.000000 5.000000 5.000000 7.000000 5.000000 5.000000 12.000000 4.000000 11.000000 4.000000 5.000000 12.000000 12.000000 7.000000 5.000000 4.000000 4.000000 12.000000 11.000000 7.000000 12.000000 12.000000 13.000000 12.000000
5.000000 10.000000 12.000000 4.000000 13.000000 12.000000 12.000000 11.000000 7.000000 5.000000 4.000000 5.000000 5.000000 5.000000 5.000000 5.000000 5.000000 5.000000 5.000000 5.000000 4.000000 4.000000 5.000000 5.000000 4.000000 5.000000 1.000000 5.000000 5.000000 5.000000 5.000000 1.000000 4.000000 4.000000 4.000000 4.000000 4.000000 5.000000 4.000000 5.000000 4.000000 4.000000 4.000000 5.000000 5.000000 5.000000 5.000000 12.000000 12.000000 8.000000 13.000000 4.000000 9.000000 11.000000 4.000000 8.000000 11.000000 11.000000 11.000000 8.000000 12.000000 4.000000 10.000000 8.000000 4.000000 5.000000 6.000000 5.000000 5.000000 4.000000 12.000000 12.000000 11.000000 10.000000 5.000000 5.000000 5.000000 5.000000 5.000000 5.000000 1.000000 2.000000 1.000000 1.000000 1.000000 5.000000 5.000000 5.000000 5.000000 7.000000 7.000000 1.000000 7.000000 7.000000 5.000000 5.000000 5.000000 2.000000 2.000000 2.000000 1.000000 5.000000 5.000000 5.000000 10.000000 4.000000 5.000000 5.000000 5.000000 5.000000 9.000000 12.000000 8.000000 3.000000 11.000000 10.000000 5.000000 1.000000 5.000000 5.000000 2.000000 2.000000 1.000000 2.000000 2.000000 2.000000 1.000000 2.000000 1.000000 1.000000 1.000000 5.000000 5.000000 5.000000 7.000000 5.000000 1.000000 1.000000 5.000000 7.000000 4.000000 4.000000 5.000000 5.000000 5.000000 5.000000 4.000000 1.000000 1.000000 1.000000 1.000000 5.000000 5.000000 5.000000 5.000000 5.000000 4.000000 4.000000 5.000000 5.000000 5.000000 5.000000 5.000000 5.000000 1.000000 1.000000 1.000000 5.000000 1.000000 1.000000 5.000000 7.000000 12.000000 12.000000 12.000000 9.000000 10.000000 12.000000 12.000000 10.000000 4.000000 5.000000 4.000000 10.000000 10.000000 10.000000 4.000000 12.000000 12.000000 12.000000
7.000000 12.000000 4.000000 4.000000 7.000000 12.000000 12.000000 10.000000 4.000000 4.000000 5.000000 5.000000 5.000000 4.000000 5.000000 5.000000 4.000000 4.000000 5.000000 5.000000 4.000000 4.000000 5.000000 4.000000 4.000000 4.000000 5.000000 4.000000 4.000000 4.000000 4.000000 5.000000 1.000000 4.000000 4.000000 4.000000 10.000000 5.000000 5.000000 10.000000 5.000000 4.000000 5.000000 5.000000 4.000000 5.000000 12.000000 12.000000 12.000000 13.000000 4.000000 13.000000 12.000000 11.000000 4.000000 12.000000 12.000000 4.000000 4.000000 4.000000 4.000000 4.000000 5.000000 4.000000 5.000000 5.000000 6.000000 5.000000 5.000000 5.000000 4.000000 10.000000 11.000000 12.000000 10.000000 3.000000 5.000000 5.000000 5.000000 1.000000 5.000000 5.000000 5.000000 5.000000 5.000000 5.000000 4.000000 5.000000 5.000000 5.000000 12.000000 12.000000 4.000000 5.000000 5.000000 1.000000 1.000000 1.000000 2.000000 2.000000 2.000000 1.000000 1.000000 5.000000 5.000000 4.000000 5.000000 5.000000 5.000000 5.000000 5.000000 9.000000 4.000000 1.000000 12.000000 4.000000 5.000000 5.000000 1.000000 1.000000 1.000000 2.000000 2.000000 2.000000 2.000000 2.000000 1.000000 1.000000 1.000000 1.000000 5.000000 5.000000 4.000000 4.000000 7.000000 1.000000 1.000000 5.000000 5.000000 10.000000 7.000000 5.000000 5.000000 5.000000 1.000000 5.000000 1.000000 1.000000 1.000000 1.000000 1.000000 5.000000 5.000000 4.000000 5.000000 5.000000 5.000000 1.000000 5.000000 5.000000 1.000000 1.000000 5.000000 1.000000 1.000000 1.000000 1.000000 1.000000 1.000000 1.000000 5.000000 5.000000 12.000000 3.000000 12.000000 4.000000 5.000000 7.000000 11.000000 7.000000 4.000000 4.000000 10.000000 10.000000 10.000000 12.000000 12.000000 4.000000 12.000000 8.000000
11.000000 12.000000 4.000000 12.000000 11.000000 12.000000 4.000000 12.000000 4.000000 4.000000 4.000000 5.000000 1.000000 4.000000 4.000000 4.000000 4.000000 4.000000 4.000000 1.000000 5.000000 5.000000 5.000000 4.000000 4.000000 4.000000 4.000000 4.000000 4.000000 4.000000 5.000000 4.000000 5.000000 5.000000 4.000000 4.000000 4.000000 4.000000 5.000000 4.000000 5.000000 4.000000 11.000000 12.000000 12.000000 12.000000 11.000000 12.000000 12.000000 13.000000 11.000000 12.000000 12.000000 12.000000 12.000000 4.000000 12.000000 10.000000 12.000000 11.000000 5.000000 5.000000 5.000000 5.000000 5.000000 5.000000 5.000000 5.000000 1.000000 5.000000 7.000000 12.000000 4.000000 8.000000 10.000000 5.000000 5.000000 5.000000 5.000000 1.000000 1.000000 1.000000 5.000000 1.000000 1.000000 1.000000 5.000000 1.000000 5.000000 5.000000 10.000000 12.000000 12.000000 5.000000 5.000000 5.000000 1.000000 1.000000 2.000000 1.000000 5.000000 5.000000 5.000000 5.000000 5.000000 7.000000 5.000000 5.000000 5.000000 5.000000 10.000000 12.000000 12.000000 11.000000 12.000000 12.000000 5.000000 5.000000 5.000000 5.000000 1.000000 1.000000 2.000000 2.000000 2.000000 2.000000 1.000000 2.000000 1.000000 1.000000 1.000000 1.000000 4.000000 1.000000 1.000000 1.000000 5.000000 1.000000 1.000000 1.000000 1.000000 1.000000 5.000000 1.000000 1.000000 1.000000 1.000000 1.000000 1.000000 1.000000 5.000000 1.000000 1.000000 1.000000 1.000000 1.000000 1.000000 1.000000 1.000000 1.000000 5.000000 1.000000 1.000000 1.000000 1.000000 1.000000 1.000000 1.000000 1.000000 1.000000 5.000000 5.000000 12.000000 12.000000 4.000000 4.000000 4.000000 7.000000 12.000000 4.000000 4.000000 10.000000 5.000000 10.000000 4.000000 10.000000 12.000000 12.000000 12.000000 12.000000
4.000000 4.000000 10.000000 11.000000 11.000000 9.000000 10.000000 12.000000 4.000000 4.000000 4.000000 5.000000 4.000000 5.000000 5.000000 4.000000 4.000000 5.000000 5.000000 4.000000 5.000000 1.000000 4.000000 4.000000 4.000000 4.000000 4.000000 5.000000 1.000000 4.000000 4.000000 5.000000 5.000000 5.000000 5.000000 4.000000 3.000000 4.000000 7.000000 4.000000 4.000000 7.000000 7.000000 11.000000 12.000000 12.000000 10.000000 12.000000 13.000000 12.000000 12.000000 12.000000 12.000000 12.000000 12.000000 12.000000 12.000000 7.000000 11.000000 4.000000 4.000000 4.000000 5.000000 5.000000 5.000000 5.000000 1.000000 5.000000 5.000000 5.000000 7.000000 7.000000 4.000000 10.000000 5.000000 5.000000 5.000000 5.000000 1.000000 2.000000 2.000000 1.000000 5.000000 1.000000 5.000000 5.000000 5.000000 5.000000 5.000000 5.000000 10.000000 12.000000 10.000000 5.000000 4.000000 5.000000 5.000000 1.000000 1.000000 5.000000 5.000000 5.000000 5.000000 5.000000 4.000000 7.000000 5.000000 5.000000 5.000000 5.000000 5.000000 12.000000 12.000000 12.000000 12.000000 1.000000 11.000000 7.000000 5.000000 5.000000 1.000000 1.000000 1.000000 2.000000 2.000000 2.000000 2.000000 2.000000 1.000000 1.000000 1.000000 1.000000 1.000000 1.000000 1.000000 1.000000 1.000000 1.000000 1.000000 1.000000 1.000000 1.000000 1.000000 1.000000 1.000000 1.000000 1.000000 1.000000 1.000000 1.000000 1.000000 1.000000 1.000000 1.000000 1.000000 1.000000 5.000000 1.000000 1.000000 1.000000 5.000000 5.000000 1.000000 1.000000 1.000000 1.000000 1.000000 1.000000 1.000000 1.000000 5.000000 4.000000 12.000000 12.000000 12.000000 4.000000 5.000000 4.000000 4.000000 4.000000 10.000000 10.000000 4.000000 5.000000 12.000000 12.000000 4.000000 12.000000 12.000000 4.000000
4.000000 12.000000 11.000000 12.000000 12.000000 12.000000 12.000000 10.000000 4.000000 4.000000 6.000000 5.000000 1.000000 1.000000 5.000000 5.000000 5.000000 5.000000 4.000000 1.000000 4.000000 4.000000 4.000000 4.000000 4.000000 4.000000 10.000000 5.000000 5.000000 5.000000 4.000000 1.000000 5.000000 4.000000 4.000000 10.000000 10.000000 10.000000 11.000000 12.000000 4.000000 4.000000 5.000000 12.000000 12.000000 12.000000 10.000000 10.000000 8.000000 12.000000 12.000000 12.000000 12.000000 11.000000 12.000000 12.000000 12.000000 12.000000 12.000000 12.000000 5.000000 5.000000 5.000000 5.000000 5.000000 5.000000 1.000000 1.000000 5.000000 5.000000 10.000000 7.000000 7.000000 12.000000 10.000000 5.000000 5.000000 1.000000 1.000000 5.000000 1.000000 1.000000 1.000000 5.000000 5.000000 5.000000 10.000000 10.000000 5.000000 10.000000 10.000000 4.000000 12.000000 5.000000 5.000000 1.000000 1.000000 1.000000 1.000000 1.000000 4.000000 5.000000 5.000000 5.000000 4.000000 5.000000 5.000000 5.000000 5.000000 5.000000 5.000000 5.000000 12.000000 12.000000 4.000000 12.000000 7.000000 5.000000 5.000000 5.000000 5.000000 2.000000 2.000000 2.000000 1.000000 2.000000 2.000000 2.000000 2.000000 2.000000 2.000000 1.000000 2.000000 1.000000 1.000000 2.000000 1.000000 1.000000 1.000000 1.000000 1.000000 2.000000 1.000000 1.000000 1.000000 1.000000 1.000000 1.000000 2.000000 2.000000 1.000000 1.000000 2.000000 1.000000 1.000000 5.000000 5.000000 5.000000 1.000000 5.000000 5.000000 5.000000 5.000000 5.000000 5.000000 5.000000 5.000000 1.000000 5.000000 1.000000 5.000000 5.000000 4.000000 7.000000 4.000000 12.000000 4.000000 4.000000 4.000000 4.000000 4.000000 12.000000 12.000000 12.000000 12.000000 13.000000 12.000000 11.000000 10.000000 4.000000
9.000000 10.000000 11.000000 10.000000 4.000000 11.000000 8.000000 4.000000 4.000000 4.000000 4.000000 4.000000 1.000000 1.000000 1.000000 1.000000 1.000000 4.000000 4.000000 4.000000 4.000000 4.000000 4.000000 4.000000 5.000000 13.000000 4.000000 5.000000 4.000000 5.000000 4.000000 5.000000 5.000000 4.000000 4.000000 5.000000 4.000000 4.000000 12.000000 12.000000 11.000000 5.000000 4.000000 10.000000 5.000000 11.000000 4.000000 12.000000 8.000000 12.000000 10.000000 11.000000 12.000000 12.000000 9.000000 11.000000 12.000000 10.000000 10.000000 4.000000 5.000000 5.000000 5.000000 5.000000 5.000000 5.000000 2.000000 5.000000 5.000000 5.000000 4.000000 5.000000 4.000000 12.000000 4.000000 5.000000 5.000000 5.000000 5.000000 1.000000 1.000000 2.000000 1.000000 2.000000 5.000000 1.000000 5.000000 5.000000 10.000000 5.000000 10.000000 4.000000 12.000000 5.000000 5.000000 5.000000 1.000000 1.000000 1.000000 1.000000 1.000000 5.000000 5.000000 7.000000 7.000000 5.000000 5.000000 5.000000 5.000000 5.000000 10.000000 12.000000 11.000000 11.000000 11.000000 12.000000 5.000000 5.000000 5.000000 5.000000 5.000000 1.000000 2.000000 1.000000 5.000000 5.000000 1.000000 1.000000 1.000000 1.000000 1.000000 1.000000 2.000000 2.000000 1.000000 2.000000 2.000000 1.000000 1.000000 1.000000 2.000000 1.000000 1.000000 1.000000 1.000000 1.000000 1.000000 1.000000 2.000000 1.000000 2.000000 1.000000 1.000000 1.000000 5.000000 5.000000 5.000000 5.000000 5.000000 5.000000 5.000000 5.000000 7.000000 8.000000 8.000000 7.000000 5.000000 5.000000 5.000000 5.000000 5.000000 5.000000 6.000000 4.000000 10.000000 12.000000 4.000000 5.000000 5.000000 10.000000 10.000000 12.000000 12.000000 12.000000 13.000000 12.000000 12.000000 12.000000 4.000000 8.000000
10.000000 10.000000 5.000000 5.000000 7.000000 12.000000 8.000000 10.000000 4.000000 13.000000 4.000000 5.000000 5.000000 1.000000 5.000000 4.000000 4.000000 4.000000 4.000000 4.000000 4.000000 4.000000 5.000000 5.000000 5.000000 5.000000 9.000000 5.000000 5.000000 4.000000 5.000000 4.000000 5.000000 4.000000 5.000000 11.000000 10.000000 3.000000 4.000000 12.000000 12.000000 4.000000 12.000000 12.000000 4.000000 4.000000 8.000000 12.000000 12.000000 11.000000 11.000000 12.000000 11.000000 4.000000 12.000000 5.000000 5.000000 4.000000 5.000000 4.000000 4.000000 5.000000 5.000000 5.000000 1.000000 1.000000 1.000000 5.000000 5.000000 5.000000 5.000000 10.000000 4.000000 4.000000 1.000000 4.000000 4.000000 1.000000 5.000000 5.000000 1.000000 2.000000 2.000000 1.000000 1.000000 1.000000 5.000000 1.000000 5.000000 5.000000 4.000000 4.000000 12.000000 5.000000 5.000000 5.000000 5.000000 5.000000 1.000000 5.000000 5.000000 5.000000 5.000000 4.000000 5.000000 5.000000 5.000000 5.000000 4.000000 13.000000 12.000000 4.000000 4.000000 7.000000 12.000000 11.000000 10.000000 5.000000 5.000000 5.000000 5.000000 1.000000 1.000000 1.000000 5.000000 5.000000 1.000000 2.000000 2.000000 1.000000 1.000000 2.000000 2.000000 1.000000 2.000000 2.000000 1.000000 2.000000 1.000000 1.000000 2.000000 2.000000 2.000000 1.000000 1.000000 1.000000 2.000000 2.000000 1.000000 2.000000 2.000000 1.000000 5.000000 5.000000 5.000000 5.000000 4.000000 4.000000 5.000000 11.000000 12.000000 10.000000 12.000000 5.000000 12.000000 12.000000 10.000000 5.000000 5.000000 5.000000 5.000000 4.000000 4.000000 4.000000 4.000000 4.000000 10.000000 4.000000 10.000000 4.000000 10.000000 12.000000 12.000000 4.000000 12.000000 12.000000 12.000000 12.000000 4.000000 4.000000
9.000000 5.000000 5.000000 7.000000 4.000000 12.000000 10.000000 5.000000 6.000000 10.000000 5.000000 1.000000 1.000000 4.000000 4.000000 4.000000 5.000000 4.000000 4.000000 4.000000 4.000000 4.000000 5.000000 4.000000 4.000000 4.000000 4.000000 10.000000 7.000000 5.000000 4.000000 10.000000 10.000000 7.000000 7.000000 12.000000 10.000000 11.000000 12.000000 12.000000 12.000000 12.000000 12.000000 4.000000 4.000000 4.000000 8.000000 8.000000 12.000000 11.000000 12.000000 10.000000 12.000000 13.000000 12.000000 12.000000 11.000000 4.000000 5.000000 5.000000 6.000000 5.000000 5.000000 5.000000 1.000000 5.000000 5.000000 5.000000 5.000000 4.000000 7.000000 1.000000 12.000000 12.000000 7.000000 5.000000 5.000000 5.000000 5.000000 1.000000 1.000000 2.000000 2.000000 2.000000 2.000000 5.000000 5.000000 5.000000 5.000000 5.000000 7.000000 12.000000 4.000000 5.000000 5.000000 5.000000 5.000000 2.000000 5.000000 5.000000 5.000000 4.000000 4.000000 4.000000 5.000000 5.000000 5.000000 4.000000 4.000000 12.000000 4.000000 12.000000 13.000000 13.000000 12.000000 12.000000 5.000000 5.000000 5.000000 5.000000 5.000000 5.000000 3.000000 5.000000 5.000000 6.000000 5.000000 5.000000 1.000000 2.000000 1.000000 1.000000 1.000000 1.000000 2.000000 2.000000 2.000000 2.000000 2.000000 2.000000 1.000000 1.000000 2.000000 1.000000 1.000000 2.000000 1.000000 1.000000 1.000000 2.000000 2.000000 2.000000 1.000000 5.000000 5.000000 4.000000 7.000000 9.000000 11.000000 7.000000 12.000000 4.000000 9.000000 4.000000 4.000000 4.000000 10.000000 10.000000 12.000000 10.000000 10.000000 7.000000 5.000000 4.000000 5.000000 5.000000 5.000000 5.000000 12.000000 10.000000 12.000000 12.000000 12.000000 10.000000 12.000000 12.000000 12.000000 9.000000 7.000000 4.000000
4.000000 5.000000 5.000000 9.000000 12.000000 12.000000 4.000000 4.000000 6.000000 10.000000 4.000000 5.000000 5.000000 5.000000 4.000000 4.000000 4.000000 7.000000 13.000000 5.000000 4.000000 4.000000 10.000000 12.000000 4.000000 4.000000 12.000000 12.000000 10.000000 5.000000 4.000000 4.000000 10.000000 10.000000 10.000000 7.000000 10.000000 11.000000 12.000000 11.000000 4.000000 8.000000 11.000000 7.000000 12.000000 4.000000 12.000000 12.000000 12.000000 12.000000 8.000000 11.000000 4.000000 12.000000 4.000000 10.000000 4.000000 7.000000 5.000000 5.000000 5.000000 5.000000 5.000000 5.000000 5.000000 5.000000 5.000000 5.000000 7.000000 10.000000 10.000000 12.000000 12.000000 5.000000 5.000000 5.000000 5.000000 5.000000 5.000000 2.000000 2.000000 2.000000 2.000000 1.000000 2.000000 5.000000 5.000000 5.000000 5.000000 5.000000 7.000000 10.000000 4.000000 4.000000 4.000000 5.000000 5.000000 1.000000 1.000000 1.000000 4.000000 4.000000 4.000000 5.000000 5.000000 5.000000 5.000000 4.000000 4.000000 4.000000 12.000000 12.000000 12.000000 13.000000 11.000000 12.000000 5.000000 5.000000 5.000000 5.000000 10.000000 5.000000 5.000000 5.000000 5.000000 5.000000 4.000000 5.000000 5.000000 5.000000 5.000000 1.000000 2.000000 2.000000 2.000000 2.000000 2.000000 1.000000 2.000000 2.000000 2.000000 1.000000 1.000000 1.000000 1.000000 2.000000 2.000000 2.000000 1.000000 1.000000 2.000000 1.000000 1.000000 5.000000 5.000000 5.000000 4.000000 4.000000 12.000000 4.000000 11.000000 9.000000 9.000000 12.000000 12.000000 9.000000 4.000000 12.000000 12.000000 12.000000 10.000000 10.000000 10.000000 10.000000 5.000000 7.000000 5.000000 4.000000 12.000000 12.000000 12.000000 12.000000 10.000000 13.000000 11.000000 11.000000 10.000000 4.000000 4.000000 5.000000
5.000000 5.000000 4.000000 1.000000 12.000000 12.000000 10.000000 4.000000 4.000000 5.000000 5.000000 5.000000 4.000000 4.000000 4.000000 4.000000 4.000000 4.000000 4.000000 4.000000 4.000000 4.000000 5.000000 8.000000 11.000000 11.000000 12.000000 7.000000 5.000000 5.000000 4.000000 5.000000 5.000000 4.000000 5.000000 5.000000 4.000000 12.000000 12.000000 12.000000 12.000000 12.000000 10.000000 4.000000 12.000000 12.000000 12.000000 11.000000 7.000000 12.000000 11.000000 4.000000 9.000000 11.000000 10.000000 4.000000 5.000000 4.000000 4.000000 5.000000 4.000000 5.000000 5.000000 5.000000 5.000000 5.000000 5.000000 4.000000 4.000000 5.000000 5.000000 7.000000 4.000000 12.000000 4.000000 4.000000 7.000000 5.000000 1.000000 5.000000 1.000000 1.000000 1.000000 1.000000 5.000000 5.000000 4.000000 7.000000 3.000000 4.000000 5.000000 10.000000 6.000000 10.000000 5.000000 5.000000 5.000000 1.000000 1.000000 5.000000 5.000000 7.000000 5.000000 1.000000 5.000000 5.000000 5.000000 4.000000 4.000000 4.000000 12.000000 10.000000 4.000000 4.000000 12.000000 12.000000 13.000000 12.000000 5.000000 8.000000 8.000000 5.000000 5.000000 5.000000 5.000000 5.000000 7.000000 5.000000 5.000000 5.000000 5.000000 5.000000 1.000000 2.000000 1.000000 1.000000 2.000000 2.000000 2.000000 2.000000 2.000000 5.000000 1.000000 5.000000 1.000000 5.000000 1.000000 1.000000 5.000000 5.000000 1.000000 1.000000 1.000000 5.000000 5.000000 5.000000 4.000000 7.000000 4.000000 8.000000 10.000000 4.000000 12.000000 12.000000 12.000000 12.000000 12.000000 7.000000 4.000000 4.000000 5.000000 10.000000 10.000000 10.000000 10.000000 12.000000 12.000000 12.000000 12.000000 12.000000 6.000000 12.000000 12.000000 12.000000 9.000000 5.000000 5.000000 5.000000 5.000000 5.000000
4.000000 5.000000 7.000000 4.000000 12.000000 10.000000 4.000000 4.000000 4.000000 4.000000 1.000000 5.000000 4.000000 4.000000 4.000000 4.000000 4.000000 4.000000 4.000000 4.000000 4.000000 12.000000 9.000000 10.000000 12.000000 12.000000 10.000000 5.000000 4.000000 5.000000 5.000000 4.000000 4.000000 4.000000 4.000000 4.000000 12.000000 12.000000 12.000000 12.000000 13.000000 13.000000 13.000000 4.000000 12.000000 12.000000 10.000000 10.000000 10.000000 10.000000 4.000000 4.000000 12.000000 4.000000 5.000000 5.000000 5.000000 5.000000 4.000000 4.000000 5.000000 5.000000 5.000000 5.000000 5.000000 5.000000 5.000000 4.000000 5.000000 5.000000 10.000000 12.000000 4.000000 12.000000 7.000000 5.000000 5.000000 5.000000 5.000000 1.000000 1.000000 1.000000 5.000000 5.000000 5.000000 5.000000 4.000000 5.000000 5.000000 4.000000 4.000000 10.000000 4.000000 8.000000 5.000000 5.000000 5.000000 1.000000 5.000000 5.000000 4.000000 5.000000 1.000000 5.000000 5.000000 5.000000 5.000000 4.000000 1.000000 4.000000 8.000000 12.000000 4.000000 13.000000 12.000000 12.000000 12.000000 12.000000 12.000000 11.000000 12.000000 4.000000 12.000000 12.000000 12.000000 11.000000 7.000000 10.000000 5.000000 5.000000 5.000000 5.000000 1.000000 1.000000 2.000000 2.000000 1.000000 2.000000 2.000000 1.000000 2.000000 1.000000 1.000000 1.000000 5.000000 5.000000 5.000000 5.000000 5.000000 5.000000 5.000000 5.000000 5.000000 1.000000 5.000000 5.000000 5.000000 4.000000 4.000000 5.000000 5.000000 4.000000 7.000000 4.000000 12.000000 12.000000 12.000000 8.000000 12.000000 4.000000 12.000000 6.000000 6.000000 12.000000 12.000000 10.000000 12.000000 12.000000 12.000000 12.000000 12.000000 12.000000 9.000000 12.000000 11.000000 5.000000 5.000000 5.000000 5.000000 5.000000
5.000000 5.000000 4.000000 9.000000 4.000000 4.000000 4.000000 4.000000 4.000000 5.000000 5.000000 4.000000 4.000000 4.000000 4.000000 4.000000 4.000000 4.000000 4.000000 4.000000 4.000000 11.000000 12.000000 12.000000 12.000000 12.000000 12.000000 5.000000 5.000000 7.000000 12.000000 4.000000 5.000000 7.000000 12.000000 12.000000 12.000000 11.000000 12.000000 12.000000 4.000000 12.000000 12.000000 13.000000 4.000000 10.000000 12.000000 12.000000 7.000000 11.000000 6.000000 12.000000 12.000000 10.000000 12.000000 5.000000 5.000000 5.000000 4.000000 4.000000 5.000000 5.000000 5.000000 5.000000 1.000000 5.000000 5.000000 5.000000 5.000000 5.000000 5.000000 7.000000 7.000000 11.000000 5.000000 5.000000 5.000000 5.000000 5.000000 1.000000 1.000000 1.000000 5.000000 4.000000 4.000000 6.000000 5.000000 5.000000 5.000000 4.000000 12.000000 12.000000 12.000000 1.000000 5.000000 4.000000 5.000000 5.000000 5.000000 5.000000 7.000000 5.000000 5.000000 5.000000 5.000000 4.000000 4.000000 10.000000 5.000000 4.000000 12.000000 10.000000 12.000000 5.000000 4.000000 10.000000 12.000000 11.000000 11.000000 4.000000 5.000000 7.000000 7.000000 10.000000 5.000000 10.000000 10.000000 7.000000 4.000000 5.000000 5.000000 5.000000 1.000000 1.000000 1.000000 2.000000 2.000000 2.000000 2.000000 2.000000 2.000000 1.000000 1.000000 1.000000 5.000000 5.000000 7.000000 7.000000 1.000000 5.000000 5.000000 5.000000 5.000000 5.000000 1.000000 5.000000 4.000000 5.000000 5.000000 5.000000 5.000000 5.000000 10.000000 10.000000 4.000000 12.000000 12.000000 12.000000 12.000000 12.000000 12.000000 12.000000 13.000000 9.000000 12.000000 13.000000 12.000000 11.000000 12.000000 6.000000 6.000000 12.000000 12.000000 12.000000 8.000000 4.000000 5.000000 5.000000 5.000000 5.000000
4.000000 4.000000 4.000000 10.000000 10.000000 4.000000 4.000000 5.000000 3.000000 4.000000 5.000000 4.000000 4.000000 4.000000 5.000000 4.000000 4.000000 4.000000 4.000000 4.000000 13.000000 13.000000 11.000000 12.000000 8.000000 4.000000 4.000000 12.000000 12.000000 12.000000 7.000000 4.000000 11.000000 12.000000 12.000000 11.000000 12.000000 12.000000 13.000000 4.000000 9.000000 12.000000 10.000000 8.000000 12.000000 11.000000 4.000000 12.000000 4.000000 12.000000 12.000000 12.000000 7.000000 4.000000 10.000000 4.000000 5.000000 5.000000 5.000000 4.000000 5.000000 5.000000 1.000000 1.000000 5.000000 1.000000 5.000000 5.000000 5.000000 5.000000 10.000000 10.000000 3.000000 12.000000 7.000000 5.000000 5.000000 5.000000 1.000000 1.000000 1.000000 1.000000 1.000000 5.000000 4.000000 5.000000 5.000000 5.000000 5.000000 10.000000 4.000000 4.000000 10.000000 10.000000 7.000000 7.000000 10.000000 5.000000 5.000000 5.000000 5.000000 5.000000 5.000000 5.000000 13.000000 1.000000 5.000000 5.000000 5.000000 5.000000 5.000000 12.000000 10.000000 12.000000 4.000000 11.000000 5.000000 7.000000 4.000000 5.000000 5.000000 5.000000 5.000000 5.000000 5.000000 5.000000 5.000000 5.000000 1.000000 7.000000 5.000000 5.000000 5.000000 5.000000 5.000000 1.000000 1.000000 2.000000 2.000000 2.000000 2.000000 2.000000 2.000000 1.000000 5.000000 5.000000 7.000000 7.000000 5.000000 10.000000 10.000000 5.000000 5.000000 5.000000 5.000000 5.000000 5.000000 5.000000 5.000000 5.000000 5.000000 5.000000 10.000000 10.000000 4.000000 12.000000 12.000000 12.000000 12.000000 4.000000 13.000000 13.000000 12.000000 12.000000 12.000000 12.000000 12.000000 6.000000 6.000000 4.000000 9.000000 12.000000 12.000000 12.000000 5.000000 4.000000 5.000000 4.000000 5.000000 5.000000
4.000000 4.000000 4.000000 4.000000 4.000000 4.000000 4.000000 5.000000 5.000000 4.000000 5.000000 4.000000 1.000000 5.000000 10.000000 4.000000 4.000000 4.000000 11.000000 12.000000 12.000000 12.000000 8.000000 12.000000 12.000000 12.000000 11.000000 12.000000 13.000000 12.000000 4.000000 12.000000 12.000000 10.000000 11.000000 12.000000 11.000000 12.000000 4.000000 12.000000 12.000000 11.000000 11.000000 12.000000 12.000000 12.000000 12.000000 11.000000 11.000000 12.000000 12.000000 12.000000 12.000000 12.000000 10.000000 5.000000 5.000000 5.000000 5.000000 6.000000 5.000000 5.000000 1.000000 1.000000 5.000000 5.000000 5.000000 5.000000 5.000000 5.000000 5.000000 10.000000 3.000000 12.000000 10.000000 5.000000 5.000000 5.000000 1.000000 1.000000 1.000000 1.000000 5.000000 1.000000 5.000000 5.000000 5.000000 5.000000 5.000000 4.000000 7.000000 4.000000 5.000000 5.000000 7.000000 4.000000 10.000000 5.000000 5.000000 1.000000 1.000000 5.000000 5.000000 5.000000 5.000000 5.000000 5.000000 5.000000 5.000000 5.000000 5.000000 12.000000 12.000000 12.000000 12.000000 12.000000 12.000000 7.000000 5.000000 5.000000 5.000000 5.000000 5.000000 5.000000 5.000000 5.000000 5.000000 5.000000 5.000000 4.000000 4.000000 4.000000 1.000000 5.000000 5.000000 5.000000 1.000000 2.000000 1.000000 2.000000 2.000000 1.000000 1.000000 1.000000 5.000000 5.000000 1.000000 5.000000 5.000000 4.000000 1.000000 7.000000 5.000000 5.000000 5.000000 5.000000 5.000000 5.000000 5.000000 5.000000 5.000000 5.000000 10.000000 5.000000 10.000000 5.000000 4.000000 12.000000 4.000000 12.000000 12.000000 12.000000 12.000000 11.000000 12.000000 12.000000 12.000000 12.000000 11.000000 13.000000 4.000000 12.000000 12.000000 11.000000 9.000000 8.000000 5.000000 5.000000 5.000000 5.000000
4.000000 12.000000 4.000000 7.000000 4.000000 5.000000 1.000000 1.000000 5.000000 5.000000 4.000000 1.000000 4.000000 4.000000 5.000000 5.000000 13.000000 12.000000 11.000000 9.000000 9.000000 11.000000 5.000000 12.000000 12.000000 9.000000 12.000000 12.000000 12.000000 8.000000 12.000000 4.000000 12.000000 10.000000 12.000000 10.000000 12.000000 12.000000 12.000000 10.000000 8.000000 11.000000 11.000000 10.000000 12.000000 10.000000 11.000000 12.000000 10.000000 12.000000 12.000000 12.000000 4.000000 5.000000 5.000000 5.000000 5.000000 5.000000 5.000000 4.000000 5.000000 5.000000 5.000000 5.000000 5.000000 1.000000 1.000000 5.000000 5.000000 5.000000 5.000000 9.000000 3.000000 12.000000 10.000000 5.000000 5.000000 5.000000 5.000000 1.000000 1.000000 1.000000 1.000000 1.000000 5.000000 1.000000 5.000000 5.000000 10.000000 3.000000 10.000000 5.000000 5.000000 5.000000 10.000000 4.000000 5.000000 5.000000 5.000000 1.000000 5.000000 5.000000 1.000000 5.000000 1.000000 2.000000 5.000000 1.000000 1.000000 5.000000 5.000000 4.000000 12.000000 12.000000 12.000000 12.000000 1.000000 8.000000 8.000000 5.000000 5.000000 5.000000 5.000000 5.000000 5.000000 1.000000 1.000000 5.000000 5.000000 5.000000 5.000000 5.000000 5.000000 5.000000 1.000000 1.000000 5.000000 1.000000 1.000000 1.000000 2.000000 2.000000 2.000000 2.000000 1.000000 5.000000 1.000000 5.000000 5.000000 4.000000 4.000000 9.000000 12.000000 5.000000 12.000000 4.000000 4.000000 4.000000 5.000000 5.000000 5.000000 5.000000 5.000000 5.000000 7.000000 7.000000 10.000000 9.000000 4.000000 12.000000 10.000000 5.000000 11.000000 12.000000 9.000000 12.000000 12.000000 10.000000 12.000000 12.000000 13.000000 12.000000 12.000000 9.000000 12.000000 12.000000 4.000000 4.000000 4.000000 5.000000
5.000000 1.000000 4.000000 4.000000 4.000000 5.000000 1.000000 5.000000 4.000000 4.000000 4.000000 4.000000 4.000000 5.000000 4.000000 4.000000 12.000000 12.000000 10.000000 4.000000 4.000000 4.000000 12.000000 12.000000 12.000000 8.000000 8.000000 4.000000 12.000000 12.000000 12.000000 12.000000 10.000000 12.000000 12.000000 12.000000 4.000000 12.000000 10.000000 11.000000 11.000000 11.000000 10.000000 10.000000 11.000000 13.000000 8.000000 12.000000 10.000000 12.000000 12.000000 12.000000 12.000000 12.000000 5.000000 5.000000 5.000000 5.000000 5.000000 5.000000 5.000000 5.000000 5.000000 1.000000 1.000000 1.000000 5.000000 5.000000 5.000000 5.000000 5.000000 12.000000 3.000000 12.000000 12.000000 7.000000 5.000000 5.000000 5.000000 1.000000 2.000000 1.000000 1.000000 5.000000 5.000000 5.000000 5.000000 5.000000 7.000000 7.000000 10.000000 5.000000 1.000000 5.000000 5.000000 5.000000 5.000000 5.000000 5.000000 1.000000 1.000000 5.000000 3.000000 1.000000 1.000000 5.000000 5.000000 5.000000 5.000000 5.000000 5.000000 4.000000 7.000000 12.000000 12.000000 12.000000 4.000000 11.000000 5.000000 7.000000 5.000000 5.000000 5.000000 5.000000 5.000000 5.000000 1.000000 1.000000 5.000000 1.000000 1.000000 5.000000 5.000000 1.000000 2.000000 1.000000 5.000000 5.000000 5.000000 1.000000 1.000000 1.000000 1.000000 2.000000 1.000000 5.000000 4.000000 7.000000 5.000000 5.000000 4.000000 4.000000 12.000000 12.000000 12.000000 12.000000 4.000000 4.000000 4.000000 5.000000 5.000000 5.000000 5.000000 5.000000 5.000000 7.000000 10.000000 10.000000 5.000000 10.000000 5.000000 4.000000 10.000000 12.000000 12.000000 12.000000 12.000000 12.000000 12.000000 4.000000 12.000000 12.000000 12.000000 12.000000 12.000000 12.000000 8.000000 4.000000 4.000000 5.000000
10.000000 4.000000 4.000000 10.000000 4.000000 4.000000 5.000000 4.000000 4.000000 1.000000 4.000000 4.000000 4.000000 4.000000 13.000000 8.000000 10.000000 4.000000 5.000000 5.000000 4.000000 4.000000 9.000000 9.000000 9.000000 5.000000 5.000000 5.000000 10.000000 8.000000 10.000000 11.000000 11.000000 12.000000 12.000000 13.000000 11.000000 11.000000 8.000000 12.000000 10.000000 7.000000 4.000000 4.000000 12.000000 10.000000 10.000000 12.000000 12.000000 11.000000 4.000000 12.000000 12.000000 10.000000 4.000000 6.000000 5.000000 5.000000 5.000000 5.000000 5.000000 5.000000 5.000000 5.000000 5.000000 5.000000 5.000000 5.000000 5.000000 5.000000 4.000000 12.000000 3.000000 12.000000 12.000000 5.000000 5.000000 5.000000 5.000000 1.000000 1.000000 1.000000 5.000000 1.000000 5.000000 5.000000 10.000000 10.000000 7.000000 7.000000 5.000000 1.000000 5.000000 5.000000 5.000000 5.000000 5.000000 5.000000 5.000000 2.000000 1.000000 2.000000 2.000000 5.000000 1.000000 1.000000 1.000000 5.000000 5.000000 5.000000 5.000000 4.000000 10.000000 12.000000 11.000000 12.000000 11.000000 12.000000 12.000000 11.000000 5.000000 5.000000 5.000000 5.000000 5.000000 1.000000 1.000000 1.000000 1.000000 2.000000 5.000000 2.000000 2.000000 1.000000 5.000000 5.000000 5.000000 5.000000 5.000000 4.000000 5.000000 1.000000 1.000000 2.000000 5.000000 5.000000 7.000000 5.000000 5.000000 4.000000 4.000000 11.000000 12.000000 4.000000 4.000000 12.000000 12.000000 4.000000 12.000000 5.000000 4.000000 5.000000 5.000000 5.000000 5.000000 5.000000 10.000000 1.000000 5.000000 4.000000 4.000000 7.000000 12.000000 10.000000 12.000000 12.000000 11.000000 12.000000 8.000000 12.000000 4.000000 9.000000 12.000000 12.000000 12.000000 12.000000 12.000000 5.000000 12.000000 12.000000
6.000000 4.000000 4.000000 4.000000 4.000000 4.000000 4.000000 4.000000 5.000000 5.000000 4.000000 11.000000 4.000000 8.000000 10.000000 9.000000 10.000000 4.000000 4.000000 5.000000 4.000000 9.000000 4.000000 4.000000 4.000000 5.000000 5.000000 5.000000 4.000000 5.000000 10.000000 10.000000 12.000000 12.000000 13.000000 12.000000 10.000000 12.000000 11.000000 5.000000 4.000000 5.000000 4.000000 4.000000 12.000000 10.000000 11.000000 12.000000 12.000000 12.000000 4.000000 12.000000 12.000000 11.000000 5.000000 5.000000 5.000000 5.000000 5.000000 1.000000 5.000000 1.000000 5.000000 5.000000 5.000000 5.000000 5.000000 5.000000 5.000000 5.000000 4.000000 4.000000 3.000000 3.000000 12.000000 5.000000 5.000000 5.000000 5.000000 5.000000 1.000000 1.000000 1.000000 1.000000 5.000000 5.000000 10.000000 4.000000 10.000000 4.000000 5.000000 1.000000 1.000000 1.000000 1.000000 2.000000 5.000000 1.000000 1.000000 2.000000 2.000000 2.000000 1.000000 5.000000 5.000000 5.000000 5.000000 5.000000 10.000000 10.000000 12.000000 5.000000 9.000000 11.000000 4.000000 10.000000 12.000000 12.000000 12.000000 11.000000 4.000000 4.000000 5.000000 5.000000 5.000000 5.000000 5.000000 1.000000 2.000000 5.000000 5.000000 1.000000 5.000000 5.000000 5.000000 5.000000 4.000000 4.000000 4.000000 4.000000 5.000000 5.000000 1.000000 5.000000 5.000000 5.000000 5.000000 5.000000 5.000000 4.000000 12.000000 12.000000 12.000000 4.000000 7.000000 4.000000 9.000000 12.000000 12.000000 12.000000 5.000000 5.000000 4.000000 5.000000 5.000000 5.000000 1.000000 5.000000 4.000000 10.000000 10.000000 12.000000 12.000000 12.000000 12.000000 12.000000 12.000000 12.000000 4.000000 13.000000 4.000000 12.000000 4.000000 10.000000 12.000000 11.000000 5.000000 12.000000 11.000000 12.000000
6.000000 4.000000 4.000000 4.000000 4.000000 4.000000 4.000000 1.000000 5.000000 5.000000 10.000000 4.000000 10.000000 5.000000 5.000000 12.000000 4.000000 5.000000 5.000000 4.000000 4.000000 4.000000 4.000000 4.000000 5.000000 5.000000 1.000000 1.000000 5.000000 5.000000 5.000000 5.000000 5.000000 12.000000 12.000000 12.000000 12.000000 10.000000 10.000000 4.000000 4.000000 5.000000 4.000000 4.000000 12.000000 7.000000 12.000000 12.000000 10.000000 12.000000 12.000000 12.000000 12.000000 12.000000 5.000000 5.000000 5.000000 5.000000 5.000000 1.000000 5.000000 1.000000 2.000000 1.000000 1.000000 5.000000 5.000000 5.000000 7.000000 7.000000 7.000000 11.000000 3.000000 13.000000 4.000000 5.000000 5.000000 5.000000 1.000000 2.000000 1.000000 5.000000 1.000000 1.000000 4.000000 5.000000 4.000000 4.000000 5.000000 5.000000 5.000000 1.000000 2.000000 1.000000 1.000000 5.000000 1.000000 1.000000 5.000000 2.000000 2.000000 1.000000 5.000000 5.000000 5.000000 5.000000 5.000000 5.000000 5.000000 12.000000 12.000000 8.000000 11.000000 11.000000 10.000000 10.000000 4.000000 10.000000 12.000000 12.000000 7.000000 7.000000 7.000000 5.000000 5.000000 5.000000 5.000000 5.000000 5.000000 5.000000 5.000000 5.000000 5.000000 5.000000 5.000000 5.000000 4.000000 4.000000 7.000000 4.000000 5.000000 1.000000 1.000000 5.000000 5.000000 5.000000 5.000000 5.000000 5.000000 5.000000 7.000000 9.000000 10.000000 12.000000 12.000000 4.000000 7.000000 4.000000 4.000000 12.000000 12.000000 12.000000 12.000000 12.000000 5.000000 4.000000 5.000000 4.000000 4.000000 11.000000 9.000000 10.000000 4.000000 8.000000 12.000000 12.000000 12.000000 4.000000 12.000000 4.000000 12.000000 12.000000 4.000000 12.000000 12.000000 11.000000 12.000000 5.000000 12.000000 6.000000
6.000000 4.000000 4.000000 5.000000 1.000000 5.000000 1.000000 1.000000 5.000000 1.000000 4.000000 5.000000 5.000000 5.000000 4.000000 7.000000 5.000000 5.000000 5.000000 5.000000 4.000000 4.000000 4.000000 5.000000 4.000000 1.000000 1.000000 1.000000 1.000000 5.000000 4.000000 10.000000 12.000000 9.000000 9.000000 12.000000 11.000000 10.000000 4.000000 4.000000 4.000000 4.000000 5.000000 4.000000 10.000000 12.000000 4.000000 4.000000 11.000000 12.000000 12.000000 7.000000 12.000000 10.000000 12.000000 5.000000 5.000000 5.000000 5.000000 5.000000 5.000000 1.000000 1.000000 5.000000 5.000000 5.000000 5.000000 7.000000 1.000000 4.000000 10.000000 12.000000 3.000000 8.000000 4.000000 5.000000 5.000000 1.000000 1.000000 2.000000 2.000000 1.000000 5.000000 5.000000 5.000000 4.000000 4.000000 5.000000 5.000000 5.000000 2.000000 2.000000 2.000000 1.000000 6.000000 1.000000 2.000000 1.000000 1.000000 1.000000 2.000000 1.000000 2.000000 5.000000 5.000000 5.000000 5.000000 5.000000 7.000000 11.000000 4.000000 12.000000 10.000000 5.000000 5.000000 5.000000 5.000000 10.000000 12.000000 4.000000 7.000000 5.000000 7.000000 4.000000 7.000000 5.000000 5.000000 5.000000 1.000000 5.000000 5.000000 5.000000 4.000000 4.000000 5.000000 4.000000 4.000000 4.000000 5.000000 1.000000 1.000000 1.000000 1.000000 1.000000 1.000000 5.000000 1.000000 5.000000 5.000000 5.000000 12.000000 10.000000 9.000000 12.000000 13.000000 12.000000 12.000000 13.000000 7.000000 4.000000 4.000000 9.000000 12.000000 12.000000 12.000000 4.000000 5.000000 4.000000 12.000000 4.000000 10.000000 4.000000 5.000000 12.000000 12.000000 7.000000 12.000000 12.000000 4.000000 12.000000 12.000000 12.000000 12.000000 12.000000 11.000000 5.000000 12.000000 12.000000 12.000000 12.000000
4.000000 4.000000 4.000000 5.000000 5.000000 1.000000 1.000000 1.000000 1.000000 1.000000 1.000000 4.000000 4.000000 1.000000 4.000000 7.000000 4.000000 1.000000 5.000000 5.000000 5.000000 5.000000 4.000000 1.000000 1.000000 1.000000 5.000000 1.000000 1.000000 5.000000 4.000000 11.000000 4.000000 9.000000 12.000000 12.000000 10.000000 4.000000 13.000000 4.000000 7.000000 10.000000 5.000000 4.000000 10.000000 5.000000 4.000000 10.000000 12.000000 12.000000 12.000000 13.000000 12.000000 12.000000 12.000000 12.000000 5.000000 5.000000 4.000000 1.000000 1.000000 5.000000 5.000000 5.000000 5.000000 5.000000 5.000000 5.000000 5.000000 5.000000 5.000000 10.000000 3.000000 12.000000 4.000000 5.000000 5.000000 1.000000 1.000000 1.000000 2.000000 1.000000 1.000000 5.000000 5.000000 1.000000 1.000000 4.000000 5.000000 1.000000 1.000000 2.000000 1.000000 1.000000 5.000000 1.000000 2.000000 2.000000 1.000000 2.000000 2.000000 2.000000 1.000000 5.000000 5.000000 5.000000 5.000000 5.000000 10.000000 12.000000 10.000000 12.000000 5.000000 5.000000 5.000000 5.000000 5.000000 10.000000 12.000000 12.000000 1.000000 5.000000 5.000000 5.000000 4.000000 5.000000 5.000000 5.000000 5.000000 5.000000 5.000000 5.000000 5.000000 4.000000 4.000000 4.000000 5.000000 5.000000 5.000000 1.000000 2.000000 5.000000 1.000000 5.000000 1.000000 3.000000 5.000000 5.000000 5.000000 4.000000 10.000000 5.000000 4.000000 4.000000 4.000000 12.000000 4.000000 12.000000 10.000000 8.000000 12.000000 9.000000 9.000000 12.000000 12.000000 11.000000 12.000000 12.000000 4.000000 12.000000 13.000000 4.000000 4.000000 10.000000 12.000000 7.000000 4.000000 4.000000 12.000000 12.000000 4.000000 12.000000 12.000000 10.000000 12.000000 12.000000 12.000000 12.000000 4.000000 4.000000
4.000000 4.000000 5.000000 5.000000 5.000000 1.000000 5.000000 1.000000 1.000000 1.000000 1.000000 4.000000 1.000000 4.000000 4.000000 4.000000 4.000000 5.000000 4.000000 4.000000 4.000000 4.000000 5.000000 1.000000 1.000000 1.000000 1.000000 5.000000 4.000000 4.000000 9.000000 4.000000 12.000000 12.000000 11.000000 11.000000 4.000000 12.000000 12.000000 8.000000 4.000000 10.000000 5.000000 5.000000 4.000000 4.000000 5.000000 4.000000 11.000000 12.000000 12.000000 12.000000 12.000000 12.000000 4.000000 12.000000 12.000000 5.000000 5.000000 5.000000 1.000000 5.000000 5.000000 6.000000 5.000000 5.000000 5.000000 5.000000 5.000000 5.000000 5.000000 7.000000 3.000000 7.000000 4.000000 5.000000 1.000000 1.000000 1.000000 2.000000 1.000000 1.000000 5.000000 5.000000 7.000000 4.000000 5.000000 5.000000 1.000000 1.000000 1.000000 1.000000 1.000000 2.000000 2.000000 5.000000 1.000000 2.000000 2.000000 5.000000 1.000000 1.000000 1.000000 5.000000 5.000000 4.000000 5.000000 5.000000 12.000000 12.000000 4.000000 10.000000 5.000000 5.000000 5.000000 5.000000 4.000000 5.000000 12.000000 12.000000 1.000000 10.000000 5.000000 5.000000 5.000000 5.000000 5.000000 5.000000 5.000000 5.000000 5.000000 5.000000 7.000000 7.000000 4.000000 10.000000 5.000000 5.000000 5.000000 5.000000 5.000000 4.000000 5.000000 5.000000 1.000000 4.000000 4.000000 5.000000 4.000000 10.000000 4.000000 10.000000 4.000000 4.000000 13.000000 12.000000 12.000000 12.000000 12.000000 4.000000 4.000000 9.000000 12.000000 12.000000 12.000000 4.000000 8.000000 4.000000 4.000000 12.000000 12.000000 12.000000 12.000000 12.000000 12.000000 13.000000 12.000000 4.000000 4.000000 12.000000 4.000000 4.000000 4.000000 13.000000 13.000000 7.000000 13.000000 4.000000 4.000000 4.000000
4.000000 5.000000 5.000000 5.000000 5.000000 1.000000 5.000000 4.000000 5.000000 5.000000 5.000000 1.000000 5.000000 4.000000 4.000000 4.000000 4.000000 4.000000 4.000000 5.000000 4.000000 5.000000 5.000000 1.000000 1.000000 1.000000 4.000000 4.000000 4.000000 11.000000 11.000000 10.000000 12.000000 4.000000 12.000000 4.000000 12.000000 12.000000 12.000000 12.000000 5.000000 10.000000 5.000000 5.000000 5.000000 5.000000 5.000000 5.000000 4.000000 8.000000 13.000000 12.000000 10.000000 12.000000 12.000000 7.000000 11.000000 5.000000 5.000000 5.000000 5.000000 5.000000 1.000000 1.000000 5.000000 1.000000 5.000000 5.000000 5.000000 5.000000 5.000000 4.000000 3.000000 7.000000 5.000000 5.000000 1.000000 5.000000 5.000000 1.000000 1.000000 5.000000 5.000000 4.000000 4.000000 1.000000 5.000000 5.000000 5.000000 1.000000 1.000000 1.000000 2.000000 2.000000 2.000000 1.000000 1.000000 2.000000 2.000000 5.000000 1.000000 5.000000 5.000000 5.000000 5.000000 10.000000 4.000000 7.000000 4.000000 12.000000 7.000000 5.000000 5.000000 5.000000 5.000000 5.000000 5.000000 7.000000 7.000000 12.000000 10.000000 10.000000 5.000000 5.000000 5.000000 5.000000 5.000000 5.000000 4.000000 4.000000 4.000000 4.000000 4.000000 4.000000 4.000000 10.000000 5.000000 5.000000 4.000000 4.000000 4.000000 4.000000 5.000000 5.000000 4.000000 4.000000 4.000000 7.000000 4.000000 5.000000 4.000000 10.000000 10.000000 5.000000 12.000000 4.000000 12.000000 12.000000 12.000000 12.000000 4.000000 4.000000 4.000000 10.000000 10.000000 4.000000 4.000000 9.000000 8.000000 12.000000 8.000000 7.000000 12.000000 12.000000 12.000000 12.000000 9.000000 13.000000 13.000000 4.000000 4.000000 4.000000 10.000000 12.000000 9.000000 12.000000 10.000000 12.000000 12.000000 12.000000
4.000000 5.000000 5.000000 5.000000 4.000000 5.000000 1.000000 7.000000 4.000000 4.000000 4.000000 1.000000 1.000000 5.000000 5.000000 5.000000 5.000000 5.000000 5.000000 5.000000 5.000000 5.000000 1.000000 1.000000 5.000000 5.000000 4.000000 4.000000 4.000000 4.000000 10.000000 12.000000 9.000000 11.000000 4.000000 12.000000 12.000000 12.000000 12.000000 4.000000 4.000000 5.000000 4.000000 4.000000 5.000000 5.000000 5.000000 4.000000 5.000000 12.000000 7.000000 4.000000 8.000000 10.000000 12.000000 12.000000 12.000000 5.000000 5.000000 5.000000 5.000000 5.000000 1.000000 1.000000 1.000000 5.000000 1.000000 5.000000 5.000000 5.000000 5.000000 4.000000 12.000000 7.000000 5.000000 5.000000 1.000000 5.000000 1.000000 1.000000 5.000000 5.000000 5.000000 1.000000 5.000000 5.000000 2.000000 5.000000 2.000000 2.000000 2.000000 2.000000 1.000000 1.000000 2.000000 2.000000 2.000000 2.000000 2.000000 1.000000 5.000000 5.000000 5.000000 5.000000 5.000000 5.000000 4.000000 11.000000 4.000000 12.000000 10.000000 5.000000 5.000000 5.000000 5.000000 5.000000 6.000000 4.000000 4.000000 8.000000 13.000000 5.000000 5.000000 5.000000 1.000000 5.000000 5.000000 5.000000 5.000000 4.000000 5.000000 4.000000 9.000000 4.000000 4.000000 4.000000 5.000000 4.000000 4.000000 4.000000 5.000000 4.000000 5.000000 5.000000 4.000000 4.000000 4.000000 5.000000 5.000000 5.000000 4.000000 10.000000 4.000000 4.000000 8.000000 4.000000 4.000000 7.000000 12.000000 12.000000 12.000000 11.000000 4.000000 4.000000 4.000000 12.000000 4.000000 4.000000 4.000000 4.000000 9.000000 4.000000 10.000000 12.000000 12.000000 12.000000 9.000000 13.000000 13.000000 4.000000 4.000000 4.000000 8.000000 12.000000 11.000000 12.000000 8.000000 12.000000 12.000000 12.000000
4.000000 4.000000 5.000000 4.000000 4.000000 5.000000 4.000000 10.000000 4.000000 5.000000 5.000000 1.000000 1.000000 1.000000 5.000000 5.000000 1.000000 1.000000 1.000000 5.000000 4.000000 1.000000 1.000000 4.000000 4.000000 5.000000 4.000000 5.000000 12.000000 12.000000 12.000000 12.000000 4.000000 7.000000 11.000000 10.000000 8.000000 11.000000 8.000000 4.000000 4.000000 4.000000 4.000000 4.000000 4.000000 5.000000 5.000000 5.000000 7.000000 12.000000 12.000000 10.000000 5.000000 5.000000 5.000000 4.000000 11.000000 5.000000 5.000000 5.000000 5.000000 1.000000 2.000000 2.000000 1.000000 5.000000 5.000000 5.000000 5.000000 5.000000 10.000000 4.000000 12.000000 7.000000 4.000000 5.000000 1.000000 1.000000 1.000000 1.000000 5.000000 1.000000 1.000000 1.000000 5.000000 2.000000 2.000000 2.000000 5.000000 2.000000 2.000000 2.000000 2.000000 2.000000 2.000000 2.000000 2.000000 2.000000 2.000000 5.000000 5.000000 5.000000 4.000000 7.000000 7.000000 12.000000 4.000000 10.000000 8.000000 5.000000 5.000000 1.000000 5.000000 2.000000 1.000000 5.000000 5.000000 7.000000 7.000000 12.000000 10.000000 5.000000 5.000000 5.000000 5.000000 5.000000 5.000000 5.000000 5.000000 5.000000 5.000000 4.000000 4.000000 12.000000 4.000000 4.000000 5.000000 4.000000 4.000000 3.000000 4.000000 4.000000 5.000000 5.000000 4.000000 4.000000 4.000000 5.000000 5.000000 4.000000 13.000000 4.000000 4.000000 4.000000 12.000000 4.000000 4.000000 4.000000 7.000000 12.000000 12.000000 12.000000 12.000000 12.000000 8.000000 12.000000 9.000000 4.000000 4.000000 4.000000 4.000000 7.000000 12.000000 4.000000 9.000000 4.000000 4.000000 13.000000 4.000000 4.000000 4.000000 12.000000 12.000000 12.000000 12.000000 12.000000 12.000000 11.000000 12.000000 12.000000
4.000000 4.000000 5.000000 4.000000 4.000000 4.000000 4.000000 5.000000 4.000000 5.000000 1.000000 1.000000 1.000000 1.000000 1.000000 1.000000 1.000000 1.000000 1.000000 1.000000 1.000000 1.000000 5.000000 4.000000 4.000000 4.000000 4.000000 4.000000 10.000000 12.000000 11.000000 12.000000 13.000000 4.000000 10.000000 4.000000 4.000000 12.000000 10.000000 10.000000 12.000000 5.000000 4.000000 5.000000 4.000000 4.000000 5.000000 5.000000 4.000000 12.000000 12.000000 5.000000 5.000000 5.000000 5.000000 5.000000 4.000000 5.000000 4.000000 1.000000 1.000000 5.000000 1.000000 1.000000 1.000000 5.000000 5.000000 5.000000 5.000000 5.000000 5.000000 10.000000 4.000000 4.000000 4.000000 5.000000 5.000000 1.000000 1.000000 5.000000 1.000000 2.000000 5.000000 5.000000 1.000000 1.000000 5.000000 2.000000 2.000000 2.000000 2.000000 2.000000 2.000000 2.000000 2.000000 2.000000 2.000000 2.000000 1.000000 2.000000 1.000000 5.000000 5.000000 5.000000 10.000000 4.000000 12.000000 10.000000 5.000000 5.000000 5.000000 1.000000 1.000000 5.000000 5.000000 5.000000 5.000000 5.000000 4.000000 12.000000 4.000000 5.000000 5.000000 5.000000 5.000000 1.000000 5.000000 5.000000 5.000000 5.000000 1.000000 4.000000 10.000000 12.000000 10.000000 12.000000 4.000000 4.000000 12.000000 12.000000 4.000000 4.000000 5.000000 4.000000 4.000000 4.000000 5.000000 5.000000 1.000000 4.000000 4.000000 10.000000 5.000000 4.000000 4.000000 4.000000 10.000000 5.000000 5.000000 12.000000 12.000000 12.000000 12.000000 13.000000 12.000000 12.000000 9.000000 12.000000 4.000000 8.000000 1.000000 1.000000 12.000000 12.000000 13.000000 4.000000 7.000000 4.000000 13.000000 13.000000 4.000000 4.000000 10.000000 4.000000 12.000000 12.000000 12.000000 12.000000 12.000000 12.000000
4.000000 4.000000 1.000000 4.000000 5.000000 1.000000 5.000000 4.000000 4.000000 4.000000 1.000000 1.000000 1.000000 5.000000 5.000000 1.000000 1.000000 1.000000 1.000000 1.000000 1.000000 4.000000 5.000000 5.000000 4.000000 4.000000 4.000000 7.000000 4.000000 10.000000 12.000000 12.000000 11.000000 4.000000 13.000000 4.000000 4.000000 4.000000 4.000000 12.000000 4.000000 5.000000 5.000000 5.000000 4.000000 4.000000 5.000000 5.000000 4.000000 7.000000 7.000000 5.000000 5.000000 5.000000 5.000000 5.000000 5.000000 5.000000 4.000000 5.000000 5.000000 5.000000 2.000000 1.000000 5.000000 5.000000 4.000000 4.000000 5.000000 6.000000 5.000000 11.000000 13.000000 12.000000 5.000000 1.000000 5.000000 1.000000 1.000000 2.000000 1.000000 2.000000 2.000000 2.000000 2.000000 1.000000 2.000000 1.000000 2.000000 2.000000 2.000000 2.000000 2.000000 2.000000 2.000000 2.000000 5.000000 1.000000 1.000000 5.000000 5.000000 5.000000 5.000000 5.000000 4.000000 10.000000 10.000000 5.000000 5.000000 1.000000 1.000000 1.000000 1.000000 1.000000 5.000000 5.000000 5.000000 4.000000 11.000000 12.000000 5.000000 5.000000 5.000000 5.000000 1.000000 5.000000 1.000000 5.000000 5.000000 4.000000 7.000000 4.000000 9.000000 4.000000 10.000000 12.000000 4.000000 11.000000 12.000000 12.000000 12.000000 4.000000 5.000000 5.000000 5.000000 5.000000 5.000000 4.000000 4.000000 4.000000 5.000000 1.000000 5.000000 10.000000 5.000000 5.000000 5.000000 4.000000 4.000000 4.000000 10.000000 10.000000 12.000000 12.000000 12.000000 12.000000 12.000000 12.000000 4.000000 7.000000 12.000000 9.000000 13.000000 4.000000 7.000000 12.000000 4.000000 8.000000 12.000000 10.000000 6.000000 4.000000 6.000000 13.000000 12.000000 12.000000 4.000000 12.000000 6.000000 12.000000
4.000000 1.000000 1.000000 1.000000 1.000000 1.000000 5.000000 7.000000 11.000000 5.000000 5.000000 4.000000 5.000000 5.000000 4.000000 4.000000 1.000000 1.000000 5.000000 4.000000 5.000000 4.000000 4.000000 4.000000 4.000000 4.000000 12.000000 12.000000 11.000000 12.000000 10.000000 12.000000 12.000000 7.000000 4.000000 4.000000 13.000000 11.000000 12.000000 4.000000 12.000000 10.000000 5.000000 4.000000 4.000000 5.000000 5.000000 5.000000 5.000000 5.000000 4.000000 5.000000 5.000000 5.000000 5.000000 5.000000 5.000000 5.000000 5.000000 5.000000 5.000000 1.000000 1.000000 5.000000 5.000000 1.000000 5.000000 5.000000 5.000000 4.000000 13.000000 4.000000 10.000000 7.000000 5.000000 1.000000 5.000000 1.000000 1.000000 1.000000 2.000000 2.000000 2.000000 2.000000 2.000000 2.000000 2.000000 2.000000 1.000000 2.000000 2.000000 2.000000 1.000000 2.000000 2.000000 1.000000 1.000000 1.000000 1.000000 5.000000 5.000000 5.000000 5.000000 5.000000 11.000000 10.000000 5.000000 5.000000 5.000000 1.000000 1.000000 2.000000 5.000000 5.000000 5.000000 5.000000 4.000000 12.000000 12.000000 7.000000 4.000000 5.000000 5.000000 5.000000 1.000000 1.000000 1.000000 5.000000 5.000000 5.000000 4.000000 9.000000 8.000000 12.000000 12.000000 12.000000 5.000000 12.000000 12.000000 12.000000 12.000000 9.000000 4.000000 4.000000 5.000000 5.000000 5.000000 4.000000 4.000000 5.000000 4.000000 5.000000 5.000000 4.000000 5.000000 5.000000 5.000000 10.000000 10.000000 4.000000 5.000000 5.000000 12.000000 12.000000 12.000000 12.000000 12.000000 4.000000 12.000000 12.000000 11.000000 12.000000 12.000000 12.000000 12.000000 12.000000 9.000000 12.000000 12.000000 12.000000 6.000000 6.000000 6.000000 6.000000 6.000000 4.000000 4.000000 7.000000 12.000000 12.000000
4.000000 1.000000 1.000000 1.000000 1.000000 4.000000 5.000000 4.000000 7.000000 11.000000 5.000000 5.000000 7.000000 4.000000 4.000000 5.000000 1.000000 1.000000 4.000000 4.000000 5.000000 4.000000 4.000000 4.000000 4.000000 4.000000 12.000000 12.000000 10.000000 12.000000 6.000000 6.000000 12.000000 10.000000 13.000000 12.000000 9.000000 13.000000 4.000000 4.000000 9.000000 4.000000 4.000000 10.000000 5.000000 8.000000 4.000000 5.000000 5.000000 5.000000 5.000000 5.000000 5.000000 5.000000 5.000000 5.000000 5.000000 5.000000 5.000000 5.000000 1.000000 1.000000 1.000000 5.000000 1.000000 1.000000 1.000000 5.000000 5.000000 4.000000 4.000000 10.000000 5.000000 5.000000 4.000000 5.000000 5.000000 5.000000 1.000000 2.000000 2.000000 2.000000 2.000000 2.000000 2.000000 2.000000 2.000000 1.000000 2.000000 2.000000 2.000000 2.000000 2.000000 1.000000 2.000000 1.000000 1.000000 1.000000 5.000000 5.000000 5.000000 5.000000 5.000000 12.000000 10.000000 5.000000 5.000000 1.000000 1.000000 1.000000 5.000000 1.000000 5.000000 5.000000 5.000000 4.000000 5.000000 12.000000 12.000000 5.000000 5.000000 5.000000 5.000000 5.000000 5.000000 5.000000 1.000000 4.000000 4.000000 11.000000 12.000000 8.000000 12.000000 11.000000 10.000000 12.000000 4.000000 8.000000 10.000000 8.000000 12.000000 10.000000 4.000000 4.000000 5.000000 5.000000 10.000000 4.000000 4.000000 4.000000 5.000000 4.000000 4.000000 4.000000 12.000000 12.000000 12.000000 10.000000 10.000000 12.000000 11.000000 12.000000 12.000000 12.000000 12.000000 12.000000 4.000000 12.000000 8.000000 8.000000 4.000000 11.000000 12.000000 12.000000 4.000000 12.000000 12.000000 11.000000 4.000000 12.000000 12.000000 9.000000 10.000000 8.000000 6.000000 6.000000 4.000000 13.000000 4.000000 4.000000
1.000000 1.000000 1.000000 1.000000 5.000000 5.000000 5.000000 5.000000 5.000000 12.000000 11.000000 11.000000 12.000000 4.000000 4.000000 4.000000 5.000000 4.000000 4.000000 4.000000 4.000000 4.000000 4.000000 4.000000 12.000000 4.000000 4.000000 11.000000 8.000000 11.000000 6.000000 11.000000 9.000000 12.000000 13.000000 12.000000 12.000000 13.000000 4.000000 7.000000 12.000000 4.000000 5.000000 11.000000 11.000000 4.000000 8.000000 5.000000 5.000000 5.000000 4.000000 5.000000 5.000000 5.000000 5.000000 5.000000 5.000000 5.000000 5.000000 5.000000 5.000000 5.000000 1.000000 5.000000 5.000000 5.000000 5.000000 5.000000 5.000000 4.000000 5.000000 5.000000 10.000000 5.000000 5.000000 5.000000 5.000000 5.000000 1.000000 2.000000 1.000000 2.000000 2.000000 2.000000 1.000000 2.000000 2.000000 2.000000 2.000000 1.000000 1.000000 1.000000 2.000000 1.000000 5.000000 1.000000 5.000000 5.000000 5.000000 5.000000 5.000000 5.000000 10.000000 10.000000 5.000000 5.000000 1.000000 1.000000 2.000000 5.000000 5.000000 5.000000 5.000000 5.000000 5.000000 4.000000 13.000000 13.000000 10.000000 5.000000 5.000000 5.000000 5.000000 5.000000 5.000000 5.000000 5.000000 4.000000 5.000000 13.000000 8.000000 8.000000 4.000000 10.000000 12.000000 4.000000 8.000000 12.000000 11.000000 4.000000 4.000000 4.000000 4.000000 5.000000 5.000000 5.000000 4.000000 4.000000 9.000000 12.000000 13.000000 9.000000 4.000000 4.000000 12.000000 4.000000 4.000000 9.000000 12.000000 12.000000 12.000000 12.000000 13.000000 12.000000 12.000000 12.000000 12.000000 12.000000 8.000000 12.000000 12.000000 12.000000 12.000000 12.000000 4.000000 12.000000 12.000000 12.000000 12.000000 12.000000 12.000000 12.000000 4.000000 12.000000 12.000000 13.000000 13.000000 6.000000 6.000000 4.000000
1.000000 1.000000 1.000000 5.000000 4.000000 4.000000 4.000000 5.000000 4.000000 9.000000 4.000000 12.000000 12.000000 4.000000 4.000000 4.000000 5.000000 4.000000 4.000000 4.000000 4.000000 4.000000 4.000000 11.000000 11.000000 4.000000 4.000000 4.000000 12.000000 12.000000 12.000000 12.000000 12.000000 12.000000 10.000000 12.000000 4.000000 4.000000 4.000000 12.000000 11.000000 11.000000 11.000000 10.000000 12.000000 7.000000 5.000000 4.000000 5.000000 5.000000 5.000000 5.000000 5.000000 5.000000 5.000000 5.000000 5.000000 5.000000 5.000000 5.000000 1.000000 1.000000 1.000000 5.000000 5.000000 5.000000 5.000000 5.000000 5.000000 5.000000 5.000000 5.000000 5.000000 5.000000 5.000000 1.000000 3.000000 2.000000 1.000000 1.000000 2.000000 2.000000 2.000000 2.000000 2.000000 2.000000 2.000000 2.000000 2.000000 1.000000 1.000000 1.000000 1.000000 5.000000 5.000000 5.000000 5.000000 5.000000 5.000000 4.000000 5.000000 7.000000 11.000000 10.000000 5.000000 1.000000 1.000000 2.000000 2.000000 2.000000 2.000000 1.000000 5.000000 5.000000 5.000000 10.000000 13.000000 7.000000 10.000000 4.000000 5.000000 5.000000 5.000000 5.000000 5.000000 5.000000 5.000000 4.000000 4.000000 4.000000 8.000000 5.000000 4.000000 4.000000 12.000000 4.000000 12.000000 12.000000 12.000000 4.000000 5.000000 4.000000 4.000000 5.000000 5.000000 5.000000 5.000000 4.000000 4.000000 4.000000 12.000000 12.000000 12.000000 12.000000 12.000000 12.000000 12.000000 12.000000 12.000000 10.000000 11.000000 4.000000 12.000000 12.000000 12.000000 12.000000 12.000000 12.000000 12.000000 12.000000 11.000000 12.000000 12.000000 4.000000 9.000000 9.000000 4.000000 12.000000 12.000000 11.000000 12.000000 9.000000 12.000000 12.000000 10.000000 12.000000 12.000000 4.000000 9.000000 4.000000
5.000000 5.000000 5.000000 4.000000 4.000000 7.000000 7.000000 4.000000 11.000000 4.000000 12.000000 4.000000 4.000000 10.000000 4.000000 4.000000 4.000000 4.000000 5.000000 1.000000 4.000000 4.000000 4.000000 12.000000 4.000000 11.000000 7.000000 12.000000 13.000000 11.000000 12.000000 12.000000 12.000000 12.000000 12.000000 4.000000 12.000000 10.000000 4.000000 12.000000 7.000000 12.000000 11.000000 11.000000 7.000000 4.000000 4.000000 10.000000 5.000000 5.000000 5.000000 5.000000 4.000000 3.000000 5.000000 5.000000 5.000000 5.000000 5.000000 1.000000 1.000000 5.000000 5.000000 5.000000 5.000000 5.000000 5.000000 5.000000 5.000000 5.000000 5.000000 5.000000 5.000000 5.000000 5.000000 5.000000 5.000000 1.000000 2.000000 1.000000 2.000000 2.000000 2.000000 2.000000 1.000000 1.000000 1.000000 1.000000 1.000000 2.000000 1.000000 5.000000 5.000000 5.000000 5.000000 5.000000 5.000000 5.000000 10.000000 7.000000 7.000000 8.000000 4.000000 4.000000 5.000000 5.000000 1.000000 1.000000 1.000000 1.000000 1.000000 4.000000 4.000000 5.000000 5.000000 7.000000 7.000000 10.000000 5.000000 5.000000 5.000000 5.000000 5.000000 1.000000 5.000000 5.000000 4.000000 4.000000 7.000000 10.000000 4.000000 5.000000 5.000000 4.000000 8.000000 4.000000 12.000000 11.000000 5.000000 1.000000 5.000000 5.000000 4.000000 5.000000 5.000000 5.000000 5.000000 5.000000 5.000000 5.000000 12.000000 12.000000 12.000000 12.000000 11.000000 12.000000 11.000000 12.000000 4.000000 12.000000 11.000000 12.000000 12.000000 12.000000 12.000000 13.000000 10.000000 12.000000 12.000000 12.000000 12.000000 12.000000 4.000000 12.000000 9.000000 12.000000 12.000000 12.000000 12.000000 12.000000 12.000000 12.000000 12.000000 12.000000 12.000000 12.000000 12.000000 12.000000 12.000000 6.000000
5.000000 1.000000 4.000000 4.000000 4.000000 4.000000 4.000000 4.000000 12.000000 12.000000 4.000000 5.000000 12.000000 12.000000 12.000000 4.000000 5.000000 5.000000 4.000000 4.000000 12.000000 12.000000 12.000000 10.000000 11.000000 4.000000 12.000000 6.000000 4.000000 11.000000 8.000000 12.000000 12.000000 12.000000 12.000000 12.000000 12.000000 12.000000 12.000000 12.000000 12.000000 12.000000 11.000000 12.000000 5.000000 4.000000 5.000000 1.000000 5.000000 5.000000 5.000000 5.000000 5.000000 5.000000 5.000000 5.000000 1.000000 1.000000 5.000000 1.000000 5.000000 5.000000 5.000000 5.000000 1.000000 1.000000 2.000000 5.000000 1.000000 5.000000 5.000000 5.000000 5.000000 1.000000 5.000000 1.000000 1.000000 2.000000 2.000000 1.000000 2.000000 2.000000 2.000000 2.000000 1.000000 1.000000 1.000000 5.000000 1.000000 1.000000 1.000000 5.000000 5.000000 4.000000 5.000000 5.000000 5.000000 5.000000 5.000000 7.000000 12.000000 4.000000 5.000000 1.000000 5.000000 1.000000 5.000000 1.000000 2.000000 2.000000 1.000000 5.000000 4.000000 4.000000 4.000000 4.000000 4.000000 5.000000 5.000000 5.000000 5.000000 5.000000 5.000000 5.000000 5.000000 5.000000 5.000000 7.000000 4.000000 4.000000 1.000000 5.000000 5.000000 4.000000 12.000000 12.000000 8.000000 12.000000 12.000000 8.000000 12.000000 5.000000 5.000000 5.000000 5.000000 1.000000 5.000000 5.000000 4.000000 4.000000 4.000000 4.000000 6.000000 4.000000 4.000000 12.000000 12.000000 11.000000 12.000000 12.000000 12.000000 11.000000 12.000000 12.000000 13.000000 12.000000 12.000000 12.000000 12.000000 4.000000 4.000000 4.000000 12.000000 12.000000 12.000000 12.000000 12.000000 12.000000 12.000000 10.000000 12.000000 11.000000 10.000000 12.000000 12.000000 12.000000 12.000000 12.000000 12.000000 12.000000
5.000000 4.000000 5.000000 4.000000 11.000000 4.000000 11.000000 4.000000 11.000000 12.000000 12.000000 4.000000 12.000000 8.000000 4.000000 5.000000 5.000000 4.000000 4.000000 4.000000 12.000000 12.000000 4.000000 4.000000 4.000000 4.000000 4.000000 3.000000 11.000000 11.000000 12.000000 12.000000 12.000000 11.000000 12.000000 12.000000 11.000000 11.000000 8.000000 9.000000 8.000000 11.000000 10.000000 10.000000 5.000000 4.000000 5.000000 4.000000 5.000000 5.000000 5.000000 5.000000 5.000000 1.000000 5.000000 5.000000 1.000000 5.000000 5.000000 5.000000 5.000000 5.000000 5.000000 5.000000 5.000000 1.000000 1.000000 1.000000 1.000000 2.000000 5.000000 1.000000 1.000000 1.000000 1.000000 2.000000 2.000000 2.000000 2.000000 2.000000 1.000000 2.000000 2.000000 2.000000 5.000000 5.000000 5.000000 5.000000 5.000000 1.000000 5.000000 5.000000 5.000000 5.000000 7.000000 5.000000 4.000000 4.000000 5.000000 13.000000 12.000000 4.000000 5.000000 5.000000 5.000000 1.000000 2.000000 1.000000 1.000000 2.000000 5.000000 5.000000 4.000000 4.000000 4.000000 4.000000 4.000000 4.000000 5.000000 5.000000 5.000000 5.000000 5.000000 1.000000 5.000000 5.000000 5.000000 4.000000 4.000000 4.000000 4.000000 5.000000 5.000000 4.000000 8.000000 8.000000 9.000000 9.000000 12.000000 12.000000 5.000000 5.000000 5.000000 1.000000 5.000000 5.000000 4.000000 4.000000 4.000000 4.000000 4.000000 4.000000 4.000000 4.000000 4.000000 10.000000 12.000000 12.000000 12.000000 12.000000 12.000000 12.000000 12.000000 4.000000 12.000000 4.000000 4.000000 11.000000 12.000000 12.000000 12.000000 4.000000 12.000000 12.000000 12.000000 13.000000 12.000000 9.000000 12.000000 10.000000 4.000000 10.000000 12.000000 9.000000 12.000000 12.000000 4.000000 7.000000 1.000000 12.000000
1.000000 1.000000 5.000000 5.000000 4.000000 4.000000 5.000000 10.000000 4.000000 10.000000 12.000000 12.000000 11.000000 4.000000 4.000000 4.000000 4.000000 4.000000 4.000000 4.000000 12.000000 11.000000 11.000000 7.000000 4.000000 13.000000 1.000000 11.000000 11.000000 12.000000 10.000000 11.000000 12.000000 9.000000 12.000000 4.000000 12.000000 10.000000 12.000000 10.000000 8.000000 12.000000 12.000000 4.000000 5.000000 4.000000 4.000000 5.000000 5.000000 5.000000 1.000000 1.000000 5.000000 5.000000 5.000000 5.000000 5.000000 5.000000 5.000000 5.000000 5.000000 5.000000 5.000000 5.000000 5.000000 5.000000 1.000000 1.000000 2.000000 2.000000 2.000000 1.000000 2.000000 2.000000 2.000000 2.000000 2.000000 2.000000 1.000000 1.000000 2.000000 2.000000 2.000000 2.000000 1.000000 5.000000 5.000000 5.000000 5.000000 5.000000 5.000000 5.000000 5.000000 5.000000 4.000000 12.000000 4.000000 5.000000 4.000000 12.000000 12.000000 4.000000 5.000000 5.000000 5.000000 5.000000 2.000000 2.000000 2.000000 1.000000 1.000000 5.000000 5.000000 7.000000 4.000000 4.000000 5.000000 7.000000 4.000000 5.000000 5.000000 5.000000 5.000000 5.000000 1.000000 5.000000 4.000000 4.000000 4.000000 5.000000 5.000000 5.000000 5.000000 5.000000 8.000000 4.000000 12.000000 12.000000 12.000000 12.000000 12.000000 12.000000 5.000000 4.000000 4.000000 5.000000 4.000000 4.000000 4.000000 4.000000 4.000000 4.000000 4.000000 4.000000 4.000000 5.000000 4.000000 4.000000 9.000000 4.000000 4.000000 4.000000 6.000000 4.000000 4.000000 12.000000 12.000000 12.000000 12.000000 12.000000 12.000000 12.000000 12.000000 12.000000 10.000000 12.000000 12.000000 12.000000 9.000000 10.000000 5.000000 4.000000 5.000000 12.000000 12.000000 12.000000 4.000000 12.000000 12.000000 12.000000
1.000000 5.000000 4.000000 5.000000 5.000000 5.000000 5.000000 5.000000 5.000000 5.000000 10.000000 12.000000 12.000000 11.000000 4.000000 4.000000 4.000000 4.000000 13.000000 12.000000 4.000000 11.000000 12.000000 12.000000 13.000000 12.000000 6.000000 12.000000 10.000000 12.000000 11.000000 8.000000 12.000000 12.000000 7.000000 12.000000 4.000000 4.000000 10.000000 12.000000 4.000000 8.000000 5.000000 4.000000 4.000000 4.000000 4.000000 5.000000 5.000000 5.000000 5.000000 5.000000 5.000000 5.000000 4.000000 4.000000 5.000000 5.000000 5.000000 5.000000 5.000000 5.000000 5.000000 5.000000 5.000000 5.000000 2.000000 2.000000 2.000000 2.000000 2.000000 2.000000 2.000000 2.000000 2.000000 2.000000 2.000000 2.000000 1.000000 2.000000 2.000000 2.000000 2.000000 2.000000 1.000000 5.000000 5.000000 1.000000 5.000000 5.000000 5.000000 5.000000 5.000000 10.000000 10.000000 5.000000 5.000000 5.000000 5.000000 12.000000 7.000000 4.000000 4.000000 5.000000 1.000000 1.000000 2.000000 2.000000 1.000000 1.000000 5.000000 5.000000 7.000000 4.000000 5.000000 4.000000 4.000000 4.000000 7.000000 5.000000 5.000000 2.000000 5.000000 5.000000 5.000000 4.000000 4.000000 4.000000 4.000000 4.000000 4.000000 1.000000 5.000000 5.000000 5.000000 4.000000 8.000000 1.000000 13.000000 12.000000 12.000000 4.000000 4.000000 4.000000 4.000000 4.000000 4.000000 4.000000 4.000000 4.000000 4.000000 4.000000 4.000000 4.000000 4.000000 4.000000 10.000000 4.000000 4.000000 4.000000 4.000000 10.000000 4.000000 9.000000 8.000000 10.000000 12.000000 9.000000 11.000000 12.000000 12.000000 12.000000 12.000000 12.000000 12.000000 12.000000 10.000000 4.000000 4.000000 4.000000 5.000000 4.000000 5.000000 12.000000 12.000000 4.000000 4.000000 11.000000 12.000000 12.000000
5.000000 4.000000 5.000000 1.000000 1.000000 1.000000 1.000000 5.000000 5.000000 10.000000 1.000000 4.000000 8.000000 11.000000 12.000000 12.000000 9.000000 12.000000 12.000000 7.000000 4.000000 7.000000 12.000000 7.000000 10.000000 4.000000 8.000000 12.000000 11.000000 12.000000 10.000000 1.000000 1.000000 4.000000 12.000000 11.000000 12.000000 4.000000 12.000000 12.000000 12.000000 12.000000 10.000000 4.000000 4.000000 5.000000 4.000000 1.000000 5.000000 5.000000 5.000000 5.000000 5.000000 4.000000 4.000000 4.000000 4.000000 5.000000 5.000000 5.000000 5.000000 5.000000 5.000000 5.000000 5.000000 5.000000 1.000000 1.000000 1.000000 2.000000 2.000000 2.000000 2.000000 2.000000 2.000000 2.000000 2.000000 2.000000 1.000000 2.000000 2.000000 2.000000 2.000000 1.000000 1.000000 1.000000 5.000000 5.000000 1.000000 5.000000 5.000000 5.000000 4.000000 5.000000 5.000000 1.000000 5.000000 5.000000 5.000000 12.000000 4.000000 5.000000 5.000000 5.000000 5.000000 1.000000 1.000000 2.000000 1.000000 1.000000 4.000000 5.000000 7.000000 4.000000 5.000000 5.000000 4.000000 4.000000 4.000000 1.000000 4.000000 5.000000 1.000000 2.000000 2.000000 5.000000 5.000000 4.000000 4.000000 4.000000 4.000000 5.000000 5.000000 4.000000 4.000000 11.000000 12.000000 9.000000 10.000000 11.000000 12.000000 4.000000 8.000000 4.000000 12.000000 9.000000 12.000000 4.000000 4.000000 4.000000 4.000000 4.000000 4.000000 4.000000 4.000000 4.000000 4.000000 5.000000 4.000000 12.000000 4.000000 4.000000 4.000000 5.000000 5.000000 5.000000 5.000000 12.000000 12.000000 9.000000 12.000000 12.000000 9.000000 4.000000 8.000000 12.000000 13.000000 9.000000 4.000000 4.000000 4.000000 4.000000 12.000000 12.000000 12.000000 10.000000 12.000000 12.000000 11.000000 12.000000
1.000000 4.000000 5.000000 5.000000 1.000000 5.000000 5.000000 5.000000 5.000000 10.000000 12.000000 13.000000 12.000000 11.000000 12.000000 12.000000 12.000000 12.000000 12.000000 12.000000 8.000000 4.000000 12.000000 12.000000 7.000000 8.000000 12.000000 12.000000 12.000000 12.000000 5.000000 1.000000 5.000000 4.000000 9.000000 11.000000 12.000000 13.000000 12.000000 12.000000 4.000000 7.000000 5.000000 4.000000 4.000000 4.000000 1.000000 5.000000 5.000000 5.000000 5.000000 5.000000 4.000000 4.000000 4.000000 4.000000 5.000000 12.000000 12.000000 7.000000 4.000000 4.000000 5.000000 5.000000 5.000000 1.000000 1.000000 1.000000 2.000000 2.000000 2.000000 2.000000 2.000000 2.000000 2.000000 2.000000 2.000000 2.000000 2.000000 2.000000 2.000000 2.000000 1.000000 2.000000 2.000000 1.000000 5.000000 5.000000 5.000000 1.000000 5.000000 4.000000 5.000000 5.000000 1.000000 1.000000 1.000000 5.000000 5.000000 12.000000 4.000000 5.000000 5.000000 5.000000 1.000000 1.000000 1.000000 1.000000 1.000000 5.000000 5.000000 7.000000 5.000000 1.000000 5.000000 5.000000 5.000000 1.000000 4.000000 5.000000 5.000000 5.000000 5.000000 5.000000 2.000000 5.000000 5.000000 1.000000 5.000000 5.000000 5.000000 5.000000 4.000000 5.000000 5.000000 8.000000 12.000000 8.000000 12.000000 4.000000 12.000000 12.000000 12.000000 12.000000 12.000000 12.000000 12.000000 4.000000 12.000000 12.000000 5.000000 4.000000 4.000000 12.000000 12.000000 4.000000 12.000000 12.000000 12.000000 13.000000 12.000000 12.000000 4.000000 5.000000 5.000000 5.000000 5.000000 12.000000 4.000000 12.000000 10.000000 4.000000 7.000000 11.000000 10.000000 4.000000 12.000000 8.000000 12.000000 4.000000 4.000000 5.000000 12.000000 12.000000 12.000000 12.000000 12.000000 12.000000 11.000000 12.000000
5.000000 1.000000 1.000000 1.000000 4.000000 4.000000 4.000000 4.000000 5.000000 10.000000 12.000000 12.000000 12.000000 11.000000 4.000000 13.000000 4.000000 4.000000 4.000000 4.000000 4.000000 4.000000 12.000000 12.000000 12.000000 12.000000 11.000000 11.000000 5.000000 10.000000 1.000000 5.000000 4.000000 5.000000 10.000000 12.000000 12.000000 4.000000 12.000000 11.000000 4.000000 4.000000 4.000000 4.000000 1.000000 4.000000 4.000000 5.000000 5.000000 5.000000 5.000000 5.000000 4.000000 7.000000 11.000000 8.000000 7.000000 4.000000 4.000000 4.000000 4.000000 12.000000 4.000000 5.000000 5.000000 5.000000 5.000000 1.000000 1.000000 1.000000 2.000000 2.000000 2.000000 2.000000 2.000000 2.000000 2.000000 2.000000 2.000000 2.000000 2.000000 2.000000 2.000000 2.000000 1.000000 1.000000 1.000000 5.000000 5.000000 5.000000 4.000000 5.000000 5.000000 1.000000 2.000000 1.000000 1.000000 1.000000 5.000000 12.000000 5.000000 5.000000 5.000000 5.000000 2.000000 2.000000 2.000000 5.000000 1.000000 5.000000 5.000000 7.000000 5.000000 5.000000 1.000000 5.000000 1.000000 5.000000 1.000000 4.000000 5.000000 1.000000 2.000000 1.000000 2.000000 2.000000 5.000000 1.000000 1.000000 1.000000 5.000000 5.000000 4.000000 5.000000 12.000000 12.000000 5.000000 10.000000 4.000000 12.000000 12.000000 13.000000 4.000000 12.000000 12.000000 4.000000 12.000000 12.000000 9.000000 12.000000 12.000000 12.000000 4.000000 12.000000 12.000000 12.000000 12.000000 8.000000 12.000000 12.000000 12.000000 12.000000 12.000000 12.000000 5.000000 5.000000 5.000000 10.000000 4.000000 9.000000 7.000000 9.000000 9.000000 12.000000 5.000000 4.000000 10.000000 9.000000 12.000000 4.000000 10.000000 12.000000 9.000000 12.000000 12.000000 12.000000 12.000000 12.000000 12.000000 4.000000
5.000000 4.000000 1.000000 1.000000 1.000000 4.000000 4.000000 4.000000 4.000000 5.000000 10.000000 12.000000 12.000000 12.000000 11.000000 11.000000 13.000000 12.000000 12.000000 12.000000 4.000000 12.000000 1.000000 12.000000 12.000000 12.000000 12.000000 10.000000 1.000000 1.000000 5.000000 4.000000 5.000000 4.000000 7.000000 4.000000 12.000000 4.000000 9.000000 12.000000 10.000000 10.000000 4.000000 4.000000 5.000000 5.000000 4.000000 4.000000 5.000000 5.000000 5.000000 4.000000 4.000000 12.000000 10.000000 4.000000 4.000000 12.000000 9.000000 12.000000 4.000000 4.000000 4.000000 5.000000 5.000000 5.000000 1.000000 5.000000 5.000000 1.000000 5.000000 2.000000 2.000000 2.000000 2.000000 2.000000 2.000000 2.000000 2.000000 2.000000 2.000000 2.000000 1.000000 1.000000 1.000000 5.000000 5.000000 5.000000 5.000000 4.000000 4.000000 5.000000 5.000000 1.000000 2.000000 1.000000 5.000000 5.000000 5.000000 9.000000 4.000000 4.000000 5.000000 5.000000 5.000000 1.000000 2.000000 1.000000 5.000000 5.000000 1.000000 5.000000 5.000000 5.000000 1.000000 1.000000 1.000000 1.000000 5.000000 4.000000 5.000000 1.000000 1.000000 1.000000 2.000000 1.000000 2.000000 2.000000 1.000000 5.000000 5.000000 4.000000 4.000000 12.000000 4.000000 12.000000 12.000000 4.000000 12.000000 11.000000 12.000000 12.000000 12.000000 13.000000 4.000000 12.000000 12.000000 4.000000 8.000000 12.000000 4.000000 12.000000 12.000000 12.000000 4.000000 4.000000 4.000000 11.000000 12.000000 4.000000 9.000000 12.000000 12.000000 10.000000 12.000000 4.000000 5.000000 5.000000 7.000000 7.000000 5.000000 4.000000 9.000000 9.000000 4.000000 5.000000 5.000000 4.000000 5.000000 5.000000 4.000000 4.000000 5.000000 12.000000 12.000000 12.000000 9.000000 12.000000 11.000000 12.000000
4.000000 4.000000 4.000000 4.000000 4.000000 4.000000 4.000000 4.000000 4.000000 4.000000 4.000000 12.000000 12.000000 11.000000 12.000000 9.000000 12.000000 11.000000 13.000000 4.000000 13.000000 9.000000 7.000000 12.000000 11.000000 12.000000 10.000000 4.000000 4.000000 5.000000 4.000000 4.000000 4.000000 4.000000 9.000000 12.000000 7.000000 4.000000 13.000000 4.000000 12.000000 12.000000 5.000000 5.000000 4.000000 5.000000 5.000000 4.000000 5.000000 4.000000 5.000000 8.000000 4.000000 4.000000 13.000000 12.000000 12.000000 9.000000 10.000000 10.000000 12.000000 12.000000 4.000000 4.000000 4.000000 5.000000 5.000000 5.000000 5.000000 5.000000 5.000000 1.000000 2.000000 2.000000 2.000000 2.000000 2.000000 2.000000 2.000000 1.000000 2.000000 1.000000 5.000000 5.000000 5.000000 5.000000 5.000000 5.000000 4.000000 4.000000 5.000000 5.000000 1.000000 2.000000 1.000000 5.000000 5.000000 5.000000 4.000000 10.000000 5.000000 5.000000 1.000000 1.000000 1.000000 2.000000 2.000000 1.000000 5.000000 5.000000 1.000000 4.000000 5.000000 1.000000 1.000000 1.000000 2.000000 2.000000 5.000000 5.000000 5.000000 1.000000 1.000000 2.000000 2.000000 2.000000 1.000000 1.000000 5.000000 4.000000 5.000000 4.000000 12.000000 4.000000 4.000000 4.000000 12.000000 9.000000 4.000000 12.000000 13.000000 4.000000 9.000000 7.000000 9.000000 12.000000 4.000000 4.000000 4.000000 13.000000 12.000000 12.000000 4.000000 13.000000 4.000000 12.000000 12.000000 12.000000 12.000000 12.000000 11.000000 12.000000 12.000000 12.000000 4.000000 5.000000 5.000000 5.000000 4.000000 5.000000 4.000000 5.000000 8.000000 7.000000 4.000000 5.000000 4.000000 5.000000 5.000000 5.000000 4.000000 5.000000 4.000000 9.000000 12.000000 10.000000 10.000000 9.000000 12.000000 13.000000
5.000000 5.000000 4.000000 4.000000 5.000000 4.000000 4.000000 4.000000 4.000000 4.000000 4.000000 12.000000 12.000000 12.000000 12.000000 9.000000 9.000000 6.000000 7.000000 6.000000 12.000000 12.000000 12.000000 12.000000 12.000000 12.000000 11.000000 4.000000 5.000000 4.000000 4.000000 4.000000 4.000000 9.000000 11.000000 12.000000 12.000000 4.000000 3.000000 4.000000 12.000000 12.000000 5.000000 7.000000 5.000000 5.000000 4.000000 4.000000 4.000000 5.000000 10.000000 12.000000 4.000000 9.000000 8.000000 4.000000 4.000000 5.000000 4.000000 5.000000 5.000000 10.000000 12.000000 4.000000 4.000000 5.000000 5.000000 5.000000 5.000000 1.000000 1.000000 1.000000 5.000000 2.000000 2.000000 2.000000 2.000000 2.000000 1.000000 1.000000 1.000000 5.000000 5.000000 1.000000 4.000000 1.000000 4.000000 4.000000 4.000000 5.000000 5.000000 1.000000 1.000000 1.000000 1.000000 5.000000 5.000000 5.000000 4.000000 5.000000 5.000000 5.000000 1.000000 1.000000 1.000000 1.000000 1.000000 1.000000 5.000000 1.000000 5.000000 4.000000 4.000000 5.000000 5.000000 5.000000 1.000000 2.000000 5.000000 5.000000 1.000000 1.000000 5.000000 2.000000 1.000000 2.000000 4.000000 5.000000 4.000000 4.000000 4.000000 7.000000 4.000000 9.000000 12.000000 12.000000 4.000000 4.000000 12.000000 12.000000 12.000000 12.000000 12.000000 12.000000 4.000000 12.000000 9.000000 12.000000 9.000000 4.000000 4.000000 13.000000 12.000000 12.000000 12.000000 12.000000 12.000000 12.000000 12.000000 11.000000 8.000000 12.000000 10.000000 12.000000 11.000000 4.000000 9.000000 5.000000 5.000000 4.000000 4.000000 5.000000 4.000000 5.000000 5.000000 5.000000 5.000000 4.000000 5.000000 13.000000 4.000000 4.000000 4.000000 4.000000 10.000000 4.000000 5.000000 5.000000 12.000000 12.000000
4.000000 4.000000 4.000000 4.000000 4.000000 4.000000 4.000000 6.000000 4.000000 4.000000 12.000000 4.000000 4.000000 12.000000 4.000000 7.000000 13.000000 11.000000 4.000000 11.000000 11.000000 11.000000 11.000000 11.000000 12.000000 11.000000 11.000000 7.000000 5.000000 5.000000 4.000000 4.000000 4.000000 11.000000 8.000000 1.000000 1.000000 12.000000 3.000000 3.000000 4.000000 12.000000 10.000000 5.000000 5.000000 5.000000 4.000000 4.000000 5.000000 8.000000 4.000000 7.000000 12.000000 12.000000 8.000000 4.000000 5.000000 4.000000 5.000000 5.000000 5.000000 5.000000 4.000000 12.000000 12.000000 8.000000 5.000000 5.000000 1.000000 5.000000 1.000000 2.000000 2.000000 1.000000 2.000000 2.000000 2.000000 2.000000 1.000000 1.000000 5.000000 5.000000 1.000000 1.000000 5.000000 5.000000 5.000000 4.000000 5.000000 5.000000 5.000000 1.000000 1.000000 2.000000 1.000000 1.000000 5.000000 4.000000 5.000000 5.000000 5.000000 1.000000 1.000000 1.000000 1.000000 5.000000 2.000000 1.000000 5.000000 1.000000 5.000000 5.000000 4.000000 5.000000 5.000000 1.000000 1.000000 2.000000 2.000000 2.000000 2.000000 2.000000 5.000000 5.000000 5.000000 4.000000 5.000000 4.000000 4.000000 4.000000 4.000000 9.000000 4.000000 4.000000 11.000000 12.000000 12.000000 12.000000 12.000000 12.000000 12.000000 4.000000 12.000000 9.000000 8.000000 12.000000 4.000000 4.000000 12.000000 4.000000 1.000000 8.000000 12.000000 12.000000 12.000000 12.000000 12.000000 5.000000 10.000000 5.000000 10.000000 12.000000 12.000000 10.000000 10.000000 7.000000 1.000000 12.000000 5.000000 5.000000 5.000000 4.000000 5.000000 5.000000 5.000000 5.000000 4.000000 12.000000 5.000000 5.000000 4.000000 5.000000 5.000000 5.000000 5.000000 5.000000 1.000000 5.000000 5.000000 12.000000
4.000000 4.000000 4.000000 4.000000 4.000000 4.000000 4.000000 5.000000 4.000000 4.000000 4.000000 4.000000 4.000000 4.000000 4.000000 13.000000 6.000000 12.000000 9.000000 12.000000 11.000000 11.000000 10.000000 11.000000 11.000000 11.000000 4.000000 4.000000 4.000000 4.000000 5.000000 4.000000 4.000000 10.000000 11.000000 9.000000 12.000000 12.000000 12.000000 3.000000 3.000000 12.000000 8.000000 4.000000 4.000000 11.000000 5.000000 11.000000 8.000000 10.000000 4.000000 8.000000 12.000000 8.000000 5.000000 5.000000 5.000000 5.000000 5.000000 5.000000 5.000000 5.000000 5.000000 4.000000 4.000000 10.000000 5.000000 5.000000 5.000000 1.000000 5.000000 2.000000 2.000000 2.000000 5.000000 2.000000 2.000000 2.000000 1.000000 1.000000 1.000000 2.000000 1.000000 5.000000 5.000000 5.000000 1.000000 1.000000 5.000000 5.000000 1.000000 1.000000 1.000000 1.000000 1.000000 5.000000 5.000000 4.000000 5.000000 5.000000 1.000000 2.000000 2.000000 2.000000 2.000000 2.000000 2.000000 1.000000 5.000000 1.000000 5.000000 5.000000 5.000000 4.000000 5.000000 1.000000 5.000000 2.000000 2.000000 2.000000 2.000000 2.000000 5.000000 5.000000 5.000000 4.000000 4.000000 4.000000 4.000000 4.000000 12.000000 4.000000 8.000000 12.000000 12.000000 12.000000 12.000000 12.000000 12.000000 12.000000 4.000000 4.000000 12.000000 12.000000 12.000000 13.000000 11.000000 4.000000 12.000000 4.000000 4.000000 9.000000 8.000000 11.000000 12.000000 12.000000 12.000000 12.000000 5.000000 5.000000 5.000000 4.000000 4.000000 10.000000 5.000000 5.000000 4.000000 12.000000 5.000000 5.000000 5.000000 5.000000 5.000000 5.000000 5.000000 1.000000 5.000000 5.000000 9.000000 4.000000 4.000000 5.000000 4.000000 5.000000 5.000000 5.000000 1.000000 5.000000 5.000000 10.000000
5.000000 4.000000 4.000000 4.000000 4.000000 12.000000 4.000000 4.000000 4.000000 4.000000 6.000000 13.000000 13.000000 7.000000 4.000000 9.000000 12.000000 12.000000 9.000000 11.000000 11.000000 11.000000 5.000000 10.000000 12.000000 11.000000 12.000000 10.000000 4.000000 4.000000 4.000000 4.000000 4.000000 4.000000 11.000000 12.000000 12.000000 12.000000 12.000000 3.000000 3.000000 3.000000 11.000000 12.000000 4.000000 12.000000 10.000000 10.000000 4.000000 12.000000 12.000000 8.000000 8.000000 5.000000 5.000000 5.000000 5.000000 5.000000 5.000000 5.000000 5.000000 5.000000 1.000000 5.000000 4.000000 5.000000 5.000000 5.000000 1.000000 2.000000 5.000000 2.000000 2.000000 2.000000 1.000000 2.000000 2.000000 2.000000 1.000000 2.000000 2.000000 5.000000 1.000000 5.000000 5.000000 5.000000 4.000000 5.000000 1.000000 1.000000 2.000000 2.000000 1.000000 1.000000 5.000000 5.000000 5.000000 4.000000 5.000000 5.000000 5.000000 5.000000 1.000000 2.000000 2.000000 2.000000 2.000000 2.000000 1.000000 2.000000 5.000000 5.000000 5.000000 4.000000 5.000000 5.000000 1.000000 2.000000 2.000000 2.000000 1.000000 2.000000 5.000000 4.000000 4.000000 4.000000 4.000000 5.000000 5.000000 4.000000 12.000000 12.000000 12.000000 12.000000 12.000000 12.000000 4.000000 12.000000 12.000000 7.000000 12.000000 12.000000 12.000000 13.000000 12.000000 9.000000 13.000000 12.000000 13.000000 4.000000 7.000000 12.000000 11.000000 12.000000 12.000000 13.000000 12.000000 12.000000 12.000000 4.000000 5.000000 4.000000 5.000000 4.000000 4.000000 4.000000 5.000000 5.000000 5.000000 10.000000 10.000000 4.000000 1.000000 1.000000 1.000000 1.000000 4.000000 4.000000 4.000000 10.000000 4.000000 4.000000 12.000000 4.000000 4.000000 5.000000 5.000000 5.000000 5.000000 4.000000
4.000000 4.000000 4.000000 12.000000 9.000000 9.000000 4.000000 4.000000 7.000000 4.000000 7.000000 9.000000 4.000000 4.000000 9.000000 12.000000 12.000000 11.000000 11.000000 12.000000 12.000000 10.000000 5.000000 1.000000 10.000000 5.000000 5.000000 4.000000 5.000000 5.000000 4.000000 4.000000 4.000000 12.000000 13.000000 12.000000 11.000000 12.000000 12.000000 3.000000 3.000000 3.000000 13.000000 7.000000 11.000000 9.000000 1.000000 12.000000 12.000000 12.000000 11.000000 12.000000 13.000000 12.000000 10.000000 5.000000 5.000000 1.000000 5.000000 5.000000 5.000000 1.000000 1.000000 5.000000 5.000000 1.000000 5.000000 1.000000 2.000000 2.000000 5.000000 2.000000 2.000000 2.000000 2.000000 2.000000 1.000000 1.000000 2.000000 2.000000 1.000000 1.000000 5.000000 5.000000 5.000000 1.000000 5.000000 5.000000 1.000000 2.000000 1.000000 1.000000 5.000000 5.000000 5.000000 5.000000 4.000000 5.000000 5.000000 5.000000 5.000000 5.000000 5.000000 1.000000 1.000000 2.000000 2.000000 2.000000 1.000000 2.000000 1.000000 5.000000 5.000000 5.000000 1.000000 1.000000 1.000000 2.000000 2.000000 2.000000 1.000000 5.000000 5.000000 4.000000 4.000000 4.000000 4.000000 4.000000 12.000000 12.000000 12.000000 12.000000 12.000000 11.000000 4.000000 8.000000 10.000000 5.000000 4.000000 12.000000 12.000000 12.000000 12.000000 4.000000 12.000000 12.000000 9.000000 9.000000 9.000000 7.000000 12.000000 12.000000 12.000000 5.000000 4.000000 8.000000 4.000000 12.000000 4.000000 4.000000 5.000000 5.000000 5.000000 10.000000 4.000000 4.000000 10.000000 10.000000 10.000000 4.000000 4.000000 10.000000 1.000000 1.000000 5.000000 5.000000 4.000000 5.000000 12.000000 12.000000 7.000000 12.000000 13.000000 12.000000 12.000000 12.000000 5.000000 5.000000 5.000000 10.000000
4.000000 4.000000 4.000000 9.000000 12.000000 12.000000 4.000000 4.000000 4.000000 4.000000 6.000000 6.000000 6.000000 12.000000 12.000000 12.000000 12.000000 12.000000 11.000000 5.000000 5.000000 1.000000 4.000000 1.000000 4.000000 5.000000 4.000000 4.000000 4.000000 4.000000 4.000000 4.000000 12.000000 4.000000 11.000000 8.000000 12.000000 12.000000 12.000000 12.000000 3.000000 3.000000 4.000000 12.000000 12.000000 10.000000 10.000000 10.000000 8.000000 12.000000 8.000000 8.000000 12.000000 5.000000 5.000000 7.000000 5.000000 5.000000 5.000000 5.000000 1.000000 1.000000 1.000000 1.000000 5.000000 2.000000 1.000000 2.000000 2.000000 2.000000 2.000000 2.000000 2.000000 2.000000 2.000000 2.000000 1.000000 2.000000 2.000000 1.000000 2.000000 1.000000 1.000000 5.000000 5.000000 1.000000 1.000000 1.000000 1.000000 2.000000 2.000000 1.000000 5.000000 5.000000 4.000000 1.000000 1.000000 5.000000 5.000000 1.000000 5.000000 5.000000 1.000000 5.000000 1.000000 1.000000 2.000000 2.000000 5.000000 2.000000 1.000000 1.000000 1.000000 5.000000 1.000000 1.000000 5.000000 1.000000 2.000000 1.000000 1.000000 5.000000 5.000000 4.000000 4.000000 4.000000 4.000000 12.000000 9.000000 12.000000 10.000000 12.000000 4.000000 5.000000 4.000000 4.000000 5.000000 5.000000 5.000000 4.000000 12.000000 4.000000 12.000000 10.000000 12.000000 13.000000 4.000000 12.000000 4.000000 7.000000 12.000000 12.000000 11.000000 5.000000 5.000000 12.000000 8.000000 12.000000 5.000000 4.000000 5.000000 5.000000 5.000000 5.000000 10.000000 4.000000 4.000000 10.000000 4.000000 4.000000 10.000000 10.000000 1.000000 5.000000 12.000000 12.000000 9.000000 12.000000 12.000000 4.000000 12.000000 9.000000 12.000000 11.000000 5.000000 4.000000 5.000000 1.000000 5.000000 5.000000
9.000000 4.000000 13.000000 12.000000 4.000000 13.000000 12.000000 4.000000 7.000000 1.000000 4.000000 12.000000 11.000000 12.000000 10.000000 11.000000 11.000000 12.000000 12.000000 8.000000 12.000000 10.000000 1.000000 1.000000 4.000000 4.000000 4.000000 4.000000 5.000000 4.000000 4.000000 4.000000 12.000000 4.000000 12.000000 4.000000 4.000000 10.000000 12.000000 12.000000 3.000000 3.000000 3.000000 4.000000 12.000000 5.000000 1.000000 10.000000 11.000000 4.000000 5.000000 10.000000 12.000000 5.000000 5.000000 4.000000 4.000000 5.000000 5.000000 5.000000 5.000000 5.000000 5.000000 1.000000 5.000000 1.000000 1.000000 2.000000 1.000000 2.000000 2.000000 2.000000 2.000000 2.000000 2.000000 1.000000 1.000000 2.000000 2.000000 2.000000 2.000000 1.000000 1.000000 5.000000 1.000000 1.000000 1.000000 2.000000 2.000000 2.000000 1.000000 1.000000 5.000000 4.000000 1.000000 5.000000 5.000000 5.000000 5.000000 5.000000 5.000000 5.000000 1.000000 1.000000 1.000000 1.000000 2.000000 2.000000 1.000000 2.000000 2.000000 2.000000 2.000000 1.000000 5.000000 2.000000 5.000000 1.000000 5.000000 5.000000 5.000000 5.000000 4.000000 4.000000 4.000000 4.000000 12.000000 12.000000 4.000000 4.000000 4.000000 7.000000 5.000000 4.000000 5.000000 4.000000 5.000000 5.000000 4.000000 4.000000 4.000000 8.000000 12.000000 4.000000 4.000000 12.000000 12.000000 8.000000 13.000000 4.000000 12.000000 12.000000 12.000000 12.000000 11.000000 5.000000 8.000000 12.000000 9.000000 10.000000 5.000000 5.000000 10.000000 4.000000 12.000000 10.000000 4.000000 12.000000 4.000000 10.000000 10.000000 10.000000 12.000000 12.000000 12.000000 12.000000 12.000000 4.000000 4.000000 12.000000 12.000000 12.000000 10.000000 5.000000 1.000000 1.000000 1.000000 5.000000 5.000000 5.000000
4.000000 4.000000 9.000000 9.000000 4.000000 13.000000 13.000000 13.000000 13.000000 12.000000 11.000000 11.000000 11.000000 12.000000 12.000000 10.000000 11.000000 10.000000 11.000000 12.000000 5.000000 5.000000 4.000000 1.000000 1.000000 5.000000 4.000000 4.000000 4.000000 4.000000 4.000000 12.000000 12.000000 12.000000 4.000000 4.000000 5.000000 12.000000 12.000000 12.000000 4.000000 3.000000 3.000000 10.000000 12.000000 12.000000 1.000000 4.000000 5.000000 4.000000 4.000000 4.000000 8.000000 4.000000 5.000000 5.000000 5.000000 5.000000 5.000000 1.000000 5.000000 5.000000 5.000000 1.000000 2.000000 2.000000 5.000000 1.000000 1.000000 1.000000 2.000000 1.000000 2.000000 2.000000 2.000000 2.000000 2.000000 2.000000 1.000000 1.000000 1.000000 1.000000 1.000000 1.000000 2.000000 1.000000 1.000000 2.000000 2.000000 2.000000 2.000000 1.000000 1.000000 1.000000 5.000000 5.000000 1.000000 5.000000 1.000000 2.000000 1.000000 5.000000 2.000000 1.000000 1.000000 1.000000 2.000000 2.000000 1.000000 2.000000 2.000000 1.000000 2.000000 2.000000 1.000000 5.000000 2.000000 1.000000 5.000000 5.000000 5.000000 4.000000 4.000000 4.000000 13.000000 12.000000 8.000000 5.000000 5.000000 5.000000 4.000000 7.000000 4.000000 4.000000 5.000000 5.000000 5.000000 5.000000 5.000000 4.000000 9.000000 4.000000 5.000000 5.000000 12.000000 13.000000 8.000000 4.000000 4.000000 12.000000 12.000000 8.000000 12.000000 12.000000 12.000000 4.000000 5.000000 11.000000 4.000000 10.000000 5.000000 1.000000 4.000000 7.000000 9.000000 12.000000 12.000000 12.000000 12.000000 4.000000 4.000000 12.000000 12.000000 12.000000 12.000000 12.000000 10.000000 4.000000 12.000000 11.000000 12.000000 7.000000 1.000000 1.000000 1.000000 1.000000 1.000000 1.000000 1.000000 5.000000
4.000000 9.000000 11.000000 4.000000 13.000000 13.000000 13.000000 6.000000 12.000000 12.000000 12.000000 12.000000 12.000000 11.000000 11.000000 12.000000 4.000000 4.000000 12.000000 12.000000 12.000000 12.000000 1.000000 1.000000 1.000000 4.000000 4.000000 4.000000 4.000000 5.000000 10.000000 4.000000 12.000000 4.000000 4.000000 4.000000 5.000000 9.000000 12.000000 12.000000 4.000000 3.000000 3.000000 12.000000 12.000000 12.000000 1.000000 5.000000 5.000000 4.000000 5.000000 4.000000 4.000000 4.000000 5.000000 5.000000 5.000000 4.000000 5.000000 5.000000 5.000000 5.000000 1.000000 2.000000 2.000000 5.000000 1.000000 5.000000 1.000000 2.000000 1.000000 2.000000 2.000000 2.000000 2.000000 2.000000 2.000000 1.000000 1.000000 1.000000 1.000000 5.000000 1.000000 3.000000 2.000000 1.000000 2.000000 2.000000 2.000000 2.000000 1.000000 5.000000 5.000000 5.000000 5.000000 2.000000 1.000000 5.000000 1.000000 2.000000 1.000000 2.000000 2.000000 1.000000 2.000000 2.000000 2.000000 2.000000 1.000000 2.000000 2.000000 2.000000 5.000000 2.000000 2.000000 5.000000 2.000000 2.000000 5.000000 5.000000 5.000000 4.000000 1.000000 12.000000 12.000000 6.000000 4.000000 5.000000 5.000000 5.000000 4.000000 4.000000 5.000000 5.000000 5.000000 5.000000 5.000000 5.000000 5.000000 5.000000 10.000000 8.000000 11.000000 12.000000 12.000000 12.000000 12.000000 4.000000 12.000000 9.000000 12.000000 8.000000 12.000000 8.000000 5.000000 12.000000 5.000000 5.000000 4.000000 5.000000 5.000000 10.000000 4.000000 12.000000 9.000000 7.000000 12.000000 12.000000 12.000000 12.000000 12.000000 12.000000 12.000000 10.000000 10.000000 12.000000 12.000000 8.000000 12.000000 12.000000 12.000000 5.000000 1.000000 1.000000 1.000000 1.000000 1.000000 5.000000 4.000000 5.000000
4.000000 4.000000 9.000000 11.000000 13.000000 13.000000 8.000000 12.000000 6.000000 12.000000 12.000000 11.000000 12.000000 11.000000 11.000000 7.000000 4.000000 5.000000 12.000000 4.000000 11.000000 12.000000 1.000000 10.000000 4.000000 1.000000 5.000000 4.000000 4.000000 4.000000 10.000000 12.000000 4.000000 4.000000 4.000000 4.000000 4.000000 4.000000 9.000000 12.000000 12.000000 3.000000 3.000000 11.000000 8.000000 12.000000 12.000000 4.000000 4.000000 5.000000 1.000000 4.000000 4.000000 4.000000 5.000000 5.000000 5.000000 5.000000 5.000000 1.000000 5.000000 1.000000 1.000000 2.000000 2.000000 1.000000 5.000000 5.000000 1.000000 2.000000 1.000000 2.000000 1.000000 1.000000 1.000000 1.000000 1.000000 1.000000 5.000000 5.000000 5.000000 5.000000 1.000000 2.000000 2.000000 1.000000 2.000000 2.000000 2.000000 1.000000 1.000000 5.000000 1.000000 5.000000 1.000000 2.000000 1.000000 1.000000 2.000000 2.000000 2.000000 2.000000 2.000000 2.000000 2.000000 2.000000 2.000000 2.000000 2.000000 2.000000 2.000000 2.000000 2.000000 2.000000 2.000000 2.000000 2.000000 2.000000 5.000000 5.000000 5.000000 4.000000 11.000000 10.000000 10.000000 4.000000 4.000000 5.000000 5.000000 5.000000 4.000000 4.000000 5.000000 5.000000 5.000000 1.000000 5.000000 5.000000 5.000000 4.000000 5.000000 9.000000 12.000000 12.000000 12.000000 4.000000 4.000000 4.000000 12.000000 4.000000 12.000000 12.000000 9.000000 11.000000 12.000000 12.000000 8.000000 5.000000 5.000000 5.000000 1.000000 10.000000 4.000000 12.000000 4.000000 10.000000 9.000000 12.000000 4.000000 4.000000 4.000000 13.000000 8.000000 12.000000 12.000000 12.000000 12.000000 8.000000 12.000000 12.000000 4.000000 5.000000 10.000000 10.000000 10.000000 5.000000 1.000000 1.000000 5.000000 4.000000
1.000000 12.000000 9.000000 4.000000 12.000000 12.000000 8.000000 13.000000 12.000000 12.000000 12.000000 11.000000 12.000000 10.000000 5.000000 5.000000 4.000000 5.000000 12.000000 12.000000 12.000000 7.000000 5.000000 10.000000 5.000000 4.000000 4.000000 4.000000 4.000000 7.000000 7.000000 7.000000 4.000000 4.000000 4.000000 5.000000 4.000000 4.000000 7.000000 10.000000 12.000000 3.000000 3.000000 4.000000 11.000000 12.000000 10.000000 4.000000 4.000000 5.000000 5.000000 5.000000 4.000000 4.000000 5.000000 5.000000 5.000000 5.000000 5.000000 5.000000 5.000000 5.000000 5.000000 1.000000 1.000000 1.000000 5.000000 5.000000 1.000000 1.000000 2.000000 2.000000 2.000000 2.000000 1.000000 1.000000 1.000000 5.000000 5.000000 5.000000 5.000000 1.000000 1.000000 2.000000 1.000000 2.000000 2.000000 1.000000 1.000000 1.000000 1.000000 1.000000 1.000000 2.000000 1.000000 2.000000 2.000000 2.000000 2.000000 2.000000 2.000000 2.000000 2.000000 2.000000 1.000000 2.000000 2.000000 2.000000 2.000000 1.000000 2.000000 2.000000 2.000000 2.000000 1.000000 2.000000 2.000000 5.000000 5.000000 5.000000 4.000000 4.000000 4.000000 5.000000 5.000000 5.000000 4.000000 4.000000 5.000000 5.000000 4.000000 4.000000 5.000000 5.000000 5.000000 5.000000 5.000000 5.000000 4.000000 5.000000 12.000000 11.000000 12.000000 8.000000 9.000000 9.000000 13.000000 4.000000 12.000000 12.000000 12.000000 12.000000 10.000000 9.000000 8.000000 4.000000 10.000000 4.000000 5.000000 5.000000 1.000000 4.000000 4.000000 10.000000 10.000000 10.000000 12.000000 12.000000 12.000000 4.000000 4.000000 12.000000 12.000000 12.000000 12.000000 12.000000 12.000000 12.000000 4.000000 10.000000 5.000000 10.000000 12.000000 12.000000 12.000000 4.000000 5.000000 1.000000 5.000000 5.000000
12.000000 8.000000 4.000000 13.000000 11.000000 12.000000 12.000000 12.000000 12.000000 12.000000 11.000000 11.000000 10.000000 4.000000 4.000000 5.000000 1.000000 12.000000 10.000000 11.000000 12.000000 12.000000 12.000000 12.000000 5.000000 4.000000 4.000000 4.000000 4.000000 5.000000 5.000000 4.000000 5.000000 4.000000 5.000000 4.000000 4.000000 4.000000 10.000000 12.000000 12.000000 3.000000 4.000000 9.000000 11.000000 5.000000 4.000000 5.000000 5.000000 5.000000 5.000000 4.000000 4.000000 4.000000 5.000000 5.000000 5.000000 5.000000 5.000000 5.000000 5.000000 5.000000 1.000000 5.000000 1.000000 5.000000 1.000000 5.000000 5.000000 1.000000 1.000000 2.000000 1.000000 2.000000 1.000000 5.000000 5.000000 5.000000 5.000000 4.000000 7.000000 5.000000 1.000000 2.000000 1.000000 1.000000 2.000000 5.000000 1.000000 5.000000 1.000000 2.000000 1.000000 2.000000 1.000000 2.000000 2.000000 2.000000 2.000000 2.000000 1.000000 1.000000 1.000000 1.000000 1.000000 1.000000 1.000000 1.000000 1.000000 1.000000 2.000000 2.000000 2.000000 2.000000 2.000000 2.000000 2.000000 1.000000 5.000000 5.000000 10.000000 4.000000 4.000000 5.000000 5.000000 5.000000 4.000000 5.000000 5.000000 4.000000 5.000000 5.000000 5.000000 5.000000 5.000000 5.000000 5.000000 4.000000 4.000000 11.000000 12.000000 5.000000 9.000000 12.000000 4.000000 8.000000 13.000000 9.000000 12.000000 12.000000 12.000000 12.000000 11.000000 4.000000 8.000000 9.000000 4.000000 9.000000 5.000000 5.000000 10.000000 10.000000 4.000000 10.000000 10.000000 4.000000 10.000000 12.000000 12.000000 4.000000 12.000000 12.000000 12.000000 13.000000 12.000000 4.000000 7.000000 12.000000 12.000000 1.000000 10.000000 5.000000 12.000000 8.000000 1.000000 1.000000 1.000000 1.000000 5.000000 5.000000
3.000000 4.000000 4.000000 4.000000 12.000000 11.000000 12.000000 11.000000 11.000000 11.000000 12.000000 5.000000 1.000000 1.000000 1.000000 5.000000 5.000000 10.000000 8.000000 4.000000 10.000000 11.000000 12.000000 4.000000 12.000000 4.000000 5.000000 4.000000 4.000000 4.000000 5.000000 7.000000 4.000000 5.000000 4.000000 5.000000 4.000000 10.000000 12.000000 12.000000 12.000000 4.000000 13.000000 9.000000 12.000000 12.000000 10.000000 5.000000 4.000000 5.000000 5.000000 4.000000 4.000000 4.000000 5.000000 5.000000 5.000000 5.000000 5.000000 5.000000 5.000000 1.000000 5.000000 1.000000 1.000000 5.000000 5.000000 4.000000 5.000000 1.000000 1.000000 1.000000 1.000000 5.000000 1.000000 5.000000 5.000000 5.000000 5.000000 7.000000 1.000000 5.000000 2.000000 1.000000 1.000000 1.000000 1.000000 5.000000 5.000000 5.000000 1.000000 1.000000 2.000000 2.000000 2.000000 2.000000 2.000000 2.000000 2.000000 1.000000 1.000000 1.000000 1.000000 5.000000 5.000000 5.000000 5.000000 5.000000 5.000000 5.000000 1.000000 5.000000 5.000000 5.000000 1.000000 1.000000 1.000000 5.000000 5.000000 5.000000 5.000000 5.000000 4.000000 4.000000 5.000000 5.000000 5.000000 5.000000 5.000000 7.000000 5.000000 5.000000 5.000000 5.000000 4.000000 5.000000 4.000000 5.000000 5.000000 5.000000 12.000000 12.000000 12.000000 4.000000 4.000000 4.000000 12.000000 7.000000 12.000000 12.000000 11.000000 12.000000 11.000000 12.000000 5.000000 8.000000 11.000000 4.000000 5.000000 1.000000 10.000000 10.000000 10.000000 10.000000 10.000000 4.000000 12.000000 12.000000 12.000000 12.000000 12.000000 12.000000 12.000000 12.000000 8.000000 4.000000 5.000000 7.000000 7.000000 5.000000 12.000000 6.000000 12.000000 5.000000 1.000000 1.000000 1.000000 5.000000 5.000000 5.000000
12.000000 12.000000 12.000000 12.000000 12.000000 11.000000 12.000000 12.000000 10.000000 5.000000 4.000000 5.000000 1.000000 1.000000 1.000000 1.000000 4.000000 12.000000 7.000000 1.000000 5.000000 5.000000 1.000000 11.000000 8.000000 4.000000 4.000000 4.000000 5.000000 5.000000 5.000000 4.000000 4.000000 4.000000 5.000000 4.000000 4.000000 5.000000 12.000000 12.000000 12.000000 13.000000 4.000000 8.000000 4.000000 12.000000 12.000000 4.000000 5.000000 5.000000 4.000000 5.000000 4.000000 5.000000 5.000000 5.000000 5.000000 5.000000 5.000000 5.000000 5.000000 1.000000 5.000000 1.000000 1.000000 5.000000 5.000000 4.000000 5.000000 5.000000 1.000000 5.000000 1.000000 1.000000 5.000000 5.000000 5.000000 1.000000 5.000000 5.000000 1.000000 5.000000 1.000000 5.000000 5.000000 1.000000 5.000000 5.000000 5.000000 1.000000 5.000000 5.000000 1.000000 1.000000 1.000000 1.000000 2.000000 2.000000 1.000000 5.000000 5.000000 5.000000 5.000000 5.000000 5.000000 1.000000 5.000000 5.000000 5.000000 5.000000 5.000000 5.000000 5.000000 5.000000 1.000000 1.000000 1.000000 5.000000 5.000000 5.000000 5.000000 5.000000 5.000000 4.000000 5.000000 5.000000 4.000000 4.000000 5.000000 5.000000 5.000000 5.000000 5.000000 5.000000 5.000000 11.000000 12.000000 12.000000 12.000000 12.000000 12.000000 12.000000 13.000000 12.000000 9.000000 10.000000 12.000000 9.000000 13.000000 12.000000 12.000000 12.000000 11.000000 12.000000 5.000000 5.000000 5.000000 5.000000 5.000000 1.000000 1.000000 1.000000 1.000000 10.000000 4.000000 4.000000 12.000000 12.000000 12.000000 12.000000 12.000000 12.000000 12.000000 12.000000 9.000000 12.000000 5.000000 1.000000 1.000000 10.000000 12.000000 12.000000 12.000000 12.000000 10.000000 7.000000 5.000000 1.000000 1.000000 5.000000
