ncols        64
nrows        60
xllcorner    630800.000000000000
yllcorner    5180500.000000000000
cellsize     250.000000000000
1.0930302143096923828 1.1747013330459594727 1.2177083492279052734 1.3132551908493041992 1.3669824600219726562 1.4041290283203125 1.3662923574447631836 1.1814727783203125 1.0046275854110717773 0.93828576803207397461 0.94249683618545532227 0.89027327299118041992 0.89722865819931030273 0.85920065641403198242 0.94460976123809814453 1.0094659328460693359 0.94579428434371948242 0.82738268375396728516 0.77747404575347900391 1.0342502593994140625 1.0649405717849731445 1.0382314920425415039 1.1497381925582885742 1.2595194578170776367 1.2472786903381347656 1.0679914951324462891 0.76532399654388427734 0.6010456085205078125 0.58975064754486083984 0.99041253328323364258 1.1869252920150756836 1.2580991983413696289 1.2073411941528320312 1.0952018499374389648 0.98197984695434570312 0.99549561738967895508 1.0020440816879272461 0.83626669645309448242 0.74574041366577148438 0.66330510377883911133 0.77257615327835083008 0.82288777828216552734 0.90122908353805541992 0.94842118024826049805 1.0478469133377075195 0.98023283481597900391 0.95659333467483520508 0.67352449893951416016 0.64765632152557373047 0.9055468440055847168 0.97490578889846801758 0.95476639270782470703 1.0647011995315551758 1.0842429399490356445 1.1027456521987915039 1.0846070051193237305 1.0502145290374755859 0.8026409149169921875 0.76043027639389038086 0.92905336618423461914 1.0268747806549072266 1.1905012130737304688 1.2737249135971069336 1.1984022855758666992 
0.92795658111572265625 1.0336089134216308594 1.0787384510040283203 1.2511185407638549805 1.3048011064529418945 1.344830632209777832 1.3161395788192749023 1.0214110612869262695 0.88288354873657226562 0.78894609212875366211 0.86230623722076416016 0.86788880825042724609 0.90436691045761108398 0.94069957733154296875 1.0783256292343139648 1.114004969596862793 1.0470259189605712891 0.83439832925796508789 0.58679640293121337891 0.74171823263168334961 1.1016256809234619141 1.1438236236572265625 1.147510528564453125 1.1498960256576538086 1.0819525718688964844 0.82958716154098510742 0.44611877202987670898 0.3118750154972076416 0.33250781893730163574 0.70216643810272216797 0.9138558506965637207 0.99176114797592163086 0.94308632612228393555 0.80337768793106079102 0.58991098403930664062 0.63453942537307739258 0.6694151759147644043 0.64707130193710327148 0.57852143049240112305 0.41683414578437805176 0.62482255697250366211 0.7564194798469543457 0.81751745939254760742 0.91464787721633911133 0.85119026899337768555 0.6707083582878112793 0.71089494228363037109 0.4444186091423034668 0.57837343215942382812 0.81552511453628540039 0.8996105194091796875 0.93888330459594726562 0.97290027141571044922 0.99444562196731567383 1.0458705425262451172 1.0134708881378173828 0.88493061065673828125 0.41448792815208435059 0.42181369662284851074 0.65832954645156860352 0.63863003253936767578 0.84633481502532958984 1.0390446186065673828 1.0865586996078491211 
0.8097095489501953125 0.85630238056182861328 0.85177767276763916016 0.90998572111129760742 0.93764442205429077148 1.2035204172134399414 1.281208038330078125 1.0471174716949462891 0.83906584978103637695 0.83694350719451904297 0.96453106403350830078 0.96993935108184814453 0.99451738595962524414 1.0083830356597900391 0.91679131984710693359 0.76012521982192993164 0.81909209489822387695 0.63047236204147338867 0.51485180854797363281 0.8125355839729309082 0.97899407148361206055 0.97809898853302001953 0.79728400707244873047 0.74759584665298461914 0.93607217073440551758 0.98539656400680541992 0.96880680322647094727 0.81903421878814697266 0.64883464574813842773 0.77398002147674560547 0.83121091127395629883 0.74149596691131591797 0.74328887462615966797 0.64600580930709838867 0.4309456944465637207 0.47880694270133972168 0.56055074930191040039 0.62693649530410766602 0.48893949389457702637 0.62408792972564697266 0.77207541465759277344 0.84941029548645019531 0.88842672109603881836 0.91028070449829101562 0.71639657020568847656 0.53479361534118652344 0.60770589113235473633 0.58038729429244995117 0.50063264369964599609 0.80127990245819091797 0.91711956262588500977 0.93784177303314208984 0.96623796224594116211 0.90800637006759643555 0.92427796125411987305 0.79604315757751464844 0.64069461822509765625 0.25064921379089355469 0.30284768342971801758 0.40576657652854919434 0.33330053091049194336 0.40063625574111938477 0.47036874294281005859 0.7320582270622253418 
0.86677491664886474609 0.74831670522689819336 0.74465274810791015625 0.81455320119857788086 0.93479168415069580078 1.2564032077789306641 1.3539613485336303711 1.0431705713272094727 0.74964559078216552734 0.70044237375259399414 0.7667109370231628418 0.74286544322967529297 0.73764878511428833008 0.81717705726623535156 0.49066931009292602539 0.31812015175819396973 0.39106923341751098633 0.30607500672340393066 0.41310676932334899902 0.78205704689025878906 0.83672189712524414062 0.73449689149856567383 0.50072616338729858398 0.61112892627716064453 0.8384024500846862793 0.94157761335372924805 0.92768305540084838867 0.8075160980224609375 0.85296291112899780273 0.87443929910659790039 0.78425961732864379883 0.61540722846984863281 0.4687506258487701416 0.38619789481163024902 0.35835546255111694336 0.47601354122161865234 0.50710862874984741211 0.54446595907211303711 0.56607192754745483398 0.71467280387878417969 0.77778238058090209961 0.78390973806381225586 0.72953033447265625 0.68221628665924072266 0.61421984434127807617 0.52317386865615844727 0.55860036611557006836 0.40820997953414916992 0.44120454788208007812 0.61812913417816162109 0.93345111608505249023 0.96643757820129394531 0.95657163858413696289 0.86935138702392578125 0.86403334140777587891 0.81215357780456542969 0.40471559762954711914 0.35377159714698791504 0.57981538772583007812 0.6738834381103515625 0.59659874439239501953 0.37454777956008911133 0.41222691535949707031 0.7683169245719909668 
1.0127331018447875977 0.98590493202209472656 1.0451772212982177734 1.002614140510559082 0.92776882648468017578 1.286652684211730957 1.3167935609817504883 0.9682820439338684082 0.73660141229629516602 0.61265891790390014648 0.47735807299613952637 0.41129806637763977051 0.34557905793190002441 0.57616329193115234375 0.42432770133018493652 0.38887047767639160156 0.3181832730770111084 0.43963661789894104004 0.49272859096527099609 0.63969403505325317383 0.57620215415954589844 0.42544636130332946777 0.41806262731552124023 0.5971304774284362793 0.75523924827575683594 0.75169354677200317383 0.66054672002792358398 0.51324635744094848633 0.61791586875915527344 0.82733130455017089844 0.83084118366241455078 0.74592924118041992188 0.59160172939300537109 0.56781125068664550781 0.65872722864151000977 0.74187177419662475586 0.63222259283065795898 0.45876652002334594727 0.63157904148101806641 0.69431018829345703125 0.63159537315368652344 0.74512475728988647461 0.75769829750061035156 0.65305918455123901367 0.4256229698657989502 0.30340436100959777832 0.36432164907455444336 0.50200641155242919922 0.63398605585098266602 0.74045407772064208984 0.83491820096969604492 0.81073457002639770508 0.75431650876998901367 0.82839614152908325195 1.0773407220840454102 0.99403023719787597656 0.51859676837921142578 0.54730886220932006836 0.70438647270202636719 0.90781486034393310547 0.90129274129867553711 0.64052665233612060547 0.74473172426223754883 1.0366348028182983398 
1.2031066417694091797 1.2546173334121704102 1.2432004213333129883 1.0627841949462890625 1.0010349750518798828 1.3390777111053466797 1.2533535957336425781 0.90499055385589599609 0.68260121345520019531 0.66624695062637329102 0.67936551570892333984 0.6189060211181640625 0.51199561357498168945 0.38809430599212646484 0.47462639212608337402 0.72970926761627197266 0.60873198509216308594 0.55682885646820068359 0.71804332733154296875 0.82092201709747314453 0.8616682887077331543 0.47176405787467956543 0.33827951550483703613 0.51635444164276123047 0.69402062892913818359 0.70716524124145507812 0.46142107248306274414 0.42419448494911193848 0.52446043491363525391 0.52410668134689331055 0.49324205517768859863 0.70602303743362426758 0.93022549152374267578 0.94286119937896728516 0.89925676584243774414 0.87582558393478393555 0.76653116941452026367 0.58965677022933959961 0.68054229021072387695 0.51475530862808227539 0.3877480626106262207 0.62015104293823242188 0.67509829998016357422 0.52328687906265258789 0.33543074131011962891 0.27029892802238464355 0.37655732035636901855 0.67233437299728393555 0.80912470817565917969 0.92688506841659545898 0.97290277481079101562 0.69557642936706542969 0.55232262611389160156 0.878292083740234375 1.0611106157302856445 0.92090851068496704102 0.48687711358070373535 0.74074947834014892578 0.85838985443115234375 0.91962134838104248047 0.93171983957290649414 0.87786668539047241211 0.93483132123947143555 1.0583064556121826172 
1.3133634328842163086 1.2475972175598144531 1.1492117643356323242 1.0572803020477294922 0.99632066488265991211 1.2095935344696044922 1.3392412662506103516 1.128840327262878418 0.75089609622955322266 0.70697516202926635742 0.81908851861953735352 0.78972423076629638672 0.7101700901985168457 0.53368973731994628906 0.59726560115814208984 0.86113220453262329102 0.85319614410400390625 0.54485332965850830078 0.79838198423385620117 0.92334014177322387695 1.0215979814529418945 0.91978746652603149414 0.61394041776657104492 0.39082151651382446289 0.56239390373229980469 0.60867363214492797852 0.64555692672729492188 0.74248790740966796875 0.85402476787567138672 0.74909567832946777344 0.65197348594665527344 0.9328886866569519043 0.99391180276870727539 1.0206186771392822266 1.0065455436706542969 0.94712263345718383789 0.68528997898101806641 0.76876068115234375 0.90356361865997314453 0.71089500188827514648 0.60639643669128417969 0.73022580146789550781 0.76726877689361572266 0.49233031272888183594 0.30565589666366577148 0.39246961474418640137 0.4274628758430480957 0.46343457698822021484 0.73759901523590087891 0.92674154043197631836 0.97110337018966674805 0.86487334966659545898 0.59508663415908813477 0.8075167536735534668 1.0153852701187133789 0.93257802724838256836 0.71577423810958862305 0.61924380064010620117 0.7538509368896484375 0.84707951545715332031 0.8336575627326965332 0.94777816534042358398 0.9605274200439453125 1.0006661415100097656 
1.2224706411361694336 1.0128024816513061523 0.96907156705856323242 0.89589893817901611328 0.93906301259994506836 1.0701143741607666016 1.2108782529830932617 1.2166751623153686523 1.0953079462051391602 0.82091063261032104492 0.78367191553115844727 0.83374488353729248047 0.78126657009124755859 0.61041176319122314453 0.62939274311065673828 0.88773542642593383789 0.83564686775207519531 0.63514304161071777344 0.91705334186553955078 1.0808877944946289062 1.0888732671737670898 1.0274202823638916016 0.69755077362060546875 0.34690797328948974609 0.35093790292739868164 0.55279058218002319336 0.81508421897888183594 0.9309539794921875 0.96199339628219604492 0.92379993200302124023 0.97746217250823974609 1.03954315185546875 1.0517119169235229492 1.0753244161605834961 1.0752288103103637695 1.0090841054916381836 0.81502920389175415039 0.92800444364547729492 0.95109724998474121094 0.8674977421760559082 0.70860230922698974609 0.89112991094589233398 0.95701348781585693359 0.76840806007385253906 0.51500564813613891602 0.55727249383926391602 0.51096111536026000977 0.31657376885414123535 0.40541824698448181152 0.7324784398078918457 0.91434949636459350586 0.95501285791397094727 0.80297374725341796875 0.72797322273254394531 0.9572512507438659668 0.91983109712600708008 0.90990734100341796875 0.79127240180969238281 0.68414235115051269531 0.74251407384872436523 0.80249541997909545898 0.93700504302978515625 0.95602357387542724609 1.0205837488174438477 
1.1474653482437133789 0.80410826206207275391 0.64653009176254272461 0.64067059755325317383 0.76886963844299316406 0.92347627878189086914 1.0746260881423950195 1.2381743192672729492 1.2294806241989135742 0.8373978734016418457 0.74476158618927001953 0.7827580571174621582 0.76580905914306640625 0.6778361201286315918 0.71190726757049560547 0.88237541913986206055 0.97400939464569091797 0.98091453313827514648 1.0687127113342285156 1.0788159370422363281 1.0490000247955322266 0.90410614013671875 0.49335715174674987793 0.30305922031402587891 0.36397612094879150391 0.44983705878257751465 0.79408687353134155273 0.96963548660278320312 0.98933911323547363281 1.0078185796737670898 1.0499644279479980469 1.0709096193313598633 1.0825347900390625 1.0879473686218261719 1.086693882942199707 1.042481541633605957 0.93939793109893798828 0.96357834339141845703 0.90626186132431030273 0.76970571279525756836 0.55375516414642333984 0.78878635168075561523 0.99679303169250488281 0.96792697906494140625 0.93318319320678710938 0.87941640615463256836 0.69971543550491333008 0.52340310811996459961 0.36427122354507446289 0.39147964119911193848 0.80198872089385986328 0.95389723777770996094 0.91721314191818237305 0.7603219151496887207 0.87581074237823486328 0.88552826642990112305 0.90256536006927490234 0.92014116048812866211 0.83137136697769165039 0.81981182098388671875 0.92855173349380493164 1.0186553001403808594 1.0184882879257202148 1.0811192989349365234 
1.1167757511138916016 0.62968105077743530273 0.3311367332935333252 0.36404070258140563965 0.59661811590194702148 0.68387460708618164062 0.87826138734817504883 1.1886448860168457031 1.362542271614074707 1.0713105201721191406 0.92297911643981933594 0.97484195232391357422 1.0665172338485717773 1.0842907428741455078 1.0945227146148681641 1.0670716762542724609 0.95955079793930053711 0.90004456043243408203 0.86454856395721435547 0.76210319995880126953 0.6642608642578125 0.45742759108543395996 0.34181725978851318359 0.32119664549827575684 0.37990641593933105469 0.46055266261100769043 0.64673566818237304688 0.93370175361633300781 1.0328419208526611328 1.0673230886459350586 1.0910702943801879883 1.0849336385726928711 1.0675894021987915039 1.0798109769821166992 1.0755953788757324219 1.0581607818603515625 0.97811681032180786133 0.96150618791580200195 0.71980565786361694336 0.62504965066909790039 0.31758728623390197754 0.41988962888717651367 0.80218708515167236328 1.009717106819152832 1.0472564697265625 1.0306993722915649414 0.95289182662963867188 0.76603585481643676758 0.61705410480499267578 0.58472204208374023438 0.75778293609619140625 0.96205627918243408203 0.99757713079452514648 0.77454411983489990234 0.64358216524124145508 0.84391093254089355469 0.83815085887908935547 0.82461786270141601562 0.84603011608123779297 0.87962549924850463867 1.0312411785125732422 1.0459367036819458008 0.9603926539421081543 1.0831540822982788086 
1.0704642534255981445 0.57387024164199829102 0.3467680811882019043 0.5680205225944519043 0.70329099893569946289 0.74164688587188720703 0.86294645071029663086 1.0455759763717651367 1.3384737968444824219 1.3495126962661743164 1.2854813337326049805 1.2901762723922729492 1.3125579357147216797 1.2931301593780517578 1.2961677312850952148 1.2744985818862915039 0.99053680896759033203 0.58008933067321777344 0.6869284510612487793 0.77812927961349487305 0.45302683115005493164 0.25882646441459655762 0.45703238248825073242 0.5028216242790222168 0.52653545141220092773 0.63968187570571899414 0.59093719720840454102 0.81692087650299072266 1.0417631864547729492 1.0633589029312133789 1.0946452617645263672 1.0940688848495483398 1.0509957075119018555 1.0638633966445922852 1.0806185007095336914 1.0504770278930664062 0.99505627155303955078 0.96635544300079345703 0.78898704051971435547 0.76681047677993774414 0.36609870195388793945 0.26865759491920471191 0.49760863184928894043 0.76622247695922851562 1.0298873186111450195 1.0517696142196655273 1.0452997684478759766 0.92446768283843994141 0.58807611465454101562 0.71189045906066894531 0.84663867950439453125 1.0253348350524902344 0.96871590614318847656 0.58411383628845214844 0.44792187213897705078 0.69233626127243041992 0.87586635351181030273 0.84746503829956054688 0.83682501316070556641 0.90023708343505859375 1.0290230512619018555 1.0131423473358154297 0.89778244495391845703 1.1032696962356567383 
1.0403368473052978516 0.53643381595611572266 0.42154905200004577637 0.68142569065093994141 0.76175105571746826172 0.81747990846633911133 0.89273697137832641602 0.93024367094039916992 1.2045238018035888672 1.3434367179870605469 1.3309993743896484375 1.2636630535125732422 1.1635080575942993164 1.0733350515365600586 1.0695127248764038086 1.2517540454864501953 1.2294869422912597656 0.88092702627182006836 0.73557031154632568359 0.65935528278350830078 0.3583571314811706543 0.3533363640308380127 0.48713523149490356445 0.76017659902572631836 0.8345826268196105957 0.82262939214706420898 0.82095092535018920898 0.84338647127151489258 0.93792176246643066406 0.95670819282531738281 1.0750837326049804688 1.1295745372772216797 1.044579625129699707 1.0542708635330200195 1.0666229724884033203 1.0022213459014892578 0.95517909526824951172 0.91646289825439453125 0.8148549199104309082 0.66358774900436401367 0.41618636250495910645 0.3064708411693572998 0.45004743337631225586 0.59437996149063110352 0.86888468265533447266 1.0326015949249267578 1.0425301790237426758 0.95971626043319702148 0.57584512233734130859 0.57453703880310058594 0.80428636074066162109 1.0351837873458862305 0.91046369075775146484 0.56819665431976318359 0.6538149714469909668 0.82643306255340576172 0.86889743804931640625 0.81633609533309936523 0.87960743904113769531 0.97543585300445556641 1.0234169960021972656 0.99945199489593505859 0.89229959249496459961 1.1127939224243164062 
1.0775189399719238281 0.62490630149841308594 0.29138910770416259766 0.37187489867210388184 0.40502119064331054688 0.59169876575469970703 0.78880208730697631836 0.88352060317993164062 1.0239808559417724609 1.2572655677795410156 1.093425750732421875 0.79800385236740112305 0.80294585227966308594 0.60658687353134155273 0.56193572282791137695 1.0557003021240234375 1.2230525016784667969 1.1664425134658813477 0.91105628013610839844 0.50548511743545532227 0.32534033060073852539 0.55101692676544189453 0.47479540109634399414 0.67611116170883178711 0.87871623039245605469 0.91801130771636962891 0.91255986690521240234 0.96607160568237304688 1.071004033088684082 1.0577415227890014648 1.079144597053527832 1.11357879638671875 1.0260468721389770508 1.0382214784622192383 1.0196948051452636719 0.91735756397247314453 0.9075489044189453125 0.85500544309616088867 0.6684080958366394043 0.45417204499244689941 0.64133012294769287109 0.54413866996765136719 0.56487351655960083008 0.62003153562545776367 0.78123587369918823242 1.0017025470733642578 1.0303342342376708984 0.97725760936737060547 0.77138519287109375 0.59862357378005981445 0.73982381820678710938 1.0064226388931274414 0.93538236618041992188 0.71391308307647705078 0.78526264429092407227 0.85095047950744628906 0.8354180455207824707 0.86111301183700561523 0.91011631488800048828 0.94467192888259887695 0.98890668153762817383 1.0761734247207641602 1.1781228780746459961 1.2966825962066650391 
1.0632461309432983398 0.82961308956146240234 0.38577798008918762207 0.57621198892593383789 0.63994610309600830078 0.7763093113899230957 0.98197853565216064453 1.0398604869842529297 1.0489199161529541016 1.1212003231048583984 0.828884124755859375 0.59586095809936523438 0.64351993799209594727 0.56272536516189575195 0.66814756393432617188 0.87629866600036621094 0.98705780506134033203 1.1201870441436767578 1.1430959701538085938 0.69094753265380859375 0.52080267667770385742 0.78201913833618164062 0.7410443425178527832 0.63687622547149658203 0.90633797645568847656 1.0034265518188476562 1.0324939489364624023 1.1247401237487792969 1.1824022531509399414 1.184924006462097168 1.2385003566741943359 1.2436461448669433594 1.0919487476348876953 0.90932595729827880859 0.9036458134651184082 0.70784789323806762695 0.9169877171516418457 0.87348884344100952148 0.66825926303863525391 0.36226886510848999023 0.61055541038513183594 0.75150847434997558594 0.74032837152481079102 0.78128004074096679688 0.79594665765762329102 0.93905645608901977539 1.0287876129150390625 0.99741083383560180664 0.88388562202453613281 0.65871369838714599609 0.67589145898818969727 0.92570871114730834961 0.94505202770233154297 0.80187135934829711914 0.79542499780654907227 0.81153136491775512695 0.83528029918670654297 0.84799814224243164062 0.86381757259368896484 0.85790967941284179688 1.0114424228668212891 1.2479832172393798828 1.2936816215515136719 0.94733512401580810547 
1.1135283708572387695 0.86036705970764160156 0.40654155611991882324 0.67756170034408569336 1.0223456621170043945 1.0480275154113769531 1.0733191967010498047 1.0731287002563476562 1.1518179178237915039 0.97445821762084960938 0.71755951642990112305 0.46571680903434753418 0.38263759016990661621 0.63475531339645385742 0.76107436418533325195 0.75473046302795410156 0.88198196887969970703 1.1055301427841186523 1.2003005743026733398 0.77339935302734375 0.71948546171188354492 0.92839300632476806641 0.89811277389526367188 0.63066172599792480469 0.921142578125 1.0145633220672607422 1.0198446512222290039 1.0285342931747436523 1.0471712350845336914 1.0766470432281494141 1.1523430347442626953 1.2462493181228637695 1.274546504020690918 1.013260960578918457 0.80847090482711791992 0.70712256431579589844 0.95132219791412353516 0.82963836193084716797 0.52795428037643432617 0.30573660135269165039 0.52788019180297851562 0.80255395174026489258 0.78609102964401245117 0.79383742809295654297 0.69849765300750732422 0.59295177459716796875 0.87324386835098266602 0.99141854047775268555 0.95715355873107910156 0.75508826971054077148 0.73416745662689208984 0.80737918615341186523 0.88680815696716308594 0.79515415430068969727 0.73362493515014648438 0.75001084804534912109 0.7776927947998046875 0.7598482966423034668 0.80554962158203125 0.85008519887924194336 1.00844573974609375 1.3322004079818725586 1.1035170555114746094 0.72871887683868408203 
1.1729074716567993164 0.95934081077575683594 0.52185475826263427734 0.85375881195068359375 0.99581891298294067383 1.0198380947113037109 1.0172141790390014648 1.0525846481323242188 1.1732898950576782227 0.95171469449996948242 0.68448203802108764648 0.3547471463680267334 0.56463295221328735352 0.79653567075729370117 0.84000200033187866211 0.86859303712844848633 1.0161250829696655273 1.1281009912490844727 1.1723014116287231445 0.67900812625885009766 0.83697915077209472656 0.99584746360778808594 0.8579012751579284668 0.68253749608993530273 0.67692345380783081055 0.89207708835601806641 0.99323040246963500977 1.0182482004165649414 0.98028808832168579102 0.93797391653060913086 1.0277667045593261719 1.0613558292388916016 1.2419703006744384766 1.2064826488494873047 0.79758077859878540039 0.82345408201217651367 0.93197399377822875977 0.79532527923583984375 0.55850416421890258789 0.36773633956909179688 0.67877888679504394531 0.83106601238250732422 0.80329543352127075195 0.73578083515167236328 0.53513771295547485352 0.52035784721374511719 0.68787670135498046875 0.82880812883377075195 0.92641210556030273438 0.81960767507553100586 0.78806960582733154297 0.81765615940093994141 0.84011280536651611328 0.78517001867294311523 0.68098837137222290039 0.67693340778350830078 0.72412914037704467773 0.71320223808288574219 0.76633030176162719727 0.84393620491027832031 1.1281667947769165039 1.3237125873565673828 0.93108600378036499023 0.72310304641723632812 
1.1377859115600585938 0.9373779296875 0.59608769416809082031 0.9935982823371887207 1.0401217937469482422 1.0515317916870117188 0.98340749740600585938 0.87866061925888061523 1.0000780820846557617 0.99040395021438598633 0.78218877315521240234 0.70092946290969848633 0.82474911212921142578 0.89877903461456298828 0.96467882394790649414 1.0481777191162109375 1.0961387157440185547 1.1403563022613525391 1.1429468393325805664 0.96049600839614868164 1.0219196081161499023 1.0476176738739013672 0.64995807409286499023 0.50013411045074462891 0.42812451720237731934 0.57233291864395141602 0.60607713460922241211 0.64184796810150146484 0.61160504817962646484 0.42511668801307678223 0.80340689420700073242 1.0667148828506469727 1.2053757905960083008 1.2539703845977783203 0.98669356107711791992 0.88504290580749511719 0.84009897708892822266 0.7530981898307800293 0.49605473875999450684 0.38055062294006347656 0.64932334423065185547 0.83359307050704956055 0.85704743862152099609 0.84047114849090576172 0.68713867664337158203 0.59484094381332397461 0.66960060596466064453 0.82635533809661865234 0.91076368093490600586 0.91446989774703979492 0.88090211153030395508 0.87658578157424926758 0.86672699451446533203 0.84565144777297973633 0.8069667816162109375 0.79593348503112792969 0.75343805551528930664 0.73330092430114746094 0.82631468772888183594 1.0407817363739013672 1.3145785331726074219 1.2043355703353881836 0.80034476518630981445 0.73345714807510375977 
1.1055634021759033203 0.88256442546844482422 0.51294296979904174805 0.9635677337646484375 1.0080027580261230469 0.84894716739654541016 0.7614790797233581543 0.66956186294555664062 0.92702054977416992188 0.81970483064651489258 0.70783025026321411133 0.86960315704345703125 0.94141411781311035156 0.98245561122894287109 0.95410990715026855469 1.0097376108169555664 1.0833590030670166016 1.1461937427520751953 1.0926342010498046875 1.0249522924423217773 1.0428960323333740234 0.86347925662994384766 0.38770005106925964355 0.2966931760311126709 0.5103155970573425293 0.80427789688110351562 0.66400629281997680664 0.38454216718673706055 0.2715498507022857666 0.32381534576416015625 0.69826406240463256836 0.94642788171768188477 1.1263023614883422852 1.2529437541961669922 1.0972638130187988281 0.95486587285995483398 0.79895430803298950195 0.63888061046600341797 0.45789989829063415527 0.39742302894592285156 0.59501767158508300781 0.78213304281234741211 0.79078650474548339844 0.85075896978378295898 0.84947282075881958008 0.72624307870864868164 0.80575346946716308594 0.92989695072174072266 0.98546439409255981445 0.99154686927795410156 0.98551762104034423828 0.99549210071563720703 0.91353392601013183594 1.0051944255828857422 1.0903580188751220703 1.0514535903930664062 0.9342333674430847168 0.92580485343933105469 1.0630775690078735352 1.2694423198699951172 1.1384693384170532227 0.93975561857223510742 0.7126662135124206543 0.7221037745475769043 
1.0951883792877197266 0.72215825319290161133 0.453643798828125 0.8705234527587890625 0.76243191957473754883 0.60214948654174804688 0.64047712087631225586 0.6650149226188659668 0.87674862146377563477 0.86246252059936523438 0.9054584503173828125 1.0059983730316162109 1.0384827852249145508 1.0818860530853271484 1.0695946216583251953 1.0834040641784667969 1.1138356924057006836 1.0943200588226318359 0.68380331993103027344 0.61237138509750366211 0.70181155204772949219 0.56751704216003417969 0.30822637677192687988 0.30998966097831726074 0.60350281000137329102 0.86742109060287475586 1.0086793899536132812 0.88906019926071166992 0.62989342212677001953 0.38135996460914611816 0.43500059843063354492 0.75472182035446166992 0.9600169062614440918 1.1750162839889526367 1.2225342988967895508 1.018559575080871582 0.90772521495819091797 0.66682326793670654297 0.54926210641860961914 0.40776473283767700195 0.49401205778121948242 0.66794115304946899414 0.66387957334518432617 0.69450402259826660156 0.82760488986968994141 0.88435715436935424805 0.88491451740264892578 0.96033257246017456055 0.98245942592620849609 1.0228515863418579102 1.1141299009323120117 1.1899745464324951172 1.2100837230682373047 1.2706987857818603516 1.3077847957611083984 1.2879041433334350586 1.2681735754013061523 1.2550227642059326172 1.2757893800735473633 1.1582343578338623047 1.0480303764343261719 0.82602322101593017578 0.75172781944274902344 0.79767376184463500977 
1.0450291633605957031 0.87737858295440673828 0.65559554100036621094 0.64419794082641601562 0.60233628749847412109 0.67213791608810424805 0.75306868553161621094 0.86803257465362548828 0.97812402248382568359 1.0057038068771362305 1.0353062152862548828 1.0801213979721069336 1.079220890998840332 1.1152130365371704102 1.1308907270431518555 1.1169519424438476562 1.1011513471603393555 0.95159739255905151367 0.72366869449615478516 0.53523653745651245117 0.43015065789222717285 0.54387211799621582031 0.54373347759246826172 0.52057063579559326172 0.75674164295196533203 0.85054856538772583008 0.96255248785018920898 1.0291073322296142578 1.0048043727874755859 0.74471479654312133789 0.4872919619083404541 0.62845748662948608398 0.8188864588737487793 0.99688798189163208008 1.269354701042175293 1.1576876640319824219 0.98471492528915405273 0.81383752822875976562 0.70962464809417724609 0.56423848867416381836 0.6329021453857421875 0.69492501020431518555 0.66722834110260009766 0.75575166940689086914 0.940158843994140625 1.0024380683898925781 0.97456961870193481445 0.95863169431686401367 1.0854535102844238281 1.2325191497802734375 1.2922586202621459961 1.1736718416213989258 1.1614710092544555664 1.1614232063293457031 1.089880824089050293 1.038575291633605957 1.0487635135650634766 1.0286695957183837891 0.92891937494277954102 0.87187790870666503906 1.0324566364288330078 0.92323839664459228516 0.79514300823211669922 0.80783843994140625 
0.97463852167129516602 0.79634135961532592773 0.60754317045211791992 0.45810279250144958496 0.64708954095840454102 0.83565896749496459961 0.94244122505187988281 1.0147856473922729492 1.0423674583435058594 1.0717104673385620117 1.1025022268295288086 1.118973851203918457 1.0973567962646484375 1.1224030256271362305 1.1414747238159179688 1.1209284067153930664 1.0914586782455444336 0.91280269622802734375 0.75497955083847045898 0.45946201682090759277 0.56392192840576171875 0.71031278371810913086 0.74352550506591796875 0.72522634267807006836 0.86359930038452148438 0.87607115507125854492 0.82201838493347167969 0.9750048518180847168 1.0291761159896850586 0.9071095585823059082 0.79282474517822265625 0.76528495550155639648 0.90965288877487182617 1.0190612077713012695 1.2242503166198730469 1.2940648794174194336 1.1657469272613525391 0.97044843435287475586 0.89634656906127929688 0.74411123991012573242 0.70429682731628417969 0.78178715705871582031 0.81216669082641601562 0.93099236488342285156 1.00701141357421875 1.0317482948303222656 1.1257679462432861328 1.2029136419296264648 1.3173098564147949219 1.1051430702209472656 0.84686172008514404297 0.66747862100601196289 0.74461442232131958008 0.75404268503189086914 0.67893707752227783203 0.62207549810409545898 0.65587276220321655273 0.69956350326538085938 0.55879426002502441406 0.68441915512084960938 0.94882088899612426758 1.0260169506072998047 0.8060016632080078125 0.82066887617111206055 
0.79688858985900878906 0.64884531497955322266 0.53840845823287963867 0.44647666811943054199 0.69261479377746582031 0.94801670312881469727 1.0210704803466796875 1.0712019205093383789 1.0780205726623535156 1.0967390537261962891 1.1247279644012451172 1.1274390220642089844 1.1095436811447143555 1.1189473867416381836 1.1104263067245483398 1.118260502815246582 0.94650262594223022461 0.47214546799659729004 0.36449190974235534668 0.51230847835540771484 0.73617124557495117188 0.81800639629364013672 0.83493578433990478516 0.73084354400634765625 0.64383041858673095703 0.63510286808013916016 0.77955061197280883789 0.93275231122970581055 1.1066449880599975586 1.0808408260345458984 0.9853076934814453125 0.97981280088424682617 1.0823744535446166992 1.0965511798858642578 1.0220545530319213867 1.0980204343795776367 1.2651228904724121094 1.1880841255187988281 0.97918534278869628906 0.86361849308013916016 0.71135306358337402344 0.75973778963088989258 0.84497201442718505859 0.90748769044876098633 0.95024847984313964844 0.99846607446670532227 1.1714863777160644531 1.2985510826110839844 0.9741103053092956543 0.64895612001419067383 0.45748698711395263672 0.49288964271545410156 0.6121724247932434082 0.62699961662292480469 0.54941904544830322266 0.52442991733551025391 0.49567192792892456055 0.44967609643936157227 0.42338663339614868164 0.65195041894912719727 0.97509789466857910156 1.1257034540176391602 0.84403938055038452148 0.74125534296035766602 
0.62304931879043579102 0.51211720705032348633 0.48734512925148010254 0.63849174976348876953 0.85553878545761108398 0.98451524972915649414 0.99973589181900024414 1.0429441928863525391 1.0864425897598266602 1.1156634092330932617 1.1274696588516235352 1.1329338550567626953 1.1143896579742431641 1.1086193323135375977 1.0568410158157348633 1.0797609090805053711 0.79482722282409667969 0.44933754205703735352 0.3927325904369354248 0.7156155705451965332 0.83579230308532714844 0.88669103384017944336 0.91800528764724731445 0.87532788515090942383 0.57642567157745361328 0.37430360913276672363 0.50894629955291748047 0.66929769515991210938 1.0183908939361572266 1.1200326681137084961 1.1593738794326782227 1.1398862600326538086 1.1025650501251220703 0.95466417074203491211 0.7705218195915222168 0.80575382709503173828 0.99968969821929931641 1.2095216512680053711 1.1918280124664306641 0.99294614791870117188 0.69557249546051025391 0.69069945812225341797 0.79054421186447143555 0.78502678871154785156 0.76776635646820068359 0.93026697635650634766 1.2075444459915161133 0.87574881315231323242 0.47996699810028076172 0.55341690778732299805 0.38844791054725646973 0.51143443584442138672 0.5841338038444519043 0.55494874715805053711 0.48629364371299743652 0.46998542547225952148 0.40787264704704284668 0.39689201116561889648 0.43463060259819030762 0.65415662527084350586 0.97042691707611083984 1.1125558614730834961 0.82631069421768188477 0.66758447885513305664 
0.54270958900451660156 0.62392020225524902344 0.7182458043098449707 0.82995504140853881836 0.93233674764633178711 0.96690028905868530273 0.96135765314102172852 1.0031276941299438477 1.0248976945877075195 1.0777735710144042969 1.1382892131805419922 1.1365633010864257812 1.1172868013381958008 1.0972815752029418945 1.0526423454284667969 1.0654482841491699219 0.61721920967102050781 0.4630368351936340332 0.39719539880752563477 0.79262506961822509766 0.89979672431945800781 0.93179094791412353516 0.97585266828536987305 0.98292338848114013672 0.80512475967407226562 0.54975450038909912109 0.79759097099304199219 0.77088713645935058594 0.93111181259155273438 1.0161288976669311523 1.0350768566131591797 0.98858207464218139648 0.86183953285217285156 0.77413702011108398438 0.74673861265182495117 0.74193370342254638672 0.80986303091049194336 0.8761927485466003418 1.1200394630432128906 1.2056107521057128906 0.83075565099716186523 0.64137899875640869141 0.65487700700759887695 0.64366239309310913086 0.75572681427001953125 1.1101884841918945312 1.0895057916641235352 0.49175274372100830078 0.38867607712745666504 0.54544508457183837891 0.40098047256469726562 0.45663568377494812012 0.49930420517921447754 0.45906963944435119629 0.39877307415008544922 0.37373292446136474609 0.36116364598274230957 0.42162063717842102051 0.54517281055450439453 0.75062960386276245117 0.98274058103561401367 1.1008906364440917969 0.78627490997314453125 0.66122066974639892578 
0.74161171913146972656 0.75529211759567260742 0.77122187614440917969 0.83905732631683349609 0.94384419918060302734 0.94880002737045288086 0.98285710811614990234 1.030579686164855957 1.0260624885559082031 1.053316950798034668 1.1076890230178833008 1.12542724609375 1.1397025585174560547 1.1017272472381591797 1.0598585605621337891 1.0166908502578735352 0.73356354236602783203 0.69669556617736816406 0.71814620494842529297 0.87877219915390014648 0.94889283180236816406 0.97456276416778564453 1.0182547569274902344 1.0201628208160400391 0.96094453334808349609 0.63052994012832641602 0.81895917654037475586 0.93535578250885009766 0.94207495450973510742 0.95218217372894287109 0.93827003240585327148 0.91289973258972167969 0.8425795435905456543 0.71066558361053466797 0.55307179689407348633 0.68364173173904418945 0.79545265436172485352 0.82480287551879882812 0.89347743988037109375 1.1970307826995849609 1.067432403564453125 0.60904741287231445312 0.54840928316116333008 0.71868366003036499023 1.050066828727722168 1.1292749643325805664 0.74525249004364013672 0.41496109962463378906 0.39009130001068115234 0.54534745216369628906 0.43761676549911499023 0.33007854223251342773 0.40230786800384521484 0.38405981659889221191 0.36972060799598693848 0.41008132696151733398 0.4247410893440246582 0.45035818219184875488 0.57081460952758789062 0.7827962040901184082 1.0560852289199829102 1.0988514423370361328 0.74068880081176757812 0.70558625459671020508 
0.70512312650680541992 0.7039572596549987793 0.75171923637390136719 0.77386969327926635742 0.84103220701217651367 0.86517280340194702148 0.9372813105583190918 1.0060838460922241211 1.0235197544097900391 1.0112538337707519531 1.0313811302185058594 1.0929701328277587891 1.0878081321716308594 1.0110852718353271484 1.0690665245056152344 1.0633895397186279297 1.0142064094543457031 0.98462539911270141602 0.96793919801712036133 0.95979255437850952148 0.97274118661880493164 1.0039647817611694336 1.0218473672866821289 1.0361375808715820312 1.0179274082183837891 0.85914766788482666016 0.60366976261138916016 0.70652806758880615234 0.79548233747482299805 0.8153311610221862793 0.79247707128524780273 0.70385122299194335938 0.71156787872314453125 0.53775691986083984375 0.35388606786727905273 0.6223767399787902832 0.7408059239387512207 0.77350288629531860352 0.83061438798904418945 0.94250434637069702148 1.1940126419067382812 0.94774717092514038086 0.70685964822769165039 1.0816894769668579102 1.1398880481719970703 0.7902018427848815918 0.54980742931365966797 0.39917811751365661621 0.43146729469299316406 0.54735696315765380859 0.5691477656364440918 0.32616752386093139648 0.4327818453311920166 0.32091674208641052246 0.36888784170150756836 0.42817214131355285645 0.45208474993705749512 0.43808791041374206543 0.59965348243713378906 0.84911084175109863281 1.0930930376052856445 1.1248346567153930664 0.71707552671432495117 0.69194072484970092773 
0.62022262811660766602 0.55075931549072265625 0.66866773366928100586 0.7366345524787902832 0.78018230199813842773 0.82307130098342895508 0.89260107278823852539 0.96276992559432983398 1.0028405189514160156 1.0133255720138549805 1.061835169792175293 1.0789862871170043945 1.0042543411254882812 0.98965692520141601562 1.0801799297332763672 1.0513232946395874023 1.0330413579940795898 0.98306643962860107422 0.93083834648132324219 0.92627722024917602539 0.90027928352355957031 0.96892887353897094727 1.0440617799758911133 1.0547143220901489258 1.0367933511734008789 1.0173341035842895508 0.92871958017349243164 0.76425909996032714844 0.52542984485626220703 0.44742608070373535156 0.51465344429016113281 0.38567793369293212891 0.53009593486785888672 0.39063063263893127441 0.46097096800804138184 0.61768615245819091797 0.5940291285514831543 0.64424431324005126953 0.80689328908920288086 0.91327404975891113281 1.0404949188232421875 1.2193617820739746094 1.2476633787155151367 1.0544686317443847656 0.7756583094596862793 0.54592972993850708008 0.50619357824325561523 0.45541945099830627441 0.45592400431632995605 0.5564238429069519043 0.57884776592254638672 0.30522269010543823242 0.29541453719139099121 0.31678429245948791504 0.34705361723899841309 0.38040339946746826172 0.48159140348434448242 0.48064956068992614746 0.61773228645324707031 0.92011880874633789062 1.0956712961196899414 1.0457214117050170898 0.69063675403594970703 0.65748697519302368164 
0.61869400739669799805 0.34846210479736328125 0.5180657505989074707 0.6480019688606262207 0.75449502468109130859 0.81521588563919067383 0.89675891399383544922 0.94700825214385986328 0.99181443452835083008 1.02410125732421875 1.0654407739639282227 1.0865474939346313477 1.0440032482147216797 1.0489295721054077148 1.0690634250640869141 1.0195989608764648438 1.0287597179412841797 0.97668123245239257812 0.94815927743911743164 0.92266160249710083008 0.74546384811401367188 0.80418670177459716797 1.0377252101898193359 1.0447419881820678711 1.0286707878112792969 1.0098817348480224609 0.97868937253952026367 0.91375553607940673828 0.83052784204483032227 0.55576622486114501953 0.50534462928771972656 0.32604455947875976562 0.36141794919967651367 0.39626145362854003906 0.56654328107833862305 0.61670130491256713867 0.54664605855941772461 0.56537359952926635742 0.68496525287628173828 0.90163731575012207031 1.0342435836791992188 1.2327883243560791016 1.1349108219146728516 0.66939204931259155273 0.4718316197395324707 0.42476668953895568848 0.43772777915000915527 0.42399936914443969727 0.49635550379753112793 0.55692535638809204102 0.50393581390380859375 0.24695256352424621582 0.16979560256004333496 0.31398850679397583008 0.32053422927856445312 0.35683447122573852539 0.50304234027862548828 0.47636774182319641113 0.61966878175735473633 0.94794517755508422852 1.1643469333648681641 0.89311087131500244141 0.6449063420295715332 0.63959574699401855469 
0.76554286479949951172 0.35518705844879150391 0.40698948502540588379 0.60554802417755126953 0.71985012292861938477 0.77714127302169799805 0.85625642538070678711 0.93018090724945068359 0.97103792428970336914 1.0086103677749633789 1.0490877628326416016 1.0660800933837890625 1.0646996498107910156 1.0657726526260375977 1.0276694297790527344 0.97272801399230957031 1.0075013637542724609 0.96534836292266845703 0.93422585725784301758 0.90796291828155517578 0.63216257095336914062 0.78249257802963256836 0.89070761203765869141 0.93232566118240356445 0.92420470714569091797 0.91754281520843505859 0.90825825929641723633 0.86750638484954833984 0.99082392454147338867 1.0056247711181640625 0.85708516836166381836 0.45691603422164916992 0.43337395787239074707 0.49290460348129272461 0.531101226806640625 0.56645542383193969727 0.58217281103134155273 0.58686929941177368164 0.64435327053070068359 0.84106725454330444336 1.0893379449844360352 1.2851387262344360352 0.89536905288696289062 0.5020236968994140625 0.37814992666244506836 0.39387351274490356445 0.36131799221038818359 0.42495748400688171387 0.53733015060424804688 0.54695177078247070312 0.41981434822082519531 0.18877358734607696533 0.13526265323162078857 0.29096335172653198242 0.35601276159286499023 0.43503993749618530273 0.4929676353931427002 0.46634122729301452637 0.66781967878341674805 1.0741474628448486328 1.0794407129287719727 0.83877009153366088867 0.87323564291000366211 0.80425149202346801758 
1.0310931205749511719 0.59734433889389038086 0.34951242804527282715 0.50399172306060791016 0.65231716632843017578 0.71817159652709960938 0.81261599063873291016 0.8969580531120300293 0.9423586726188659668 0.99188745021820068359 1.0375870466232299805 1.0530780553817749023 1.0481088161468505859 1.0315605401992797852 0.89860653877258300781 0.94062656164169311523 0.93528562784194946289 0.81384378671646118164 0.8880761265754699707 0.8687731623649597168 0.5567626953125 0.63551038503646850586 0.73959046602249145508 0.75107008218765258789 0.61403298377990722656 0.70031762123107910156 0.78679251670837402344 0.82725155353546142578 0.82314473390579223633 0.97246921062469482422 1.0223488807678222656 0.68765163421630859375 0.56984663009643554688 0.56402826309204101562 0.5428708195686340332 0.55833494663238525391 0.59909421205520629883 0.61338049173355102539 0.67436778545379638672 0.85572236776351928711 1.226282954216003418 1.1700475215911865234 0.74429607391357421875 0.52400010824203491211 0.41455039381980895996 0.37446102499961853027 0.31172350049018859863 0.45058029890060424805 0.51146137714385986328 0.53039729595184326172 0.48025494813919067383 0.30465209484100341797 0.15240675210952758789 0.28125804662704467773 0.42375579476356506348 0.52519106864929199219 0.5518563389778137207 0.58647388219833374023 0.81070482730865478516 1.2022254467010498047 0.9221680760383605957 0.61776006221771240234 0.69148933887481689453 0.93750584125518798828 
1.0808441638946533203 0.8015346527099609375 0.35157197713851928711 0.31833052635192871094 0.51441997289657592773 0.62544107437133789062 0.75120604038238525391 0.89025962352752685547 0.96348160505294799805 1.0094510316848754883 1.0391503572463989258 1.0365626811981201172 1.0164382457733154297 0.9158280491828918457 0.7990849614143371582 0.89126753807067871094 0.81218868494033813477 0.8034610748291015625 0.85196012258529663086 0.73134201765060424805 0.72541904449462890625 0.78086161613464355469 0.75007116794586181641 0.63980072736740112305 0.53088772296905517578 0.57498937845230102539 0.51891475915908813477 0.53341948986053466797 0.5927225947380065918 0.81563043594360351562 1.0214748382568359375 0.86665403842926025391 0.63568675518035888672 0.64594489336013793945 0.67212140560150146484 0.63555932044982910156 0.63499408960342407227 0.73049145936965942383 0.89835518598556518555 1.1564239263534545898 1.2765091657638549805 0.9245249629020690918 0.64624452590942382812 0.56268495321273803711 0.43305474519729614258 0.35150659084320068359 0.32067251205444335938 0.44608947634696960449 0.50539624691009521484 0.49603641033172607422 0.40499016642570495605 0.31979832053184509277 0.23947195708751678467 0.3642196357250213623 0.47200000286102294922 0.56062161922454833984 0.645153045654296875 0.74717056751251220703 0.96657615900039672852 1.1852723360061645508 0.86857855319976806641 0.52226877212524414062 0.45646065473556518555 0.73587393760681152344 
0.95114356279373168945 0.82113498449325561523 0.45054507255554199219 0.41457629203796386719 0.53523010015487670898 0.49474048614501953125 0.65682709217071533203 0.8871695399284362793 0.99290180206298828125 1.0162957906723022461 1.0065962076187133789 0.99243760108947753906 0.85398334264755249023 0.65034383535385131836 0.75828289985656738281 0.78377550840377807617 0.78988087177276611328 0.7933089137077331543 0.59729439020156860352 0.57828891277313232422 0.76414352655410766602 0.76216727495193481445 0.72135937213897705078 0.78038328886032104492 0.75994384288787841797 0.73791766166687011719 0.63009560108184814453 0.55701142549514770508 0.62031674385070800781 0.7340748906135559082 0.92912656068801879883 0.91290831565856933594 0.67920523881912231445 0.66140866279602050781 0.67187178134918212891 0.69460844993591308594 0.83529812097549438477 0.99018049240112304688 1.2214848995208740234 1.2582665681838989258 1.0315340757369995117 0.79135072231292724609 0.5187060236930847168 0.50418817996978759766 0.469516754150390625 0.3255717158317565918 0.31191682815551757812 0.44431501626968383789 0.50459724664688110352 0.47390115261077880859 0.31617537140846252441 0.24311645328998565674 0.29194837808609008789 0.41193526983261108398 0.53197389841079711914 0.60038650035858154297 0.666637420654296875 0.82512545585632324219 1.0815002918243408203 0.92164796590805053711 0.69374287128448486328 0.59704011678695678711 0.39446729421615600586 0.509235382080078125 
0.98160445690155029297 0.74759322404861450195 0.61401993036270141602 0.64317935705184936523 0.81856536865234375 0.63806509971618652344 0.46842673420906066895 0.81855106353759765625 0.94085931777954101562 0.96914625167846679688 0.90578687191009521484 0.90183222293853759766 0.73154962062835693359 0.67364001274108886719 0.76413387060165405273 0.77220225334167480469 0.7376912236213684082 0.58999282121658325195 0.37117722630500793457 0.54624801874160766602 0.69905185699462890625 0.70134747028350830078 0.70367890596389770508 0.82884228229522705078 0.82250481843948364258 0.82209289073944091797 0.78042012453079223633 0.73426002264022827148 0.74131262302398681641 0.84118986129760742188 1.0369677543640136719 1.1095467805862426758 0.94071292877197265625 0.83804631233215332031 0.79328799247741699219 0.79716002941131591797 0.92810589075088500977 1.178394317626953125 1.1846072673797607422 0.98914897441864013672 0.81311017274856567383 0.84121739864349365234 0.66802674531936645508 0.51700997352600097656 0.52676427364349365234 0.43340462446212768555 0.32443195581436157227 0.36308631300926208496 0.36318960785865783691 0.29444327950477600098 0.24290518462657928467 0.28310474753379821777 0.33522754907608032227 0.47912591695785522461 0.56433480978012084961 0.60597908496856689453 0.7227961421012878418 0.9952157139778137207 1.1219269037246704102 0.61865717172622680664 0.52604496479034423828 0.58609592914581298828 0.44936931133270263672 0.42868864536285400391 
1.2544789314270019531 1.1460617780685424805 0.96076989173889160156 0.94104498624801635742 1.0462578535079956055 0.87432521581649780273 0.54416584968566894531 0.71199393272399902344 0.85848397016525268555 0.89070409536361694336 0.79087275266647338867 0.8278611302375793457 0.70615208148956298828 0.73485094308853149414 0.68610233068466186523 0.54441320896148681641 0.56791698932647705078 0.58190655708312988281 0.58855974674224853516 0.63333362340927124023 0.8187885284423828125 0.90262866020202636719 0.90531975030899047852 0.88976132869720458984 0.87212789058685302734 0.80989325046539306641 0.78300362825393676758 0.89512616395950317383 1.0733350515365600586 1.2506555318832397461 1.3122140169143676758 1.32546234130859375 1.2950863838195800781 1.2284531593322753906 1.1713861227035522461 1.2120890617370605469 1.2270728349685668945 1.1167088747024536133 0.92226964235305786133 0.81245476007461547852 0.71332263946533203125 0.71045362949371337891 0.74851179122924804688 0.62295490503311157227 0.59084165096282958984 0.42030572891235351562 0.29146489500999450684 0.37249696254730224609 0.51573944091796875 0.46166497468948364258 0.4337253272533416748 0.48172241449356079102 0.4603474736213684082 0.4954745173454284668 0.58293706178665161133 0.65929257869720458984 0.81087148189544677734 1.1203634738922119141 0.92906045913696289062 0.56830716133117675781 0.47677388787269592285 0.50624155998229980469 0.43621501326560974121 0.48688003420829772949 
1.1355991363525390625 1.2283816337585449219 1.285802006721496582 1.290545344352722168 1.2833044528961181641 1.0660691261291503906 0.86411684751510620117 0.69857257604598999023 0.68195211887359619141 0.74274480342864990234 0.71996456384658813477 0.7876046299934387207 0.65966564416885375977 0.68714737892150878906 0.57432329654693603516 0.5102030634880065918 0.73398131132125854492 0.85645627975463867188 0.89467906951904296875 0.91655355691909790039 0.89026558399200439453 0.83901673555374145508 0.85937088727951049805 0.85151207447052001953 0.85818517208099365234 0.89172714948654174805 1.0550528764724731445 1.2717696428298950195 1.246859431266784668 1.0249091386795043945 0.94588238000869750977 0.91439855098724365234 0.91689759492874145508 0.97117877006530761719 1.0445930957794189453 1.1446869373321533203 1.0775259733200073242 0.94899475574493408203 0.84857147932052612305 0.78408282995223999023 0.77158766984939575195 0.79379892349243164062 0.79223918914794921875 0.76338541507720947266 0.72310483455657958984 0.48491302132606506348 0.27544134855270385742 0.36195001006126403809 0.5538170933723449707 0.64250349998474121094 0.65774142742156982422 0.67783075571060180664 0.68636280298233032227 0.58475881814956665039 0.49626296758651733398 0.69054180383682250977 0.97891384363174438477 1.0653440952301025391 0.65521872043609619141 0.54616981744766235352 0.54215568304061889648 0.50757694244384765625 0.33535218238830566406 0.50655436515808105469 
1.0057463645935058594 0.96067506074905395508 1.1623179912567138672 1.2542747259140014648 1.2801837921142578125 1.2321717739105224609 1.1291077136993408203 0.987499237060546875 0.56966185569763183594 0.48874068260192871094 0.56982791423797607422 0.72183597087860107422 0.5936737060546875 0.53666472434997558594 0.53093397617340087891 0.68993008136749267578 0.78276878595352172852 0.76921993494033813477 0.79412829875946044922 0.87890267372131347656 0.85736769437789916992 0.76592820882797241211 0.80556505918502807617 0.85365957021713256836 0.95500189065933227539 1.1728124618530273438 1.240504145622253418 1.0353729724884033203 0.7442989349365234375 0.67812389135360717773 0.67531102895736694336 0.59817701578140258789 0.56142032146453857422 0.55899649858474731445 0.57286882400512695312 0.95298963785171508789 0.94217729568481445312 0.82573527097702026367 0.84556984901428222656 0.85452187061309814453 0.82280290126800537109 0.82040482759475708008 0.83190947771072387695 0.79339700937271118164 0.76472532749176025391 0.68264931440353393555 0.33246341347694396973 0.25033771991729736328 0.4068482816219329834 0.4829178154468536377 0.51706963777542114258 0.60927057266235351562 0.66970145702362060547 0.67580765485763549805 0.68128752708435058594 0.79247683286666870117 1.1134436130523681641 0.95843505859375 0.68337965011596679688 0.58554464578628540039 0.59368842840194702148 0.51299715042114257812 0.31173229217529296875 0.45550069212913513184 
1.0600386857986450195 0.81570005416870117188 0.69885659217834472656 0.91573476791381835938 1.069115757942199707 1.1686514616012573242 1.1999557018280029297 1.1578203439712524414 0.98483037948608398438 0.58608764410018920898 0.35843908786773681641 0.54432809352874755859 0.46665227413177490234 0.3758831322193145752 0.4366582334041595459 0.63845121860504150391 0.81215995550155639648 0.83227568864822387695 0.8472264409065246582 0.82052755355834960938 0.82925713062286376953 0.82196462154388427734 0.94689059257507324219 1.1307713985443115234 1.2453731298446655273 1.1915596723556518555 0.86445671319961547852 0.65178740024566650391 0.64123338460922241211 0.6250324249267578125 0.55219727754592895508 0.42474511265754699707 0.39950948953628540039 0.36010521650314331055 0.53272384405136108398 1.0222960710525512695 0.77261281013488769531 0.77354615926742553711 0.80819356441497802734 0.84641385078430175781 0.83322918415069580078 0.80776381492614746094 0.76756125688552856445 0.63757789134979248047 0.59823375940322875977 0.6931769251823425293 0.38610556721687316895 0.17688855528831481934 0.2823791801929473877 0.31458306312561035156 0.40206202864646911621 0.45433655381202697754 0.5095284581184387207 0.53266829252243041992 0.65236818790435791016 0.89312112331390380859 1.1279085874557495117 0.85885906219482421875 0.70092636346817016602 0.57517784833908081055 0.57262212038040161133 0.46875780820846557617 0.31725972890853881836 0.46803414821624755859 
1.1243381500244140625 0.96050280332565307617 0.56375741958618164062 0.81796205043792724609 1.0127571821212768555 1.0713393688201904297 1.111724853515625 0.95589590072631835938 1.0276916027069091797 0.89337939023971557617 0.53192543983459472656 0.35222700238227844238 0.43941029906272888184 0.58270406723022460938 0.70074981451034545898 0.51155036687850952148 0.65332239866256713867 0.75359040498733520508 0.85450041294097900391 0.88336199522018432617 0.89022362232208251953 1.0320556163787841797 1.2656587362289428711 1.3020417690277099609 1.1331714391708374023 0.85537612438201904297 0.68404561281204223633 0.64122629165649414062 0.6087366938591003418 0.54471796751022338867 0.41892933845520019531 0.37959337234497070312 0.4097697138786315918 0.53758513927459716797 0.91978543996810913086 1.0325617790222167969 0.73375093936920166016 0.78363913297653198242 0.79812246561050415039 0.81984430551528930664 0.84787660837173461914 0.85168236494064331055 0.82134979963302612305 0.58021676540374755859 0.42085468769073486328 0.58298158645629882812 0.40432241559028625488 0.3723067939281463623 0.42210745811462402344 0.38354223966598510742 0.40455222129821777344 0.43318676948547363281 0.44981205463409423828 0.46649885177612304688 0.59067171812057495117 0.98707604408264160156 0.96519327163696289062 0.70593404769897460938 0.6434224247932434082 0.61432814598083496094 0.57124751806259155273 0.45136055350303649902 0.31483888626098632812 0.30763390660285949707 
1.0804058313369750977 0.89384192228317260742 0.50110399723052978516 0.86179941892623901367 0.97179311513900756836 0.98454928398132324219 1.0114783048629760742 0.87442433834075927734 0.95027017593383789062 0.6657212376594543457 0.70789766311645507812 0.74465000629425048828 0.88795077800750732422 0.95986723899841308594 1.048595428466796875 0.95148855447769165039 0.75372368097305297852 0.65244042873382568359 0.67632597684860229492 0.889629364013671875 1.2030059099197387695 1.2916373014450073242 1.291041254997253418 1.1034661531448364258 0.85659140348434448242 0.7619412541389465332 0.67457759380340576172 0.62661182880401611328 0.54718637466430664062 0.42996868491172790527 0.41219696402549743652 0.47363379597663879395 0.60212004184722900391 0.9018917083740234375 1.2006992101669311523 0.96091824769973754883 0.84493374824523925781 0.81134259700775146484 0.80692201852798461914 0.80934947729110717773 0.83622634410858154297 0.85939782857894897461 0.82364886999130249023 0.7230593562126159668 0.42010903358459472656 0.36320382356643676758 0.4930782020092010498 0.49744898080825805664 0.4828128516674041748 0.49525457620620727539 0.48754829168319702148 0.47814810276031494141 0.47840905189514160156 0.53178262710571289062 0.60847824811935424805 1.0207028388977050781 0.9208240509033203125 0.6092541813850402832 0.47859561443328857422 0.37768012285232543945 0.44741514325141906738 0.42076781392097473145 0.30943739414215087891 0.29975026845932006836 
1.1374291181564331055 0.98009985685348510742 0.48252665996551513672 0.70048415660858154297 0.76258909702301025391 0.76507067680358886719 0.89806705713272094727 0.90349024534225463867 0.92559683322906494141 0.40394714474678039551 0.44667547941207885742 0.84792822599411010742 1.0339924097061157227 1.046721339225769043 1.0550770759582519531 1.0692337751388549805 1.0219687223434448242 0.98463034629821777344 1.0748472213745117188 1.2112157344818115234 1.2470098733901977539 1.2553932666778564453 1.0768407583236694336 0.75436127185821533203 0.74127095937728881836 0.74533098936080932617 0.65379518270492553711 0.58470106124877929688 0.54734379053115844727 0.51816248893737792969 0.5017261505126953125 0.55229699611663818359 0.83371073007583618164 1.1743514537811279297 1.0724661350250244141 0.88325411081314086914 0.87181037664413452148 0.87309670448303222656 0.83416676521301269531 0.76591193675994873047 0.62538433074951171875 0.71809405088424682617 0.72567582130432128906 0.73035073280334472656 0.51602524518966674805 0.4199936985969543457 0.5942656397819519043 0.68043297529220581055 0.69581586122512817383 0.67412841320037841797 0.6167557835578918457 0.53913933038711547852 0.53270894289016723633 0.58328968286514282227 0.74092072248458862305 1.0692224502563476562 0.8835906982421875 0.56790041923522949219 0.48805800080299377441 0.3798910975456237793 0.33708098530769348145 0.33072164654731750488 0.3181769251823425293 0.40751478075981140137 
1.1192551851272583008 0.82676988840103149414 0.33811864256858825684 0.48500046133995056152 0.60695165395736694336 0.72927623987197875977 0.95219182968139648438 0.97619909048080444336 0.81748259067535400391 0.32803246378898620605 0.44957450032234191895 0.72806441783905029297 0.78523272275924682617 0.72692888975143432617 0.72068297863006591797 0.80788898468017578125 0.9759922027587890625 1.1789019107818603516 1.2542227506637573242 1.227379918098449707 1.2024706602096557617 1.0030449628829956055 0.85244899988174438477 0.73506242036819458008 0.6995175480842590332 0.62601059675216674805 0.54742348194122314453 0.56312727928161621094 0.55604541301727294922 0.64422994852066040039 0.67636400461196899414 0.80032867193222045898 1.097146153450012207 1.1645832061767578125 0.94487535953521728516 0.83665251731872558594 0.86306089162826538086 0.89462947845458984375 0.89760500192642211914 0.83777016401290893555 0.59900659322738647461 0.43899297714233398438 0.41831660270690917969 0.46578085422515869141 0.5656458735466003418 0.58122003078460693359 0.71842133998870849609 0.75569921731948852539 0.73967301845550537109 0.65945696830749511719 0.60394203662872314453 0.55645024776458740234 0.60320299863815307617 0.65771436691284179688 0.82246100902557373047 1.032174229621887207 0.75022971630096435547 0.50069671869277954102 0.45333722233772277832 0.41067460179328918457 0.3820877373218536377 0.38516464829444885254 0.39450871944427490234 0.49071240425109863281 
0.89616632461547851562 0.61976546049118041992 0.3196035921573638916 0.51920241117477416992 0.64981806278228759766 0.71718245744705200195 0.97522193193435668945 0.97103345394134521484 0.65079951286315917969 0.23467977344989776611 0.3835709691047668457 0.61399972438812255859 0.51707607507705688477 0.49053841829299926758 0.47244659066200256348 0.63332462310791015625 0.92890799045562744141 1.2482329607009887695 1.2444220781326293945 1.1859686374664306641 0.92522817850112915039 0.81071811914443969727 0.69993352890014648438 0.65459996461868286133 0.63582289218902587891 0.4892196953296661377 0.51644843816757202148 0.65219867229461669922 0.65828359127044677734 0.63053166866302490234 0.71493852138519287109 0.94861149787902832031 1.226390838623046875 1.0500948429107666016 0.93892979621887207031 0.86168062686920166016 0.8465048670768737793 0.86430686712265014648 0.89986580610275268555 0.82505965232849121094 0.80250990390777587891 0.69935786724090576172 0.40093821287155151367 0.26506605744361877441 0.58564525842666625977 0.69367510080337524414 0.71354806423187255859 0.72966593503952026367 0.72546964883804321289 0.63630783557891845703 0.63141840696334838867 0.66129946708679199219 0.72624874114990234375 0.75839096307754516602 1.0069435834884643555 0.91752862930297851562 0.68381720781326293945 0.51203298568725585938 0.45606985688209533691 0.40930390357971191406 0.36741027235984802246 0.4143009483814239502 0.48997867107391357422 0.60080826282501220703 
0.75208652019500732422 0.52175146341323852539 0.3019600212574005127 0.62131220102310180664 0.60966974496841430664 0.59019339084625244141 0.94353348016738891602 0.8936767578125 0.45321014523506164551 0.24408800899982452393 0.34047257900238037109 0.5729808807373046875 0.66941940784454345703 0.82927948236465454102 0.8125171661376953125 0.80600410699844360352 1.1071915626525878906 1.2676156759262084961 1.2516320943832397461 1.0010808706283569336 0.79318189620971679688 0.7282015681266784668 0.50196498632431030273 0.53697168827056884766 0.56276810169219970703 0.54262942075729370117 0.65693229436874389648 0.70778578519821166992 0.73097652196884155273 0.74045693874359130859 0.86881923675537109375 1.125140070915222168 1.1917234659194946289 0.94480353593826293945 0.87922441959381103516 0.92134851217269897461 0.90073382854461669922 0.80563443899154663086 0.77247029542922973633 0.78914481401443481445 0.80333429574966430664 0.71304517984390258789 0.5564625859260559082 0.38113322854042053223 0.54840910434722900391 0.71700185537338256836 0.80165702104568481445 0.75959569215774536133 0.78230524063110351562 0.79540854692459106445 0.82622802257537841797 0.88695156574249267578 0.94508057832717895508 0.96601003408432006836 1.1294411420822143555 1.1033419370651245117 0.95722472667694091797 0.80467587709426879883 0.74705892801284790039 0.66533017158508300781 0.73739355802536010742 0.9012921452522277832 0.99770015478134155273 0.95388883352279663086 
0.69707226753234863281 0.40561977028846740723 0.41726666688919067383 0.59777873754501342773 0.37347811460494995117 0.60561800003051757812 0.84337162971496582031 0.60627478361129760742 0.4055347144603729248 0.4759177863597869873 0.54633438587188720703 0.66721034049987792969 0.79878920316696166992 0.86919510364532470703 0.94016909599304199219 1.0025594234466552734 1.2207857370376586914 1.2371674776077270508 1.1822423934936523438 0.81592214107513427734 0.70620369911193847656 0.65615218877792358398 0.59966450929641723633 0.51002919673919677734 0.46061459183692932129 0.57056176662445068359 0.6790053248405456543 0.78815120458602905273 0.77197080850601196289 0.7647292017936706543 0.98255753517150878906 1.2332468032836914062 1.159132838249206543 1.0110144615173339844 0.90255171060562133789 0.9287052154541015625 0.96395200490951538086 0.90513908863067626953 0.75208181142807006836 0.55431783199310302734 0.61660635471343994141 0.57994300127029418945 0.55008637905120849609 0.64421641826629638672 0.65917783975601196289 0.66837608814239501953 0.75129741430282592773 0.82475841045379638672 0.90751397609710693359 0.93258464336395263672 1.0272637605667114258 1.1182832717895507812 0.94367831945419311523 0.82296913862228393555 1.0496580600738525391 1.076684117317199707 1.0109639167785644531 0.9583225250244140625 0.99654376506805419922 0.97977179288864135742 0.92713886499404907227 0.8155581355094909668 0.8535149693489074707 1.0469290018081665039 
0.52257239818572998047 0.33477407693862915039 0.44284409284591674805 0.34821471571922302246 0.31206434965133666992 0.65551996231079101562 0.73614990711212158203 0.68505644798278808594 0.74726969003677368164 0.77695769071578979492 0.73943930864334106445 0.64165502786636352539 0.5794277191162109375 0.70415353775024414062 0.72041773796081542969 0.95312827825546264648 1.1675963401794433594 1.1965010166168212891 1.0885939598083496094 0.79848730564117431641 0.5596904754638671875 0.5546391606330871582 0.55714929103851318359 0.46596404910087585449 0.53170192241668701172 0.64283430576324462891 0.69574540853500366211 0.78053796291351318359 0.72728955745697021484 0.75160938501358032227 1.0975068807601928711 1.2509052753448486328 1.1355265378952026367 1.0964423418045043945 0.96452552080154418945 0.92370396852493286133 0.90237408876419067383 0.94991868734359741211 0.90677672624588012695 0.81130176782608032227 0.66338819265365600586 0.43324142694473266602 0.4569804072380065918 0.64948475360870361328 0.69882416725158691406 0.7692279815673828125 0.74208772182464599609 0.86454993486404418945 1.0025143623352050781 1.1258100271224975586 1.0748195648193359375 0.8061421513557434082 0.4570172727108001709 0.49931579828262329102 0.96335178613662719727 1.0398982763290405273 0.80007129907608032227 0.6326351165771484375 0.61408793926239013672 0.64979130029678344727 0.67920583486557006836 0.61800235509872436523 0.48882338404655456543 0.69481426477432250977 
0.6792933344841003418 0.47943022847175598145 0.47110956907272338867 0.17310351133346557617 0.28536596894264221191 0.62567365169525146484 0.79440480470657348633 0.86136162281036376953 1.003704071044921875 0.99987888336181640625 0.92413467168807983398 0.89114499092102050781 0.84838157892227172852 0.79018706083297729492 0.84223276376724243164 1.0464398860931396484 1.1584694385528564453 1.1775029897689819336 0.9902375340461730957 0.7322540283203125 0.4405625462532043457 0.38033375144004821777 0.40936219692230224609 0.36726874113082885742 0.57749146223068237305 0.77001494169235229492 0.79047185182571411133 0.77777618169784545898 0.69158852100372314453 0.86177015304565429688 1.2268996238708496094 1.2573485374450683594 1.0847988128662109375 1.0071429014205932617 0.94678723812103271484 0.94810885190963745117 0.90375339984893798828 0.95245891809463500977 0.92392611503601074219 0.813060760498046875 0.77011370658874511719 0.50811207294464111328 0.49944394826889038086 0.5999062657356262207 0.63583892583847045898 0.74929153919219970703 0.81064683198928833008 1.0125960111618041992 1.1899082660675048828 1.0157723426818847656 0.61374634504318237305 0.3625011146068572998 0.29240626096725463867 0.48111447691917419434 1.0413910150527954102 1.0035773515701293945 0.80152213573455810547 0.61040836572647094727 0.53906798362731933594 0.45657169818878173828 0.45356953144073486328 0.47190088033676147461 0.35810384154319763184 0.59040367603302001953 
0.67895674705505371094 0.53242051601409912109 0.55361002683639526367 0.21255734562873840332 0.22613649070262908936 0.5541337132453918457 0.73580271005630493164 0.88414800167083740234 1.0180742740631103516 1.1016274690628051758 1.0673089027404785156 1.0597387552261352539 1.0903359651565551758 1.0762902498245239258 1.1206052303314208984 1.1447380781173706055 1.1601240634918212891 1.0470153093338012695 0.76745283603668212891 0.63402509689331054688 0.4015254676342010498 0.40180721879005432129 0.48115137219429016113 0.56703191995620727539 0.62800377607345581055 0.78056341409683227539 0.76172834634780883789 0.73077309131622314453 0.77200973033905029297 1.097211003303527832 1.2675164937973022461 1.1938068866729736328 0.98010802268981933594 0.9361782073974609375 0.98406237363815307617 0.91727465391159057617 0.93302702903747558594 0.94204878807067871094 0.90224617719650268555 0.57395583391189575195 0.58193254470825195312 0.63449549674987792969 0.72528237104415893555 0.77811521291732788086 0.76288658380508422852 0.80870819091796875 0.98574399948120117188 1.208171844482421875 1.029038548469543457 0.5765812993049621582 0.34287956357002258301 0.33495047688484191895 0.50784444808959960938 0.95001900196075439453 1.0356006622314453125 0.81434422731399536133 0.71754068136215209961 0.79409754276275634766 0.73009032011032104492 0.56506174802780151367 0.35015848278999328613 0.27180531620979309082 0.22545790672302246094 0.47541305422782897949 
0.69563025236129760742 0.50844407081604003906 0.51946747303009033203 0.3974266350269317627 0.2798487246036529541 0.61628907918930053711 0.64952307939529418945 0.82951885461807250977 1.0312277078628540039 1.0604214668273925781 1.071826934814453125 1.0869668722152709961 1.1086336374282836914 1.1401332616806030273 1.1411970853805541992 1.0895898342132568359 0.91745775938034057617 0.61124151945114135742 0.40184044837951660156 0.52547454833984375 0.41496437788009643555 0.50620621442794799805 0.58923304080963134766 0.67692571878433227539 0.729511260986328125 0.71314126253128051758 0.67420440912246704102 0.69220298528671264648 0.97891128063201904297 1.1994414329528808594 1.1752744913101196289 1.0881209373474121094 0.91581940650939941406 0.95914328098297119141 0.87512981891632080078 0.84236806631088256836 0.93241536617279052734 0.92767310142517089844 0.88772988319396972656 0.41642439365386962891 0.4371287226676940918 0.67923134565353393555 0.71058893203735351562 0.79332137107849121094 0.8248424530029296875 0.91274702548980712891 1.107189178466796875 1.1675809621810913086 0.65970712900161743164 0.3392651975154876709 0.33457452058792114258 0.57530713081359863281 0.97266083955764770508 1.059266209602355957 0.79355740547180175781 0.65915882587432861328 0.52791160345077514648 0.74221652746200561523 0.84594929218292236328 0.82417470216751098633 0.731021881103515625 0.46303826570510864258 0.24088299274444580078 0.4789651036262512207 
0.85592055320739746094 0.50569987297058105469 0.47990211844444274902 0.51718229055404663086 0.4714081883430480957 0.73685002326965332031 0.74473881721496582031 0.71576553583145141602 0.86252874135971069336 0.90850555896759033203 1.0324624776840209961 1.0092444419860839844 1.0317606925964355469 0.98675674200057983398 0.86157763004302978516 0.6953525543212890625 0.54667353630065917969 0.35215860605239868164 0.3572832643985748291 0.4803110659122467041 0.46765932440757751465 0.56903278827667236328 0.48006114363670349121 0.67034369707107543945 0.74854218959808349609 0.70306175947189331055 0.7285258173942565918 0.95196831226348876953 1.189528346061706543 1.1443195343017578125 1.1270307302474975586 0.97395533323287963867 0.93863707780838012695 0.79038345813751220703 0.74404388666152954102 0.86055642366409301758 0.90512198209762573242 0.92692399024963378906 0.89839065074920654297 0.58168101310729980469 0.32206222414970397949 0.39658236503601074219 0.58652138710021972656 0.81880402565002441406 0.854907989501953125 0.98033499717712402344 1.178873896598815918 0.96803516149520874023 0.53478664159774780273 0.30642288923263549805 0.47913256287574768066 0.87681812047958374023 1.1151372194290161133 0.89265489578247070312 0.65194505453109741211 0.5876668095588684082 0.39555406570434570312 0.47115814685821533203 0.63452452421188354492 0.69218009710311889648 0.6177228093147277832 0.44107285141944885254 0.55477184057235717773 0.77170872688293457031 
0.66247981786727905273 0.26429292559623718262 0.42225146293640136719 0.61438262462615966797 0.45954248309135437012 0.47096076607704162598 0.64019358158111572266 0.67405331134796142578 0.69853860139846801758 0.67130625247955322266 0.70975828170776367188 0.75503301620483398438 0.74562895298004150391 0.62773483991622924805 0.4649200141429901123 0.3834896087646484375 0.32015845179557800293 0.36665928363800048828 0.55415117740631103516 0.69402140378952026367 0.70573729276657104492 0.74717372655868530273 0.51039981842041015625 0.68987923860549926758 0.84228211641311645508 0.84611624479293823242 0.98042386770248413086 1.2078591585159301758 1.2255070209503173828 1.1269460916519165039 1.033768773078918457 0.93475031852722167969 0.79035258293151855469 0.57391917705535888672 0.72943681478500366211 0.81506025791168212891 0.88269460201263427734 0.91476804018020629883 0.87524461746215820312 0.52020913362503051758 0.26525366306304931641 0.35585448145866394043 0.53304421901702880859 0.65131789445877075195 0.77553838491439819336 0.96702313423156738281 1.0901561975479125977 0.71554160118103027344 0.42678761482238769531 0.35500368475914001465 0.70697253942489624023 1.0834146738052368164 1.0790733098983764648 0.74658036231994628906 0.7060648798942565918 0.57808470726013183594 0.50480735301971435547 0.37695488333702087402 0.29401710629463195801 0.42148086428642272949 0.44664356112480163574 0.4578647911548614502 0.70964020490646362305 0.92033565044403076172 
0.64662021398544311523 0.33781147003173828125 0.48664274811744689941 0.69684052467346191406 0.64700090885162353516 0.44070771336555480957 0.65636146068572998047 0.71215659379959106445 0.61671429872512817383 0.54516828060150146484 0.50265944004058837891 0.58837914466857910156 0.52538579702377319336 0.40397301316261291504 0.37196454405784606934 0.56102323532104492188 0.48249953985214233398 0.60305190086364746094 0.68895071744918823242 0.80631864070892333984 0.92668092250823974609 0.97910076379776000977 0.60528266429901123047 0.62552446126937866211 0.83813637495040893555 0.99331867694854736328 1.2079062461853027344 1.2067874670028686523 1.1726464033126831055 1.0389436483383178711 0.92805612087249755859 0.94841402769088745117 0.70258271694183349609 0.44161617755889892578 0.68641966581344604492 0.76875853538513183594 0.77665609121322631836 0.83360230922698974609 0.78471857309341430664 0.53078639507293701172 0.57370233535766601562 0.60711592435836791992 0.60401111841201782227 0.69128966331481933594 0.77137660980224609375 1.0368579626083374023 0.92289751768112182617 0.49303987622261047363 0.35167893767356872559 0.50388467311859130859 0.9484081268310546875 1.1797730922698974609 1.1110413074493408203 0.74764531850814819336 0.68156808614730834961 0.72230207920074462891 0.5826899409294128418 0.42026275396347045898 0.19008782505989074707 0.18574003875255584717 0.25538876652717590332 0.53824436664581298828 0.70434081554412841797 0.85832709074020385742 
0.86299103498458862305 0.70022666454315185547 0.69644552469253540039 0.70911109447479248047 0.73806011676788330078 0.60875779390335083008 0.8294118046760559082 0.9726403355598449707 0.99020123481750488281 0.94662368297576904297 0.73047548532485961914 0.71301007270812988281 0.50099986791610717773 0.46184507012367248535 0.52243483066558837891 0.69656318426132202148 0.71929752826690673828 0.77000230550765991211 0.77099806070327758789 0.80477482080459594727 0.88636553287506103516 0.99825388193130493164 0.82889837026596069336 0.74253708124160766602 0.92118853330612182617 1.0780256986618041992 1.1885813474655151367 1.1290727853775024414 1.0701690912246704102 1.0343329906463623047 1.0098131895065307617 0.947200775146484375 0.73898941278457641602 0.4428736567497253418 0.5992400050163269043 0.62390124797821044922 0.4628104865550994873 0.54540038108825683594 0.60848015546798706055 0.59495812654495239258 0.80711585283279418945 0.87277251482009887695 0.89647895097732543945 0.87804675102233886719 0.95564025640487670898 1.172188878059387207 0.89845228195190429688 0.47884276509284973145 0.27829256653785705566 0.50534206628799438477 0.9996445775032043457 1.1546461582183837891 1.0787446498870849609 0.82528281211853027344 0.69025957584381103516 0.61220264434814453125 0.60270774364471435547 0.50306606292724609375 0.32200324535369873047 0.41990861296653747559 0.41520568728446960449 0.44629302620887756348 0.62489241361618041992 0.79271310567855834961 
1.0172536373138427734 0.93780666589736938477 0.99086487293243408203 0.93772846460342407227 0.8320630192756652832 0.62886005640029907227 0.89160263538360595703 1.0456705093383789062 1.0229612588882446289 1.0573095083236694336 0.99301099777221679688 0.94608128070831298828 0.74287182092666625977 0.63095736503601074219 0.64249914884567260742 0.64953768253326416016 0.66349339485168457031 0.81332284212112426758 0.81632703542709350586 0.69854748249053955078 0.68641221523284912109 1.0319985151290893555 0.92569077014923095703 0.7853381037712097168 1.0577890872955322266 1.1262520551681518555 1.0139359235763549805 0.99445480108261108398 0.99884772300720214844 1.0616220235824584961 0.85635787248611450195 0.71113473176956176758 0.78444713354110717773 0.61396986246109008789 0.49753877520561218262 0.40541908144950866699 0.2147032320499420166 0.4127591550350189209 0.50000947713851928711 0.62786513566970825195 0.71765929460525512695 0.73185890913009643555 0.87108463048934936523 0.98343014717102050781 1.1533203125 1.0967183113098144531 0.89185100793838500977 0.72864109277725219727 0.46102315187454223633 0.64880126714706420898 1.0361464023590087891 1.045485377311706543 1.0299223661422729492 0.89910531044006347656 0.86256170272827148438 0.88989824056625366211 0.87477296590805053711 0.71853989362716674805 0.7512595057487487793 0.80143588781356811523 0.75226449966430664062 0.64434039592742919922 0.6269766688346862793 0.73617929220199584961 
0.90241652727127075195 0.66850322484970092773 0.73562103509902954102 0.7101256251335144043 0.47583654522895812988 0.55512481927871704102 0.89419454336166381836 0.97228467464447021484 1.0024778842926025391 0.99226129055023193359 1.1016092300415039062 1.1026636362075805664 1.0689108371734619141 0.85444962978363037109 0.66653198003768920898 0.55783331394195556641 0.52466696500778198242 0.77554136514663696289 0.76680141687393188477 0.88204985857009887695 0.82746046781539916992 1.0540995597839355469 0.73539912700653076172 0.82890367507934570312 0.85866922140121459961 0.77733838558197021484 0.70696425437927246094 0.80446100234985351562 0.93869298696517944336 0.98297697305679321289 0.44790956377983093262 0.4045689702033996582 0.60547041893005371094 0.58518677949905395508 0.53868967294692993164 0.3338902890682220459 0.31052723526954650879 0.55529928207397460938 0.56941324472427368164 0.44719576835632324219 0.41194549202919006348 0.44718921184539794922 0.62240636348724365234 0.97517722845077514648 1.1191685199737548828 0.89853060245513916016 0.78201097249984741211 0.7862173914909362793 0.5599969029426574707 0.4699077606201171875 0.99778825044631958008 1.1041486263275146484 1.0480387210845947266 0.95258897542953491211 0.92991018295288085938 0.96087533235549926758 0.96858412027359008789 0.90921980142593383789 0.87552279233932495117 0.85722631216049194336 0.81871527433395385742 0.68219637870788574219 0.50140047073364257812 0.70053941011428833008 
0.70517289638519287109 0.37709146738052368164 0.38111442327499389648 0.43913945555686950684 0.42266693711280822754 0.55254739522933959961 0.67637503147125244141 0.81189960241317749023 0.89989310503005981445 0.89435166120529174805 0.84667670726776123047 0.7641270756721496582 0.95853608846664428711 1.0680568218231201172 1.0314319133758544922 0.72899729013442993164 0.48755341768264770508 0.83097326755523681641 0.95899695158004760742 0.99030214548110961914 0.95870584249496459961 1.0756598711013793945 0.74240487813949584961 0.52655959129333496094 0.45532071590423583984 0.38882789015769958496 0.57805627584457397461 0.74353379011154174805 0.88546580076217651367 0.89796352386474609375 0.44119635224342346191 0.33220386505126953125 0.33802032470703125 0.41585102677345275879 0.44846487045288085938 0.2895342409610748291 0.32588717341423034668 0.62817996740341186523 0.83680105209350585938 0.68644189834594726562 0.57197391986846923828 0.45571053028106689453 0.44539785385131835938 0.82193696498870849609 1.0893521308898925781 0.90828293561935424805 0.69427919387817382812 0.7722899317741394043 0.64911496639251708984 0.52346897125244140625 1.0109665393829345703 1.1094999313354492188 1.1262015104293823242 0.99400371313095092773 0.87043547630310058594 0.98420435190200805664 1.0318921804428100586 0.96688610315322875977 0.84131985902786254883 0.66660207509994506836 0.47113153338432312012 0.25107356905937194824 0.23527404665946960449 0.49651759862899780273 
0.64722692966461181641 0.57162201404571533203 0.66193169355392456055 0.8381029963493347168 0.7663033604621887207 0.35785314440727233887 0.27613279223442077637 0.5149815678596496582 0.61374491453170776367 0.6422017216682434082 0.62284988164901733398 0.47881367802619934082 0.50331199169158935547 0.60069382190704345703 0.93476635217666625977 1.0517623424530029297 0.57093465328216552734 0.49509266018867492676 0.86657631397247314453 0.91660171747207641602 1.0778890848159790039 1.1400774717330932617 0.70108568668365478516 0.31233569979667663574 0.21485905349254608154 0.26790121197700500488 0.59596335887908935547 0.74914836883544921875 0.83871042728424072266 0.74596649408340454102 0.46752271056175231934 0.36254522204399108887 0.35674321651458740234 0.33295100927352905273 0.34878939390182495117 0.31527033448219299316 0.45412835478782653809 0.75296473503112792969 0.89089745283126831055 0.92739903926849365234 0.8547179102897644043 0.60507130622863769531 0.42629548907279968262 0.73047387599945068359 1.0266003608703613281 0.84715163707733154297 0.53458768129348754883 0.62553572654724121094 0.72595709562301635742 0.6028830409049987793 0.94978833198547363281 1.0931781530380249023 1.1174341440200805664 0.93654853105545043945 0.69048899412155151367 0.55206841230392456055 0.8404172062873840332 0.88951152563095092773 0.64214545488357543945 0.40084153413772583008 0.24381619691848754883 0.24632193148136138916 0.39324980974197387695 0.71200275421142578125 
0.76697701215744018555 0.85108941793441772461 0.85057812929153442383 0.97691965103149414062 0.64893668889999389648 0.21102136373519897461 0.23349164426326751709 0.5469443202018737793 0.88434165716171264648 0.93854624032974243164 0.78268218040466308594 0.76117753982543945312 0.60893219709396362305 0.52221375703811645508 0.72421908378601074219 1.0566018819808959961 0.64408171176910400391 0.24474792182445526123 0.58807051181793212891 0.77261763811111450195 0.99475449323654174805 1.147462010383605957 0.70881009101867675781 0.39223194122314453125 0.24855984747409820557 0.27745035290718078613 0.5103403925895690918 0.63305270671844482422 0.65000510215759277344 0.64819723367691040039 0.45002055168151855469 0.39212027192115783691 0.52468883991241455078 0.4311930239200592041 0.36850902438163757324 0.43557947874069213867 0.71277922391891479492 0.83761805295944213867 0.83927893638610839844 0.88632470369338989258 0.99242728948593139648 0.92588818073272705078 0.66155260801315307617 0.57539862394332885742 0.76444655656814575195 0.77223110198974609375 0.75805151462554931641 0.76190918684005737305 0.74315631389617919922 0.56372821331024169922 0.80775487422943115234 1.0576732158660888672 1.0133610963821411133 0.87410473823547363281 0.5770327448844909668 0.29002401232719421387 0.37824788689613342285 0.66496837139129638672 0.58159732818603515625 0.36930239200592041016 0.34477272629737854004 0.35766372084617614746 0.51689195632934570312 0.89994561672210693359 
0.94391012191772460938 0.94756388664245605469 1.055121302604675293 0.90188127756118774414 0.38492742180824279785 0.33763334155082702637 0.35595220327377319336 0.42214414477348327637 0.71767342090606689453 0.93407237529754638672 0.95099246501922607422 1.0262556076049804688 1.0823111534118652344 1.0218563079833984375 0.97415661811828613281 0.92982745170593261719 0.783443450927734375 0.3860562443733215332 0.58887898921966552734 0.79407578706741333008 0.96257561445236206055 1.1058236360549926758 0.79524385929107666016 0.44445046782493591309 0.34762173891067504883 0.26865378022193908691 0.26629367470741271973 0.32918563485145568848 0.35718032717704772949 0.52700692415237426758 0.58551818132400512695 0.53519439697265625 0.55820262432098388672 0.55379903316497802734 0.3447907865047454834 0.31571799516677856445 0.5468413233757019043 0.74311226606369018555 0.80547446012496948242 0.90296190977096557617 1.0169587135314941406 1.1163847446441650391 0.83094131946563720703 0.61472558975219726562 0.51437747478485107422 0.62089878320693969727 0.64169955253601074219 0.67132663726806640625 0.65653848648071289062 0.50906264781951904297 0.60669285058975219727 0.92257100343704223633 0.81489020586013793945 0.46202826499938964844 0.47614720463752746582 0.42704248428344726562 0.42497798800468444824 0.31713846325874328613 0.28581628203392028809 0.30412915349006652832 0.57550328969955444336 0.53664875030517578125 0.72608065605163574219 1.0145727396011352539 
1.1177937984466552734 0.99883985519409179688 1.0464370250701904297 0.66251009702682495117 0.34924551844596862793 0.70599406957626342773 0.73339647054672241211 0.7242119908332824707 0.53663462400436401367 0.62859487533569335938 0.97190892696380615234 1.0697633028030395508 1.0469138622283935547 0.95937311649322509766 0.96937042474746704102 1.0691208839416503906 0.82446533441543579102 0.3659731745719909668 0.67724859714508056641 0.98694175481796264648 1.0697666406631469727 1.1087201833724975586 0.87611919641494750977 0.50214534997940063477 0.3996264040470123291 0.35896384716033935547 0.34540250897407531738 0.57870817184448242188 0.50565761327743530273 0.69861006736755371094 0.86489707231521606445 0.78476101160049438477 0.56213927268981933594 0.58872205018997192383 0.3407115936279296875 0.40269911289215087891 0.60242480039596557617 0.86295729875564575195 0.91930294036865234375 1.1006478071212768555 1.1248989105224609375 1.1965513229370117188 0.96078711748123168945 0.76263546943664550781 0.5818201899528503418 0.44866651296615600586 0.40291765332221984863 0.42237555980682373047 0.44612288475036621094 0.42336070537567138672 0.34263068437576293945 0.49125739932060241699 0.78070741891860961914 0.83730113506317138672 0.83624869585037231445 0.73387229442596435547 0.58468168973922729492 0.4231987297534942627 0.35764512419700622559 0.31796061992645263672 0.54725360870361328125 0.615413665771484375 0.8969243168830871582 0.98432904481887817383 
1.120800018310546875 0.99697291851043701172 1.013116002082824707 0.64863389730453491211 0.44793212413787841797 0.73691236972808837891 0.96312761306762695312 0.97331380844116210938 0.89548444747924804688 0.689640045166015625 0.75315165519714355469 0.96062046289443969727 1.1117892265319824219 0.9823735356330871582 1.0184092521667480469 1.2392765283584594727 0.98393726348876953125 0.54673814773559570312 0.78023570775985717773 1.0137435197830200195 1.1509232521057128906 1.162581324577331543 1.004610896110534668 0.68058723211288452148 0.57106113433837890625 0.62628698348999023438 0.67822706699371337891 0.82468956708908081055 0.84596550464630126953 0.85030883550643920898 0.97651410102844238281 1.0766142606735229492 0.88347232341766357422 0.78124380111694335938 0.53271210193634033203 0.52931952476501464844 0.53328943252563476562 0.76243799924850463867 0.95061480998992919922 1.0972002744674682617 1.1995174884796142578 1.2331855297088623047 0.97745734453201293945 0.74615538120269775391 0.66245764493942260742 0.57037115097045898438 0.55132895708084106445 0.60095518827438354492 0.58909696340560913086 0.61130672693252563477 0.42407432198524475098 0.31774154305458068848 0.61788260936737060547 0.97126436233520507812 0.97404700517654418945 0.90877687931060791016 0.74797958135604858398 0.68274027109146118164 0.68504190444946289062 0.63431835174560546875 0.73540920019149780273 0.8419068455696105957 1.006683349609375 1.0157152414321899414 
