ncols        32
nrows        30
xllcorner    630800.000000000000
yllcorner    5180500.000000000000
cellsize     500.000000000000
1.0386339426040649414 1.1873078346252441406 1.3254106044769287109 1.2001854181289672852 0.90291583538055419922 0.89322268962860107422 0.91249519586563110352 1.0157237052917480469 0.89455848932266235352 0.79193747043609619141 1.0717732906341552734 1.1379445791244506836 1.0218057632446289062 0.57397627830505371094 0.66976684331893920898 1.0407354831695556641 0.96944326162338256836 0.77564167976379394531 0.75687044858932495117 0.60464966297149658203 0.73977398872375488281 0.89432197809219360352 0.86334502696990966797 0.67464441061019897461 0.72806465625762939453 0.93918758630752563477 1.0158731937408447266 1.0393053293228149414 0.75979268550872802734 0.64431798458099365234 0.87578225135803222656 1.0885934829711914062 
0.84212481975555419922 0.871585845947265625 1.1063674688339233398 1.1558110713958740234 0.8019504547119140625 0.82194548845291137695 0.8478806614875793457 0.6614532470703125 0.54935669898986816406 0.6309840083122253418 0.84805762767791748047 0.71642839908599853516 0.89585608243942260742 0.81569540500640869141 0.76639568805694580078 0.75826972723007202148 0.57356679439544677734 0.47928455471992492676 0.56013017892837524414 0.60639959573745727539 0.77474635839462280273 0.79275572299957275391 0.60412460565567016602 0.52455925941467285156 0.62194734811782836914 0.91535454988479614258 0.92186701297760009766 0.84817647933959960938 0.46718642115592956543 0.49854272603988647461 0.47843196988105773926 0.62102371454238891602 
1.1053012609481811523 1.0594140291213989258 1.1370705366134643555 1.1174569129943847656 0.68978089094161987305 0.57816624641418457031 0.49112614989280700684 0.50801515579223632812 0.50023877620697021484 0.66848647594451904297 0.62311255931854248047 0.49408420920372009277 0.7055022120475769043 0.57263135910034179688 0.6442483067512512207 0.70352494716644287109 0.75077539682388305664 0.76955229043960571289 0.63075715303421020508 0.62500625848770141602 0.62340337038040161133 0.63816344738006591797 0.37262451648712158203 0.48253548145294189453 0.76101833581924438477 0.82804226875305175781 0.7817026972770690918 0.95054113864898681641 0.60636192560195922852 0.82426410913467407227 0.82566171884536743164 0.89827573299407958984 
1.1697940826416015625 1.0053807497024536133 1.0605603456497192383 1.1776387691497802734 0.86417460441589355469 0.7873318791389465332 0.65229493379592895508 0.73486375808715820312 0.75197941064834594727 0.91361218690872192383 0.96391737461090087891 0.52970772981643676758 0.52413576841354370117 0.75867390632629394531 0.84423112869262695312 0.89403772354125976562 1.02999114990234375 0.98829060792922973633 0.82431876659393310547 0.82288438081741333008 0.72687542438507080078 0.73295670747756958008 0.47948655486106872559 0.46297195553779602051 0.68561255931854248047 0.89428257942199707031 0.76712018251419067383 0.92787140607833862305 0.76979422569274902344 0.77326923608779907227 0.88796210289001464844 0.98649847507476806641 
0.88028264045715332031 0.55119782686233520508 0.76062142848968505859 1.0901820659637451172 1.1167275905609130859 0.89239102602005004883 0.91038227081298828125 0.94805794954299926758 0.92782115936279296875 0.92619526386260986328 0.74955326318740844727 0.40388849377632141113 0.43996608257293701172 0.81493496894836425781 1.0207889080047607422 1.0676329135894775391 1.0767928361892700195 1.0569827556610107422 0.95556986331939697266 0.75478035211563110352 0.56797188520431518555 0.9002221226692199707 0.93625086545944213867 0.7267373204231262207 0.53915780782699584961 0.85819905996322631836 0.8510996699333190918 0.80133491754531860352 0.86717754602432250977 0.84979611635208129883 0.98230111598968505859 1.0289139747619628906 
0.75715708732604980469 0.49610459804534912109 0.72339105606079101562 0.94011139869689941406 1.2666687965393066406 1.2447966337203979492 1.1655362844467163086 1.1764205694198608398 0.95148766040802001953 0.69264549016952514648 0.40552553534507751465 0.53100210428237915039 0.69259208440780639648 0.79486668109893798828 1.0016086101531982422 1.0864037275314331055 1.0603444576263427734 1.0417563915252685547 0.94469362497329711914 0.72480106353759765625 0.39335137605667114258 0.60024142265319824219 0.97347033023834228516 0.95861279964447021484 0.65479898452758789062 0.90522760152816772461 0.7782300114631652832 0.68048226833343505859 0.84516531229019165039 0.90336382389068603516 1.0027339458465576172 1.014132380485534668 
0.83422666788101196289 0.45807105302810668945 0.66306537389755249023 0.92869234085083007812 1.1002037525177001953 0.86495202779769897461 0.67656815052032470703 0.81838536262512207031 1.0972423553466796875 0.81042402982711791992 0.55899029970169067383 0.66318207979202270508 0.90556770563125610352 1.0022732019424438477 1.1033598184585571289 1.1583331823348999023 1.0381492376327514648 0.89185667037963867188 0.87184655666351318359 0.57230943441390991211 0.60085850954055786133 0.68181097507476806641 0.86832940578460693359 0.98815745115280151367 0.73975676298141479492 0.83143383264541625977 0.8468825221061706543 0.79758930206298828125 0.8418967127799987793 0.89652490615844726562 1.0772734880447387695 1.1511139869689941406 
0.96402794122695922852 0.67179584503173828125 0.99064171314239501953 1.0502324104309082031 1.0391362905502319336 0.60533273220062255859 0.61613035202026367188 0.82424324750900268555 1.0383117198944091797 0.9660320281982421875 0.8504073023796081543 0.77154272794723510742 0.84335666894912719727 0.99198627471923828125 0.99424767494201660156 1.1159282922744750977 1.1495461463928222656 0.82836943864822387695 0.84197038412094116211 0.48582512140274047852 0.68725752830505371094 0.77738040685653686523 0.63502448797225952148 0.8372179865837097168 0.85743749141693115234 0.79536956548690795898 0.82493287324905395508 0.7304999232292175293 0.75119757652282714844 0.83839619159698486328 1.1623007059097290039 0.92875474691390991211 
0.954273223876953125 0.78965300321578979492 0.962066650390625 0.84440308809280395508 0.91120046377182006836 0.7738730311393737793 0.8987528681755065918 0.99354493618011474609 1.107151031494140625 1.0194009542465209961 0.92476022243499755859 0.50472587347030639648 0.59917712211608886719 0.63041663169860839844 0.48499876260757446289 0.85521370172500610352 1.1746356487274169922 0.98891723155975341797 0.75752186775207519531 0.46965682506561279297 0.68932521343231201172 0.81321978569030761719 0.71883261203765869141 0.81053394079208374023 0.94169175624847412109 0.93744963407516479492 0.93123650550842285156 0.93995976448059082031 0.87471294403076171875 1.0432108640670776367 1.1092978715896606445 0.78002083301544189453 
0.89571410417556762695 0.66554027795791625977 0.69594943523406982422 0.75407445430755615234 0.92498338222503662109 0.99641007184982299805 1.0722203254699707031 1.0944133996963500977 1.0435668230056762695 0.69289058446884155273 0.58447241783142089844 0.46458780765533447266 0.75805693864822387695 0.9201908111572265625 0.68311178684234619141 0.62576562166213989258 0.99697351455688476562 1.1449992656707763672 0.85287177562713623047 0.57865089178085327148 0.6289691925048828125 0.73103678226470947266 0.90382087230682373047 0.96091151237487792969 1.0858607292175292969 1.143876194953918457 1.1471711397171020508 1.1328519582748413086 1.0972807407379150391 1.0400542020797729492 0.95479696989059448242 0.79024618864059448242 
0.78217422962188720703 0.54559326171875 0.77214217185974121094 0.99625027179718017578 1.0693982839584350586 1.111487269401550293 1.1126252412796020508 1.1151083707809448242 0.84627884626388549805 0.55316305160522460938 0.69292145967483520508 0.75398361682891845703 0.73435825109481811523 0.86455929279327392578 1.0085654258728027344 0.89271408319473266602 1.0152165889739990234 1.1318944692611694336 1.117779850959777832 0.87136530876159667969 0.74146473407745361328 0.85659688711166381836 0.990325927734375 1.1552269458770751953 0.97850948572158813477 0.67544192075729370117 0.69847643375396728516 0.62578469514846801758 0.58804166316986083984 0.62175524234771728516 0.98420119285583496094 0.82164013385772705078 
0.59892690181732177734 0.67424339056015014648 0.91742652654647827148 1.0080744028091430664 1.0757458209991455078 1.1283675432205200195 1.1085519790649414062 1.0423907041549682617 0.61161661148071289062 0.59526175260543823242 0.88379991054534912109 0.91858559846878051758 0.6270548701286315918 0.72171878814697265625 1.0061304569244384766 1.0601257085800170898 0.9232107996940612793 0.79491454362869262695 0.97977173328399658203 1.080102086067199707 0.74813693761825561523 0.72315269708633422852 0.91587209701538085938 0.89206892251968383789 0.51144558191299438477 0.45546355843544006348 0.51279598474502563477 0.43841129541397094727 0.41208994388580322266 0.60634309053421020508 1.0082569122314453125 0.77499699592590332031 
0.71103495359420776367 0.78211587667465209961 0.89469558000564575195 0.98078870773315429688 1.0304465293884277344 1.0900964736938476562 1.0798921585083007812 1.0402269363403320312 0.8577244877815246582 0.86608868837356567383 0.97016012668609619141 1.0184645652770996094 0.86980873346328735352 0.77569329738616943359 0.84664785861968994141 0.8209686279296875 0.6785182952880859375 0.58391022682189941406 0.77046996355056762695 0.97362053394317626953 0.94022679328918457031 0.8059908747673034668 0.96660757064819335938 0.56101363897323608398 0.47573885321617126465 0.42960202693939208984 0.38046979904174804688 0.39015075564384460449 0.44958764314651489258 0.70880311727523803711 1.0404207706451416016 0.75116884708404541016 
0.5478503108024597168 0.63706350326538085938 0.79388391971588134766 0.92329394817352294922 1.0070881843566894531 1.0633814334869384766 1.0341972112655639648 1.049563288688659668 1.0004477500915527344 0.92905575037002563477 0.87091177701950073242 1.0242613554000854492 1.0064938068389892578 0.87262141704559326172 0.65299111604690551758 0.47522753477096557617 0.43490904569625854492 0.55019378662109375 0.61186838150024414062 0.82610774040222167969 1.1169945001602172852 0.98555731773376464844 0.58309698104858398438 0.45543649792671203613 0.51403123140335083008 0.4032433629035949707 0.27797785401344299316 0.36584734916687011719 0.48040089011192321777 0.78138124942779541016 1.0188146829605102539 0.70118021965026855469 
0.64923238754272460938 0.47807282209396362305 0.70845586061477661133 0.87051558494567871094 0.98140835762023925781 1.0490015745162963867 1.0422691106796264648 0.9665686488151550293 0.92888188362121582031 0.8706111907958984375 0.69945955276489257812 0.82248055934906005859 0.79325282573699951172 0.83463960886001586914 0.90648674964904785156 0.74102622270584106445 0.51598471403121948242 0.55926936864852905273 0.59972196817398071289 0.79045045375823974609 1.1341019868850708008 0.69862037897109985352 0.39871099591255187988 0.39922285079956054688 0.51789724826812744141 0.34886628389358520508 0.2383117377758026123 0.43144527077674865723 0.54373449087142944336 0.91689002513885498047 0.87367224693298339844 0.7863922119140625 
0.85337930917739868164 0.44603648781776428223 0.56438541412353515625 0.78485703468322753906 0.98560106754302978516 1.0050907135009765625 0.86919319629669189453 0.80833786725997924805 0.79286795854568481445 0.69682902097702026367 0.72862595319747924805 0.72337782382965087891 0.66161024570465087891 0.60272777080535888672 0.72351247072219848633 0.90751832723617553711 0.68134856224060058594 0.67021828889846801758 0.80641055107116699219 1.0896277427673339844 0.99044901132583618164 0.57991659641265869141 0.4036089479923248291 0.38509452342987060547 0.47053557634353637695 0.3291447758674621582 0.33334663510322570801 0.53715252876281738281 0.72849243879318237305 0.99010193347930908203 0.67887639999389648438 0.53179377317428588867 
1.0049785375595092773 0.82095265388488769531 0.81267541646957397461 0.68459093570709228516 0.89352995157241821289 0.854579925537109375 0.72833168506622314453 0.6844622492790222168 0.63736897706985473633 0.58264768123626708984 0.77454626560211181641 0.82744961977005004883 0.82872545719146728516 0.8185570836067199707 0.96921336650848388672 1.1389967203140258789 1.0416113138198852539 0.98314929008483886719 1.0839225053787231445 0.98018348217010498047 0.78424060344696044922 0.64560276269912719727 0.48294910788536071777 0.35213491320610046387 0.41899582743644714355 0.38070228695869445801 0.45504266023635864258 0.60200959444046020508 0.89647412300109863281 0.80631059408187866211 0.52688449621200561523 0.45598167181015014648 
1.0918185710906982422 1.1875196695327758789 1.176829218864440918 0.91039419174194335938 0.6655953526496887207 0.67846059799194335938 0.61913067102432250977 0.58874362707138061523 0.76121908426284790039 0.84698665142059326172 0.8439846038818359375 0.86046463251113891602 0.98239928483963012695 1.0847022533416748047 0.92930620908737182617 0.80593949556350708008 0.76950699090957641602 0.93155765533447265625 0.95918136835098266602 0.83503955602645874023 0.79850995540618896484 0.77786046266555786133 0.63481402397155761719 0.33660477399826049805 0.49256938695907592773 0.59200239181518554688 0.62697643041610717773 0.69247531890869140625 0.97924566268920898438 0.65307706594467163086 0.51903825998306274414 0.41069823503494262695 
0.94814205169677734375 0.80989420413970947266 1.0836818218231201172 1.0907371044158935547 0.82488292455673217773 0.4994303286075592041 0.51380944252014160156 0.61219811439514160156 0.75055778026580810547 0.83744466304779052734 0.92382651567459106445 1.1256302595138549805 1.0690197944641113281 0.75052779912948608398 0.59808325767517089844 0.46468716859817504883 0.47406181693077087402 0.84188789129257202148 0.80357801914215087891 0.82003253698348999023 0.83577424287796020508 0.70362377166748046875 0.56223022937774658203 0.36851865053176879883 0.36390534043312072754 0.43534013628959655762 0.50804400444030761719 0.78590512275695800781 0.89461636543273925781 0.62523823976516723633 0.50438648462295532227 0.358844757080078125 
0.96675467491149902344 0.66899240016937255859 0.87326383590698242188 0.93421155214309692383 0.73675078153610229492 0.66603839397430419922 0.92733341455459594727 0.97162497043609619141 0.87234598398208618164 0.98536711931228637695 1.203110814094543457 1.0540974140167236328 0.78409188985824584961 0.63342148065567016602 0.5234368443489074707 0.51293361186981201172 0.86090362071990966797 1.0047042369842529297 0.84746128320693969727 0.80383133888244628906 0.7525336146354675293 0.7092113494873046875 0.46820503473281860352 0.55899918079376220703 0.579730987548828125 0.52729254961013793945 0.54076749086380004883 0.84085094928741455078 0.7496649622917175293 0.45422089099884033203 0.38248443603515625 0.34072452783584594727 
0.81024658679962158203 0.46918112039566040039 0.68502134084701538086 0.92913138866424560547 0.53053212165832519531 0.52841138839721679688 0.66946959495544433594 0.71227234601974487305 1.0712189674377441406 1.2070801258087158203 0.99001294374465942383 0.73839461803436279297 0.61573362350463867188 0.58118462562561035156 0.62974536418914794922 0.79744988679885864258 1.0909938812255859375 0.91208380460739135742 0.86496961116790771484 0.84743362665176391602 0.64762920141220092773 0.4404665529727935791 0.59064686298370361328 0.72243398427963256836 0.69702494144439697266 0.63384979963302612305 0.70476210117340087891 0.92699199914932250977 0.64879506826400756836 0.44618725776672363281 0.42016687989234924316 0.51066267490386962891 
0.55990707874298095703 0.47139340639114379883 0.58366811275482177734 0.78309857845306396484 0.45155084133148193359 0.53918135166168212891 0.74894195795059204102 0.87949031591415405273 1.1766057014465332031 1.0558654069900512695 0.71935552358627319336 0.55389153957366943359 0.54707878828048706055 0.69360387325286865234 0.75591391324996948242 1.0324019193649291992 1.078570246696472168 0.91747695207595825195 0.88767790794372558594 0.74599885940551757812 0.66571456193923950195 0.53233063220977783203 0.65440922975540161133 0.78011596202850341797 0.85590970516204833984 0.93476605415344238281 0.89316284656524658203 1.0553851127624511719 0.90239191055297851562 0.80816650390625 0.80632263422012329102 0.89676314592361450195 
0.51089817285537719727 0.3629671633243560791 0.46873000264167785645 0.76658827066421508789 0.85136449337005615234 0.80868321657180786133 0.77147239446640014648 0.9243030548095703125 1.1568694114685058594 0.88563883304595947266 0.51428407430648803711 0.47189560532569885254 0.61921316385269165039 0.75395703315734863281 0.80007344484329223633 1.1685544252395629883 1.0771710872650146484 0.94870507717132568359 0.93064212799072265625 0.83626919984817504883 0.59944832324981689453 0.57110774517059326172 0.71326726675033569336 0.87891054153442382812 1.0276308059692382812 0.71498084068298339844 0.5325800776481628418 0.96794503927230834961 0.74192154407501220703 0.60324698686599731445 0.54332596063613891602 0.54198396205902099609 
0.60295945405960083008 0.41219988465309143066 0.44753164052963256836 0.78349697589874267578 1.0268038511276245117 1.0577592849731445312 1.0768090486526489258 1.0820814371109008789 0.90445345640182495117 0.58821606636047363281 0.4484583437442779541 0.56347572803497314453 0.70555919408798217773 0.7399997711181640625 1.0002249479293823242 1.1588089466094970703 0.95852422714233398438 0.9057712554931640625 0.92709934711456298828 0.71640777587890625 0.57073354721069335938 0.73119717836380004883 0.83818793296813964844 1.0649328231811523438 0.68346810340881347656 0.44521933794021606445 0.82355523109436035156 0.82249867916107177734 0.68674135208129882812 0.70784342288970947266 0.46170759201049804688 0.38095623254776000977 
0.55130499601364135742 0.4953638613224029541 0.54251492023468017578 0.69847726821899414062 0.78429812192916870117 0.86196088790893554688 0.83094072341918945312 0.63064330816268920898 0.44722849130630493164 0.52430373430252075195 0.62320446968078613281 0.61676698923110961914 0.78921228647232055664 0.96736627817153930664 1.1491891145706176758 1.0183049440383911133 0.7803141474723815918 0.7865034937858581543 0.89796972274780273438 0.69730520248413085938 0.39474084973335266113 0.64394146203994750977 0.89993953704833984375 0.94033396244049072266 0.45638361573219299316 0.77431076765060424805 0.94859510660171508789 0.64230263233184814453 0.46479123830795288086 0.512058258056640625 0.5031566619873046875 0.68454688787460327148 
0.6329555511474609375 0.65629166364669799805 0.62070876359939575195 0.77395421266555786133 0.78185099363327026367 0.65953981876373291016 0.51125168800354003906 0.53475469350814819336 0.63355010747909545898 0.75891441106796264648 0.89489847421646118164 0.74222093820571899414 0.95843619108200073242 1.1521371603012084961 1.0807089805603027344 0.94508969783782958984 0.62262350320816040039 0.63980895280838012695 0.65447884798049926758 0.6387665867805480957 0.68344473838806152344 0.77048987150192260742 0.96931821107864379883 0.72067904472351074219 0.469547271728515625 1.0199435949325561523 0.93815428018569946289 0.6799163818359375 0.52906668186187744141 0.33678224682807922363 0.44998586177825927734 0.72487998008728027344 
0.84506744146347045898 0.78250497579574584961 0.64675819873809814453 0.91780632734298706055 1.0115202665328979492 0.98828995227813720703 0.8191248774528503418 0.64959681034088134766 0.70079934597015380859 0.80725777149200439453 0.88911134004592895508 0.83755189180374145508 0.90784704685211181641 0.8924821019172668457 0.96026289463043212891 0.65125036239624023438 0.61268264055252075195 0.44703048467636108398 0.39873209595680236816 0.5547268986701965332 0.59714019298553466797 0.85126435756683349609 1.0401297807693481445 0.77635943889617919922 0.58220893144607543945 1.0098005533218383789 0.98619127273559570312 0.90004295110702514648 0.85760587453842163086 0.78411453962326049805 0.66713488101959228516 0.61795717477798461914 
0.59119641780853271484 0.61123031377792358398 0.52659970521926879883 0.58837413787841796875 0.78814011812210083008 0.72757679224014282227 0.77666306495666503906 0.87187600135803222656 0.62512278556823730469 0.89736306667327880859 1.0109206438064575195 0.61498081684112548828 0.38523703813552856445 0.65414017438888549805 0.80226916074752807617 0.42700034379959106445 0.38697519898414611816 0.36651900410652160645 0.55974465608596801758 0.80001533031463623047 0.6307703852653503418 0.64293992519378662109 0.92133820056915283203 0.69524675607681274414 0.65522140264511108398 1.0026936531066894531 1.0199289321899414062 0.78747063875198364258 0.88140892982482910156 0.64033156633377075195 0.35144695639610290527 0.46351715922355651855 
0.8768551945686340332 0.89691239595413208008 0.4455464482307434082 0.42720896005630493164 0.7982953190803527832 0.86589920520782470703 0.81554269790649414062 0.90702742338180541992 0.56354296207427978516 0.70468634366989135742 1.0172860622406005859 0.6130879521369934082 0.30031171441078186035 0.4461231231689453125 0.56329113245010375977 0.52172690629959106445 0.49672776460647583008 0.38953280448913574219 0.68298470973968505859 0.87627184391021728516 0.97852730751037597656 0.69918197393417358398 0.67119908332824707031 0.67775362730026245117 0.62138503789901733398 0.81362611055374145508 0.80742102861404418945 0.49023824930191040039 0.46770614385604858398 0.40819385647773742676 0.45179206132888793945 0.74443137645721435547 
1.0502132177352905273 0.82710301876068115234 0.56583780050277709961 0.79510670900344848633 0.71621263027191162109 0.93493306636810302734 1.0285687446594238281 1.0474870204925537109 0.70352232456207275391 0.83190494775772094727 1.0903021097183227539 0.75726932287216186523 0.47306358814239501953 0.56307214498519897461 0.7071291804313659668 0.86398494243621826172 0.67574071884155273438 0.46657568216323852539 0.68453687429428100586 1.001778721809387207 1.1560281515121459961 0.86164313554763793945 0.56534153223037719727 0.5030981898307800293 0.50713211297988891602 0.45316559076309204102 0.76126402616500854492 0.81199795007705688477 0.59116184711456298828 0.4863032996654510498 0.67601662874221801758 0.93720102310180664062 
