ncols        379
nrows        209
xllcorner    596080.3487547617
yllcorner    5180399.9998778952
cellsize     250.0000000000
NODATA_value -9999
1.077432 1.079713 1.072711 1.061294 1.055786 1.062719 1.057727 1.012458 1.013383 1.032780 0.978599 0.952282 1.133520 1.018990 0.866952 0.829001 0.741330 0.951872 0.968374 1.157880 1.177980 1.005906 0.636152 0.576365 0.892817 1.059243 1.063276 1.050313 1.115532 1.113766 1.045452 1.023952 1.016757 0.860623 0.649742 0.911469 0.927152 1.053489 1.127479 1.113755 1.116285 1.053373 1.023659 1.057646 1.016397 1.048952 1.057623 1.020444 1.032886 1.070204 1.087841 1.088498 1.093739 1.065648 1.048684 1.098545 1.101015 1.031861 0.925131 0.838874 0.990165 1.104735 1.158582 1.170316 1.185260 1.002619 0.876308 0.827192 0.779617 0.668544 0.769587 0.697652 0.733143 1.242811 0.954306 1.042978 0.836430 0.886100 1.059902 1.189035 1.131723 1.160267 1.146567 1.148895 1.041499 0.992262 1.152696 0.992310 0.886860 1.211670 1.213887 1.161287 0.800920 1.008700 0.879129 0.808745 0.986436 1.242629 0.582970 0.840947 1.197044 0.804730 1.091647 1.183163 1.130372 1.072272 1.145815 1.186762 1.171374 1.152396 1.131604 1.004383 1.037394 1.098388 1.074800 1.069454 1.055194 0.983706 1.051700 0.981125 1.157459 1.057981 0.874170 0.605795 0.703629 0.843445 0.823365 0.917964 0.980054 1.028515 1.046431 1.023268 1.014070 1.009549 1.026596 1.001159 0.994895 1.009446 0.997586 0.990561 0.985498 0.990830 0.979267 0.983495 0.964059 1.000813 0.984388 0.969064 0.993320 0.981556 1.009052 1.013669 1.069164 1.008137 0.953930 1.018696 1.106763 1.079777 1.007946 0.903332 0.902546 0.951165 1.013926 0.997208 1.059642 1.032526 0.984592 0.987749 0.991246 0.985897 0.970364 0.977336 0.981306 0.966228 0.959112 0.964833 0.971104 0.971096 0.976379 0.992956 0.975716 0.956007 0.956051 0.936738 0.967318 1.014639 0.989215 0.992367 0.971871 0.971774 0.944991 0.905549 0.919834 0.830726 0.945100 1.024966 1.039468 1.071739 1.063181 1.037908 1.039736 1.093472 1.136440 1.134937 1.134832 1.134793 1.134454 1.135656 1.141033 1.141964 1.146167 1.141919 1.137646 1.100029 1.117076 1.113407 1.051789 0.997138 0.883157 0.759247 0.629207 1.135149 0.938607 1.162225 1.195835 1.151717 1.204116 1.148589 1.108716 1.102264 1.120203 1.093278 0.772324 1.039837 0.963778 0.829872 1.019918 1.192587 1.082047 1.040509 1.121393 1.084304 1.069288 1.008648 1.008246 0.821234 0.714434 0.844648 1.034561 0.889630 1.011198 0.973947 0.742040 0.847682 1.117361 1.239628 1.242405 1.090941 0.757194 0.562117 1.045894 1.234829 1.226373 0.971509 0.762823 1.232010 0.893426 0.973300 0.815338 1.124025 1.099120 1.104727 1.164561 1.015438 0.983867 1.143184 1.091337 1.038348 1.019566 1.015556 1.023301 0.897086 0.944541 0.904710 0.905199 0.939976 0.954364 0.972939 0.990759 0.985834 1.004215 1.033077 1.013853 1.011901 0.994445 1.006081 0.995064 0.995513 1.035826 0.963316 0.975718 1.015294 1.021794 1.015685 1.005757 1.024429 1.003072 1.011303 1.002615 0.998966 0.992071 0.992855 1.008110 1.011042 1.007476 1.007068 1.060786 0.997750 0.995552 1.012767 1.008153 1.003739 1.026793 1.014959 0.994374 1.011948 1.015192 1.012663 0.995359 0.992191 0.983020 0.987128 0.986590 0.996324 1.003931 0.977084 0.973420 0.961325 0.990220 1.010087 0.965861 0.939440 0.983646 1.015594 0.960763 0.982340 0.995818 0.998591 1.001228 1.002960 1.007508 1.018126 1.026897 1.036779 1.032565 1.020063 1.063991 1.045066 0.987765 0.935126 1.027843 1.052867 1.076480 1.022238 0.967894 0.967742 1.004376 1.082775 1.047430 1.092303 1.106861 1.106306 1.131600 1.025226 0.973801 0.885265 0.949220 1.142134 1.114578
1.088787 0.990639 0.968110 1.001565 0.952904 0.981858 1.085263 0.956877 0.889254 0.826516 0.805736 0.811656 1.098952 1.145562 1.152125 0.930606 0.700323 0.649480 1.030494 1.185912 1.189446 0.889752 0.597046 0.695608 0.773869 0.968237 1.067245 1.088916 1.116963 1.101417 1.093062 1.122077 1.087778 0.785287 0.820728 1.153041 1.082977 1.114020 1.119275 1.086003 1.020809 0.999861 0.980651 1.060913 0.959844 1.035553 1.093568 1.079359 1.042662 1.005324 1.028762 1.061423 1.066611 1.092757 1.058622 1.059874 1.016694 0.998448 0.929530 1.006855 1.040863 1.136742 1.151001 1.008595 0.916304 0.952666 0.933847 0.960240 1.128554 0.903887 1.195854 0.912056 0.790291 0.843753 0.680988 1.056826 1.137606 1.188449 1.207597 1.109005 0.948551 1.020981 1.128958 1.105072 1.136603 1.108498 1.096589 1.155300 0.933581 0.771911 0.768406 0.755169 0.685894 1.235038 1.235019 0.716473 0.658531 0.849968 0.917676 0.704242 0.891450 0.791108 0.978862 1.219858 1.197900 1.212612 1.100904 0.967379 0.971057 1.077006 1.135970 1.126514 1.121264 1.113498 1.107035 1.100599 1.102396 1.106686 1.046233 1.068571 1.086376 0.867997 0.732697 0.811331 0.648089 0.857905 0.997386 1.072686 1.052118 1.049635 1.056099 1.021116 1.004942 0.978729 1.006296 1.007594 1.005243 0.987035 0.981557 0.978283 0.971721 0.985162 0.977046 0.980162 0.968719 0.997230 1.004411 0.972425 0.983859 0.989081 1.045475 1.028820 0.993439 0.967616 0.977394 1.068550 1.096761 1.036835 0.900785 0.932114 0.950818 0.945505 1.006035 1.015882 1.029809 1.000931 0.993912 0.990358 0.981435 0.969854 0.971538 0.982468 0.971874 0.981475 0.987526 0.973284 0.955298 0.977347 0.971012 0.994857 0.974781 0.971596 0.933165 0.881619 0.936619 0.898167 0.896559 0.933416 0.964922 0.954929 0.853777 0.873621 0.845074 0.817955 0.916656 0.978987 0.957926 1.014168 1.009265 1.025250 1.129831 1.129284 1.117659 1.117746 1.136074 1.098866 1.062773 1.136453 1.133041 1.146473 1.148545 1.146650 1.151836 1.136507 1.145170 1.110118 1.104872 1.128830 1.001612 0.915937 0.852992 1.209592 0.740475 0.962813 1.124934 1.109090 1.151967 1.177178 1.028025 1.089102 1.141638 1.189483 0.992280 1.029241 1.137673 1.046262 1.044283 1.121241 1.105081 1.078960 1.050567 1.051629 1.054507 1.093703 1.068489 1.044600 0.861382 0.852720 0.822307 0.665700 0.571700 0.530416 0.480762 0.773445 1.142954 1.110778 1.131201 0.850352 0.553680 0.978988 0.914528 1.052119 1.185149 0.930220 0.695302 1.243797 0.857681 0.594538 0.729452 1.086347 1.053555 1.005290 1.131984 0.780514 0.940270 1.003512 0.853974 0.843565 0.843382 0.865201 0.839531 0.939566 1.049137 1.031339 0.963180 0.959056 0.989752 1.009008 0.992014 1.028270 1.035483 1.003656 0.974501 1.004280 0.996736 0.987435 0.977752 1.014757 1.058705 0.916138 0.897107 0.975711 1.020389 1.018147 0.998067 1.048253 0.979062 0.982647 1.007304 1.015890 1.020855 1.014048 0.998544 1.008801 0.989522 1.018553 1.072562 0.976427 0.995250 0.989008 0.989996 1.014583 1.046847 1.025132 0.973276 1.022731 1.009818 0.971546 0.954108 0.968130 0.973820 0.981273 0.995366 1.002775 0.981142 0.978740 0.984580 0.988338 0.962631 1.011452 0.970632 0.934798 0.965513 1.023043 0.964736 0.987499 0.977978 0.983041 1.004650 1.020592 1.020688 1.015981 1.005818 1.017001 1.029439 1.012661 1.046705 1.072530 1.084340 0.973682 0.965040 1.051353 1.058174 1.041373 1.025695 0.981252 1.049639 1.130632 1.097098 1.024544 1.034138 1.050022 0.963888 0.865847 1.109648 1.130528 1.018571 1.052852 1.009189
1.100753 1.040654 1.033959 1.030822 1.021737 1.029549 1.081395 1.018245 1.057893 0.899866 0.809953 0.768224 0.790559 1.139326 1.162668 1.040658 0.901131 0.738878 0.906933 1.157491 1.201184 0.865271 0.852349 1.183135 0.947090 0.951645 1.080876 1.123597 1.120735 1.056585 0.989897 1.100467 1.142758 0.761605 1.032947 1.161120 1.033186 1.132057 1.123757 0.991345 1.071131 1.064405 0.979347 1.034369 0.880963 0.938233 0.944938 0.886016 0.902812 0.882982 0.914924 0.985214 1.041691 1.066237 1.093931 1.086766 1.053889 0.984035 0.993012 1.064698 1.062641 1.105780 1.008666 1.033982 1.068268 1.044480 0.853786 1.164444 1.036507 1.121182 1.202264 1.113340 1.100034 1.139931 1.102435 1.122430 1.180860 1.186086 1.066923 0.983806 1.083231 1.149193 1.113343 1.031068 1.111835 1.182042 1.200771 1.195328 1.189115 0.872563 0.910995 1.229107 0.893332 1.045957 1.197031 1.103122 1.093868 1.202924 1.194798 1.143971 1.133382 1.071391 0.953971 1.149081 1.097957 0.918541 0.850929 0.949977 1.030809 1.088496 1.114992 1.128842 1.097681 1.040327 0.989662 1.057935 1.099037 1.087827 1.070611 1.100322 1.084957 1.040022 0.997225 0.854649 0.754936 0.996600 1.069649 1.066527 1.069199 1.061372 1.040367 1.014177 0.980661 1.000656 1.006709 1.007684 1.005493 0.973433 0.980881 0.982138 0.985178 0.994148 0.979281 0.980370 0.977716 0.996451 1.001295 0.979626 0.986613 0.993548 1.016637 1.016386 0.997136 1.004538 1.030271 1.079364 1.025179 0.955713 0.968374 0.997423 0.966597 0.969607 0.985795 1.016597 1.013504 0.995207 0.989493 0.997326 0.984360 0.984029 0.985750 0.980176 0.972567 0.967860 0.969246 0.990322 0.988271 0.985327 0.996025 1.008619 0.988315 0.925676 0.797793 0.770074 0.813145 0.880490 0.982323 0.946452 0.925489 0.931988 0.953873 1.038939 0.977540 0.975905 0.989939 1.018697 0.966384 0.981238 1.041747 1.092390 1.096345 1.069632 1.068075 1.059124 1.061392 1.045846 1.053835 1.103899 1.059565 1.020713 1.026132 1.051681 1.157314 1.103138 1.135464 1.162025 1.132266 1.131765 1.024600 1.111567 0.893410 1.193742 0.752188 0.978741 1.093690 1.079257 1.147021 1.155856 1.078908 1.077868 1.095727 1.132201 1.102818 1.061882 1.090383 1.154302 1.184932 1.179776 1.175504 1.168631 1.145548 1.115851 1.101998 1.110799 1.110884 1.027671 1.073047 1.117436 1.003133 0.989981 0.994682 0.971725 0.792384 0.730261 0.942261 1.060726 1.154436 1.026709 0.857652 1.228642 1.247166 1.184769 1.240897 1.207662 0.860161 1.251470 0.870543 0.681629 0.789564 0.944528 0.844531 0.856734 0.908544 0.899347 0.943720 0.940851 0.978161 0.955054 0.887499 0.895273 0.889617 0.946410 1.010354 1.077409 1.016921 0.999390 0.993228 0.991264 0.995983 1.039484 1.001429 0.987516 1.009715 1.009461 0.994941 0.969786 0.958464 1.029686 1.060755 0.996799 0.856093 0.932425 1.028130 1.012034 0.995642 1.016757 1.068154 0.941251 0.967541 1.002213 0.997381 0.969731 0.964535 0.983324 0.980270 1.040149 1.089267 0.950355 0.953612 0.997119 0.973647 0.996908 1.051617 1.023657 0.996421 0.963344 0.949483 0.964365 0.994536 1.016178 1.021841 1.038396 1.021984 0.989823 0.997614 1.003115 0.988621 0.958581 0.979955 1.011665 0.934019 0.988471 1.008771 0.995944 0.972379 1.001055 0.983786 0.984377 1.020087 1.024751 1.005690 1.023545 0.992235 0.992531 1.022744 1.039283 1.074966 1.040733 1.015574 1.077523 1.002283 0.890733 1.014482 1.074507 1.047051 1.137591 1.149059 1.036007 0.979895 0.978342 0.894413 0.912256 0.855230 1.096304 1.061507 0.917761 0.907490 0.946914 0.946997
1.071848 1.040258 1.051863 1.054510 1.086039 1.077025 1.089743 1.054776 1.067081 1.021626 1.008643 0.979384 0.904904 0.814574 1.128404 1.179498 1.127655 0.916167 0.920878 1.214569 1.182361 0.798778 0.988163 1.181242 1.168032 0.981394 1.115203 1.122216 1.122503 1.058381 1.103777 0.945708 0.897891 0.952511 1.014288 1.019954 1.068808 1.129057 1.135168 0.917940 1.057323 1.074251 0.966534 0.844061 0.820617 0.931732 0.921967 0.956668 1.059229 1.114733 1.108209 1.108835 1.053488 1.034282 1.083960 1.098582 1.098897 1.100110 1.110802 1.111875 1.114769 1.119991 1.082319 1.083803 1.076038 0.976537 0.902382 1.130742 1.102119 1.193093 1.201285 1.202696 1.203613 1.210164 1.228938 0.955220 1.167735 0.996403 1.003167 1.148193 1.025424 1.109591 1.077846 1.071731 1.079557 1.060603 1.119676 1.209754 1.217335 0.949315 0.897581 1.185036 1.227921 1.185050 1.143394 1.200869 1.105647 1.084789 1.040196 1.126379 1.132318 1.132066 0.720267 0.846197 1.160317 1.197630 1.202189 1.106837 1.033640 1.017776 1.131162 1.130601 1.028928 0.965878 0.996655 1.057104 1.035569 1.075320 1.081594 1.083463 1.055559 1.079875 1.011683 0.945339 0.986627 1.032724 1.031766 1.035769 1.035412 1.039529 1.024395 1.025721 1.023917 1.025219 1.010916 0.998935 0.999313 0.989200 1.002616 0.974184 0.979998 0.970891 0.972705 0.968359 0.976059 0.994845 0.974946 0.949794 0.933565 0.974626 0.999395 1.001667 1.006415 1.018802 1.013005 0.965079 0.872713 0.930316 0.993372 1.011608 1.018479 1.016985 0.996824 1.023059 0.998159 0.975190 0.986374 0.977807 0.973221 0.973730 0.967491 0.972078 0.972237 0.981568 0.974521 0.971464 0.973584 0.960397 0.985355 1.020116 0.992438 0.856107 0.820206 0.831550 0.798011 0.817405 0.819612 0.889175 0.929237 1.010150 1.091113 1.100722 1.103230 1.101501 1.103184 1.105209 1.111393 1.114176 1.114743 1.102183 1.062753 1.065828 1.078358 1.003415 1.016445 0.999753 1.064435 1.047194 0.997668 0.990009 1.036352 0.971344 1.023566 0.964604 1.077494 1.160028 1.139095 1.170577 1.147794 1.039242 0.852396 1.209744 0.880289 0.952430 1.171230 1.181425 1.115164 1.097373 1.046995 1.094707 1.077610 1.052031 1.110296 1.168816 1.182784 1.189734 1.185836 1.180849 1.179576 1.176639 1.172036 1.169477 1.169242 1.172507 1.158979 1.125085 1.166397 1.067912 1.055060 0.972980 1.121245 1.158994 1.069992 0.942003 0.776180 0.686996 0.733139 0.586584 0.539903 0.942249 1.051964 1.054964 1.096897 0.985530 0.907192 0.993976 0.640384 0.974215 0.926101 0.963569 1.064555 1.033780 0.981284 1.050864 1.027726 1.015744 1.091827 1.053016 0.990786 1.041293 1.007280 1.019971 1.025222 1.021764 1.033030 1.000380 1.005535 1.006146 1.043781 1.042717 0.976795 1.003800 1.018214 0.998970 0.967828 0.918931 0.971273 1.033388 1.066088 1.043689 0.878007 0.890280 1.003776 1.007438 1.009768 1.004485 1.074850 1.025899 0.957403 0.975514 0.960643 0.923148 0.948296 0.973002 1.032605 1.038929 1.096790 1.061765 0.924896 0.983695 0.996841 1.013015 1.021565 1.004285 0.965789 0.967191 0.989170 1.013182 1.039343 1.059824 1.025017 1.010325 0.985096 0.999417 0.999566 0.994062 0.976591 0.952953 0.989572 1.009060 0.964609 0.969024 0.961954 0.971190 0.979226 0.991752 0.998722 1.003104 1.039025 0.972906 0.954733 1.020719 0.963341 0.941417 0.975873 0.979630 0.970903 0.959221 0.920142 0.971955 1.073720 0.956422 1.035705 1.081846 1.041181 0.972740 0.869418 0.907705 0.923765 1.000033 0.932188 0.888800 0.821645 0.936408 0.975616 0.943292 0.908862 0.797418 0.869132
0.929744 1.055706 1.101869 1.036246 1.060661 1.105561 1.084707 1.092029 1.097359 1.109490 1.119966 1.102533 1.027827 0.749759 0.962860 1.186607 1.194066 0.971910 0.658456 1.136225 0.841925 0.710356 1.157368 1.069022 1.060808 1.091143 1.127997 1.118834 1.055280 1.016736 0.950169 0.754524 0.559887 0.837876 1.007781 1.036116 1.087935 1.132711 1.121193 0.911735 0.894427 1.031361 0.769560 0.838285 0.978885 1.012522 1.075128 1.118327 1.116094 1.114673 1.064990 1.049964 1.005210 0.923631 1.060277 1.056821 1.092599 1.095000 1.000190 0.998172 1.070875 1.116029 1.120556 1.125685 1.096550 1.042787 1.043121 1.158134 1.174619 1.077719 0.886208 1.185334 1.196722 1.047516 1.032766 1.065581 0.874959 1.060031 1.244546 1.164246 0.837350 1.074861 1.050400 1.132246 1.214021 1.087330 0.824338 0.971564 0.952452 1.175821 1.159710 0.960693 0.985991 1.043652 1.133607 1.191876 1.077392 1.074993 1.181228 1.226967 1.218136 1.127829 0.713717 0.719456 1.156403 1.175069 1.166096 1.095150 1.074588 1.159525 1.156759 1.133941 1.058727 0.871168 0.981225 1.046396 1.072982 0.996228 0.996249 1.075900 1.053216 0.968357 0.903838 0.789141 0.886382 0.954879 0.990038 1.018072 1.020240 1.005919 1.003987 0.985265 1.000924 1.007276 0.977569 0.981232 0.992636 0.982360 0.969048 0.969836 0.980124 0.990403 0.983789 0.978711 0.975638 0.993342 0.968654 0.941394 0.962318 0.976197 0.983620 0.989184 0.998192 1.000492 0.994507 0.967275 0.946485 0.978371 1.015822 1.032842 1.031509 1.005381 0.981506 1.008232 0.989911 0.980680 0.986055 0.975726 0.965691 0.968049 0.973947 0.982065 0.973617 0.959118 0.993002 0.971084 0.954899 0.961855 0.999763 0.989470 0.913843 0.911268 0.954184 0.937542 0.924007 0.948270 0.908341 0.917626 1.029920 1.089896 1.088674 1.097094 1.104236 1.104931 1.091053 1.101633 1.118429 1.120445 1.121293 1.120890 1.084200 1.074579 1.087229 1.109171 1.022455 0.906663 1.014109 1.097894 1.034796 0.833505 1.030198 1.104352 1.119745 1.077438 1.105985 1.151928 1.162505 1.141775 1.172578 1.051827 1.031111 1.142234 0.929368 0.957221 1.077849 1.077430 1.041117 1.077273 1.035549 1.058995 1.099213 1.160455 1.196346 1.194091 1.188649 1.149761 1.066983 1.038300 1.046396 1.088758 1.071177 1.105179 1.129593 1.168365 1.168452 1.144267 1.097410 1.043324 1.065657 1.046296 1.064509 1.145577 1.118891 1.016829 1.057800 0.945485 0.898228 0.896241 0.743190 0.878443 0.718301 0.680325 0.720100 0.760400 0.878176 1.019972 1.066097 1.109565 1.047458 1.003968 0.994938 1.142438 1.185676 1.169859 1.118325 1.016083 1.069330 1.092775 1.028057 1.045893 1.053197 1.025472 1.029963 1.012253 1.022111 1.018821 1.047737 1.043231 1.035289 1.012065 1.009424 1.011031 1.031560 1.009092 0.955125 0.872582 1.019045 1.047406 1.073272 1.074943 0.882370 0.850142 0.962782 0.984648 1.028620 1.024288 1.055902 1.081108 1.087929 1.091683 1.021827 0.924207 0.884818 0.939986 1.016440 1.063468 1.082679 1.068025 1.094429 0.956510 0.977004 1.008131 0.996907 0.935158 0.974201 1.009257 1.035951 1.072354 1.068896 1.018805 1.010797 1.002327 0.998878 1.006326 0.980032 0.994215 0.977732 0.973814 0.985662 0.996813 0.996418 1.009547 0.980380 0.972285 0.974215 0.995161 1.005807 1.013632 1.004181 0.974552 0.930262 0.959676 0.998130 0.967670 0.944120 0.949774 0.942854 0.929474 0.915911 0.880145 0.900472 0.864133 0.940879 0.855321 0.768166 0.951674 1.094309 1.079562 1.074376 1.129751 1.111884 1.099275 1.091010 1.130803 1.095797 1.043570 1.070061 1.034723 1.035834
0.618158 0.888753 1.023138 1.050270 1.057684 0.989293 0.999823 1.095732 1.086544 1.003718 0.903708 0.870713 0.872387 0.764012 0.780903 1.198585 1.194245 1.021694 0.724020 0.661776 0.589962 0.878975 1.091819 1.126078 1.040940 1.117062 1.127888 1.114124 1.096696 1.101678 0.939568 0.697623 0.607501 1.151481 1.091996 1.074848 1.123513 1.138478 1.139545 1.121909 0.916384 0.664892 0.784976 1.011983 1.095213 1.089688 1.114699 1.117892 1.106313 1.027133 1.093530 1.031562 0.984731 0.942603 1.041153 1.065930 1.082332 1.103684 1.110505 0.895897 0.856511 1.014982 1.089160 1.131049 1.127891 1.131568 1.138008 1.134490 0.948686 0.978342 0.817915 0.951104 0.884728 0.947661 0.860230 0.953503 0.734030 0.908807 0.986491 0.889865 1.005473 1.090802 1.227447 1.205457 1.097912 0.934585 0.689100 0.838393 0.911875 1.134811 1.155975 1.095260 0.819094 0.970025 1.180715 1.183444 1.140805 1.108820 1.031810 0.812409 0.842823 0.790292 0.670016 0.698781 0.869913 1.068534 1.102033 1.074389 1.092596 1.122066 1.151981 1.160088 1.020505 0.820450 1.126177 1.066690 0.914210 0.950532 1.025222 1.078030 1.084424 1.065704 0.885523 0.752417 0.886394 0.915292 0.966568 1.020094 1.018790 1.009663 1.005533 1.006509 1.003966 0.996832 0.987795 0.993299 0.978450 0.982830 0.975272 0.970085 0.990149 0.984140 0.975583 0.974304 0.974023 0.985132 0.983731 0.984622 0.999386 0.990478 0.976204 0.975977 0.982878 1.001378 1.008922 1.021702 1.027121 1.026909 1.021824 1.014533 1.002727 0.968878 0.965628 0.979072 0.985550 0.971751 0.982824 0.973937 0.975921 0.980072 0.977727 0.985242 0.984809 0.943498 0.990418 1.005683 0.981703 0.981089 0.990813 1.000556 1.013952 1.006539 0.987807 0.968375 0.989582 1.008214 1.023610 1.085006 1.082451 1.093235 0.951772 0.871311 0.901691 0.829878 0.865920 0.942613 0.976090 1.024172 1.037839 1.017004 1.057563 0.965782 1.005065 1.168039 1.132482 0.973074 0.881840 0.983249 1.040633 0.981331 1.129605 1.180917 1.123041 1.009927 1.100335 1.131746 1.139004 1.102281 1.169907 1.154643 1.123442 1.139747 1.098337 1.074026 1.067416 1.093762 1.035329 1.069593 1.079972 1.140428 1.196536 1.198330 1.134455 1.090143 1.059004 1.050121 0.928956 1.083931 1.085527 1.063658 0.966529 1.021346 0.996137 1.013797 1.143200 1.160712 1.058200 0.985521 1.053204 1.048862 0.957710 1.030917 1.104434 1.144686 1.101372 1.005814 1.084939 1.012766 0.991751 1.144565 0.935595 0.927842 0.866039 0.847082 0.897426 1.083497 0.952006 1.151798 1.157982 1.036897 0.840565 0.947230 1.053132 1.107407 1.148863 1.138459 1.008834 1.070356 1.091112 1.011717 1.035865 1.026382 1.042923 1.037663 1.037586 1.038708 1.037564 0.999367 0.981808 0.997025 1.025554 1.030506 1.044131 1.003851 0.906472 0.851838 1.036666 1.034023 1.061472 1.075562 0.995925 0.843523 0.919536 1.003061 1.034433 0.991029 1.034923 1.048809 0.991249 1.086406 1.099692 0.995812 0.865087 0.940236 1.004676 1.113110 1.020156 1.013786 1.106068 1.052108 0.932726 0.949795 0.982060 1.029577 1.052354 1.074594 1.089632 1.048649 1.030176 1.014048 1.000751 1.006950 1.008510 0.996633 1.004031 1.006755 0.991732 1.001126 0.990606 0.998979 0.960867 0.974920 1.017003 0.966124 0.956113 0.988595 0.995132 1.014646 1.004601 0.987458 0.970731 1.034722 1.023535 0.982048 0.946527 0.955567 0.943526 0.935143 0.951447 0.840306 0.690141 0.696913 0.817594 0.957528 1.017287 1.121123 1.153336 1.149670 1.150930 1.154625 1.158728 1.165434 1.152027 1.094098 1.066645 1.111174 1.065040 0.953272 1.079858
0.656589 0.565255 0.775882 0.805136 0.992641 1.010596 0.958390 1.100013 1.089463 1.034138 0.897845 0.938882 1.017538 0.916280 0.775477 1.101483 1.070340 1.079396 1.119725 1.104762 0.768396 1.190551 1.154480 1.120939 1.071701 1.136925 1.131235 1.054130 1.001499 1.180552 1.191684 1.039911 0.768638 1.099509 1.169143 1.131647 1.067933 1.145297 1.077837 0.889583 0.765201 0.650491 1.058675 1.130286 1.081069 1.071933 1.121504 1.122364 1.067121 0.957035 1.129167 1.062201 0.868687 1.019305 0.987304 0.939533 0.937617 1.113529 1.109816 0.998236 0.851595 0.881433 0.983174 1.107589 1.130023 1.142374 1.137160 1.139514 1.156998 1.122896 0.975192 1.042363 1.114724 1.133170 1.084810 1.015458 0.569236 1.150525 1.213541 1.205755 1.246404 1.232687 1.211282 1.131212 0.682155 1.160998 1.232352 1.239473 0.918742 0.793334 1.082952 1.147250 1.088580 1.108111 1.164103 1.131935 0.970898 0.694878 0.641841 0.969867 1.176334 0.961693 1.002499 1.133200 0.556951 0.815961 1.032459 1.057507 1.078324 1.064117 1.147287 0.995655 0.970249 0.911125 1.040669 0.834899 1.029231 1.114587 1.055917 1.038924 1.070964 1.046037 0.830947 0.844898 0.954836 0.985024 1.032304 1.028486 1.020022 1.001532 0.994005 0.998554 0.992142 0.983883 0.968716 0.975782 0.971858 0.978973 0.986868 0.990814 0.984019 0.974636 0.972649 0.972672 0.973451 0.977051 0.981787 0.994655 1.008650 1.016025 1.015360 0.994052 0.985293 0.975650 0.992804 1.005171 1.010580 1.013387 1.009798 0.998573 0.978503 0.964961 0.985327 0.993638 0.987097 0.983197 0.981006 0.974817 0.975148 0.976373 0.982355 0.994222 0.977915 0.974672 0.968822 0.942399 0.982321 0.983612 0.989780 0.985494 0.995581 1.025061 1.014011 1.020365 1.020779 1.027173 1.056035 1.046763 0.937881 0.876451 0.885218 0.918419 0.950598 0.947932 0.876296 0.872575 0.886419 0.930364 0.988592 0.990465 1.081221 1.024087 0.909445 1.135430 1.153839 1.144174 1.167655 1.162272 0.825507 1.060220 1.205288 1.137646 1.148629 0.799315 0.990939 1.063614 1.018131 1.035962 1.140048 1.151093 1.123998 1.133616 1.121248 1.111607 1.115134 1.112576 1.102552 1.113008 1.169947 1.198208 1.152219 1.100331 1.058916 1.085698 1.148250 1.098149 0.963490 1.148390 1.108899 0.934365 1.034642 1.141241 1.067840 1.082434 1.148249 1.160088 1.050217 0.989259 1.104697 1.054170 1.000725 0.942600 1.049312 1.122856 1.091221 1.088228 1.139912 1.115838 1.101419 1.150196 1.143285 1.076249 1.101961 1.002170 0.961405 1.026857 0.979355 1.058457 1.136860 1.099823 0.901402 0.989343 0.990380 0.983975 0.988724 1.057772 1.116637 0.945984 1.016483 1.051018 1.054608 1.022421 1.025831 1.053075 1.049631 1.008034 1.043567 0.977669 1.008650 1.026449 1.028070 1.052773 1.031396 1.063305 0.930930 0.813096 0.960210 1.015975 1.050800 1.078956 1.070719 0.978343 0.846834 0.959470 1.053651 1.057686 1.017005 1.053244 0.956612 1.046987 1.098993 1.060443 0.934189 0.878226 0.959945 1.118701 1.044646 1.002850 1.094009 1.113717 0.968898 0.898563 1.042602 1.080619 1.091509 1.075796 1.053375 1.033684 1.033162 1.032673 0.999896 1.017801 1.019133 1.000128 0.991149 0.994745 0.982308 0.986355 0.997943 1.009903 0.976930 0.905285 1.015580 0.977911 0.963016 0.997344 0.996383 1.009140 1.010980 0.974049 1.007775 0.973548 0.962949 0.967545 0.981811 0.982937 0.968830 0.938771 0.959734 0.849844 0.716791 0.849323 0.917373 1.102931 1.108074 1.147732 1.145401 1.090712 1.069347 1.098822 1.111040 1.144897 1.166115 1.123766 1.046135 1.090165 1.092410 1.132360 1.155412
0.844025 0.676072 0.944096 1.005962 0.991767 1.070696 1.040493 1.099406 1.058161 1.004029 1.000775 1.054503 1.054514 1.025501 0.889989 0.943817 1.142704 1.164264 1.134787 1.083643 0.667457 1.057075 0.990670 1.062553 1.067668 1.138819 1.139037 1.056400 0.969016 0.987489 1.192273 1.048407 0.877389 1.056057 1.149511 1.081501 1.102316 1.145991 1.126952 1.017076 0.623874 1.021374 1.112637 1.051990 1.033700 1.104650 1.121230 1.103904 1.080694 0.898671 1.098096 1.151125 0.817038 0.979044 1.065534 1.062076 0.977809 1.040790 1.113079 1.048023 1.076673 0.854599 0.714248 1.051702 0.961404 0.989582 1.088673 1.115425 1.159695 1.165556 1.077715 1.125328 1.197684 1.211160 1.203045 1.129692 0.702853 0.737691 0.903255 0.892306 0.993816 0.949311 0.898003 1.057648 0.680494 0.937568 0.926112 1.085336 1.160169 1.043943 1.020461 1.093149 1.147836 1.140440 1.153468 1.053019 0.850663 0.715819 0.874370 1.074174 1.207588 1.183867 1.150835 1.009735 0.570456 1.180115 1.220702 1.180732 1.151221 1.121273 1.059730 0.664406 0.632288 0.602306 0.618385 0.918100 1.083845 1.029884 0.970508 0.992804 1.066464 1.024155 0.849395 0.977054 1.036291 1.031341 1.020375 1.006702 0.980937 0.980388 0.976046 0.986653 0.985606 0.970096 0.981928 0.994643 0.998127 0.992888 0.988015 0.980562 0.981192 0.985903 0.987782 0.986386 0.985717 0.988068 0.991335 0.984137 0.971534 0.958227 0.983377 1.016655 1.017275 0.988399 0.968208 0.974395 0.977686 0.983124 0.983731 0.980319 0.976305 0.977847 0.990721 0.990485 0.977409 0.982007 0.984076 0.981751 0.981122 0.979517 0.996889 0.996521 0.981294 0.980782 0.992467 0.983813 0.970894 0.971062 0.972627 0.991620 0.972577 0.979490 0.985988 0.982227 1.008282 1.025370 0.970822 0.988474 0.978812 0.990215 1.013586 1.047423 1.033204 1.053794 0.995938 1.018998 1.027455 1.022151 0.901553 0.851012 1.078192 1.030011 0.859678 1.147576 1.154413 1.096154 1.141528 1.084766 0.883831 1.126296 1.205422 1.072074 1.143970 0.692080 0.933365 1.025128 1.054636 1.085348 1.099098 1.167321 1.106564 1.101893 1.110317 1.120557 1.129512 1.136689 1.136324 1.138098 1.110522 1.067487 1.050723 1.050520 1.083189 1.156944 1.164538 1.022190 0.841520 1.188568 1.024847 1.007575 1.198194 1.126420 0.921316 1.035102 1.094353 1.151884 1.120339 1.064954 1.098943 1.067818 1.040587 0.950550 1.050466 1.115882 1.066867 1.067810 1.125752 1.074100 1.119241 1.067382 1.075601 1.033681 1.108711 1.067389 1.065679 0.995409 1.077367 1.083833 1.138201 1.080908 1.006553 1.048832 1.057425 1.010208 0.986859 0.977090 1.052843 1.032427 1.029275 1.009171 1.004035 1.038889 1.057392 1.030423 0.988194 0.948538 1.056052 1.003058 1.003905 1.003267 1.007375 1.052211 1.018046 0.980403 1.025553 0.829899 1.061366 1.061599 1.041292 1.087368 1.088643 1.009111 0.866516 0.886916 1.056719 1.075173 1.069364 1.084964 0.952860 1.021193 1.089219 1.108545 1.017191 0.900808 0.885902 1.056544 1.039669 1.009254 1.118050 1.095688 0.897586 0.935365 1.101081 1.100636 1.059849 1.076735 1.050233 1.034411 1.012195 1.007921 0.977029 1.004561 1.016651 1.001862 0.994222 0.998137 0.987755 0.972076 0.985773 1.012171 0.949681 0.925936 1.013874 0.970780 0.950014 0.980695 0.990234 1.003256 1.020098 1.005791 1.003313 0.977296 0.969757 1.001706 1.014873 0.999013 0.979369 0.965856 0.931762 0.820712 0.784716 0.903357 1.038179 1.125579 1.141410 1.141939 1.074590 1.038795 0.997463 1.046665 1.025331 1.045806 1.130139 1.173525 1.178797 1.184046 1.164446 1.111366 1.092093
0.787434 0.958499 1.060954 1.078814 1.071278 1.015782 1.032272 1.100909 1.022165 1.003464 1.081504 1.130303 1.101038 1.083141 0.944333 0.831887 0.882853 0.837529 0.733772 0.610018 0.646474 0.935230 1.060250 1.093096 1.147794 1.142821 1.146938 1.001166 0.992489 0.872953 0.702713 0.590377 0.748609 1.086158 1.102328 1.080182 1.148598 1.151847 1.087160 1.125476 0.757632 1.044842 1.142149 1.076133 1.060251 1.127056 1.128729 1.039436 1.000606 0.848573 1.064543 1.188957 0.888920 0.892555 1.169761 1.167447 1.140976 1.117101 1.114232 1.122587 1.085563 0.897586 0.738317 0.698981 0.873417 1.161494 1.148509 0.983377 1.133848 1.167940 1.168986 1.175772 1.167554 1.088874 1.170575 1.150878 0.933625 1.083712 1.186721 1.052753 0.914288 0.945514 0.734303 0.629116 0.895252 1.170254 1.149701 1.106556 1.159590 1.153408 1.167482 1.169412 1.158870 1.150755 1.145898 1.107592 0.940414 0.808476 0.980050 1.021432 1.184284 1.131185 1.054889 1.010550 0.838947 1.214642 1.164179 1.181442 1.169048 1.145081 0.919458 0.921323 1.049134 0.803370 0.614791 0.837789 0.961216 0.992135 1.027745 1.036514 1.066927 0.944262 0.923672 1.003415 1.029336 1.013252 0.991046 0.992499 0.991846 1.012528 1.019934 1.015604 1.012056 1.009530 1.004160 0.992738 0.983958 0.980144 0.984176 0.997007 0.998603 0.994392 0.990169 1.001189 0.986661 0.984458 0.982516 0.988497 0.967416 0.957139 0.960029 0.968409 0.962372 0.987856 1.007314 0.975452 0.948344 0.949970 0.969854 0.968537 0.976150 0.972518 0.982387 0.985995 0.989430 0.986076 0.999310 0.994252 0.990696 1.006732 0.990705 0.975014 0.976314 1.002856 1.000466 0.985569 0.986568 0.983582 0.977365 0.989487 0.990368 0.999182 1.021207 0.981731 0.989002 0.985469 0.954379 1.019149 0.992124 1.009036 1.016276 1.033060 1.042710 1.057081 1.025574 1.025594 1.047401 1.059002 1.034377 0.920959 1.013230 1.054519 0.869483 1.213779 1.135192 0.930879 1.130434 0.858922 0.963630 1.144306 1.204682 1.126169 1.168573 0.839894 1.159434 1.112722 1.139740 1.141286 1.052064 1.101148 1.126427 1.133940 1.131576 1.107045 1.087158 1.131434 1.142545 1.144042 1.075168 0.987009 1.045271 1.059818 1.070688 1.045129 1.133747 1.146495 0.884945 1.029128 1.125944 1.234863 1.227764 1.013257 0.865628 1.007483 1.063500 1.108014 1.130737 1.116611 1.116275 1.100371 1.091395 0.973597 1.002787 1.071424 1.032031 1.061891 1.130158 1.018919 1.044392 1.037855 1.050627 1.026177 1.097483 1.097532 1.073224 1.045704 1.071238 1.042044 1.119828 1.111909 1.013992 1.031554 1.063116 1.004735 1.036157 1.033668 1.004681 0.984985 1.023130 1.002921 1.033452 1.059438 1.031437 0.986233 0.999202 0.953667 1.062224 1.063062 0.975308 0.952117 0.934046 0.909445 0.992306 0.913986 0.915645 0.791585 0.956105 1.013788 1.032846 1.076116 1.090849 1.062145 0.979378 0.844568 0.978322 1.090557 1.088078 1.091395 0.991249 1.021533 1.069387 1.110512 1.064723 0.996540 0.864361 0.960155 0.991920 0.963260 1.142781 1.100430 0.856226 1.002669 1.074212 1.076821 1.070615 1.078164 1.041446 1.011357 0.956566 0.951781 0.970340 0.994185 1.015350 1.004442 0.997514 1.000942 0.997393 0.955422 0.960808 1.016322 1.004281 0.939735 1.012355 1.004679 0.984860 0.974290 0.985855 1.001132 1.018318 1.017599 1.014436 0.959302 0.992210 1.089661 1.047303 1.023582 1.005399 0.972104 0.929338 0.898361 0.888093 1.023698 1.027464 1.136029 1.135683 1.061830 1.048562 1.073635 1.029338 1.086076 1.053356 1.059247 1.088642 1.083779 1.128326 1.157736 1.187984 1.160118 1.121862
0.782518 1.064873 1.136991 1.119409 1.133274 1.124383 1.069388 1.101495 1.056196 1.043131 1.098648 1.111384 1.042645 1.024783 0.935453 1.020096 1.122616 1.055393 1.075969 0.821051 1.071664 1.211925 1.189226 1.105323 1.087612 1.148757 1.154374 1.109318 1.068136 0.975187 0.867176 0.823209 1.163707 1.157045 1.126765 1.046175 1.123859 1.156251 1.082544 0.912590 0.643183 0.865665 1.009946 1.076177 1.104606 1.129385 1.113295 1.027494 1.134568 0.991168 0.986468 1.184447 0.956844 0.630345 1.096053 1.141060 0.958547 1.087136 1.115798 1.117853 1.017059 0.888169 0.994901 0.813255 0.705296 0.804488 0.981736 1.075806 1.144709 1.141584 1.011128 1.113028 1.201163 0.812859 1.176019 1.241517 1.149729 0.954125 1.225610 1.233626 1.244556 1.213102 1.068783 0.608397 1.184950 1.219373 1.221651 1.157469 1.192787 1.185290 1.182819 1.165975 0.973140 1.033788 1.146285 1.146249 0.907875 0.901890 1.062607 1.121748 1.171767 1.091099 0.873939 0.776544 0.746852 1.098089 1.021101 1.177513 0.893388 0.898408 0.732863 1.055153 1.165309 1.025051 0.671880 0.861826 1.031916 1.083826 0.984120 1.018858 1.064729 1.055000 0.935938 0.993178 1.000499 0.978356 1.008261 1.023377 1.018713 1.013979 0.996818 0.987681 0.981288 0.977607 0.976560 0.980701 0.991414 1.003874 1.009437 1.003198 0.975475 0.971282 0.972954 0.973134 0.984170 0.996283 0.975702 0.981670 0.979922 0.960222 0.940629 0.959327 0.944122 0.975308 1.009709 1.004423 1.015239 1.005200 0.984295 0.973637 0.990619 0.998810 1.001051 0.996972 0.979576 0.991404 0.975813 0.991969 0.977425 1.000431 0.996718 0.963726 0.975574 1.022834 1.017797 0.991850 0.984880 0.981061 0.975581 0.986469 0.984839 0.981965 1.010964 0.938723 0.938856 0.965083 0.966174 1.007595 0.985725 1.017134 1.020623 1.024882 1.038493 1.025138 0.989434 1.033714 1.063195 1.085702 1.071166 0.965632 0.993496 1.042816 0.852497 0.799813 0.873655 1.053906 1.080993 0.883627 1.147324 1.138538 1.188182 1.160000 1.047569 0.807706 1.040473 1.101205 1.154515 1.187254 1.078694 1.000867 1.064876 1.057040 1.166822 1.120921 1.018989 1.084103 1.110796 1.115012 1.189255 1.095691 1.090984 1.108777 1.149805 1.058648 1.113323 1.194823 1.133616 0.786286 1.059850 1.217796 1.090292 0.862938 1.004999 1.069714 1.085369 1.121295 1.124603 1.122023 1.129355 1.142578 1.142471 1.054506 1.007840 1.053148 1.068404 1.086092 1.099078 1.048600 1.067872 1.077193 1.060184 1.045993 1.085314 1.062589 1.048592 1.026938 1.000925 1.016474 1.062702 1.100187 0.968860 1.038386 1.035355 1.030653 1.033540 1.034069 1.064882 1.061925 1.032730 1.055073 1.063531 1.058414 1.011743 0.994013 1.050984 0.943293 1.022527 1.066184 1.044093 1.014800 0.975063 0.906415 0.863750 0.864554 0.796107 0.807190 1.031892 1.043688 1.023675 1.067071 1.095363 1.039128 1.024997 0.893685 0.827339 0.976296 1.028631 1.065242 1.019945 1.055063 1.068919 1.109663 1.111894 1.022254 0.914448 0.888225 0.939702 0.899423 1.153428 1.121516 0.824111 1.070772 1.115956 1.093419 1.088552 1.049219 0.982136 0.993676 1.029541 0.976999 0.976188 0.990590 1.015277 1.007862 0.995865 0.980327 0.976663 1.012129 0.997464 0.995587 1.017347 0.929760 0.994069 1.007148 1.019542 1.008183 0.979692 0.988573 0.993599 1.000274 1.008460 1.052170 1.072351 1.036582 1.036169 1.040205 0.975825 0.976895 0.932303 0.954655 1.008623 1.096602 1.129836 1.126746 1.065808 1.046870 1.058381 1.072630 1.024515 0.994242 1.033749 1.047012 1.124874 1.081866 1.042740 1.059351 1.133466 1.196302 1.148663
0.946765 1.069698 1.148762 1.070661 1.059409 1.052732 1.080672 1.102960 1.053994 1.017407 1.059326 1.000103 0.926737 0.807878 1.066732 1.197028 1.201791 1.151001 1.106879 0.880953 1.115593 1.219476 1.101607 0.965492 1.042151 1.148034 1.139025 1.034161 1.050754 0.945784 0.505798 0.953734 1.228382 1.206539 1.152971 1.067076 1.136265 1.157827 1.096501 0.715139 0.806612 1.143411 1.045555 1.091103 1.134282 1.139929 1.005471 0.914920 1.124022 1.120096 0.963281 1.145064 0.770450 0.523935 0.666649 0.791304 0.895720 1.032912 1.117311 1.118409 1.011002 1.010270 1.063724 1.000847 1.060293 0.845552 0.574399 0.711571 0.972007 0.942225 1.044306 1.151486 1.102555 0.900516 1.057569 1.161764 0.832643 0.706254 1.030514 1.030507 1.015124 1.221262 1.027941 0.561197 0.854104 1.147605 1.087511 1.131768 1.144642 1.151855 1.108209 1.059831 0.919502 1.017817 1.135166 1.132517 1.094832 1.042513 1.149224 1.154548 1.174599 1.101328 1.110301 0.887447 0.606488 0.730147 0.914018 0.944910 0.764962 0.887532 0.923844 0.963163 1.157661 1.138802 0.829393 0.896881 0.923796 0.820830 0.937501 0.981195 1.038088 1.032295 0.954693 0.989917 1.001265 1.008475 1.018773 1.002314 0.985293 0.984729 0.993989 0.997670 0.997482 0.998921 1.013225 1.017449 1.017030 0.995164 0.993743 1.002163 1.005346 1.003054 0.996660 0.984121 1.012218 1.001681 0.978456 0.973503 0.985155 0.989305 0.972792 0.985049 1.023699 1.009754 0.970562 0.975235 0.979210 0.994538 0.994878 1.014044 1.009899 0.984713 0.978079 0.974823 0.978957 1.009250 0.996215 0.965439 0.962770 1.040673 1.000629 0.950869 1.003937 1.031712 0.993462 1.000616 0.985350 0.981345 0.978852 0.984011 0.985201 0.979620 1.005094 0.998266 0.983537 0.988905 0.973749 0.993533 1.016611 0.982935 1.005249 1.017779 1.018531 1.011964 0.998908 1.022923 1.073598 1.083522 1.048995 0.974736 0.898767 0.882836 0.937360 0.912014 0.848951 0.890307 0.974688 1.117937 1.164920 1.129999 1.100855 1.145472 0.857659 0.678213 1.037610 1.102804 1.158936 1.201348 1.043533 0.859301 1.103426 1.075724 1.167290 1.178784 1.007149 1.070807 1.081034 1.085992 1.202346 1.199608 1.064336 1.078529 1.154350 1.020786 0.900805 0.929974 0.927461 0.544832 0.699207 0.872535 0.839902 1.134633 1.101855 1.092147 1.161286 1.153726 1.122605 1.087495 1.072218 1.087117 1.127765 1.126303 1.102873 1.099459 1.099701 1.100834 1.070482 1.106522 1.097386 1.122404 1.080901 1.082214 1.075045 1.055290 1.060389 1.056568 1.001725 0.999009 1.024145 1.084298 0.989910 1.052098 1.048301 1.040169 1.062557 1.071929 1.071467 1.064049 1.067597 1.069224 1.059810 1.022975 0.990170 0.975164 1.087210 0.958401 1.007037 1.071372 1.072642 1.024626 1.029673 1.014133 0.942761 0.829527 0.745494 0.821095 1.028577 1.052150 1.042587 1.068593 1.101191 1.045035 0.989554 1.004481 0.836538 0.759092 0.981755 1.066913 1.051234 1.071554 1.059682 1.069743 1.123909 1.088815 0.988142 0.873235 0.886639 0.987040 1.173206 1.091543 0.781455 1.002217 1.080203 1.030202 0.954172 0.902839 0.973583 1.022122 1.063865 1.034782 0.993310 0.993570 0.998926 0.997189 1.019529 1.034815 1.035730 1.009778 0.927820 0.971349 1.016660 0.940870 0.916791 0.970410 1.015306 0.943598 0.955468 0.963689 0.985471 1.014984 1.035453 1.017766 0.998384 1.006402 1.021209 1.034824 0.993430 1.031393 0.979555 1.017709 1.021406 1.096957 1.116473 1.080667 1.049532 1.045543 1.036608 1.044006 1.027460 0.982014 0.947055 0.927073 1.096526 1.100098 0.989904 1.129649 1.085515 1.143695 1.098016
0.775868 0.832016 0.922908 0.965491 1.044000 1.096602 1.073091 1.104758 1.088164 0.985657 1.001577 0.945982 0.983407 0.992443 1.120642 1.034615 0.878414 0.840316 0.914980 0.759562 0.670543 0.835641 0.959891 1.058784 1.112949 1.168190 1.171330 1.072800 0.974454 0.949516 0.569954 0.622599 1.213924 1.075040 1.088441 1.080851 1.146803 1.161047 1.167897 0.845691 0.843023 1.051425 1.070157 1.145854 1.141149 1.084583 1.070358 1.011482 1.042569 0.989135 0.764271 0.697106 0.586026 0.946558 0.921393 0.924923 0.907526 0.973321 1.121211 1.119575 1.087813 1.153782 1.142745 1.117118 1.092509 0.981872 0.663778 0.910292 1.170263 1.071734 1.182153 1.188932 1.157292 1.021656 0.623873 0.834923 1.144032 1.144111 1.165694 1.216112 1.101829 1.009477 0.992915 0.886806 1.025323 1.111740 1.134214 1.101723 1.108076 1.154475 1.145381 0.732841 0.821565 0.996932 1.107774 1.133933 1.125736 1.125907 1.111116 1.022114 1.011766 0.925894 0.843926 0.777866 0.740156 0.834215 0.901905 0.904041 0.961543 1.054633 1.114782 0.930016 1.052918 1.133012 0.889677 0.909356 1.015465 1.018724 1.007254 0.992969 0.987753 1.035927 0.997046 1.021949 1.017496 1.000815 0.985040 0.981465 0.994688 1.013003 0.976185 0.970950 1.007495 1.006931 0.999602 0.990807 0.989658 1.009004 1.014729 1.023812 1.016882 0.999392 1.008680 0.988110 1.045146 0.999679 1.026689 1.026071 1.011645 0.992138 0.967484 1.020984 0.938535 0.952384 0.978276 0.984955 0.961432 0.987470 0.942879 1.005204 1.001021 0.974645 1.017433 0.987590 0.979842 1.032629 1.010499 0.983625 0.992010 1.061140 0.953182 0.901961 1.002167 1.007769 1.003208 1.033270 0.993782 0.989728 0.987415 0.991688 0.983530 0.980258 0.980895 0.995026 1.012001 1.014000 1.015442 1.006705 1.018238 0.995178 0.996416 0.997151 1.003289 0.995155 1.005805 1.034592 1.035179 0.970434 0.985185 1.037525 0.996499 1.057711 1.171378 1.088677 0.988041 0.757643 0.686300 1.090924 1.229354 1.136315 1.116454 1.214467 0.910395 1.181864 1.115008 1.083730 1.154964 1.207143 1.051813 0.738372 1.000937 1.078059 1.190689 1.179692 1.042731 1.071923 1.094674 1.146788 1.208599 1.124847 1.047585 1.191225 1.193361 1.238738 1.252400 1.260507 1.104915 0.554642 0.744694 0.913554 0.986507 1.066533 1.080162 1.153784 1.162779 1.121736 1.028582 1.040186 1.081412 1.121548 1.131408 1.092252 1.090225 1.089687 1.097978 1.099603 1.098610 1.114859 1.110546 1.113937 1.112483 1.112496 1.086233 1.073286 1.060528 1.073368 1.039164 0.996560 0.966060 1.058608 1.039459 1.060131 1.045863 1.057550 1.074067 1.070178 1.048423 1.035122 1.048383 1.070978 1.049289 1.012183 0.951724 1.020746 1.108882 0.922088 0.979753 1.043908 1.077844 1.079925 1.044134 1.008198 0.957763 0.933203 0.788907 0.830536 0.993930 1.022588 1.046768 1.052919 1.105854 1.043135 1.002679 1.024742 0.977750 0.706833 0.868210 1.027949 1.060643 1.055861 1.033493 1.038302 1.106452 1.116832 1.060706 0.940869 0.882668 1.040871 1.085719 0.966111 0.839552 1.120961 0.835727 0.803763 0.874055 1.026940 1.048105 1.045576 1.064751 1.091771 1.081881 1.068670 1.066675 1.064330 1.058827 1.003719 1.003967 0.983919 0.980404 0.992877 1.018347 0.975927 0.942967 1.024045 1.021075 0.965108 0.955363 1.003255 1.021987 0.997924 0.973189 0.998204 0.989549 0.996756 1.030927 0.988105 0.968024 1.043722 1.011358 1.056362 1.112388 1.109477 1.102728 1.039175 1.087705 1.053328 1.041205 1.068534 1.055369 1.028112 1.022502 0.978054 1.019127 0.975663 0.840942 1.175901 1.086386 1.144744 1.083117
0.995860 0.976727 1.025642 1.051289 1.033938 0.964946 1.008407 1.067172 1.105197 1.098367 1.082021 1.076060 1.036442 1.112636 1.087753 1.128540 1.091155 1.145734 1.169155 1.065838 0.738218 0.897856 1.128097 1.170245 1.177525 1.147452 1.092902 1.195909 1.216728 1.186992 1.098990 0.678082 0.782545 0.720777 0.925266 1.112528 1.176056 1.164845 1.182414 0.777718 1.042799 1.135457 1.105316 1.146207 1.051253 1.006998 1.135490 1.194367 1.057941 0.974903 0.662571 0.502681 0.836747 1.057633 0.941413 1.095326 1.052814 0.988974 1.124496 1.119880 1.094059 1.021552 1.173993 1.184007 1.183354 1.047363 0.741066 0.825706 1.100026 0.992031 1.104225 1.171841 1.217852 1.081024 0.729745 0.680225 1.219328 1.150759 1.203556 1.217137 1.177731 1.213300 1.184787 0.858701 1.015125 1.213553 1.190416 1.231225 1.111014 1.060508 0.937647 0.797666 1.027720 1.026382 1.078362 1.109676 1.123683 1.119162 1.070910 1.042949 0.931887 0.815039 0.784558 0.870652 0.945087 0.983304 0.974158 0.918932 1.102120 1.133720 1.065591 1.048317 0.985716 1.089597 1.040370 1.009608 1.037090 1.045441 1.019841 1.000560 0.985269 0.989720 1.002858 0.994276 0.980303 0.975283 0.982134 1.002206 0.997358 0.967542 0.965672 0.978822 0.998627 1.007516 1.000161 0.999893 1.005095 1.033052 1.048168 1.057633 0.985479 0.914223 0.956890 0.987300 1.053282 1.003192 0.998228 0.937889 0.960578 0.969933 0.969126 1.019526 0.974731 0.993102 0.992698 0.987077 0.970202 1.013037 0.979449 1.027709 1.006440 0.977372 1.008215 0.984178 0.968335 1.029899 1.018186 0.981041 1.000005 1.073551 1.014066 0.807649 0.921120 0.985305 1.024536 1.012073 1.011659 1.015999 1.027286 1.005974 0.983588 0.983174 0.985648 0.990409 0.985309 0.984991 0.983290 0.983882 0.987245 0.993097 1.001135 1.013435 1.023778 1.002759 1.028476 1.008086 1.001924 1.019728 1.061850 1.108112 1.130028 1.139862 1.155492 1.088094 0.991996 0.861622 0.768689 1.168255 1.132205 1.151481 1.227962 1.176412 0.702389 1.035113 0.972945 1.076557 1.192123 1.212667 1.038541 0.692150 1.010373 1.139532 1.196262 1.134700 1.020994 0.980709 1.020069 1.148033 1.175379 1.188743 0.946628 0.740382 1.175405 1.247502 1.217159 1.221864 0.879621 0.966683 1.111273 1.038263 1.136304 1.049929 1.118719 1.170295 1.134169 1.089153 0.962864 1.008021 0.923343 0.922089 1.034743 1.093343 1.072246 1.087207 1.102237 1.095819 1.110082 1.111824 1.094582 1.113080 1.092898 1.093029 1.108764 1.103388 1.100138 1.097003 1.079431 1.043853 1.028344 1.050053 1.025265 1.061342 1.076273 1.076293 1.069357 1.064817 1.034869 1.066884 1.008427 1.025152 1.036907 0.927412 0.963287 1.114310 1.100406 0.847474 0.895774 1.019385 1.039307 1.081053 1.045965 1.036294 1.023872 0.967008 0.914869 0.781615 0.940463 1.043594 1.049671 1.060026 1.108922 1.059815 1.034634 0.975304 0.966505 0.788190 0.769653 0.974355 1.071954 1.047788 1.042866 1.063259 1.094067 1.134201 1.089020 1.051485 0.946551 0.938371 1.099115 0.917168 0.607790 0.958130 0.854797 0.911808 1.077972 1.082641 1.082982 1.110434 1.104068 1.061848 1.059723 1.038661 1.033762 1.026483 1.010261 0.985550 0.996716 0.995978 0.986009 1.001229 1.021574 0.945784 0.949252 1.007425 0.988236 1.022088 1.009488 1.013655 0.998715 0.998000 1.001301 1.006436 0.994805 0.988489 1.018051 0.997558 0.986651 1.048740 1.083818 1.100211 1.095844 1.041961 1.046357 1.063886 1.052149 1.073335 1.104352 1.121013 1.082531 1.049714 1.025205 0.934959 0.986902 0.997952 0.871148 1.046294 1.164906 1.116917 1.233109
0.971025 0.940222 0.932975 0.999375 0.992105 0.949798 0.994574 1.054440 1.098538 1.044829 1.115607 1.118559 1.127490 1.124152 1.130154 1.125649 1.094759 1.092336 1.068388 0.984568 0.612092 0.995094 1.096037 1.157932 1.182097 1.155506 1.097887 0.875101 0.862533 1.162126 1.071890 0.954839 1.250650 1.192718 1.114234 0.948051 1.054597 1.048551 1.183803 0.757047 1.024560 1.075152 1.127243 1.147007 1.143331 1.086543 1.035315 1.206252 1.215722 1.062127 0.617549 0.920115 0.966212 1.018868 1.018601 1.079504 1.166700 1.100460 1.127010 1.122757 1.053748 0.942178 0.977990 1.152171 1.184876 0.889596 0.667944 1.161996 1.246192 1.211221 1.194420 1.220651 1.225774 1.085049 0.872200 0.583529 1.049132 1.143723 1.114593 1.087923 1.161188 1.201958 1.135724 0.843743 0.799336 1.240775 1.151563 0.873335 0.768671 0.686415 0.697352 0.908791 1.129068 1.185542 1.163127 1.070407 1.076825 1.117261 1.122650 1.046599 0.901351 0.719885 1.043820 0.988941 1.059784 0.935817 1.009871 0.907791 1.026861 1.065931 1.116817 1.061970 1.007764 1.040168 1.084547 1.028876 1.020445 1.015336 0.989245 0.964113 0.980293 1.004091 0.986439 0.976881 0.974763 0.978957 1.005410 0.987629 0.965252 0.997711 0.997716 1.013194 1.003197 1.034258 1.002562 0.938477 0.896486 0.932996 0.990636 0.902217 0.950136 0.811258 0.840194 0.887813 0.908357 0.907560 0.971602 0.993042 0.990201 1.005560 1.017194 1.023122 0.976276 0.987682 0.997187 0.989156 0.993170 1.021856 0.995658 0.987152 0.985452 0.966600 1.004719 1.044790 0.956202 1.003959 1.003623 0.994272 0.981722 1.040724 1.089837 0.898352 0.800513 1.040561 1.025233 1.072495 0.971649 1.012539 1.039137 1.036919 0.998701 0.995595 0.980229 1.014379 1.018238 1.018935 1.011455 1.010731 1.011678 0.995190 0.991049 0.989209 0.995948 1.010040 1.030959 1.044693 1.077963 1.092985 1.114181 1.122195 1.092746 1.096930 1.129896 1.072533 0.914727 0.890410 0.724170 0.986669 1.216156 1.253982 1.159192 0.869499 0.686906 1.104051 1.175375 1.182520 1.214824 1.161018 0.780571 0.918001 1.046460 1.138319 1.200930 1.144100 1.073192 0.830813 1.013173 1.100834 1.057245 1.083970 0.963981 0.947853 0.922464 0.719048 0.820612 0.913001 0.669511 1.137163 1.224389 1.193814 1.110417 1.094804 1.177463 1.160195 1.089868 1.061353 0.891302 0.811356 0.999120 1.022558 1.111095 1.127555 1.078915 1.093356 1.059945 1.033483 1.045384 1.031363 1.033260 1.075778 1.030680 1.060560 1.044805 1.071292 1.066493 1.079833 1.090260 1.079683 1.066638 1.045426 1.035659 1.076298 1.078764 1.051931 1.008061 1.038556 0.948542 1.103171 1.047912 0.999005 0.995091 0.917073 1.060237 1.130201 1.111459 0.853572 0.972789 1.034124 1.021248 1.085296 1.075768 1.057145 1.038144 1.021915 0.949576 0.743509 0.942966 1.075270 1.066175 1.056128 1.113826 1.101073 1.067242 0.970922 0.904547 0.781757 0.731206 0.877350 1.067721 1.078659 1.106572 1.053005 1.048249 1.137965 1.102627 1.058197 1.007781 0.938934 0.977468 0.872819 0.607299 1.059044 1.076148 1.063867 1.098586 1.128373 1.125279 1.098491 1.053042 1.065631 1.045683 1.046285 1.047124 1.035304 1.016228 1.003619 0.985559 0.977136 0.972630 0.979276 1.021673 0.986875 0.931208 0.981905 0.942085 0.995784 1.024913 1.011181 1.023500 1.001412 0.996540 1.000503 1.005379 1.006225 1.005250 0.991741 1.014099 1.089921 1.092225 1.039734 1.010328 1.004562 1.019644 1.049575 1.090294 1.068981 1.082493 1.094649 1.145612 1.124866 1.108582 1.088220 1.033586 1.029465 1.035112 0.875622 1.202874 0.943890 1.198598
1.033911 1.021647 1.092614 1.102059 1.035780 1.055704 1.057274 1.113895 1.098567 0.922702 1.002948 1.071471 1.123080 1.089520 0.947910 1.038145 1.063403 0.920366 0.882488 0.823337 0.681531 0.800276 1.089972 1.138814 1.190583 1.157759 1.151482 0.985745 0.753797 0.628786 0.545620 1.028136 1.239198 1.221737 1.223040 1.211237 1.198177 1.206767 1.126406 0.663985 1.003228 1.099823 1.139318 1.150189 1.163461 1.107249 0.824227 0.853223 1.202520 1.065463 0.969160 1.238377 1.197312 1.180678 1.197703 1.181227 1.051439 1.063645 1.126717 1.128991 1.080335 0.908312 0.694130 0.968908 1.173387 1.061831 0.865395 0.849122 0.918622 1.143247 1.161099 1.196833 1.164869 1.225829 1.155215 0.755433 1.246784 1.242430 1.217792 1.041109 1.128654 1.196297 1.106948 0.845501 0.698478 0.788724 0.739204 0.992225 1.098091 1.050099 1.082094 1.027796 1.037279 1.014933 0.916689 0.847630 0.960254 1.098788 1.114799 1.053136 0.881433 0.865751 1.130901 0.971995 1.093814 1.039525 1.001883 0.961901 1.047576 1.024558 1.068496 1.070951 1.016931 0.980073 1.004241 0.977271 0.958051 0.994590 1.022719 1.017428 1.004372 0.987153 0.979810 0.979906 0.986875 1.006099 1.016138 0.972664 0.999717 1.010023 1.023266 1.024274 1.007263 1.025154 1.060580 0.890482 0.783786 0.829265 0.898740 0.807020 0.872528 0.982599 1.024019 1.034822 1.034175 1.014808 1.006411 0.985550 0.996370 1.021883 0.991108 0.988957 0.976982 1.005298 1.020566 1.005253 1.000630 0.980818 0.998123 0.979058 1.001871 0.970091 1.027915 1.060413 1.019499 0.920543 0.936838 0.960854 0.993481 0.996069 1.101748 1.075597 0.817007 0.996731 1.096946 1.089550 0.936784 1.010626 1.014189 1.015078 1.013591 1.003678 0.967028 0.968336 0.984766 0.976099 0.970807 0.940606 0.950560 1.015065 1.011948 1.002236 0.985555 1.006141 1.013668 0.964412 0.975189 0.958599 0.943419 0.961521 1.005406 1.014498 1.061740 1.077717 1.026366 1.025206 0.808991 0.795126 0.870782 0.983248 0.902417 1.065544 1.034404 1.100543 1.132255 1.168002 1.177648 0.884447 0.773950 1.105609 1.146714 1.203166 1.178756 1.200007 1.057835 0.709020 1.091356 1.214689 1.108672 1.145750 1.211594 1.219437 1.163106 0.941392 0.903664 0.762564 0.716341 1.121618 1.137189 1.129743 1.170310 1.140099 1.178214 1.185289 1.111874 1.032161 0.714146 0.839307 1.032346 1.046166 1.148381 1.115011 1.098285 1.046617 1.024863 1.039675 1.018784 1.056726 1.022077 1.057697 1.015878 1.030115 1.037308 1.064510 1.028967 1.012785 1.031991 1.056007 1.043058 1.059062 1.076762 1.066806 1.050304 1.037474 0.956657 1.027062 0.996971 1.125963 1.113835 0.977561 0.812162 0.997802 1.113281 1.083108 1.104850 0.893285 0.979666 1.046970 1.035132 1.088719 1.056878 1.047537 1.038363 1.049203 1.049165 0.788314 0.986283 1.096566 1.075699 1.052214 1.106567 1.083746 1.081142 1.056544 1.039074 0.946160 0.670220 0.909768 1.075207 1.125114 1.064464 0.973078 1.031124 1.141416 1.140818 1.152240 1.095725 0.964535 0.768334 0.606639 0.653818 1.027021 1.055478 1.098390 1.156722 1.142038 1.104380 1.074787 1.055934 1.080402 0.997721 0.983015 0.997799 0.999496 1.009161 1.007436 0.988637 0.984884 0.991946 0.970896 0.999315 1.022901 0.994551 0.941483 0.964953 0.987401 0.970171 0.914495 1.013790 1.026942 1.025832 1.013948 0.996002 1.005041 0.994955 1.034909 1.081018 1.068486 1.029641 1.017467 1.042974 1.045284 1.059354 1.046227 1.085002 1.095502 1.062807 1.023904 1.042984 1.123840 1.124830 1.102964 1.037035 0.962252 0.879939 0.683737 0.823859 0.818513 0.934518
1.079056 1.082978 1.081949 1.063370 1.000984 1.012664 1.108125 1.111794 1.098692 1.016571 0.967580 1.061729 1.105475 1.132726 1.106769 1.097160 1.053726 0.976344 1.044197 1.030453 1.034127 0.771504 0.853333 1.192092 1.207962 1.208394 1.205854 1.236011 1.115708 0.824839 0.546131 1.152960 1.027551 0.927849 1.132324 1.220526 1.217415 1.116112 0.770187 0.830533 1.086257 1.067675 1.160977 1.155685 1.122555 0.953448 0.821965 0.866758 1.216669 0.826461 1.194678 1.240146 1.222932 1.215751 1.159732 1.052053 1.033851 1.079415 1.131814 1.136809 1.088997 1.076054 0.758425 1.001226 1.171645 1.188430 1.073491 0.882987 0.587713 0.759735 1.139183 1.207055 0.937762 0.889082 0.916393 0.693578 1.170247 0.994385 0.914240 0.868442 1.154268 1.189086 1.069162 0.988638 0.882859 0.778409 0.705795 0.991413 1.230554 1.225091 1.219421 1.205061 1.194272 1.033091 0.930719 0.953936 1.010354 1.106845 1.108147 1.025725 0.867009 1.017489 1.119371 0.977375 1.068610 1.065053 1.073287 1.029040 0.990510 1.040102 0.985921 1.006584 1.008094 1.021768 1.029301 1.027901 1.010012 1.017995 0.996083 0.982193 0.979669 0.986029 0.992027 0.991958 1.003468 1.020027 0.997636 0.972292 1.011210 1.000565 0.985033 0.968162 0.975653 0.985773 1.069832 1.029424 0.966407 0.996588 0.950251 0.905978 0.991441 1.023483 1.014945 1.029704 1.044907 1.019085 1.013922 1.000583 0.980695 1.018323 0.996601 0.986172 0.980683 1.021141 1.002529 0.995894 0.982385 0.986872 1.061598 0.987955 0.994090 0.987724 0.994347 1.021649 1.078737 1.055635 0.966546 0.991781 1.002362 0.976673 1.047897 1.119987 0.897233 0.966188 1.107058 1.068853 0.976312 0.997401 0.996561 0.980879 1.048861 1.037510 1.015862 0.986168 0.994991 0.984116 0.987660 0.990751 0.918193 0.902540 0.962641 1.002710 1.001458 1.010739 1.005718 0.974209 0.985865 1.036571 1.095623 1.122913 1.147719 1.144715 1.135887 1.133850 1.175021 1.159801 1.218889 1.204086 0.873117 1.120737 1.220798 1.189992 1.134150 1.144305 1.227127 1.226159 1.088849 0.773820 1.070637 1.182753 1.204888 1.209167 1.139078 1.220949 1.159453 0.878270 1.198641 1.244424 1.153582 1.119181 1.190538 1.146262 0.802622 0.752385 1.273822 1.175256 0.919477 0.893877 1.021241 1.086402 1.194978 1.183510 1.186376 1.142370 0.957782 0.724095 0.888531 1.100468 1.028194 1.000007 1.149036 1.102463 1.105906 1.025497 0.969443 0.925881 0.873888 1.092125 1.071796 1.114391 1.095400 1.105860 1.117335 0.993062 0.945302 0.959985 1.024318 1.065566 1.048383 1.049026 1.059377 1.037544 1.058818 1.014668 1.067709 1.047156 1.025878 1.112999 1.075524 0.866356 0.920957 1.097891 1.122228 0.988773 1.073908 0.821015 1.025328 1.058277 1.045530 1.091971 1.064035 1.044981 1.028415 1.060306 1.034925 0.780737 0.938428 1.069437 1.069814 1.066376 1.096386 1.087067 1.086180 1.112678 1.070551 0.987808 0.775346 1.084191 1.121881 1.100627 0.992403 1.010295 1.089908 1.144992 1.048385 1.084292 1.159004 0.956977 0.775768 0.851047 0.763439 0.959036 1.046844 1.110396 1.059359 1.143573 1.078714 1.061744 0.997442 1.032329 0.855726 0.927575 0.950473 0.963330 1.005495 1.005906 0.989915 0.994953 1.001173 0.960993 0.953017 1.024782 1.017658 0.970102 0.972572 0.960676 0.974251 0.987630 1.024814 0.988804 0.989281 0.974442 0.982373 1.012809 1.065282 1.061673 1.034679 1.034354 1.010774 1.024686 1.028433 1.046349 1.047049 1.048735 1.079241 1.058195 1.047472 0.971263 0.912809 0.864758 0.920897 0.908277 0.905071 0.949957 0.983491 0.949907 0.983325 1.190999 1.178389
1.131334 1.102955 1.054612 1.031438 1.021951 1.102896 1.115330 1.089272 1.070058 1.037424 0.949195 1.056074 1.050458 1.101763 1.140231 1.098930 1.062644 1.147772 1.140359 1.128418 1.118589 0.961374 0.908137 1.112126 1.123637 1.124735 1.177399 1.010063 1.098795 1.125866 0.780913 0.964473 1.094370 1.152080 1.172833 1.233590 0.898694 0.677566 0.801982 1.040277 1.098899 1.114393 1.162182 1.167575 1.087857 1.039324 0.983458 0.685438 0.583516 0.633348 0.843413 0.706557 0.683536 0.712837 0.914201 1.017854 1.032606 1.079803 1.132906 1.119828 1.049147 1.195702 1.140349 1.105011 1.142431 1.162206 1.069821 1.164672 0.834868 0.772134 0.951952 0.940993 0.977885 0.999402 0.944928 0.932715 0.580583 0.587729 0.927658 1.169176 1.194497 1.182230 1.074638 0.931436 1.036603 1.053569 0.754573 0.539040 0.902691 1.166485 1.125542 1.088882 1.193892 1.177978 1.164312 1.151989 1.082926 1.037471 1.103091 1.057447 0.925747 1.034244 1.052012 0.978508 1.037749 1.054425 1.009845 1.063841 0.983104 1.022531 0.989442 0.993498 0.999293 1.010176 1.000828 1.008514 0.995182 0.983403 0.981225 0.993408 1.009889 1.005734 0.991702 1.000686 0.968848 0.985846 0.977117 1.002905 0.978198 0.978679 0.978321 0.988227 1.033524 1.012700 1.053254 1.065497 0.982359 0.946483 0.878940 0.916291 0.997051 0.999889 0.989172 0.991010 1.001758 0.988077 0.998159 0.976454 0.995293 1.027784 0.983671 0.985371 0.999398 1.004156 0.972379 0.986097 1.008980 0.996006 1.054943 1.073325 0.969995 1.012290 0.992155 0.952478 1.075889 1.083225 0.976484 0.984084 0.981399 1.014712 1.027901 1.127880 0.905124 0.929743 1.096627 0.997257 0.877941 0.958225 0.994449 1.069280 1.026541 0.991119 1.020670 1.027652 1.023003 1.041691 1.014582 1.043412 1.042727 0.989663 0.938109 0.976935 1.002038 0.999643 1.025415 1.007321 1.029509 1.010826 1.031959 1.024912 1.012223 1.124657 1.135824 1.179186 1.212225 1.230748 1.242068 1.142645 0.982487 1.187115 1.166135 1.148012 1.174197 1.134145 1.158332 1.163234 0.723564 1.016157 1.202869 1.207583 1.195192 1.113725 1.068943 1.042383 0.980443 0.610729 1.103022 1.126102 1.193098 1.130124 1.154165 1.229072 1.004423 0.616479 1.167426 1.260692 1.210492 1.157967 1.113212 1.145742 1.188361 1.195631 1.184217 1.061358 0.885767 0.773716 1.130217 1.179760 1.119664 1.076615 1.151345 1.099001 1.098523 1.068738 0.943170 0.885983 0.697580 0.908473 0.992930 1.016142 1.002142 1.012721 0.877316 0.892787 1.016024 1.031003 1.057471 1.087019 1.056253 1.044521 1.008912 0.955741 1.087765 1.040686 1.025589 1.027243 1.079931 0.956536 0.895848 0.879421 1.101133 1.140366 1.072955 1.005035 1.042878 0.822858 1.009176 1.031113 1.046279 1.095328 1.069066 1.047154 1.020352 1.036843 0.979663 0.721955 0.802624 1.078124 1.083430 1.084265 1.104035 1.106405 1.077185 1.059811 0.995152 1.049237 0.816727 0.985300 1.049399 1.046738 1.088530 1.124479 1.157841 1.155921 1.076126 0.881308 1.189869 1.067510 0.893253 1.064655 0.848777 0.958892 1.105028 0.883721 0.917835 1.142314 0.959832 0.954656 0.852447 0.889904 0.927820 1.007850 0.994055 1.015739 1.025890 1.014734 0.994227 1.000723 0.984328 0.985775 1.029430 1.018718 0.954033 0.981088 0.994583 0.980765 1.007743 1.029679 1.006999 0.952688 0.942603 0.954449 1.030083 1.043869 1.027552 1.000303 0.998595 1.001356 1.013448 1.028753 1.029979 1.050557 1.042861 1.019037 1.025252 0.975890 0.913051 0.781609 0.839639 1.007535 1.107154 0.989062 0.968545 1.076059 1.011414 1.008072 1.075234 1.174007 1.115794
1.109546 1.095383 1.064770 1.061894 1.087301 1.117823 1.079567 1.079506 1.087330 1.053941 0.836696 1.029672 1.071676 1.063690 1.146375 1.135814 1.066210 1.102485 1.007509 0.991416 1.010937 0.971910 0.721760 0.965198 0.961589 0.878294 0.943721 0.972423 0.899719 0.739402 0.587374 1.117631 1.146328 1.196894 1.250359 1.152540 0.599199 0.663192 1.084731 1.172435 1.087452 1.089989 1.168037 1.039136 1.043435 1.101609 0.997516 0.766742 0.599540 1.027651 1.239416 1.157976 0.881455 0.804728 0.874215 1.016883 1.044270 1.149093 1.142391 0.954697 0.980205 1.001452 1.134626 1.181087 1.121396 1.208600 0.935932 1.174166 0.732329 1.104010 1.252823 1.138792 1.081369 1.208666 1.209634 1.013340 0.924137 0.799534 0.748500 0.881344 1.197989 1.176514 1.170549 1.090178 1.114108 0.883553 0.945647 0.768995 0.631673 0.547617 0.612668 0.843524 1.091244 0.979365 1.037839 0.990569 1.002018 1.036599 1.079485 1.095390 1.074826 1.052505 1.034517 0.998458 1.037029 1.070579 1.014952 1.028411 0.998586 1.008088 0.991362 1.009538 1.026764 1.012032 0.986630 0.995485 0.988763 0.999977 1.014908 1.002892 0.980402 0.956963 0.984359 1.003293 1.006763 0.979759 1.002271 1.005253 1.022653 1.039196 1.011960 1.019188 0.999036 0.941530 1.010607 1.034317 0.955802 0.914497 0.905443 0.952041 0.972517 0.981141 1.012345 1.036016 0.998598 1.002068 0.984485 0.975721 1.027782 0.983193 0.997183 1.012521 1.002637 0.977924 1.000570 1.024520 1.042034 1.036790 0.992907 1.085743 0.965471 0.972947 1.011076 0.978577 1.082033 1.104662 0.948749 0.949803 0.935147 0.950962 1.050680 1.138512 0.910260 0.825398 0.934753 0.926324 1.082481 1.097196 1.099410 1.103849 1.045684 1.007914 1.051288 1.057307 1.034273 1.057031 1.013980 0.983077 1.006250 1.008222 0.984175 0.995344 0.995390 0.986657 1.003958 1.025594 1.023865 1.062265 1.095535 1.127876 1.089989 1.069689 1.053198 1.120885 1.160774 1.123255 1.078122 0.902457 0.771305 0.628413 1.065444 1.222983 1.243638 1.237086 1.237206 1.093677 0.893940 1.193764 1.211884 1.205032 1.063882 1.036604 0.788602 0.648751 0.531592 0.591186 1.155158 1.164478 1.167177 1.161881 1.128593 1.242794 1.107214 1.046795 0.863803 1.262509 1.252514 1.226165 1.152913 1.083549 1.203380 1.040910 0.960225 0.741843 0.604855 1.128569 1.235949 1.215796 1.157554 1.133332 1.102139 1.109696 1.096956 1.084534 1.167584 1.141880 1.014870 0.710245 0.715012 0.794433 0.884741 1.038789 0.994697 0.953108 1.021196 1.035960 1.052422 1.089483 1.057741 1.021651 1.053456 0.928889 1.060114 1.060417 0.904931 1.043454 1.144184 0.814953 0.842566 0.942354 1.013302 1.083772 1.021441 1.043173 0.971564 0.869681 1.016009 1.034107 1.078222 1.099923 1.053146 1.063419 1.047357 1.075131 1.026494 0.813758 0.890646 1.068668 1.037014 1.052709 1.096946 1.116420 1.076812 1.030190 0.937522 0.977191 0.789417 0.899318 0.891750 0.998456 1.183688 1.162531 1.170724 1.158900 1.116905 0.750440 1.028908 1.123696 1.190486 1.141458 1.055059 1.012669 0.995922 0.756804 0.752869 0.935213 0.753123 0.768480 0.857968 0.965548 0.953733 0.997993 1.022076 1.027423 1.027450 1.018535 0.995303 0.986863 0.980939 1.013029 1.022123 0.964103 0.983837 1.005138 0.996168 0.986489 0.997521 1.013338 1.029639 0.981869 0.972130 1.011588 1.024796 0.978094 0.996817 1.006779 1.008091 1.002825 1.019839 1.047038 1.034660 1.015607 1.003599 0.975901 0.946118 0.856839 0.846397 0.994643 1.054110 1.141251 1.123426 1.030023 1.027797 1.091732 1.046781 1.044268 1.061448 1.116350 1.090500
1.041682 1.068272 1.039242 1.105890 1.121630 1.085262 1.040358 0.981169 1.126386 0.993783 0.789329 0.958744 1.078487 1.060618 1.108973 1.148335 1.046047 1.021993 0.927261 0.932984 0.949042 0.905055 0.646837 1.131506 1.245436 1.132892 1.102659 1.198607 1.126225 0.798587 0.753571 0.852632 0.811717 0.820847 0.949886 0.757982 1.076945 1.198566 0.940257 1.094624 0.994661 1.147553 1.173750 1.182263 1.096450 1.063152 1.057392 0.876914 1.134750 1.249144 1.232836 1.219961 1.191170 1.176982 1.002463 0.962245 0.984617 1.149888 1.153481 0.895923 1.037485 0.942155 0.884868 1.170257 1.232248 1.236367 1.114136 1.121217 0.638731 1.072670 1.211375 1.226429 1.094199 1.110740 1.198702 0.993176 1.078385 1.072213 0.904349 0.891429 1.119956 1.139731 1.161622 1.163056 1.058439 1.009676 0.993513 1.000506 1.049292 0.826548 0.879413 1.125860 1.015170 0.983644 0.942325 1.002886 1.059621 1.088724 1.094078 1.090665 1.088868 1.087857 1.089627 1.027527 1.011579 1.040120 1.040028 1.037564 1.036447 1.009932 1.013790 0.991000 1.021699 0.995998 0.994910 1.005245 1.010172 0.998822 0.997624 0.981983 0.985016 0.988982 1.013708 0.991598 1.036788 0.983803 1.021003 1.031478 1.009863 0.986934 0.948629 0.966285 0.957147 0.984648 1.061335 1.008702 0.947305 0.896423 0.906766 0.997673 1.008439 0.996994 1.005064 1.015673 1.014483 1.007261 1.000527 1.008280 1.026863 0.992657 1.015632 0.968673 0.954748 1.011690 1.022501 1.043881 1.046693 1.038736 0.974035 1.094211 1.036544 0.964325 1.012031 1.010581 1.073847 1.110143 0.941760 0.874423 0.810751 0.848441 1.084199 1.146947 1.032823 0.853821 0.792619 1.162964 1.053684 1.080243 1.104540 1.080216 1.038808 1.061592 1.016329 1.041546 0.973961 1.065564 1.043758 1.013517 1.036279 1.012689 1.015847 1.004810 1.001489 0.991378 1.000844 1.042373 1.066920 1.050941 1.097462 1.136099 1.088102 0.991895 0.784223 0.762813 0.767692 0.652611 0.687933 0.515396 0.464514 1.130067 1.270950 1.152255 1.198616 1.251027 1.192753 0.734970 1.022642 1.187617 1.212292 1.140699 1.044955 1.119048 1.205980 1.169992 0.869980 0.684128 1.147356 1.155294 1.235843 1.242386 1.197568 1.243340 1.137849 1.096837 0.823979 1.164484 1.137489 1.039127 1.113127 1.135674 1.206071 1.207262 1.108982 0.787774 0.564489 0.926230 1.039819 0.971624 1.002884 1.122913 1.154232 1.116312 1.122547 1.034462 1.027586 0.995865 0.928046 0.836370 0.614325 1.014343 1.121045 1.138979 1.147528 1.053007 1.000712 1.039662 1.079486 1.091446 1.066733 1.039293 1.083653 1.033716 0.915930 1.069789 0.885964 1.001696 1.100809 0.774605 0.927061 1.006521 1.068968 1.087185 1.044293 1.001447 0.990562 1.020614 1.042999 1.059170 1.106194 1.097972 1.027411 1.036622 1.026822 1.000492 1.014469 0.875415 0.868110 1.111525 1.097570 1.077144 1.094320 1.123612 1.086891 1.005650 0.890821 0.822087 0.722134 0.757384 1.083525 1.192815 1.194091 0.850239 1.025799 1.124408 1.190471 1.143310 0.855784 0.929959 1.169790 1.171230 1.134985 1.155635 0.964129 0.754298 0.842755 1.037510 0.934522 0.947503 0.902213 0.997365 1.020815 1.037554 1.024151 1.027393 1.020696 1.002918 0.985263 0.978345 1.017284 1.030165 0.995946 0.989657 1.012081 0.993735 0.991088 0.985602 0.997492 0.981640 1.004663 1.032756 0.968723 0.997646 0.960853 0.983266 1.004547 1.010665 1.006720 1.007040 0.995412 1.007191 0.990941 0.976560 0.950532 0.929187 0.920494 0.914253 1.055628 1.119624 1.081335 1.084253 1.070083 1.092031 1.057614 1.082863 1.103180 1.149402 1.146248 1.184065 1.177868
1.091674 1.088553 1.127470 1.126808 1.061876 1.047784 1.139312 1.078323 1.062587 1.121304 1.003823 0.695478 0.989570 1.055098 1.099037 1.150264 1.154216 1.079837 1.065683 1.070923 0.999717 0.978184 0.608261 0.911781 1.186608 1.196811 1.199267 1.142679 1.072873 0.688804 0.828014 1.023655 0.903232 1.072614 0.947247 0.749787 0.858698 1.006719 1.133190 1.130048 1.112483 1.178413 1.158337 0.998917 1.220767 1.161343 0.672652 0.520230 0.846326 1.085814 1.178718 1.215006 1.173993 1.192109 1.186915 1.133080 1.005982 1.149444 1.083651 1.065626 1.067744 0.905343 0.652298 0.945834 1.247576 1.091655 1.001365 1.245146 0.735739 1.066031 1.122145 1.201195 1.184743 1.015904 1.087840 1.036461 1.125381 1.170470 1.066437 0.847400 0.844281 0.953284 1.113728 1.152892 1.158250 1.142296 1.185870 1.154547 0.991466 0.822370 0.618785 0.821424 1.022948 1.102149 1.165525 1.145285 1.131972 1.126922 1.042375 1.048325 1.057052 1.050551 1.084478 1.076836 1.071590 1.067359 1.059874 1.052769 1.045896 1.038785 1.033018 1.005519 0.977113 0.981319 1.008659 0.999824 0.987919 0.989985 0.999517 1.014889 1.018435 1.017920 1.019510 0.989160 1.028339 1.033109 1.012950 1.020384 0.998096 0.964118 0.975817 0.987974 0.988352 1.003814 1.036918 0.930835 0.865593 0.805117 0.956323 1.033706 0.993793 1.001397 0.983240 1.015962 1.010103 0.992469 0.974818 1.022880 1.027943 0.998672 1.012711 0.973262 1.020637 1.011731 1.017883 1.036330 1.031968 1.048573 0.975669 1.037679 1.105072 0.977120 0.895206 0.999043 1.059647 1.115448 1.064090 0.946559 0.817960 0.824865 1.099138 1.155720 1.108123 0.956475 0.879336 1.029834 0.972449 1.101759 1.095996 1.081733 0.995858 1.023186 1.095505 0.971456 0.956739 1.052643 0.948340 1.010253 1.068911 1.054588 1.046973 0.975785 1.020839 0.999980 1.032841 1.045652 1.001864 0.943891 0.841930 0.683771 0.702182 0.674479 0.723680 1.145638 0.993649 1.068634 1.074272 0.905870 0.678883 0.895965 1.282516 1.211586 0.924619 1.039361 0.692891 1.051809 1.155488 1.178721 1.216936 1.141608 1.011809 0.974286 1.080176 1.052744 0.959205 0.637439 1.113684 0.878319 1.143547 1.093028 1.247430 1.108493 0.985229 1.004300 0.739894 0.673877 0.891773 1.004588 1.135556 1.144222 1.214116 1.204248 1.107205 0.812686 0.517006 0.582452 0.739517 0.919784 1.045213 1.113711 1.157257 1.105998 1.109241 1.073538 1.035909 0.972333 0.877652 0.629923 0.613312 0.849774 1.030937 1.087643 1.121504 1.143942 1.074672 1.049646 1.093740 1.095010 1.076368 1.034672 1.009622 0.945735 0.845657 0.957849 0.849851 0.747353 0.798157 0.884713 1.096957 1.138482 1.109240 1.052762 0.965372 1.045816 1.094011 1.057606 1.061585 1.045799 1.110547 1.066553 1.031011 1.055425 1.069435 1.040489 1.061897 0.932598 0.828592 1.132505 1.069881 1.058301 1.087320 1.112226 1.098312 1.091830 1.044010 0.941095 0.796292 0.970236 1.187868 1.147714 1.109668 0.853650 0.770629 0.959934 1.105483 1.191515 0.633486 0.899210 1.074767 1.165058 1.154201 1.145284 0.981081 0.917006 1.016826 1.102843 1.051405 1.053279 0.936461 1.022320 1.041160 1.039072 1.033548 1.028345 1.003016 0.986134 1.002825 1.032664 1.024206 0.993089 0.982356 1.014190 0.941929 0.926437 0.968659 0.989841 0.992609 0.997307 0.995475 1.033218 1.033384 0.987407 0.994795 1.002236 1.007723 1.013738 1.015657 1.009708 1.022358 1.040255 1.026915 0.989268 0.978924 0.982570 1.019867 1.007710 1.066794 1.116983 1.090906 1.079786 1.080607 1.138551 1.130120 1.166555 1.177732 1.151132 1.189545 1.199448 1.117051
1.067679 1.127309 1.125030 1.078805 1.019658 1.053797 1.077970 1.165608 1.120211 0.967852 1.101483 0.813317 0.697221 0.963670 1.065412 1.114393 1.149904 1.101486 1.058774 1.036387 1.009826 0.949944 0.783997 1.046431 1.177337 1.148419 1.172671 0.974890 0.994772 0.957645 0.969370 1.249673 1.253228 1.223808 1.135665 0.996508 0.939436 0.950170 1.008914 1.057333 1.175881 1.181044 1.176568 0.913348 1.025437 1.168341 0.695289 0.616667 1.166923 1.215587 1.172057 1.111732 1.017498 1.073166 1.184915 1.174358 1.162452 1.149911 1.114671 1.118721 1.144318 1.078548 0.804177 0.655174 1.054923 1.141462 1.130376 0.964447 0.793686 0.986452 0.957243 1.024936 1.130005 1.175454 1.142105 1.116446 1.087587 1.131572 1.077644 1.003340 0.950848 0.848542 0.922597 1.120589 1.126468 1.094698 0.908063 0.771762 0.794031 1.086414 0.959931 0.752555 1.074564 1.178025 1.170124 1.158311 1.087680 1.059805 1.030947 1.063502 1.062568 1.027071 1.011798 0.998597 1.007399 0.985445 0.970201 0.961767 0.967671 0.954019 0.993236 1.012964 0.988099 0.998856 1.019231 0.989852 0.962348 0.968436 1.001075 1.005710 1.021703 1.010725 0.989788 0.991763 1.005180 1.069947 0.993623 0.993515 1.004561 0.987258 0.976728 0.978388 0.919607 0.957565 0.924946 0.880595 0.910434 0.977910 1.027681 1.054522 0.992222 0.984780 0.959748 1.009748 1.007106 0.999792 0.997339 1.028062 0.999148 1.003636 1.029887 1.001722 1.017814 1.000929 1.019473 0.998827 1.001961 1.032301 1.013591 1.039187 1.109892 1.074922 0.909641 0.863410 0.991631 1.127395 1.136189 1.034779 1.001716 0.782396 1.076623 1.166038 1.136880 0.947507 0.839289 0.842168 0.966681 1.063383 1.105577 1.084587 0.844195 1.101405 1.158496 0.923743 0.916195 1.000942 0.930618 1.052215 1.091859 1.076506 1.010469 0.948749 1.029518 1.010151 1.026196 0.915948 0.919621 0.842806 0.704236 0.653189 1.047865 1.039225 0.813099 1.146216 1.106787 1.134266 0.968548 1.052559 0.940016 0.516812 0.833459 0.912998 0.736678 0.920201 0.688721 1.048532 1.155443 1.157688 1.222448 1.140913 1.124050 1.182128 1.117095 1.133574 1.039933 0.673728 1.041069 1.000303 1.164733 1.260130 1.243820 1.220905 1.246323 1.263838 0.873500 0.875950 1.266379 1.248306 1.180801 1.230098 1.226286 1.185509 1.228772 1.164366 0.798210 0.762286 0.676811 1.068660 1.117362 1.080127 1.162654 1.133234 1.119564 1.162490 1.179690 1.065379 1.040570 0.637165 0.791054 0.860541 0.935727 0.988518 1.052065 1.065176 1.059179 1.080074 1.077471 1.078960 1.050794 0.974456 0.931084 0.949801 0.944290 0.846242 0.867020 0.727415 0.872481 1.076183 1.145403 1.148035 1.073106 1.036196 1.093697 1.101349 1.103845 1.053239 1.067888 1.021437 1.106810 1.069026 1.040159 1.049844 1.090383 1.093034 1.047383 0.961647 0.834082 1.087564 1.024163 1.021224 1.059974 1.117226 1.106089 1.045274 1.009282 1.017092 0.884509 0.864948 1.089559 1.156094 1.199559 0.990483 0.906237 1.130729 1.186284 1.157982 0.642726 0.996897 1.110629 1.123371 1.135057 1.144050 1.088722 0.942126 1.051279 1.096115 1.077704 1.070587 1.013040 1.009262 1.042814 1.029072 1.027849 1.006534 0.984608 0.996580 1.031024 1.019398 0.959620 0.970796 1.008440 1.031130 0.942480 0.860459 0.942704 0.995252 1.007270 1.002889 1.019365 1.009008 1.006202 1.035521 1.032534 1.014892 1.007112 1.001916 1.018003 1.026199 1.039038 1.026761 1.015151 0.997558 0.990330 1.022097 1.062573 1.026152 1.071514 1.114892 1.109138 1.119727 1.141887 1.157493 1.125855 1.147091 1.159564 1.097108 1.067928 1.127089 1.037777
1.130178 1.127570 1.070914 1.070096 1.109527 1.111243 1.027796 1.143197 1.121728 1.014319 0.996273 1.030989 0.643582 0.962620 1.068545 1.105249 1.151188 1.112859 1.103125 1.073895 1.006995 0.972612 0.874475 0.995250 1.128643 1.140186 1.094717 1.036799 1.123669 1.131546 0.929965 1.097079 1.222508 1.233575 1.157157 1.144368 1.072695 1.125354 1.166759 1.191203 1.183879 1.186166 1.075991 1.031355 0.740773 0.715912 0.653561 0.890189 1.262188 1.249218 1.161750 1.162624 1.138501 1.202869 1.109241 1.021399 1.042704 1.158757 1.105505 0.964777 0.925180 1.008883 0.986003 0.699525 0.778147 0.967953 0.882897 1.040885 1.123024 1.090991 1.024287 1.033417 1.060842 1.177810 1.171837 1.147642 1.125741 1.116357 1.159718 1.157138 1.133266 1.077655 0.999004 1.084413 1.102909 1.086316 1.003403 1.034823 1.063613 1.163756 1.118790 1.025198 1.206223 1.195233 1.110133 1.095978 1.054278 1.018789 1.000696 0.982804 0.977172 1.011974 1.033693 1.072888 1.025368 0.868933 0.893939 0.869762 0.871593 0.877366 0.923109 0.935775 0.998717 1.020073 1.008078 0.988996 0.930349 0.983585 0.987266 0.992040 1.008111 0.972591 1.009409 1.030872 1.024939 1.070661 1.070975 1.049770 1.024750 0.997316 0.969031 0.910077 0.889470 0.888249 0.894884 0.993711 1.021981 1.003862 1.078017 1.049223 1.042157 1.026150 1.012212 1.006201 0.966345 0.995222 1.003374 1.031236 1.006349 0.985887 1.020909 1.023671 1.065071 1.047724 1.028253 1.001825 0.939283 0.944570 1.005412 1.047457 1.116932 1.108499 1.013067 0.790481 0.970548 1.140106 1.144704 0.999192 0.930891 0.752450 1.070955 1.176675 1.142765 0.967898 0.792783 0.684058 0.784134 0.942064 1.137235 0.942275 0.914002 1.187445 0.886275 0.946133 0.923046 0.997452 0.996694 1.030280 0.969650 0.982290 0.954066 0.987832 1.044484 0.979948 1.038995 1.038850 1.055977 1.018969 1.043017 1.041234 0.971005 1.163418 1.097039 1.061139 1.191108 1.198148 1.212816 1.166358 1.154807 1.004617 0.651609 1.146192 1.240597 1.189114 1.236995 0.955159 1.118715 1.053918 1.182176 1.231459 1.196325 0.974230 0.868098 0.949304 0.709987 0.537838 1.191339 1.182840 1.269790 1.272585 1.044176 0.968231 1.177658 1.210881 0.673610 0.923911 1.185726 0.953606 0.981659 1.204134 0.976874 1.145360 1.244377 1.207509 0.743208 1.171016 0.793132 0.862710 1.093155 1.097309 1.160265 1.159095 1.162684 1.129271 1.024281 0.885313 0.658449 0.834952 1.086276 1.043926 0.957391 1.054046 0.985062 1.007629 1.067504 1.105581 1.068979 1.075143 1.085527 1.053356 1.042378 1.067778 1.076020 1.045024 1.010382 0.820456 0.780859 1.039427 1.154245 1.123541 1.095519 1.080170 1.096710 1.088718 1.060578 1.052196 1.038922 1.031617 1.109665 1.042649 1.039234 1.072020 1.092931 1.134793 1.054870 0.797592 0.745197 1.052648 1.059182 1.065824 1.094157 1.128570 1.118790 1.123112 1.120658 1.130658 1.101659 0.934127 0.669047 0.924467 1.221664 1.106756 1.177757 1.218760 1.192766 1.110224 0.618591 0.834227 1.047117 1.133485 1.126707 1.140146 1.135303 0.998784 0.990892 1.091091 1.115731 1.050184 1.040447 0.997297 1.033475 1.017816 1.005445 0.997952 0.981370 1.022580 1.028976 0.987678 0.969095 1.002210 1.016918 1.032842 0.997120 0.907898 0.871473 0.957542 1.007825 1.013788 1.026610 0.998449 0.986726 0.994847 0.990619 1.034469 0.989677 0.986676 1.008874 1.016576 1.016594 1.008425 1.011422 0.999118 0.997212 1.020317 1.037089 1.055930 1.114565 1.117527 1.117499 1.130008 1.090466 1.085330 1.064111 1.041740 1.088069 1.082610 1.069401 1.090255 1.137334
1.127368 1.099912 0.995815 0.953001 1.065924 1.090901 1.040794 1.095479 1.084150 1.058928 0.902641 0.961880 0.951182 1.045414 1.001320 1.123993 1.154556 1.144876 1.053672 1.055986 1.033292 0.998817 0.995709 1.067322 1.137875 1.203790 1.189179 1.105233 1.162081 1.199329 1.052537 1.104373 1.110748 1.223215 1.185668 1.213372 1.206720 1.200827 1.196806 1.155479 1.136367 1.140211 1.121202 1.155540 1.108328 0.896406 0.568480 0.997272 0.885537 0.924524 1.021231 1.154005 1.040957 1.215883 1.007103 0.919002 0.947166 1.121090 1.163915 1.146422 1.084717 0.927429 0.828812 0.760045 1.082195 1.155060 1.173502 1.145788 1.129467 1.082294 1.121589 1.145396 1.144754 1.174546 1.158066 1.173402 1.172074 1.169606 1.165671 1.158306 1.151669 1.145980 1.140772 1.137529 1.135559 1.135129 1.115462 1.145976 1.168882 1.142402 1.060365 0.868259 0.849372 0.877983 0.840784 0.822440 0.777274 0.699344 0.775833 0.720546 0.779028 0.935358 0.970662 1.026557 0.983792 0.943834 1.032142 1.024256 1.023440 1.026660 1.021358 1.019567 1.021845 1.021918 1.023207 1.006166 0.943592 0.962536 0.955840 1.001732 0.984964 0.959456 1.028022 1.045553 1.037377 1.067740 1.034078 1.066244 1.090147 1.018780 0.918623 0.903498 0.888731 0.878810 0.986853 1.047923 1.054018 1.038449 1.042366 1.019947 0.999580 1.007007 1.019458 0.999860 1.003542 1.030841 1.026857 1.010877 0.977807 0.988780 1.034857 1.018834 1.051992 0.983176 0.954117 0.963069 0.913280 1.001850 1.075704 1.039533 1.102647 1.117807 1.056510 0.847352 0.986789 1.149982 1.122251 1.000049 0.880141 0.712448 1.145471 1.185158 1.153190 0.978638 0.812159 0.583855 0.938161 1.200977 1.175776 0.760583 1.035473 1.143715 0.720305 0.928874 0.831593 0.832274 0.874984 0.873777 0.789305 0.784364 0.991590 1.009216 1.045928 0.971402 0.992204 1.046839 0.975035 1.035271 1.067027 1.073564 1.129936 1.135893 1.148570 1.165502 1.186262 1.204668 1.224522 1.155183 1.222085 1.100515 0.737772 1.224424 1.270463 1.262138 1.191635 1.128878 1.096445 1.114399 1.235397 1.220493 1.051613 1.119456 1.255279 1.162170 0.903093 0.781877 1.123267 1.085105 1.249832 1.126164 0.818662 0.905731 1.040831 0.845583 0.925223 0.709080 1.073519 1.199470 1.245029 1.206501 1.042138 1.068232 1.227906 1.068606 0.871359 1.263270 1.137268 0.914234 0.828858 0.991590 1.100311 1.165714 1.047585 1.032355 0.900875 0.703170 0.813766 1.108692 1.190932 1.212821 1.188620 1.095447 1.123958 0.998429 1.068750 1.106166 1.053073 1.080342 1.059409 1.074204 1.139808 1.177333 1.136115 1.034795 0.928103 0.836036 0.674450 0.779090 0.972504 1.038658 1.049018 1.063432 1.044011 1.030314 0.997986 1.018835 1.063992 1.110906 1.117521 1.074903 1.048876 1.060142 1.068546 1.031706 0.989751 0.758014 0.933232 1.119237 1.061297 1.061348 1.153783 1.129877 1.084574 1.137917 1.166518 1.144355 1.124175 1.013932 0.829076 1.033603 1.233250 0.865333 1.065230 1.181578 0.885411 0.551523 0.642267 0.725927 1.064301 1.157340 1.057326 1.040054 1.125603 1.122533 0.977336 0.954753 1.072146 1.063348 1.031014 1.008961 1.033976 1.003622 0.993930 0.981978 1.011784 1.031161 0.987813 0.982997 0.994832 1.007950 1.027134 1.022067 0.985725 0.923046 0.875990 0.882688 0.977359 1.035744 1.057357 1.014771 1.001453 0.997405 1.003272 1.036793 1.008254 0.992816 0.998216 0.997177 1.012271 1.015165 1.014887 1.013235 1.020324 1.011632 1.020939 1.084671 1.099541 1.038206 1.011695 1.037460 0.960777 1.050237 1.050119 1.047256 1.118808 1.100721 1.133846 1.138362 1.201920
1.120286 0.980997 0.936739 0.874279 0.922862 0.896019 0.838772 1.099853 1.095611 1.090849 0.851353 0.858007 1.175014 1.008985 1.136357 1.103377 1.164525 1.156234 1.098555 1.056969 1.043805 1.076138 1.097254 1.175444 1.193061 1.202457 1.180527 1.170401 0.989902 0.940241 0.821407 0.948735 1.201754 1.219056 1.168340 1.164513 1.176234 1.085201 1.101633 1.067945 1.075476 1.076080 1.100843 1.093120 1.098599 1.005392 0.876658 1.103715 0.900484 0.604546 0.744495 1.211495 1.121045 1.145569 1.074223 1.064499 1.050856 1.171573 1.165989 1.139054 1.117387 1.113852 1.049016 0.787410 1.252271 1.242165 1.233664 1.143530 1.178619 1.135005 1.164543 1.162698 1.181084 1.121602 1.052879 1.029373 1.103938 1.092471 1.100750 1.079766 1.102547 1.127249 1.122096 1.104275 1.093885 1.134278 1.096343 1.011722 0.888895 0.764654 0.653213 0.607550 0.585322 0.788582 0.917371 0.831096 0.806286 0.825332 1.021246 0.928596 0.899736 0.989064 0.962231 1.034480 0.985291 1.003552 1.025661 1.021040 1.019889 1.018958 1.003134 1.004785 0.988457 1.002547 1.005592 0.974934 0.968709 0.966040 0.996314 0.993966 0.996180 0.937605 1.017802 1.049821 1.043556 1.099265 1.040361 1.032710 1.098569 1.049495 0.940142 0.864403 0.871733 0.944266 1.050550 1.067641 1.032709 1.061026 1.047811 1.040984 1.022808 1.003924 0.991031 0.992597 0.998554 1.028946 1.014042 0.966300 0.985339 1.039080 1.022997 0.996945 1.063337 0.979558 0.934231 0.949523 0.901524 1.007913 1.014465 1.050786 1.123945 1.121262 1.036204 0.839156 1.022312 1.158372 1.161179 1.037812 0.863256 0.697613 1.148832 1.194084 1.140947 0.809926 0.667965 0.934462 1.104451 1.150205 1.182624 0.822522 1.221722 1.151278 0.653006 0.671716 0.852489 0.764296 0.750667 0.861360 0.943222 0.847421 1.058885 1.020417 1.044863 1.011572 0.958144 1.034605 1.053479 1.057936 1.084001 1.080666 1.121573 1.095558 1.092147 1.103323 1.084877 1.167287 1.076955 0.806690 1.182713 1.066285 0.589246 1.221012 1.121218 1.202062 1.258699 1.250901 1.244838 1.243712 1.150849 1.150747 1.180600 1.207201 1.039353 0.863270 0.794101 0.651651 0.691629 0.983220 1.050054 0.834530 1.131045 1.189343 1.138128 1.015431 1.179618 0.778958 0.978027 1.138760 1.170181 1.165988 1.172537 1.236972 1.133522 0.642591 0.904834 1.028159 1.134907 1.117514 1.041862 1.006447 1.054613 1.172155 1.158016 1.100363 0.994138 0.784231 1.086821 1.234404 1.229385 1.158909 1.198060 1.146370 1.098513 1.097097 1.081322 1.105561 1.059936 1.098540 1.057122 1.075614 0.962563 1.015962 1.152667 1.067721 0.989572 0.952970 0.758657 1.030689 1.068594 1.120623 1.090809 1.056678 1.052860 1.058274 1.035346 1.025848 1.078686 1.120669 1.088060 1.092602 1.077819 1.068409 1.060876 1.042758 1.031530 0.828532 1.024263 1.086416 1.074556 1.090672 1.156700 1.068171 0.914158 1.014826 1.170084 1.126671 1.082735 1.130114 1.038146 0.695175 0.958582 0.683830 0.760547 0.873052 0.585292 0.621375 1.008340 0.707303 1.037024 1.025626 1.019571 1.030937 1.064673 1.111207 1.032866 0.837845 0.996390 1.042720 1.029393 1.023331 1.026899 1.002536 1.007673 1.006979 1.027893 1.003127 0.960533 0.986137 0.997637 0.989718 1.003944 1.000279 0.985536 0.931413 0.927512 0.882010 0.902392 1.051220 1.010668 1.008741 1.015801 1.000918 1.008936 1.010962 1.036793 1.005865 0.999983 0.993701 0.992374 0.996785 1.009248 1.013260 1.026356 1.001981 1.059437 1.096182 1.068371 1.057733 1.086557 1.095609 1.110157 0.996363 1.007202 1.048156 1.155127 1.098172 1.097236 1.089131 1.156310
1.107815 1.114638 1.137596 1.092061 0.901904 0.898713 0.821760 0.790938 1.058588 1.062813 0.908160 1.108615 1.084188 1.001917 1.156143 0.991471 1.101060 1.165514 1.162215 1.145552 1.151612 1.179096 1.181145 1.186676 1.193939 1.182144 1.113742 1.138292 0.962276 0.565164 0.600041 0.700034 0.777291 1.013846 1.065311 1.118476 1.060931 1.042031 1.052531 1.084961 1.159196 1.131879 1.151382 1.055949 0.986667 0.873145 1.181085 1.233124 0.965921 1.090051 0.536461 0.930799 1.062528 1.128140 1.128933 1.052258 0.999897 1.159535 1.170278 1.146571 1.047456 1.160451 1.174197 0.929386 1.128691 1.140146 0.967370 1.094694 1.210176 1.193277 1.192284 1.186835 1.189972 1.136943 1.083886 1.031940 1.099259 1.104746 1.096499 1.005199 1.147655 0.930300 1.007487 1.022523 1.011189 1.106450 1.129986 1.130216 1.135488 1.090627 1.078051 0.969518 0.912270 0.855612 1.183963 1.031856 0.985819 0.924173 0.934771 1.069950 0.873728 1.060650 1.059182 1.041319 1.027140 1.021737 1.019670 0.987052 0.975241 1.010042 1.006158 1.000911 1.002775 1.002681 0.951130 0.965111 1.019024 0.957527 0.967424 0.991364 0.943412 0.922335 0.997639 1.055281 1.051991 1.106927 1.066019 1.066000 1.061931 1.026543 0.917248 0.836638 0.916832 1.003432 1.062708 1.060911 1.042264 1.064101 1.026691 1.035912 1.037501 1.012186 1.003626 1.010448 1.025157 1.027037 0.978653 0.980177 1.025941 1.057794 1.014443 1.017255 1.021151 0.983435 0.974780 0.940630 0.843911 0.979153 1.079467 1.084007 1.138294 1.121383 0.985767 0.759478 0.917748 1.124237 1.166979 1.163371 1.051679 0.761367 1.122859 1.207280 1.049641 0.777645 0.939571 1.206755 1.208898 1.168232 1.075231 0.781187 1.134917 0.912061 0.572690 0.763621 0.944486 1.044493 0.932232 1.138570 1.125600 1.087877 1.000259 0.971606 1.051718 1.026602 0.998404 1.010680 1.048905 1.006254 1.015103 1.047690 1.070463 1.037439 0.982393 1.036110 0.831311 0.920727 0.862171 0.845728 0.941344 0.684231 0.643080 1.270955 1.211793 1.072001 1.204455 1.069424 1.155297 1.215039 0.913707 1.134258 1.049247 0.872419 1.137472 1.112435 1.087113 1.154869 0.839884 1.103022 0.715210 0.968925 1.267466 1.148441 1.116656 1.167365 1.181576 0.764019 0.969257 1.123530 1.106761 1.121739 1.218743 1.112448 0.759190 0.624176 1.204813 1.242081 0.934960 1.049706 1.090442 1.093223 1.172333 1.175608 1.181615 1.136679 1.091431 0.813523 0.705984 1.030266 0.980579 0.949862 0.996169 0.930529 1.015999 1.089038 1.089102 1.095372 1.055980 1.071352 1.000061 1.034134 1.095193 1.055320 1.007648 1.111564 1.027490 0.854214 0.851885 1.140136 1.133138 1.104842 1.101562 1.099311 1.108636 1.095125 1.063803 1.048894 1.097447 1.125791 1.065296 1.063248 1.026190 1.083990 1.109470 1.047948 0.973888 0.801405 1.068838 1.082128 1.104744 1.162925 1.163036 1.011298 0.875254 1.112014 1.177286 1.137840 1.138092 1.007559 0.772409 0.853044 1.063535 1.006828 1.023084 1.121543 0.888540 0.890202 1.094728 0.906607 0.876570 0.902525 1.007410 0.997486 1.019232 1.106954 1.071298 0.951773 0.990467 1.035162 1.017857 1.004021 1.005204 0.995250 0.984538 1.022198 1.009027 0.966227 0.984603 0.992613 1.003203 1.010935 1.025294 1.045848 1.021062 0.987333 0.978849 0.919459 0.848664 0.881419 0.948120 1.019503 1.016204 1.009098 1.006675 1.006521 1.007843 1.039611 0.996539 0.994730 0.992230 0.993754 1.006041 1.014800 1.062724 1.057682 1.086235 1.072595 1.025364 1.023118 1.041549 1.054078 1.036970 1.008125 0.934716 0.953785 1.039023 1.011808 0.998848 1.012851 1.033463
1.041267 1.046759 1.120295 1.176492 1.165678 1.117515 0.953768 0.659427 0.531929 0.626566 0.658165 1.004643 0.992064 1.115939 1.185459 0.749365 1.037047 1.168529 1.173502 1.148972 1.171901 1.183220 1.188480 1.111168 0.845750 0.856471 1.101366 0.887870 0.610375 1.047404 0.899688 0.950106 0.952644 0.808869 0.863893 1.140938 1.155270 1.127713 1.097866 1.121178 1.117197 1.056678 1.079772 1.094480 0.845566 1.087537 1.149490 1.202705 1.082075 1.075108 0.828555 1.048308 0.767534 0.801824 0.924179 0.937493 1.048518 1.178981 1.176685 1.160440 0.913850 0.957075 1.075647 0.808009 1.119456 0.976172 1.113790 1.224099 1.216499 1.083717 1.209347 1.140941 1.072990 1.180337 1.068246 1.030255 1.004905 1.052120 1.054364 1.133383 1.206177 0.828003 1.042041 1.175773 1.076170 1.070125 1.060207 1.114180 1.118198 1.095963 1.132994 1.123787 1.004467 0.916434 1.141434 1.113929 1.079255 1.021516 0.949091 1.098381 0.870057 0.982103 1.003576 0.982411 0.992980 1.004269 1.012358 0.877869 0.923668 1.009570 1.015268 1.018114 0.989366 1.008716 1.000684 1.060571 1.025547 0.963892 0.915515 0.914803 0.916570 0.964503 1.019610 1.066617 1.082118 1.102881 1.085173 1.073923 1.068347 0.956189 0.812130 0.902294 0.963117 1.017111 1.070542 1.075509 1.052002 1.035966 0.997433 1.000688 1.002984 0.987714 0.985288 1.003828 1.031169 0.997482 0.978786 1.019182 1.017979 1.039856 1.031366 1.030291 1.008275 1.007145 0.939277 0.893212 0.828391 0.980601 1.090730 1.097537 1.143266 1.136663 1.069255 0.923289 0.864818 1.147012 1.174350 1.145961 1.021361 0.756017 1.141831 1.215768 1.181437 0.983081 0.762049 1.090466 1.147564 0.977388 0.828923 0.661919 0.877167 0.886938 0.839317 0.959441 1.010613 1.101272 1.149435 1.114478 1.001345 1.036657 1.036387 1.003846 1.016173 1.001203 1.000260 1.003435 1.048112 0.993404 1.001714 0.908896 0.864074 0.876916 0.755844 0.707589 0.904051 1.033731 1.093397 1.200119 1.097115 0.957329 0.937669 0.810735 1.090134 0.978302 1.111543 0.966812 1.094490 1.082616 0.753711 0.989028 0.710681 0.923952 1.207437 1.179107 1.039281 1.177078 0.951918 1.265997 0.903708 1.116464 1.230781 1.107456 1.101693 1.267389 1.168012 0.771788 1.185631 1.264438 1.215978 1.245710 1.259436 0.792477 0.627171 0.816286 1.016220 1.256964 1.127694 1.146477 1.139759 1.189169 1.183979 1.139623 1.181957 1.127997 1.033962 0.713709 0.664204 0.859649 0.776742 1.061636 1.139087 1.044877 1.059341 1.081905 1.105473 1.117476 1.058806 1.046788 1.032436 1.048822 1.061608 1.121756 1.028176 1.062845 1.127799 0.883674 1.131253 1.186930 1.153001 1.036959 0.999528 1.044653 1.125421 1.098781 1.083393 1.077147 1.112171 1.126988 1.041337 1.056615 1.040194 1.053280 1.084300 1.077124 0.860514 0.839555 0.957449 1.014392 1.125605 1.163281 1.085812 0.903009 1.037951 1.133354 1.165692 1.123127 1.065028 0.947512 0.598001 1.166459 1.230309 1.136832 1.147872 1.191786 1.069451 1.001140 1.102271 1.014311 0.933842 1.028462 0.970545 1.005995 1.016152 1.059529 1.088025 1.011427 0.979723 1.005105 1.023249 1.000591 0.994765 0.989360 0.973068 1.012057 1.003623 0.978470 1.000334 1.012985 1.030001 1.022815 0.987850 1.013163 1.078394 1.050900 1.009087 0.961757 0.873738 0.827498 0.900736 1.005261 1.014837 0.992473 1.008943 0.993361 0.993955 1.038702 1.005087 0.978766 1.003613 1.006678 1.031199 1.065701 1.071114 1.047723 1.033050 1.067937 1.095238 1.043782 1.035588 1.052663 1.024328 0.942329 0.927103 0.899090 0.896673 1.032014 1.030002 0.972610 0.950852
1.018587 1.033867 0.931187 1.111579 1.192130 1.161669 1.093623 1.075213 0.933368 0.581480 0.539373 1.105098 1.140518 1.207139 1.017447 0.968125 1.062352 1.198104 1.140736 1.104799 1.120552 1.058174 1.094761 1.059081 1.109595 1.072725 1.119282 0.982633 0.883237 1.159203 0.937816 1.093718 1.120070 1.115203 0.967944 1.032640 1.045171 1.113936 1.100275 1.093544 1.175533 1.194475 1.101400 0.994993 0.718736 1.125096 1.180844 1.169415 0.866806 0.649337 0.716228 1.258969 1.246106 1.124570 1.116585 1.109338 1.126990 1.175308 1.166775 1.125660 0.823279 0.703865 0.536250 0.529005 1.266848 1.258335 1.245799 1.235418 1.235909 1.139673 0.984844 0.789866 1.201152 1.237020 1.003964 0.838014 0.854482 1.007610 1.102192 1.232090 1.171598 0.801290 1.180018 1.167859 0.960672 0.978033 0.968691 1.061384 1.123533 1.103315 1.111980 0.982004 0.659945 0.802675 1.077804 1.100258 1.047808 0.999315 0.969213 1.035871 0.983659 0.989990 1.013445 0.997164 0.994833 1.001327 1.010079 1.011770 1.021225 1.032445 1.018995 0.990066 0.952624 1.022023 1.077570 1.027945 0.949071 0.916087 0.914436 0.929755 0.949205 0.973728 1.049626 1.072135 1.100431 1.091593 1.109268 1.013982 1.054403 0.860437 0.862624 1.030616 1.049664 1.044884 1.055451 1.047652 1.033085 1.026625 1.028013 1.034187 1.010317 0.994352 0.994159 1.021904 0.997432 0.975244 1.008631 1.028853 1.016968 1.043251 1.055440 1.021966 0.968811 0.949980 0.958592 0.910311 0.834345 0.928399 1.063166 1.111534 1.149161 1.122726 0.966256 0.758618 0.873682 1.186987 1.182961 1.117333 0.988297 0.787289 1.082036 1.173762 1.174359 1.013238 0.795444 0.759035 0.889834 0.906747 0.839742 0.923658 0.947273 1.069131 1.069655 1.026408 1.125490 1.177644 1.098198 0.883257 0.899122 1.041010 1.062193 0.995126 1.015260 1.028990 0.998775 1.001838 1.047015 1.066536 1.008977 1.007626 1.012974 1.037912 0.901643 0.789836 1.115476 1.128570 1.140542 1.223419 1.072009 1.160984 1.029865 0.667613 0.511779 0.650317 0.910399 1.015790 1.073561 1.151193 1.186378 1.237640 1.020733 1.026669 1.157598 1.173318 0.903769 1.171622 0.958992 1.203081 0.953047 1.156418 1.251052 1.115378 1.141637 1.253691 1.075240 0.825389 1.271424 1.279439 1.137158 1.107537 0.671930 1.168762 1.291934 1.010647 0.749336 1.060032 1.138571 1.156870 1.195818 1.189978 1.156336 1.159369 1.193723 1.170940 0.927155 0.642783 1.035700 1.136363 1.095836 0.943718 1.041896 1.063279 1.032267 1.018696 1.122952 1.105979 1.026201 1.060521 1.094401 1.086733 1.066504 1.110625 1.051260 0.964446 1.011193 0.717803 0.998818 1.163660 1.168663 1.140619 1.072250 1.066363 1.135617 1.143637 1.099859 1.059268 1.115934 1.103280 1.011708 1.009353 1.052583 1.075077 0.981449 0.954268 0.865607 1.026330 1.115423 1.117313 1.102040 1.169065 1.065353 0.954314 1.089260 1.108050 1.123623 1.122097 0.945032 0.697654 0.885460 1.046258 1.057656 1.128029 1.136493 1.179955 1.153968 1.023498 1.135531 1.019509 0.967105 0.993872 1.081984 0.989244 1.032454 1.012433 1.063645 1.073179 1.025274 0.992063 1.022897 1.002828 0.991707 0.983797 0.997828 1.011105 1.001729 0.989849 1.002543 1.020235 1.027921 1.015860 0.968982 0.983959 1.050839 1.080429 1.033168 0.974777 0.930392 0.859246 0.854345 0.957793 1.008801 1.024698 1.025816 1.019990 1.022255 0.991696 1.038138 1.024921 1.044394 1.053107 1.056666 1.050331 1.022753 1.028190 1.038825 1.034074 1.036576 1.084414 1.098826 1.106166 1.069876 1.017510 0.985239 0.952557 1.073185 1.155073 1.099782 1.108512 1.165203
1.037106 1.060471 0.955365 0.886221 1.105620 1.207592 1.215961 1.153485 1.115697 1.030321 0.711923 1.180752 1.214832 1.182380 0.981332 1.226236 1.026008 1.179645 1.044533 0.836568 1.108602 0.917600 1.131250 1.197313 1.212313 1.218149 1.170467 0.848952 1.233281 1.058415 1.067682 1.163225 1.197852 1.210397 1.148180 0.980482 0.869525 0.732558 1.136008 1.066394 0.972795 0.917033 0.809632 0.810083 0.777926 1.145828 1.217369 1.161915 1.029959 0.918987 0.548949 1.134010 1.239254 1.227635 1.216534 1.201753 1.192217 1.147158 1.157950 1.202844 1.134227 1.022319 0.848366 0.472096 1.199981 0.891673 1.084493 1.141879 0.774235 0.703370 0.655033 0.662497 1.117203 0.634588 0.643688 0.870375 0.764567 0.618108 0.778875 0.907368 0.846221 0.868184 0.971865 1.197757 0.742541 1.087433 1.177036 1.019383 0.979054 1.028244 1.098832 0.978397 0.711613 0.802379 1.061604 1.043430 1.021648 1.061343 1.043770 1.030175 1.027469 1.015817 1.014731 1.000288 0.996924 1.020691 0.996122 1.005431 0.988597 0.995182 0.986056 0.987243 0.990669 1.020392 1.076780 1.033661 1.011589 1.030008 0.987987 0.936785 0.926936 0.935011 0.922205 1.029056 1.087257 1.085165 1.073104 0.968495 0.920703 0.932685 0.996705 1.071892 1.053734 1.061508 1.036238 1.038438 1.047030 1.028941 1.010775 1.007153 1.018686 1.011367 1.021313 1.026973 0.984377 1.016013 1.022819 1.041301 1.029896 1.038545 1.028649 1.038118 0.993542 0.980907 0.969898 0.867804 0.845074 0.934302 1.081138 1.082820 1.156461 1.131848 1.073432 0.947928 0.760909 1.173356 1.192139 1.119798 1.052322 0.842717 1.100261 1.209373 1.188961 1.139951 0.926644 0.663411 1.039498 1.188895 1.128970 1.094144 1.069451 1.037349 1.121441 1.091636 1.183331 1.176957 0.948810 0.920294 1.006488 1.017232 1.062198 1.059917 1.057994 1.021043 0.990840 1.005210 1.046545 1.068979 1.071208 1.101028 1.136258 1.153955 1.044229 0.969929 1.105831 1.077711 1.180572 1.174214 1.148142 1.076493 0.996680 0.992968 0.736375 1.200137 1.258866 1.163564 1.164532 1.127276 1.160367 1.238356 1.148941 1.088255 1.141307 1.123402 1.048540 1.148661 1.128933 1.140867 1.058698 1.196043 1.160664 1.155904 1.206352 1.199254 0.915785 0.676797 0.992808 0.855475 0.974778 0.791420 0.828577 1.201848 1.217744 1.186608 0.791472 0.940685 1.158189 1.198793 1.195991 1.108991 1.153385 1.100559 0.959269 0.784654 0.748263 0.893024 1.126243 1.118009 1.162898 1.123351 1.021770 1.038368 1.043033 1.090134 1.122609 1.092256 1.048288 1.091995 1.132052 1.095286 1.072730 1.097869 1.046969 1.050749 0.897439 0.660215 1.054730 1.110438 1.070131 1.131452 1.119393 1.084081 1.130876 1.150617 1.035967 1.052332 1.145004 1.112819 1.037236 1.010907 1.062850 1.054158 0.987451 0.898202 0.762304 1.037374 1.129351 1.088918 1.087456 1.172929 1.121037 0.949852 1.093385 1.121117 1.141848 1.200398 0.910202 0.592193 0.956017 1.109881 1.009384 1.098811 0.989921 0.979205 1.153434 1.098971 1.096760 1.089306 1.084652 1.001828 1.010230 1.036369 1.070018 1.076741 1.051210 0.965051 1.043227 1.005867 1.015915 1.001367 0.990314 0.994747 1.016150 1.013232 0.987738 1.002782 0.999119 1.011873 1.004777 0.990768 0.970009 0.966412 1.018595 1.070851 1.074220 1.048229 0.996243 0.927973 0.847336 0.917929 1.028354 1.064107 1.039846 1.020685 1.007199 1.001429 1.020941 1.017505 0.963423 0.953197 0.979617 0.988247 0.994879 0.997194 1.005957 1.012538 1.045171 1.037134 1.032741 1.044367 1.003154 0.957675 0.932962 1.007629 1.141803 1.173707 1.077816 1.111932 0.961089
1.145925 1.065425 1.008658 0.891857 0.953655 1.107692 1.140359 1.104628 1.181549 1.152762 0.893376 1.053140 1.130806 0.952054 0.975893 1.233493 1.131848 1.089239 0.803850 0.587291 0.674716 0.686393 0.923773 1.096395 1.063577 1.108283 0.890649 0.707682 1.151662 1.197846 1.159410 1.111317 1.196457 1.189081 1.159461 1.117235 1.012462 0.743502 0.749943 1.036358 0.942640 1.146824 0.986655 1.061440 0.928858 1.074567 1.200992 1.205107 1.093588 1.046821 0.814987 0.965229 1.107341 1.142731 1.020929 1.115190 1.200466 1.156584 1.140826 1.193389 1.235908 1.191811 0.937602 0.477448 0.811359 0.640448 0.515492 0.521263 0.627643 1.009816 1.214152 0.983525 0.616419 0.569450 0.885321 1.172534 0.690787 0.546770 0.580381 0.583773 0.471487 0.544219 0.737780 0.762107 0.941167 1.060530 0.923239 0.936350 0.902620 0.959566 1.092465 1.021721 0.789273 0.799046 1.012721 1.036808 1.025007 1.029594 1.008476 1.003359 0.989625 0.990605 1.001541 0.996133 1.011778 1.030736 0.980594 0.971717 1.010375 0.994669 0.923212 0.935081 1.018057 1.031287 1.079048 1.079962 1.062745 1.056646 1.007093 0.903201 0.879806 0.760551 0.723238 1.008205 1.002189 1.102108 0.999107 0.847540 0.979297 1.038317 1.046705 1.062510 1.046187 1.062754 1.054811 1.029277 1.025721 1.018939 1.007703 0.995198 1.010381 0.979670 0.984643 1.024033 0.998059 1.015965 0.995751 1.024626 1.008555 1.019637 0.990254 1.004283 0.969577 1.018927 0.951318 0.931255 0.843414 0.844108 0.991844 1.017907 1.163116 1.164068 1.094582 0.985783 0.771188 1.206704 1.203451 1.053324 0.840095 0.805419 1.108294 1.232446 1.208605 1.239003 1.058786 0.956462 1.198242 1.193474 1.155582 1.097965 1.126544 1.125014 1.201914 1.193695 1.188298 1.040349 0.984399 1.106853 1.081594 1.086518 1.039508 1.004677 1.035358 1.020461 1.002725 1.005137 1.050855 0.821459 0.765922 0.779902 0.780231 1.053973 0.976345 0.950811 1.076486 1.089431 1.177070 1.063281 1.019656 1.128858 1.019887 0.819787 0.566026 0.816456 1.132036 1.157579 1.248465 1.265262 1.241611 1.197762 1.238338 1.158110 1.141194 1.183906 1.135749 1.076084 1.084502 1.037796 1.111691 1.226567 1.145714 1.173175 1.200751 0.889832 0.789818 0.959713 0.620916 0.903336 0.956494 1.000177 1.222282 1.179637 1.120131 1.203710 1.069408 0.938760 1.080421 1.156071 1.189860 1.124464 1.158210 1.197063 1.000404 0.645876 1.116571 1.143555 1.098847 1.215254 1.213280 1.169341 1.153238 1.102925 1.095042 1.127600 1.120290 1.022158 1.000855 0.945999 1.069484 1.128844 1.162983 1.144821 1.024062 0.952224 0.766947 0.870772 1.047006 1.086926 1.099713 0.991950 1.093832 1.136125 1.160033 1.131940 0.945988 0.948239 1.101772 1.151542 1.087584 1.096702 1.115468 1.059213 0.982655 0.913792 0.761041 1.024089 1.064464 1.063497 1.117884 1.178718 1.098072 0.953154 1.098122 1.100865 1.151378 1.153719 0.860204 0.821816 1.138866 1.156371 1.137671 1.035519 1.088587 1.000121 1.098623 1.111946 1.087994 1.088215 1.119197 1.100734 1.099757 1.106619 1.089997 1.032322 0.960112 0.974521 1.008235 1.012794 0.989859 0.994022 1.018712 1.012533 0.998355 1.005486 0.987684 1.018513 1.014741 1.011194 1.015722 0.991950 0.982828 0.947936 1.012352 1.056610 1.073634 1.028974 1.079712 0.980362 0.869708 0.878623 1.026914 1.068112 1.049753 1.025347 1.012966 1.007177 0.998906 1.034724 1.026158 0.992447 1.001004 0.989836 0.989550 0.987621 1.007804 0.969560 0.959815 0.948719 0.959390 0.933251 0.920431 0.892182 0.966924 1.075093 1.183015 1.171688 1.046252 0.904213 0.673054
1.169118 1.079728 1.061585 0.950138 0.851186 0.799564 0.894333 1.105351 1.089871 0.800621 0.611496 0.632104 1.004431 0.912354 0.729037 1.090660 0.973832 1.064671 0.931970 0.827311 1.071313 0.992192 1.032547 0.940024 0.779247 1.038491 0.641604 1.047734 0.845602 0.912310 0.898796 0.973305 1.022181 1.182029 1.181575 1.108007 0.998774 0.796899 0.657152 0.852880 1.040113 1.156203 1.108360 1.160848 1.094378 1.020945 1.184287 1.193945 1.172773 1.146292 0.923857 0.500353 0.605255 1.029019 1.084092 1.136851 1.191055 1.180869 1.149665 1.150533 0.969686 0.981606 1.142203 0.699507 1.111549 1.224962 0.910262 0.676327 0.827218 1.159284 1.240432 1.101725 0.839752 0.964253 0.921808 1.099736 0.848420 0.927617 0.990003 0.971761 0.592983 0.952517 0.757886 0.560690 0.703953 0.919229 1.023700 1.093750 1.130805 1.100222 1.084813 1.069194 0.916738 0.819667 0.994473 1.022689 1.027460 1.012161 0.998583 1.000578 1.007383 1.020761 1.008652 0.993588 1.000421 0.993038 0.971462 1.012634 1.034205 1.069363 0.951232 0.910902 1.024032 1.059717 1.053353 1.077600 1.046109 1.023960 0.991627 0.998790 1.020339 0.922122 0.784092 0.878449 1.078665 1.187285 0.870313 0.888803 1.041634 1.050635 1.057577 1.090290 1.039259 1.051158 1.042362 1.021193 1.016248 1.017285 1.014297 1.006838 0.998005 0.989877 0.994397 1.030406 1.015139 0.986239 0.998958 1.042642 1.003340 1.005747 0.995520 1.015781 1.019198 0.991670 0.959351 0.923063 0.732110 0.860219 1.074025 1.122098 1.168745 1.168443 1.097747 0.922973 0.797928 1.160917 1.116153 1.095494 1.008800 1.005238 0.859166 1.181633 1.076283 1.008013 0.988800 0.962850 1.166964 1.038228 1.049471 1.192941 1.214553 1.208371 1.206033 1.164346 1.054765 0.900386 1.059082 1.055441 1.071662 1.079445 1.086974 1.077561 1.043569 1.053952 1.031119 1.007545 1.045352 0.988999 0.744352 0.754277 0.722287 0.865060 0.828936 0.953339 1.047406 1.112823 1.146541 1.085681 1.140437 1.113938 1.105227 1.065306 0.918958 0.637713 1.044816 1.061425 1.169845 1.051942 1.042777 1.039865 1.220357 1.226779 1.224422 1.220264 1.215688 1.132035 1.075192 1.056086 1.108518 1.126750 1.071286 1.057559 1.062115 0.864546 1.191810 1.095486 0.537279 1.232695 1.228340 1.046541 0.903268 1.142229 1.193760 1.163425 1.148062 1.040548 1.099543 1.216348 1.182977 1.149816 1.167883 1.001347 0.929649 0.653791 1.058694 1.143318 1.064653 1.062051 1.046562 1.026597 1.025946 0.997155 1.044553 1.131373 1.102990 1.048383 1.085094 0.932265 0.882337 1.118591 1.156011 1.217497 1.192037 0.981856 0.780504 1.022569 1.154067 1.176265 1.198902 1.172392 1.205268 1.106601 1.137920 1.181389 0.913433 0.923043 1.083030 1.153730 1.074570 1.042605 1.029737 1.030846 1.026463 0.893516 0.900130 1.080797 1.085196 1.091251 1.171466 1.115141 1.078486 0.929784 1.126853 1.161768 1.145128 1.054615 0.747778 1.231255 1.208116 1.074816 1.195588 1.169186 1.098061 1.085492 1.137720 1.119610 1.100588 1.087727 1.084816 1.112531 1.097945 1.069111 1.018044 0.990086 0.988348 1.021260 1.034286 1.010492 0.977953 0.998242 1.009297 0.992052 0.993823 1.017089 0.975506 1.027479 1.015407 1.014517 1.048519 1.025758 0.968621 0.969466 1.006948 1.060005 1.064461 1.019940 1.001055 1.035787 0.956863 0.859461 0.913906 1.030233 1.048688 1.023914 1.016014 0.986491 0.998337 1.034033 1.025842 0.992478 1.012426 0.999958 1.000959 0.986916 0.997763 0.997550 0.992761 0.971203 0.983771 0.999223 0.946420 0.973643 1.141688 1.195075 1.174628 1.028447 0.985506 0.915125 0.934550
1.176820 1.172198 1.081693 1.055587 0.970834 0.873766 0.834505 0.764050 0.737733 0.594865 1.058095 0.933160 1.177549 1.099762 0.670177 1.063195 1.022636 1.179403 0.832565 1.138126 1.123820 1.048588 1.082042 0.784851 1.108697 1.011237 0.713165 1.064521 1.214956 0.961002 0.946995 0.995213 0.965531 1.146270 1.172074 1.054525 0.838876 0.919126 0.941998 0.911821 0.686949 0.980901 1.215009 1.171878 1.192116 1.090504 1.170696 1.130693 0.977259 0.897357 0.756727 0.775309 0.545890 0.814557 1.216026 1.143054 1.180400 1.233611 1.121502 0.963571 1.056701 0.601236 1.119076 0.560282 0.761491 1.229943 1.249197 0.944274 0.954402 1.131991 1.225157 0.840866 0.949832 1.021185 0.975357 1.112512 0.933054 1.048147 1.070212 0.812050 0.606407 1.014527 1.101168 0.827770 0.795346 1.102511 1.169023 1.149360 1.061602 1.049849 1.088080 1.084561 0.824862 0.824188 0.966503 1.028596 1.027889 1.008510 1.009515 0.995847 0.999361 0.973194 0.938842 1.000094 0.995767 1.008262 0.993415 0.985407 1.012417 1.084299 1.084605 0.923627 0.949051 1.044887 1.037733 1.096218 1.098617 1.087906 1.070534 1.076265 0.951353 0.839758 0.723792 0.866055 1.183888 1.055320 0.849740 0.982053 1.032804 1.038890 1.063400 1.051363 1.051612 1.066723 1.025943 1.019442 1.038022 1.021794 1.012095 0.993450 1.005532 0.996553 1.009155 1.035375 1.008230 0.954554 1.013908 1.049575 0.995815 1.004209 1.023593 1.022406 1.016140 0.909924 0.927800 0.866412 0.762626 0.922900 1.098254 1.098355 1.174860 1.157449 1.076817 0.996564 0.877131 1.119689 1.155500 1.190219 1.219815 1.217674 0.973760 0.860245 0.940615 0.681262 1.062858 1.117779 1.039728 1.027858 1.179843 1.219159 1.116338 1.092133 0.987248 0.957473 0.985421 1.004234 1.006809 1.082277 1.046340 0.997959 0.976002 0.958307 1.020985 1.009674 0.995912 1.012459 1.045394 1.032065 0.813741 0.958913 0.981988 0.938061 1.090868 1.135974 1.129118 1.141736 1.161471 1.179945 1.202710 1.219510 1.152750 0.975726 0.864173 0.693883 0.993543 1.161875 1.101420 0.988736 0.893590 1.060426 1.190170 1.120158 0.972031 0.981895 1.089391 1.171435 1.104928 1.141877 1.154513 1.119650 1.107506 1.003802 1.137248 0.949729 1.265333 1.090057 0.656027 1.267808 1.291230 1.285959 1.139722 0.877547 1.077959 1.140592 1.167033 1.105882 1.216485 1.221647 1.145623 1.024929 1.109243 0.984538 0.781424 1.052360 1.113935 1.099488 0.974246 1.025587 1.091768 1.126818 1.098850 1.058055 1.078722 1.136875 1.095123 1.041827 1.077043 1.016706 0.841545 1.051053 1.054525 1.173749 1.239586 1.127901 0.777845 1.204842 1.017352 0.859444 1.157827 1.178613 1.093385 1.083278 1.080988 1.184432 0.939766 0.965122 1.121759 1.154718 1.124605 1.072573 1.020465 1.002449 1.003750 0.841180 1.018456 1.138191 1.118606 1.097182 1.184235 1.090814 1.107807 0.959120 1.028489 1.184870 1.101780 0.970402 0.544152 0.972112 1.202528 1.127469 1.118924 1.007583 1.000492 1.131951 1.128790 1.106048 1.089008 1.094394 1.096359 1.073303 1.026087 0.974088 1.012046 0.992444 1.016386 1.016138 1.016885 1.000639 0.991323 1.004528 1.019009 1.017298 1.018006 1.012432 0.990192 1.033405 1.026317 0.989812 1.001443 1.038472 1.010612 0.962306 1.032026 1.058328 1.073869 1.072030 1.013017 0.971753 1.065669 0.935000 0.836887 0.977822 1.036293 1.027305 1.017214 0.990169 1.005881 1.015454 1.041975 0.993043 1.000625 1.013634 1.014172 1.022196 1.043908 1.084036 1.087983 1.060358 1.052698 1.006871 0.979078 1.098147 1.185005 1.147290 1.090233 1.066755 1.058758 0.969775 0.969486
1.145024 1.188670 1.150129 1.207268 1.162393 1.043942 1.000006 1.050570 0.920561 0.853798 1.148207 1.069733 1.123235 1.079412 0.715504 0.987197 1.038216 1.195153 0.854188 0.954740 1.149091 1.165903 0.943134 0.911277 1.127703 0.805065 0.970010 0.807059 1.130229 1.206187 1.174077 1.052837 1.034944 1.148576 1.164617 0.967880 0.839315 1.093824 1.011174 1.058915 0.789967 0.837553 1.014745 0.906480 1.022311 1.164741 1.166695 1.032191 0.958109 0.800310 0.951295 1.192208 1.146714 1.075192 0.929794 1.026018 1.218586 1.253989 1.020356 0.907985 0.682308 0.463040 0.562683 0.813946 0.804108 0.949841 1.242311 1.119706 0.965621 1.127265 1.133562 0.772856 1.105880 1.165800 1.077688 1.133809 1.014218 0.979343 0.958964 0.697326 0.850197 0.989883 1.166889 1.009473 0.686774 0.993345 1.003598 0.855069 0.945928 0.998286 1.069904 1.073902 0.931171 0.968653 0.983435 1.015067 1.014883 0.991150 0.983581 0.913614 0.957549 0.975833 1.007594 1.037488 1.018875 1.050774 1.019458 0.989890 1.015118 1.048996 1.108293 0.999387 0.891316 0.991188 1.050375 1.076993 1.091676 1.112037 1.089053 1.095799 0.970569 0.940499 0.926162 0.819468 0.987937 0.963087 0.900150 1.020735 1.062306 1.052965 1.057707 1.067463 1.069535 1.042299 1.038946 1.044735 1.018179 0.994489 0.998182 1.001597 1.008076 0.998131 1.017156 1.026073 1.008599 0.981552 0.970336 1.053610 1.030602 0.997688 1.013376 0.979601 0.937438 0.938389 0.959594 0.886953 0.831374 0.828403 1.048055 1.078859 1.184019 1.146577 1.062231 1.054712 0.988417 0.827762 1.080998 1.234892 1.237734 1.119963 1.000801 0.792512 0.652747 1.095107 1.153030 1.201792 1.147387 1.167584 1.225876 1.087984 0.877441 1.131954 0.840852 0.710533 0.990547 1.096248 1.104665 1.083053 0.917113 0.922389 0.954807 0.975781 0.988989 0.948924 1.009058 1.015691 1.046511 1.017817 0.865542 0.980722 0.971801 0.830082 1.037722 1.112528 1.127321 1.050156 1.004586 1.095632 1.212279 1.126006 0.971195 0.914370 0.955467 0.731749 0.749057 0.926753 1.217299 1.244112 1.237797 1.201363 1.166073 1.114854 0.946777 1.075826 1.100293 1.191098 1.175477 1.195558 1.165928 1.190732 1.162104 1.095386 1.148074 1.108633 1.236554 0.968114 0.697416 0.942476 1.243473 1.265303 1.269467 1.136195 1.042779 1.050310 1.188666 1.219554 1.219536 1.138151 1.054713 0.927497 0.778257 0.645202 0.967831 1.145793 1.178421 1.165904 1.159437 1.107550 1.104172 1.083521 1.119521 1.066633 1.032373 1.095658 1.130535 1.055866 1.067039 1.016960 0.912287 0.945270 0.953033 1.155496 1.210462 1.092286 0.735929 0.983049 1.096851 0.929960 0.901852 1.003085 1.029907 1.020398 1.124878 1.197315 0.988505 0.912957 1.062745 1.160469 1.109746 1.046535 1.179167 1.166610 1.073542 0.853549 0.887865 1.157443 1.109870 1.139686 1.186591 1.132341 1.044785 0.853116 1.067388 1.205984 1.114280 0.770158 0.575990 0.869004 0.987484 0.995088 1.133122 1.033510 1.097610 1.150048 1.092694 1.100114 1.060182 1.036225 1.041924 0.991720 0.936252 0.995581 0.989716 1.010072 1.007615 1.014658 1.017120 1.002446 0.993595 1.013262 1.023624 1.001503 0.988966 1.026613 0.982975 1.005877 1.069275 0.991840 0.963786 0.938497 0.979754 0.936284 1.000956 1.029630 1.039034 1.087992 1.078992 0.958585 0.942720 1.065607 0.938163 0.885725 0.981433 1.023093 1.028806 1.003431 1.003007 1.006699 1.042276 1.019515 1.008288 1.017216 1.047163 1.054258 1.055246 1.015188 0.980383 0.969236 0.988620 1.012399 1.054143 1.167532 1.066045 1.013682 1.027945 1.034716 0.977423 0.933897 1.056599
0.958344 1.165713 1.092793 0.982289 1.036677 1.042488 1.073846 0.836751 0.710859 1.029416 1.176251 1.166264 1.215589 1.118524 0.784105 1.097330 1.167271 1.180719 0.970261 1.013490 1.119379 1.178036 1.043783 1.155865 1.069944 0.936906 1.075684 0.920158 0.960896 0.918184 1.185767 1.167205 1.151823 1.142276 1.092141 0.933153 1.012328 1.163107 1.083039 0.963584 0.819759 1.004516 1.147285 1.034319 1.009628 1.153424 1.089228 0.884166 0.948421 1.220579 1.226649 1.193229 1.123234 1.051133 0.845929 0.696951 0.837225 0.652641 0.771084 0.959540 0.993481 0.649082 0.642673 1.083746 0.964171 0.755885 1.118249 1.213581 1.201309 1.153424 1.085039 0.945272 1.156280 1.153946 1.101626 1.038300 0.972781 0.817319 0.975031 0.915974 0.950823 1.019983 1.185916 0.958966 0.740349 0.992274 0.752705 0.806407 1.003781 1.082265 1.071560 1.069853 1.056237 0.990462 1.017806 1.022472 0.987713 0.987091 0.996356 0.985460 1.009341 1.011302 1.021954 1.021242 1.001136 1.002324 1.002280 0.992342 0.999887 1.026305 1.112411 1.040278 0.905645 0.939676 1.034586 1.051083 1.111487 1.051811 1.126919 1.136338 1.176324 1.134678 1.045818 0.808909 0.830297 0.998116 1.051206 1.074079 1.115503 1.076572 1.047540 1.053408 1.045178 1.046630 1.036137 0.997609 1.000883 1.016431 1.011068 1.003796 1.001053 0.985944 1.024195 1.035884 1.012433 0.967696 0.900861 0.933415 0.981781 0.944912 0.988277 1.020034 0.997630 1.009256 0.947326 0.903706 0.900502 0.819049 0.953411 1.115500 1.152679 1.183344 1.116307 1.093513 1.072071 0.919071 0.790507 1.119155 1.220126 1.212790 1.202215 0.972053 0.868828 1.178740 1.176184 1.084242 1.050622 1.206450 1.233377 1.093130 1.097435 1.238767 1.037690 0.652875 0.932101 0.973696 1.048210 1.067589 1.010164 1.043735 1.089186 1.087949 1.052756 1.025231 1.048256 1.007573 1.026087 1.054996 1.036875 1.052035 0.940447 1.104403 1.097374 1.120589 1.077868 0.815466 0.756244 0.801170 1.059224 0.983030 0.895485 1.100358 1.075946 0.800486 1.172925 0.804678 0.968625 1.271839 1.210890 1.199324 1.160810 1.010621 0.913628 1.035437 1.151494 1.184118 1.189826 1.157501 1.134012 1.205128 1.149374 1.095676 1.185622 1.165246 1.152290 1.053849 0.835725 0.657997 0.902600 1.020844 1.209046 1.207250 1.080479 1.141967 1.160367 1.220123 1.092339 0.959842 0.820958 0.716927 0.693649 0.637842 0.876311 1.023976 1.059896 1.096597 1.167371 1.137305 1.078165 1.038064 1.085711 1.093360 1.041796 1.138999 1.130543 1.070114 1.015256 0.918874 0.957674 0.937933 0.899022 1.061465 1.102962 0.931668 0.784802 1.123674 1.196429 1.171438 1.173758 1.077717 1.075235 1.085278 1.045403 1.157457 0.909184 1.021930 1.151643 1.162718 1.083920 1.031280 1.018180 1.122337 1.176808 1.125637 1.096123 1.144222 1.087345 1.178811 1.168767 1.082657 1.127421 1.004080 1.024306 1.222587 1.150297 0.739325 1.138365 1.068474 1.020027 1.034873 1.077832 1.144262 1.156286 1.145229 1.078587 1.059123 0.990357 0.976698 0.973036 0.988968 1.007672 1.022695 1.012858 1.012314 1.007569 1.018819 1.013816 1.001307 1.005152 1.028071 1.003980 0.995654 0.984012 0.995678 1.014190 1.005778 1.061930 1.053492 1.020335 0.967054 0.945153 0.929923 1.001530 1.046261 1.057709 1.078164 1.067768 1.010604 0.870986 0.992132 1.079861 0.909389 0.916243 0.978613 1.026079 1.009789 1.003961 1.005184 1.042535 0.991878 1.005404 1.010897 0.990309 0.988418 1.007184 1.013624 1.004437 0.993237 1.018013 1.102812 1.162321 1.099190 1.044832 1.063854 1.037977 0.959015 0.907108 1.065475 1.090471
0.839806 1.063467 1.125536 1.162220 1.111160 1.042488 0.995093 0.797551 0.862754 0.799606 0.990266 1.136419 1.200123 1.059761 0.930468 0.867257 1.079155 1.135357 1.108047 1.067937 1.062886 1.157016 1.134755 1.090041 0.919026 1.108549 1.056718 0.983378 1.118811 0.748712 0.875173 0.964023 1.105163 1.107498 0.913029 0.994039 1.089491 1.055222 0.969040 0.877330 0.858789 0.855052 1.134927 1.118165 0.977627 1.145672 1.144970 1.177694 1.196220 1.101773 0.868026 0.727493 0.589419 0.605168 0.498631 0.692985 1.114047 0.898053 1.063486 1.218490 0.916642 0.650683 0.954154 1.164154 1.240336 1.028492 0.959535 0.998672 1.165733 1.177048 1.014132 0.984157 1.150917 1.083266 1.100000 1.039733 0.960324 1.007895 1.057303 1.045938 0.836893 1.114167 1.117857 1.007734 1.057576 1.137293 0.978913 0.901398 0.921261 0.883407 0.929267 0.970358 1.001947 1.027815 1.016058 0.990385 0.978854 0.981237 1.012435 1.005956 0.976578 0.966570 0.985418 1.018854 1.016840 1.021738 1.024354 0.997840 0.959086 1.003702 1.114082 1.124037 1.033958 0.909708 0.980513 1.065043 1.143703 1.031280 1.080442 1.097606 1.041384 1.080890 0.909676 0.605518 0.949316 1.091847 1.064965 1.105402 1.076106 1.041199 1.053346 1.063128 1.054443 1.024921 1.000437 1.012668 1.034208 1.029658 1.014617 1.009636 1.007840 0.987809 1.030037 1.030377 1.002103 0.980290 0.988771 1.011002 1.048890 1.010557 1.047904 1.052541 1.037780 1.106219 1.052280 1.029530 1.049673 1.039231 0.894302 1.066248 1.067495 1.195483 1.143135 1.089096 1.114773 0.980514 0.837571 0.893592 1.037036 1.205466 1.267403 0.939639 1.170506 1.237392 1.098675 1.065898 1.213111 1.238054 1.083119 1.131917 1.225600 0.898698 0.799612 0.657893 0.919040 0.997416 1.111970 1.116014 1.122435 1.099524 1.049470 1.006616 0.985615 1.048620 1.046354 1.001243 1.000928 1.019073 1.017588 1.067930 1.079118 1.095272 1.027328 0.910142 0.990681 0.932304 1.088036 1.178496 0.976307 0.756056 1.118019 1.181032 1.102525 0.772351 1.255216 1.060553 0.818542 0.878808 0.990741 1.177870 0.970735 0.966924 1.151292 1.139779 1.184471 1.175831 1.006451 1.020677 1.021181 1.144074 1.210638 1.145382 1.102182 1.062125 1.117574 1.167451 0.936519 0.717983 1.142729 1.125094 1.186024 1.156664 1.202882 1.150926 1.090397 1.206162 1.224089 1.138002 1.080647 1.072259 1.198161 0.954633 0.885892 1.050332 1.150087 1.156572 1.139295 1.075478 1.100535 1.120033 1.079176 1.075453 1.060794 1.139500 1.101491 1.055334 1.104401 1.064758 0.962957 1.002160 0.984565 0.897256 0.952747 0.869064 1.123398 1.164604 1.118338 1.109232 1.055534 1.085889 1.175323 1.065886 1.105289 1.047660 1.051851 1.130747 1.160917 1.166243 1.103158 1.065908 0.940965 0.889223 0.871232 0.925474 1.077481 0.945811 0.996002 1.160367 1.198126 1.120006 1.182862 1.199589 1.177405 1.080429 0.800188 0.494024 1.073548 1.222443 1.202641 1.174797 1.148619 1.163916 1.151845 1.080199 0.961759 0.861505 0.842440 0.938684 0.961068 1.039167 1.043229 1.024402 1.020325 1.014659 1.011433 1.021080 1.013783 0.997299 1.020019 1.017388 0.999371 0.977282 0.977943 0.977824 1.049666 1.019580 1.043674 1.073740 1.067193 1.053725 1.025201 0.988627 0.953337 0.982603 1.064772 1.094663 1.084309 1.072707 0.912299 0.953862 1.069097 1.026058 0.938172 0.934388 0.956249 1.016349 1.006469 1.015811 1.042240 0.993141 1.002487 1.004865 0.991109 1.006642 1.030694 1.016817 1.032458 1.074150 1.136509 1.110579 1.031203 1.000922 0.997091 0.981827 0.949018 0.950211 0.973189 1.109749 1.070046
0.975742 1.172148 1.102632 1.071613 0.962027 1.005961 1.103670 1.029029 1.094596 1.010810 0.911169 1.097718 1.187541 1.104459 1.069008 0.985931 1.011724 1.088912 1.133492 1.066745 0.990417 1.141548 1.112255 0.987350 0.948938 1.140892 0.898122 1.042752 1.161912 0.904606 0.999365 1.046862 1.133657 1.124109 1.125656 1.140708 0.995757 1.082697 1.052853 1.032373 1.020052 0.897199 0.916777 1.110813 1.053764 1.135507 1.121371 0.922643 0.747648 0.741173 0.961872 1.068707 1.009214 0.774533 0.654108 1.050939 1.246620 1.035661 1.170046 1.140680 0.908694 0.735103 0.802574 1.224195 1.207685 1.204019 1.191949 0.960041 1.039832 1.161292 0.916178 1.015695 1.146166 1.120795 1.092821 1.013318 1.059009 1.094045 1.118977 1.052059 0.832116 1.067594 1.053480 1.064365 1.139507 0.903965 1.020286 0.959437 0.956955 0.978648 0.991496 0.987812 1.002471 1.013108 0.990769 0.979095 0.977857 0.979008 1.012600 1.004616 0.978033 0.967457 0.984123 1.014326 0.984479 0.998451 1.030963 0.976933 0.964046 0.986082 1.120220 1.040970 1.072716 1.021307 0.926254 1.063964 1.157524 1.117501 1.039924 1.126057 1.075719 1.014939 0.931783 0.731308 0.999501 0.961474 1.020592 1.092122 1.085010 1.043731 1.027260 1.037261 1.022924 1.029839 1.032160 1.037996 1.042901 1.021183 0.998071 1.003016 0.990807 0.991739 1.037671 1.008879 0.995975 0.977218 0.977033 0.994873 1.016872 1.005737 1.058058 1.070357 1.079188 1.109374 1.104484 1.076540 1.076182 1.059508 0.939998 0.986201 1.071194 1.161001 1.190172 1.091617 1.094553 0.989870 0.970440 0.967170 0.910666 1.022334 1.027472 0.788161 1.178467 1.123945 1.159742 1.236567 1.246848 1.122401 0.889513 1.031512 1.100660 0.856447 1.032893 0.812395 0.776839 0.865062 1.076348 1.087511 1.080107 1.057746 1.028886 1.056316 1.060036 1.040797 1.044031 1.004899 0.993541 0.992982 0.996685 1.028106 1.019486 0.956915 0.909201 0.886305 0.984810 1.062156 1.075871 0.999457 1.001329 0.902198 1.193463 1.217482 1.050594 0.672593 1.085005 1.162567 0.936132 0.820278 0.840867 0.760471 0.807932 1.011632 1.113343 1.169640 1.180664 1.136298 0.947830 0.883080 1.083322 1.073960 1.201087 1.216670 1.079099 1.045833 1.109318 0.963855 0.982128 0.822774 0.835643 1.260027 1.271647 1.105304 1.156178 1.104767 1.078899 1.093167 1.226908 1.218786 1.143558 1.189264 1.140961 1.062954 0.963888 1.107629 1.112786 1.132873 1.080318 1.062428 1.077862 1.051365 1.041287 1.068632 1.063648 1.123378 1.062432 1.017244 1.070783 1.100189 1.131651 1.055554 0.975681 0.949869 0.854462 0.746986 1.050972 1.106451 1.111303 1.136752 1.155527 1.128870 1.150634 1.018295 1.180345 1.068285 1.074603 1.055147 1.174134 1.173141 1.075818 1.147191 1.071072 0.999020 0.743019 0.602723 0.886467 1.042336 1.132589 1.201437 1.179474 0.996141 0.989105 1.048285 1.217697 1.077122 0.790609 0.770269 1.060288 0.903698 1.198985 1.161220 1.161634 1.100818 1.067210 1.100216 1.023887 0.790013 1.041470 1.089714 1.069116 1.049623 1.074253 1.070556 1.067926 1.011244 1.010628 1.013993 1.006163 1.004752 1.021900 1.008311 0.998351 0.978531 0.958718 0.948342 1.073141 0.999735 1.041207 1.059668 1.074380 1.086718 1.053230 1.027353 0.984381 0.940478 1.024421 1.115625 1.055171 1.002010 0.955162 0.987002 1.041305 1.063577 0.965706 0.932745 0.937808 0.991801 0.985053 1.015402 1.045469 1.027384 0.994828 1.020998 1.027102 1.031252 1.038257 1.068305 1.099820 1.090842 1.042971 1.028517 1.044833 1.040620 1.046465 1.009188 0.989210 1.062156 1.067875 1.115277 1.102574
0.976227 1.018331 0.933006 0.959529 1.071864 1.133027 1.053371 1.119101 1.170874 1.073294 0.884091 0.995259 1.123275 1.167794 1.104034 1.042779 1.007200 1.048041 1.119988 1.078014 1.021311 1.105455 1.131693 0.989266 1.088076 1.064256 0.948126 1.009050 1.153119 0.961502 1.028841 0.935686 0.993047 1.111183 1.059276 0.853428 0.948428 1.089632 1.095297 1.053188 1.054104 1.039306 0.970354 0.942788 1.120868 1.116592 0.881286 0.827686 1.051805 1.034817 1.181551 1.057424 0.856237 0.982667 0.879528 1.069621 1.182164 1.016566 1.218657 1.210684 0.977075 0.762102 0.788661 1.093099 0.981907 1.066193 1.155748 1.093662 0.985533 1.126780 1.003565 1.046354 1.111687 1.099871 0.957866 0.929842 1.008501 1.152744 1.149505 0.963228 0.855380 1.023185 1.082556 1.118965 1.043626 0.956413 1.019917 1.059730 0.969518 1.001810 0.997933 1.012808 1.025618 0.995624 0.978373 0.976240 0.976901 0.984082 1.019090 0.996576 0.994549 1.012708 0.994455 0.984906 0.974759 0.947347 0.982311 0.982435 0.967421 0.992465 1.103614 1.004534 0.998116 1.053892 0.968086 1.081853 1.154700 1.145674 1.055745 1.053276 1.098796 0.830520 0.614127 0.823851 1.051105 1.047211 1.017469 1.063157 1.073514 1.060741 1.048238 1.041535 1.064372 1.055996 1.050365 1.035684 1.018582 1.005092 1.007429 0.996221 1.000085 1.038359 1.032829 1.031435 0.983522 1.011097 1.004253 0.980289 1.000468 1.056880 1.077426 1.065454 1.083921 1.084164 1.068422 1.046605 1.097425 1.061052 0.974520 0.854585 1.059740 1.117676 1.202416 1.137161 1.073368 1.034519 1.080330 1.052974 0.979550 0.893100 0.702378 1.097431 1.228268 1.192210 1.252330 1.258092 1.124606 0.839402 0.842041 0.836757 0.855617 0.939651 1.115662 0.921328 0.924137 0.944169 0.800323 0.891088 0.857232 0.900608 1.008590 1.025414 1.065753 1.030408 1.035717 1.013779 0.997319 0.997935 1.001789 1.041953 1.035185 0.982085 0.943064 1.081327 1.066100 1.031800 1.027918 1.055868 1.059367 1.127654 1.169388 1.016023 0.884537 0.754040 1.046520 1.253220 1.192893 1.068193 1.101437 0.999932 0.974783 1.052313 1.043089 1.157234 1.180088 1.155160 1.018604 0.730960 1.036912 1.106159 1.088494 1.218603 1.203192 1.129678 1.109103 1.082493 1.040341 0.975621 0.835573 1.000969 1.185710 1.137278 1.157103 1.145612 1.164257 1.037773 1.162497 1.229643 1.105235 0.844041 0.925820 0.964704 1.033322 1.183175 1.082531 1.063664 1.057544 1.020149 1.034309 1.071669 1.101792 1.087528 1.081707 1.140746 1.080883 1.063881 1.104716 1.005839 0.976714 0.954076 0.974718 1.000484 0.994919 0.712494 0.955254 1.150805 1.174615 1.116305 1.149009 1.189609 1.037853 0.920606 1.114209 1.062553 0.997155 1.039857 1.124799 1.179482 1.002648 1.104337 1.079266 0.835919 0.759900 0.854413 1.058289 1.137195 1.201451 1.206272 1.145635 0.884804 0.825666 0.864230 0.895206 0.960006 0.544462 0.545676 1.116311 1.138769 1.173339 1.148973 1.163752 1.069172 1.082073 1.074133 0.981393 0.877542 1.085814 1.117899 1.121891 1.064598 0.985073 0.987090 1.008728 1.016035 1.009317 1.006015 1.006346 1.015190 1.017247 0.998335 1.013333 1.021505 0.942207 0.930023 1.096821 0.978817 1.039801 1.068020 1.057774 1.076384 1.077462 1.056483 1.026711 0.965266 0.947848 1.087991 1.040573 0.945616 0.942090 0.979234 1.051306 1.089282 1.072041 0.953273 1.005337 1.032000 1.020711 1.006764 0.998633 1.025782 1.014022 1.012441 1.030086 1.025887 1.034440 1.014375 1.017130 1.027389 1.037769 1.065476 1.063312 1.055498 1.052365 0.990751 1.070927 1.066253 1.077429 1.049973 1.045220
0.903140 0.902625 0.919832 1.007963 1.092939 1.124742 1.038931 1.103899 1.169609 1.139548 0.971289 0.933178 1.024119 1.148319 1.099054 1.079530 1.003251 1.070437 1.095342 1.080917 1.026445 1.079875 1.088550 0.928350 1.096611 1.072161 0.997751 1.064972 1.082742 0.985682 1.024777 0.966149 0.973873 1.013103 1.028067 0.957979 1.067607 1.060701 1.071301 1.047384 1.063392 1.033644 1.031082 0.955200 1.116065 1.024187 1.051057 1.138993 1.157599 1.124709 1.163571 0.949830 0.994960 1.056072 0.932027 1.039446 1.128302 1.108451 1.202012 1.061943 0.804086 1.006311 0.900535 1.087344 1.041108 1.004539 1.035939 1.088251 1.103460 1.072778 1.045733 1.057852 1.097358 1.017960 0.984970 0.990233 0.923035 0.976299 1.125689 1.084007 0.973613 0.986153 1.027937 1.097419 1.065198 1.023562 1.026806 1.054934 1.027417 1.029124 1.003835 1.018821 1.012132 0.980173 0.976261 0.976886 0.982703 0.996609 1.011837 0.982083 1.009167 1.035017 1.009319 0.972960 0.941228 0.936257 0.954224 0.993535 0.951083 1.007058 1.081012 1.006181 0.985710 1.009198 0.932022 0.988922 1.155082 1.079010 1.181454 1.005433 1.036299 0.813658 0.946175 0.995698 1.056898 1.085699 1.085819 1.063588 1.058033 1.063055 1.064179 1.064636 1.049055 1.002245 1.039375 1.006381 1.003849 1.011280 1.000002 1.002825 1.035546 0.990070 0.997163 1.050041 0.971800 1.028751 1.026456 1.012926 0.991366 1.038241 1.070658 1.067681 1.093245 1.126931 1.138277 1.083971 1.092189 1.021203 0.973284 0.851840 1.020420 1.126759 1.204422 1.204447 1.157308 1.163609 1.232974 1.243734 1.256924 1.271697 0.998206 1.197451 1.273859 1.177695 1.051821 1.004641 0.719024 1.044966 1.152975 0.971386 1.110104 1.101824 1.150061 1.077506 1.047933 1.068285 0.948952 0.864748 0.928280 0.926626 0.932771 0.893788 0.981154 1.019452 1.055788 1.027570 0.998318 1.003829 1.005154 1.018859 1.033440 1.027778 1.045426 1.020199 1.028501 1.103153 1.113071 1.130870 1.132744 1.172999 1.193128 1.202285 1.113196 1.000098 0.800253 1.089865 1.208131 1.138539 1.076285 1.088328 1.053981 1.038841 1.091470 1.175798 1.166427 1.154576 1.113563 0.765105 0.783383 1.174953 1.104483 1.150601 1.217582 1.205467 1.149962 1.138825 1.122740 1.216567 1.177474 0.971288 0.915505 1.003780 1.064205 1.181094 1.185217 1.032645 1.082819 1.230898 1.179738 0.856368 0.754818 0.859999 0.843221 1.096205 1.111152 1.076040 1.092950 1.102807 1.185039 1.176196 1.135540 1.055174 1.079663 1.141202 1.132995 1.119576 1.146311 1.082312 1.101969 1.060495 1.015508 0.989727 0.988569 0.857499 1.210575 1.214741 1.143323 1.113284 1.155733 1.215052 0.864123 1.056721 1.042045 1.113765 1.088348 1.073600 1.159427 1.185815 1.121166 1.068159 1.038697 1.040626 0.837323 1.245082 1.233083 1.175381 1.213694 1.156571 1.156627 0.961894 0.674406 0.772161 1.105679 1.143142 0.993649 0.520433 0.814714 1.146152 1.192810 1.151897 1.118198 1.052591 1.119859 0.994771 0.767511 0.870581 1.006020 1.030030 1.041269 1.090142 1.051046 0.970665 0.985375 1.009701 1.032223 1.021258 1.000473 1.007863 1.023745 1.005190 1.033329 1.046004 0.956862 0.899041 1.111388 0.967309 1.012113 1.072271 1.060482 1.080444 1.080148 1.075081 1.046424 0.992876 0.918814 0.971313 1.012363 1.006225 0.979781 0.981241 0.986045 1.029426 1.094966 1.076818 1.048126 1.028357 1.012007 0.988695 0.976978 1.005011 1.014798 1.019349 1.021404 1.006245 1.025362 1.023568 1.028036 1.032938 1.021813 1.025010 1.027423 1.050039 0.993683 1.039469 1.120004 1.109269 1.074554 1.068654 1.029123
1.032394 1.069965 1.019324 1.055459 1.057526 1.091309 1.106972 1.041860 1.132841 1.134239 1.017671 0.988230 1.064166 1.107237 1.138651 1.084540 1.007866 1.007265 1.050429 1.087375 1.034075 1.047682 1.083957 0.991308 1.044761 1.031987 0.999075 1.029943 1.021327 1.023707 1.075845 1.056143 1.084118 1.061972 1.029651 1.056173 1.087560 1.048619 1.042720 1.049077 1.055201 1.030871 1.026356 1.079836 1.098167 1.110797 1.123709 1.064658 1.039185 1.128307 1.068482 1.065573 1.100354 1.073390 1.060735 1.126590 1.103353 1.120152 1.173333 1.076747 0.983445 1.096547 1.124582 1.157225 1.012640 1.068364 1.034100 1.079424 1.063766 1.094591 1.072894 1.019356 1.051414 1.065396 1.062912 1.050282 0.999780 0.974922 1.045497 1.100665 1.025998 1.019691 0.994827 1.036889 1.062490 0.996185 1.032072 1.026202 1.009318 0.996373 0.992867 1.010285 0.990602 0.978183 0.979484 0.982518 0.996483 1.007917 1.014339 1.024711 1.032086 1.028500 1.072983 1.053764 1.017676 1.007098 0.993727 0.967183 0.934868 1.006409 1.062827 0.991948 0.949855 0.968663 0.993251 0.920555 1.190671 1.040277 1.054186 0.952142 0.843661 0.774381 1.033912 1.077639 1.077074 1.107230 1.084818 1.043052 1.065080 1.056970 1.058937 1.073830 1.036562 1.003892 1.011739 1.026595 1.025993 1.024722 1.027804 1.028611 1.040637 0.945393 0.974293 1.051731 0.967596 1.025503 1.027451 1.038344 1.079319 1.092642 1.082438 1.058555 1.095764 1.095051 1.085543 1.088716 1.110186 1.088473 1.027430 0.880883 1.053541 1.221100 1.135928 1.215254 1.216514 1.202628 1.163432 1.195016 1.215949 1.053416 0.845254 0.631508 0.983813 0.724503 0.730022 1.180873 1.075437 1.138819 1.122535 1.106974 1.166562 1.156301 1.116883 1.113110 1.130685 1.092454 1.096587 1.113657 1.046813 1.007967 1.089148 0.984211 0.921864 0.888929 1.000308 1.039903 0.991095 1.006041 0.994611 1.000581 1.012496 1.036770 1.040311 1.092014 1.102343 1.113612 1.126304 1.140803 1.155366 1.176603 1.131814 1.170524 1.139574 0.960738 0.931366 1.028995 1.099431 1.103410 1.080888 1.104620 1.107109 1.102485 1.172789 1.172671 1.099615 1.024130 1.007291 0.892058 0.788131 1.223306 1.010041 1.121910 1.183146 1.219554 1.208002 1.122995 1.174731 1.220454 1.269948 1.207744 1.075365 0.817908 1.084289 1.187963 1.139182 1.079551 1.064209 1.235183 1.168082 1.098095 0.755306 0.659156 1.055567 1.241319 1.162104 1.105329 1.119752 1.183380 1.174902 1.145441 1.050188 0.996952 1.082618 1.085880 1.141342 1.109581 1.122809 1.012000 1.090381 1.179428 1.176759 1.149719 0.941521 0.778625 1.227078 1.175207 1.171132 1.189171 1.251103 1.079766 0.739626 1.061274 1.083464 1.075438 1.069888 1.153710 1.187580 1.127755 1.012318 0.947966 0.885424 0.814136 0.971321 1.245442 1.018347 1.086807 1.203256 1.168505 1.131392 1.134321 0.813010 0.934223 1.066078 1.031185 1.092761 0.951513 0.895256 1.051388 1.135565 1.178355 1.167737 1.039143 1.030701 0.792223 0.998455 1.058970 1.064060 1.055609 0.994710 0.977148 1.053951 1.067051 1.032044 1.015212 1.017565 1.004207 0.995071 1.014090 1.023899 1.020577 1.034524 1.010600 0.961102 0.876279 1.076982 1.025708 0.958127 1.082657 1.028739 1.074513 1.075450 1.098321 1.066847 1.005122 0.945042 0.850156 0.995761 1.082677 1.047666 1.038982 1.000393 0.997942 0.987790 1.014167 1.075267 1.076529 1.034967 1.049204 1.010449 1.020462 0.992952 0.992039 1.000511 1.032663 1.063448 1.036251 1.026425 1.047369 1.063162 1.070683 1.029273 1.001802 1.018414 1.031796 1.091165 1.081609 1.058440 1.057831 1.036707
1.105371 1.101146 1.111264 0.972458 1.120233 1.102369 1.109302 1.005397 1.097208 1.066641 0.978582 0.933327 0.949540 0.992362 1.119623 1.099862 1.000602 1.002265 1.011867 1.032351 1.048195 1.064122 1.052101 1.050108 1.064768 1.054312 1.073005 1.082534 1.082278 1.077467 1.079965 1.069826 1.063655 1.043565 1.039906 1.061090 1.042985 1.011588 1.023651 1.032634 1.027486 1.049375 1.055513 1.085450 1.009525 0.962736 0.961029 0.921930 1.063604 1.058747 1.072636 1.064782 1.063922 1.033855 1.001997 1.096653 1.064862 1.081644 1.113207 1.112863 1.074103 1.068400 1.165201 1.167141 1.156044 1.145091 1.112781 1.087880 1.061165 1.035894 1.063467 1.021131 1.053226 1.048350 1.014773 1.023216 1.020438 1.012810 1.006957 1.037139 1.015858 1.012973 1.005190 1.012347 1.023523 0.997284 1.011945 1.004925 0.999451 0.985109 0.994783 1.003549 0.979914 0.980353 0.990895 1.003936 1.010209 0.995218 0.991949 0.997635 1.000954 0.985516 0.981345 1.026201 1.012662 1.088217 1.075990 0.997660 0.874371 0.936495 1.049619 0.897248 0.799572 0.906482 0.931044 0.810354 0.999922 0.851961 0.761646 0.679239 0.838119 1.004846 1.073332 1.111889 1.041825 1.042115 0.989680 1.044616 1.086185 1.072726 1.031658 0.986036 1.006364 1.034952 1.046660 1.042301 1.042274 1.028357 1.027050 1.033639 1.044542 0.894266 1.012095 1.052679 0.978279 1.021172 1.024152 0.986140 1.020894 1.056055 1.092008 1.070101 1.136738 1.143693 1.121278 1.133861 1.145203 1.090667 0.962928 0.803442 0.862422 1.131865 0.975942 1.121797 1.221649 1.151309 0.974761 0.781678 1.216321 1.275891 1.248336 0.905097 1.278883 1.185650 1.078622 1.153323 1.245639 1.243111 1.226005 1.208056 1.189908 1.184479 1.171433 1.175317 1.171388 1.168050 1.160847 1.148962 1.135653 1.124590 1.109712 1.098032 1.087096 1.062951 1.018547 1.041837 0.991656 1.000319 1.000708 1.000066 0.995425 1.024300 1.000417 0.966852 1.011940 0.966132 0.940333 1.024456 1.095966 1.069492 1.064999 0.869757 0.901950 1.026299 1.076941 1.109787 1.072300 1.084420 1.049714 1.106107 1.140908 1.167544 1.167428 1.133948 1.104659 1.070771 1.030231 0.876633 0.631003 0.849625 0.993847 1.151850 1.111465 1.192913 1.220999 1.147991 1.101043 0.899386 1.196005 1.100838 1.282195 1.018077 1.076398 1.167174 1.079017 1.127681 1.120550 1.241413 1.157093 1.003805 0.946720 0.707636 1.279715 1.244252 1.096388 1.125337 1.175224 1.163268 1.149362 1.087194 1.013884 1.041726 1.096147 1.042323 1.143905 1.067564 1.093015 1.079230 1.008673 1.168211 1.219016 1.097902 0.956247 0.711390 1.069845 1.110943 1.197461 1.202806 1.044719 0.772268 0.969248 1.071177 1.079283 1.069986 1.127037 1.187158 1.149263 1.077799 1.180223 1.090422 0.783797 0.621523 1.197093 1.186215 0.978238 1.151591 1.232166 1.199891 0.891453 0.856556 0.860584 0.903223 1.002640 1.051586 1.124609 1.065037 0.855333 1.240315 1.175061 1.129569 1.118619 0.927610 0.881071 0.996330 1.028403 1.087983 1.085722 1.069185 1.054098 1.002783 0.964402 0.963428 1.003153 1.024649 1.017597 0.997844 0.991257 1.011243 1.025530 1.014807 1.006935 0.988178 0.941111 0.833558 1.041004 1.143368 0.921909 1.078756 1.059028 1.101572 1.088318 1.094570 1.062948 1.114755 1.006781 0.876416 0.951760 1.066867 1.103641 1.061333 1.012840 1.025645 0.998199 0.983651 1.084691 0.992305 0.977347 1.025001 1.001274 1.030391 1.011342 1.001977 1.006451 1.044755 1.015579 1.019801 1.041793 1.061105 1.038479 1.005328 1.007404 0.980846 0.996589 1.038820 1.073199 1.046772 1.043694 1.020847 1.021768
1.141460 1.089217 1.116627 0.970342 1.047755 1.089934 1.124412 1.010624 1.046845 1.068381 1.032360 1.015171 0.986147 0.956764 0.977848 1.097907 0.995771 0.965831 0.985147 0.987481 0.975922 0.994521 1.033753 1.027909 1.032001 1.024732 1.050234 1.042600 1.035036 1.031154 1.030041 1.029877 1.034278 1.041371 1.040843 1.052339 1.074525 1.078200 1.079197 1.077766 1.060336 1.058786 1.046107 1.026663 1.016346 1.002664 0.996099 0.986715 1.101186 1.098029 1.106907 1.095566 1.049731 1.024485 1.019710 1.066880 1.070528 1.061558 1.091226 1.052034 1.047203 0.965292 0.955954 1.027303 1.039071 1.073206 1.069334 1.074414 1.093572 1.088689 1.083592 1.044033 1.009299 1.033446 0.984879 1.021401 1.034958 1.030124 1.039186 1.039735 1.020026 1.027380 1.024159 1.006468 1.005899 0.993135 0.995401 0.989139 0.982995 0.986823 1.010816 0.992952 0.984867 0.995438 1.006028 0.977595 0.978509 0.992566 1.009697 1.013767 0.986082 1.003030 0.954265 0.943626 0.965480 1.015178 1.064478 0.944441 0.769852 0.799781 0.873776 0.852327 0.859892 0.906005 0.890346 0.893749 0.831235 0.787609 0.771090 0.778741 0.970068 0.947479 1.025832 1.098230 1.062173 1.082567 1.087802 1.088463 1.034085 1.024025 1.046875 1.037285 1.031555 1.044655 1.035315 1.042415 1.045579 1.018724 1.032475 1.055845 0.991781 0.957101 1.041022 1.057427 1.044823 1.014427 0.999996 1.010027 1.006587 1.053898 1.048911 0.950282 1.014959 0.902550 0.983670 0.883624 0.892918 0.839302 0.781312 0.745989 0.735153 0.724291 0.721612 0.740615 1.061397 1.246277 1.121281 1.107535 1.054064 1.190296 0.912226 1.027021 1.206730 1.224757 1.272199 1.036377 1.027978 1.070256 1.071758 1.140065 1.185731 1.182120 1.179473 1.179286 1.075581 1.065233 1.045619 1.114452 1.081949 1.067639 1.053633 1.074053 1.040544 1.046242 1.040554 1.046028 1.016618 0.989773 1.002579 1.001347 0.999912 1.027084 1.039997 1.042787 1.014755 0.965057 0.894364 0.879932 0.957466 0.974946 0.835167 0.857518 1.014141 1.089971 1.063677 1.079455 1.094772 1.091751 1.119061 1.163591 1.162895 1.150367 1.085185 1.095755 1.166340 1.188048 1.161980 0.962671 0.832990 0.517203 1.185237 1.218822 1.065578 1.062707 1.205505 1.225938 1.151972 0.966615 0.851847 0.871683 0.992977 0.857108 1.276990 1.179875 1.105157 1.174140 1.170258 1.245592 1.118681 0.915784 0.910424 1.075382 1.279939 0.987867 1.153905 1.233085 1.208478 1.224285 1.161001 1.046123 0.975177 1.087871 1.053113 1.078272 1.145544 1.062855 1.046416 1.133892 1.059947 0.975407 1.211091 1.020880 1.115742 0.642613 1.075852 1.101604 0.999246 0.777049 0.680019 0.829852 1.102441 1.096759 1.084638 1.141283 1.189889 1.197200 1.030584 1.124730 1.232879 1.145579 0.897536 0.610036 0.744867 0.674985 0.674686 0.873825 1.049304 0.788649 0.691361 0.757514 0.992094 1.026654 0.996632 1.087927 1.173896 1.118003 0.790536 1.046027 0.970239 0.818499 0.862705 0.949828 1.040442 1.138337 1.163039 1.153914 1.136991 1.115376 1.110416 1.097518 1.076113 1.021884 1.022299 1.020402 1.015746 0.996696 1.005712 1.022990 1.037915 1.035794 1.026297 1.003817 0.920662 0.855523 0.816918 0.957567 0.877590 0.861013 1.045538 1.122922 1.123933 1.110653 1.001510 1.087110 1.139487 0.978161 0.963501 1.057855 1.045806 1.035754 1.015113 1.014827 1.033443 1.045625 1.087911 0.926169 0.976155 0.985632 0.992618 1.040406 1.018618 1.013722 1.021658 1.028550 1.015968 1.033141 1.048865 1.020997 0.983359 0.979137 0.959459 1.037122 1.049804 1.028845 1.064716 1.030367 1.059050 1.051951 1.043555
1.148172 1.141858 1.133515 0.998966 1.011102 0.998504 1.049499 1.052810 1.050911 1.043079 1.036075 1.032390 1.040245 1.031480 1.033416 1.039307 1.053053 1.046972 1.058556 1.044604 1.059236 1.032614 1.021470 1.014757 1.019719 1.033572 1.039633 1.044097 1.053087 1.047423 1.050057 1.062001 1.080370 1.068860 1.063824 1.069533 1.055898 1.044316 1.043901 1.044658 1.053945 1.076600 1.063262 1.061555 1.025495 1.005071 1.005948 1.076918 1.102409 1.032515 1.039544 1.055077 0.994804 1.000583 1.049803 1.019941 1.038035 1.089192 1.089033 1.040313 1.059602 0.985992 0.970412 0.975480 0.998002 0.975403 0.943190 0.991259 1.007905 1.029486 1.034318 1.070735 1.064337 1.016586 1.021513 1.013891 1.037494 1.030728 1.030807 1.021215 1.006213 1.006114 1.004918 0.988713 1.008348 0.980050 0.983721 0.976066 0.958995 0.955775 1.000412 0.989030 0.975378 0.999192 0.980023 0.968145 0.995513 1.021033 1.028295 1.009138 1.031405 1.050842 0.994649 0.983210 0.955696 0.909042 0.890210 0.758493 0.685028 0.872588 1.021983 1.073751 1.094113 1.075613 1.043384 1.041829 1.004585 1.026769 0.800856 0.910674 1.039854 1.101407 1.039846 1.076190 1.084653 1.089540 1.076782 1.041266 1.016502 1.038925 1.049605 1.011705 1.015925 1.036010 1.032834 1.052048 1.023611 1.010894 1.028221 1.043173 0.931903 0.979811 1.021710 1.019441 1.043684 1.050401 1.052864 1.057213 0.930775 0.876176 0.875840 0.723491 0.796637 0.696886 0.725316 0.816368 1.035227 1.130914 1.153627 1.118731 1.135929 1.205574 1.207264 1.119689 0.844739 1.180250 1.051156 1.027959 0.716655 0.703454 0.735369 0.947517 0.954880 0.958767 0.977535 0.854027 0.834875 0.792396 0.936614 1.199009 1.189245 1.017407 1.037744 1.088505 1.029404 1.024567 1.025661 1.039135 0.999169 0.995857 1.045091 1.046779 0.989986 1.025458 1.010379 1.029932 1.045642 0.992797 0.997360 1.006840 1.007150 1.023834 1.054346 1.024485 1.022075 1.067974 1.113082 1.110162 1.008004 0.780784 0.759017 1.091956 1.082803 1.058742 1.056326 1.066921 1.110278 1.095116 1.149492 1.144573 1.101166 1.103803 1.034729 1.026711 1.081378 1.206665 1.207502 0.965941 0.839474 0.606869 0.668474 1.046697 1.216473 1.100280 1.166305 1.226641 1.201226 1.176624 0.785247 0.502985 0.602913 1.122108 1.284541 1.118777 0.954742 1.137690 1.143373 1.249487 1.169370 0.871195 0.756002 1.109105 1.211305 1.027631 1.266908 1.117528 1.063343 1.142115 1.093979 0.988832 1.062634 1.077531 1.031296 1.085565 1.144341 1.137298 1.075091 1.023083 1.121794 1.068849 1.159760 0.940976 1.193330 0.813535 1.212310 1.181988 1.160323 1.158875 1.178447 0.953991 1.075890 1.122507 1.140708 1.197391 1.196477 1.107444 0.879546 1.173097 1.183802 0.852234 0.621977 0.701769 0.898814 0.854501 0.965550 1.007182 0.893373 0.946269 1.030097 0.983106 0.966600 1.003459 1.080769 1.218032 1.041690 0.818919 0.626046 0.658650 1.082431 1.160705 1.180465 1.171735 1.147242 1.132399 1.123184 1.069110 1.055836 1.007515 0.972300 1.004915 1.006119 1.000642 1.017600 0.996107 1.006630 1.010664 1.037203 1.015686 0.998304 1.043717 1.110632 1.125262 0.985517 0.950696 0.725448 0.636883 0.601373 0.898260 1.189794 1.175363 1.171430 1.122815 0.974126 1.030440 1.097419 1.108755 1.030492 1.054270 1.060632 1.051348 1.096330 1.085671 1.092223 1.084355 1.026296 0.924126 0.967152 0.974736 1.000128 1.044257 1.030407 1.008867 1.019975 1.000685 0.996807 0.977408 0.961274 0.983645 0.965505 0.967516 0.970517 1.047240 1.093182 1.034375 1.033108 1.028368 1.047950 1.041511 1.044292
1.084230 1.131310 1.022652 0.959714 1.018466 1.059115 1.018155 1.057349 1.041025 1.031802 1.037804 1.068004 1.056014 1.062772 1.084229 1.058868 1.030324 1.039427 1.064819 1.053734 1.044657 1.032083 1.028274 1.034568 1.055055 1.071158 1.063317 1.046916 1.064051 1.050972 1.048037 1.031866 1.021111 0.988042 1.059193 1.031756 1.010816 0.985459 0.975964 0.975370 1.014856 1.007105 1.028206 1.072486 1.048125 1.016834 1.042647 1.088781 1.014392 1.017194 1.041207 1.028850 1.005676 1.036811 1.040417 1.043959 1.059855 1.073424 1.111703 1.076344 1.082262 1.028466 1.070358 1.028000 1.054340 1.055140 0.998302 1.007180 0.993678 0.980367 1.008123 1.013166 1.052017 1.030263 1.003902 1.003562 1.001688 0.995756 0.987872 0.998087 0.987643 0.987776 0.987252 0.979335 1.001805 0.972774 0.984039 0.976918 1.002277 1.008005 0.997288 0.978425 0.987735 0.997374 0.965307 0.996263 0.984164 1.009747 1.011811 1.023301 1.027153 1.017213 0.972523 0.918118 0.879919 0.850866 0.843594 0.880378 0.908147 1.011926 1.082873 1.127286 1.112059 1.104381 1.101826 1.058820 1.101589 0.952728 0.879968 1.032454 1.010362 1.012650 1.049111 1.047166 1.053417 1.056394 1.052003 1.032789 1.040465 1.034417 1.032032 1.036611 1.057018 1.049052 1.048787 1.054309 0.998424 1.015380 0.985016 0.958193 0.957392 0.988202 1.029306 1.006192 1.033478 1.049897 1.037056 1.029415 1.007757 0.875922 0.884511 0.769806 0.845359 1.068104 1.081520 1.179279 1.173356 1.141824 1.110151 1.219690 1.220559 1.222926 1.230552 1.127142 1.005638 1.064008 0.965058 1.182413 1.031160 0.710692 1.162976 1.149427 1.184997 1.264631 1.226044 1.204384 1.191436 1.089098 1.079917 1.196290 1.143023 0.970962 0.981263 1.133402 1.086040 1.035085 1.067013 1.006131 0.963966 0.992117 1.059158 1.109038 0.993553 1.061309 1.021577 1.017804 1.053160 1.035649 0.990927 0.996186 0.999041 1.009487 1.032858 1.054785 1.009259 1.023775 1.058381 0.987829 0.922633 0.709964 0.923301 1.155175 1.131999 1.076176 1.089759 1.110606 1.149803 1.150133 1.154243 1.121514 1.085948 1.076441 0.997653 1.025198 1.094236 1.208335 1.217722 1.078530 0.929212 0.881797 0.561312 1.250263 1.244171 1.062277 1.129267 1.194154 1.235076 1.205355 0.966172 0.665008 0.941719 1.297840 1.273229 1.087490 1.043574 1.106497 1.176741 1.251918 1.135947 1.079123 0.672782 1.103320 1.148295 1.180689 1.229720 1.059995 0.921314 0.868996 0.961246 0.996623 1.012339 1.038953 1.028397 1.073740 1.143682 1.150371 1.083939 1.036262 1.051796 0.992285 0.857542 0.800907 0.865965 0.789998 1.090568 1.116755 1.081034 1.078203 1.186425 1.166815 1.058889 1.099548 1.151786 1.199326 1.101780 1.153495 0.917722 0.959055 1.033665 0.618380 0.769133 1.091256 1.074102 1.066171 1.102781 1.131149 1.101820 0.989628 1.052041 1.051431 1.102805 0.921770 1.091411 1.202522 1.028168 0.781324 1.011185 0.785839 0.832847 0.897327 0.993678 1.055474 1.097916 1.022171 0.890354 0.968007 0.995942 1.013306 1.031397 1.001823 0.998506 1.014325 1.020893 1.011906 1.006724 1.013007 1.041323 1.024049 1.014594 0.958022 0.928428 1.133790 1.105124 1.113953 1.003910 0.916893 0.599795 1.176139 1.201258 1.033123 0.973437 0.958530 0.974759 1.036380 1.043103 1.086033 1.065683 1.049276 1.090925 1.095948 1.057350 1.070798 1.064395 1.011434 0.986231 0.997143 0.986483 0.991201 0.991502 1.039258 1.023489 1.000097 1.003475 1.014280 1.010937 0.923436 0.959945 1.027308 1.024607 0.981784 1.014097 1.024988 1.069184 1.040432 1.021522 1.024727 1.032498 1.014314 1.023714
0.982407 1.114154 1.121687 1.016308 1.049773 1.056670 1.042889 1.040683 1.055795 1.061124 1.062360 1.068510 1.065716 1.051690 1.044269 1.037981 1.031406 1.044173 1.056957 1.048000 1.052736 1.044560 1.037881 1.067811 1.064240 1.036901 1.023052 1.029103 1.025916 0.977664 1.072475 1.039844 0.983210 0.988107 1.078588 1.022171 1.009616 1.035655 1.031176 1.039032 1.025419 0.993650 1.016194 1.043606 1.066092 1.051089 1.044671 1.016203 1.016014 1.026412 1.014449 1.025809 1.039443 1.037797 1.050787 1.038996 1.061743 1.055470 1.134096 1.056480 1.060467 1.008704 1.022817 1.014924 1.029059 1.063669 1.057760 1.063420 1.053148 0.973572 0.948094 0.979723 0.973296 1.010512 1.004839 1.008926 1.011641 1.002030 0.988534 0.989361 0.973558 0.981952 1.009618 1.025416 1.024484 1.025801 1.024680 1.017829 1.009765 0.982845 0.989499 0.975982 1.002939 0.999606 1.009429 1.026518 1.035594 1.048341 0.968456 0.983995 0.932403 0.929346 0.920515 0.890399 0.922656 0.947637 1.002206 1.003605 0.929398 0.954678 1.029257 1.087687 1.085979 1.098286 1.148557 1.106891 1.022140 0.859342 0.948061 1.065835 1.042727 1.093767 1.083894 1.066210 1.059455 1.047033 1.051538 1.045287 1.054045 1.055688 1.027064 1.018234 1.024885 1.045669 1.045224 1.042555 1.032279 1.024859 1.045004 0.935042 1.010355 1.022098 1.030122 1.037006 1.045416 1.034665 1.045481 1.028433 0.992686 0.953049 1.034259 1.027671 1.037507 1.150212 1.163631 1.164629 1.009369 0.763214 0.695604 0.846740 0.991170 1.148866 1.191783 1.061515 1.203019 1.216950 1.253859 1.155874 0.896611 0.812011 1.294415 1.251451 1.184328 1.199602 1.142828 1.137281 1.169664 1.110359 1.202814 1.203470 1.100378 0.921280 1.072888 1.200766 1.086100 0.859447 1.013692 1.078306 1.094093 1.060930 1.099195 1.124383 0.896857 0.966335 1.012261 1.026543 1.025656 1.043944 1.011205 0.990644 0.997070 1.005424 1.017009 1.056236 1.060395 1.038625 1.031623 1.016543 0.836029 0.858994 0.829937 1.052363 1.152653 1.080058 1.096459 1.143545 1.136164 1.072374 1.101855 1.109040 1.013914 0.904879 0.977151 1.136180 1.060836 1.209160 1.219671 1.180753 1.020698 0.904323 0.539459 0.959028 1.073777 1.123558 1.108152 1.204118 1.235781 1.234989 1.040967 0.645015 0.816502 1.305098 1.038686 0.847177 1.099973 1.178011 1.245733 1.257535 1.111030 1.094491 0.717159 0.712631 0.892170 0.893304 0.890786 0.870489 0.817388 0.742979 0.913099 1.062174 1.086440 1.030051 1.063520 1.119308 1.143962 1.154751 1.046716 1.110597 1.187958 1.165791 1.146861 1.050368 0.984902 0.619326 1.002288 1.148529 1.219164 0.991689 1.058619 1.101631 1.144449 1.205608 1.202643 1.142432 1.079592 1.217413 0.995028 0.578953 0.735052 0.808544 0.937870 1.047460 1.121298 1.083784 1.111435 1.177353 1.175203 1.023527 1.095012 1.108143 1.107407 0.996522 1.105544 1.190879 0.944344 0.806202 1.146964 0.937921 1.072346 1.002331 0.941661 0.930019 0.974654 0.965500 1.011774 1.042441 1.021911 1.032624 1.050453 1.047356 1.012869 1.020572 1.011953 1.007712 0.991907 1.011418 1.023057 1.012884 0.996487 0.935621 0.845657 1.139000 0.989922 1.062435 1.173999 0.941685 0.632222 1.211349 0.963775 1.046956 0.696328 0.989606 1.092506 1.090446 1.050278 1.089821 1.080408 1.085955 1.080948 1.029602 1.008435 1.064836 1.011811 0.988424 1.029105 1.051481 1.033543 1.012542 0.978758 1.036900 1.028998 1.020049 1.028203 1.003051 0.979112 0.943660 0.976947 1.061636 1.060624 1.012880 1.027387 1.017950 1.056728 1.038053 1.026770 1.037707 1.054042 1.049520 1.076915
0.964868 0.987668 1.027733 1.056967 1.036106 1.068398 1.052410 1.052518 1.035061 1.042787 1.049154 1.041641 1.040087 1.041770 1.052399 1.071137 1.073673 1.079051 1.037666 1.026597 1.063071 1.045268 1.069342 1.027804 0.991015 1.003835 1.003587 0.997009 1.056829 1.001553 1.075850 1.009380 1.004966 1.050542 1.079181 1.066777 1.037561 1.055036 1.054709 1.061569 1.030145 1.007147 1.033636 1.043651 1.051847 1.054406 1.024248 1.008357 1.040152 1.026023 0.982698 1.015499 1.044036 1.058208 1.032513 1.028201 1.032001 1.065064 1.088541 1.013973 1.045921 1.049088 1.028584 1.051007 1.038250 1.019358 1.039328 1.037098 1.051913 1.032219 0.982572 1.015882 1.002359 1.016980 0.995379 0.957377 0.972550 0.981663 0.984046 1.000084 1.027402 1.027240 1.022427 0.997373 0.993826 1.002120 0.992010 1.001814 1.005748 0.985839 0.999574 0.987581 1.015673 0.996643 1.015260 1.000683 1.008589 0.953110 0.853648 0.889211 0.931608 0.915718 0.910348 0.904478 0.928766 0.999712 1.057144 1.044288 0.959506 0.917205 1.070934 1.084795 1.052553 1.124593 1.125340 1.059366 0.954902 0.899035 1.021871 1.016846 1.005284 1.104189 1.091205 1.037622 1.045339 1.056275 1.076087 1.048919 1.065098 1.046522 1.032997 1.028514 1.048625 1.052278 1.019973 1.011805 1.056283 1.061173 1.028798 0.961604 0.968973 1.013155 1.041880 1.046130 1.055876 1.035842 1.057796 1.059550 1.047722 1.026604 1.050344 1.034674 1.029177 0.981699 0.917605 0.821639 0.900792 0.912131 1.022214 1.020411 0.869675 0.755908 0.991499 1.013886 1.211162 1.102942 1.057598 1.281504 1.012909 0.606957 1.136073 1.016279 0.877927 0.975689 1.039673 1.071363 1.180359 1.205823 1.207805 1.120171 1.167518 0.910456 1.102016 1.184222 1.063834 0.867671 1.087636 1.097395 1.020081 1.075717 1.144071 1.082804 0.723228 0.942471 1.073796 1.065279 1.032089 1.060485 1.035865 0.987668 0.999925 1.012290 1.022478 1.043951 1.074536 1.013800 0.986170 1.042593 0.914357 0.893372 0.900170 0.999391 1.076186 1.090323 1.139361 1.134310 1.109129 1.048006 0.998105 1.185827 1.062070 0.775197 0.805451 1.158709 0.971695 1.190163 1.203910 1.230217 1.132949 0.908858 0.675593 0.568652 1.279578 1.190170 1.116737 1.214597 1.216705 1.130500 1.138020 1.010785 0.636892 0.652126 0.708497 1.063528 1.182124 1.124430 1.230731 1.255505 1.080489 1.151440 0.781841 0.779517 1.291859 1.027859 1.106678 1.041355 1.133405 1.066911 1.014184 1.049596 1.109015 1.054304 1.063222 1.146419 1.146276 1.120246 0.927437 0.937034 1.172878 1.225233 1.080927 1.026137 1.102334 1.028287 1.096337 1.116619 1.249786 1.117104 1.107304 1.143078 1.209161 1.205472 1.130268 1.111310 1.048038 1.197892 1.101200 0.654649 0.834838 1.031304 1.122728 1.059595 1.090725 1.139623 1.045588 1.071823 1.168456 1.099701 1.116905 1.116935 1.116123 1.052576 1.110255 1.171108 0.896535 1.043682 1.123825 0.947887 1.209421 1.144375 0.995366 1.009525 1.009652 0.979809 1.007491 1.034407 1.031725 0.995984 0.992113 1.014387 1.028640 1.005481 1.014703 1.002910 1.000882 1.017792 1.013384 1.020994 1.025517 0.992151 0.859339 1.086545 1.124449 0.738628 0.921391 0.839285 0.554595 0.752531 0.556330 0.952902 0.971428 1.106716 1.087576 1.072650 1.092177 1.083468 1.044731 1.072284 1.065634 1.030532 0.919105 0.977909 0.988303 1.048273 1.047229 1.033327 1.030498 1.034069 1.008874 1.031625 1.012702 1.002342 0.983294 0.925318 0.943101 1.005820 1.006295 1.034923 1.045760 1.011261 1.000392 0.991808 1.043503 1.073386 1.077898 1.079843 1.084005 1.083800 1.081135
1.022716 1.048763 1.066170 1.042578 1.040673 1.055012 1.061340 1.063112 1.068692 1.059611 1.041329 1.053383 1.054365 1.058305 1.058974 1.049495 1.060459 1.029948 1.020336 1.050277 1.030407 1.020497 1.045976 1.094818 0.988637 1.007211 1.024251 1.031219 1.087270 1.026316 1.122254 1.060743 1.010163 1.074903 1.103312 1.070531 1.074510 1.039538 0.968681 0.977544 0.962695 1.041988 1.035370 1.046215 1.045493 1.064464 1.042477 1.003822 1.038360 0.993721 0.999428 1.008178 1.034003 1.041771 1.009799 1.042573 1.046672 1.086067 1.052281 1.005327 1.005266 1.013260 1.040922 1.043751 1.040115 1.045396 1.042543 1.017203 1.032127 1.014891 1.006984 1.025262 1.006253 1.016477 0.972300 0.978045 0.985667 1.002324 1.013030 1.015479 1.007021 0.985168 0.989889 0.984896 0.992111 1.001700 0.998109 0.993882 0.987210 0.989988 1.017606 1.000418 0.987143 1.000645 0.993717 0.926073 0.896898 0.913818 0.948886 1.033061 1.030975 0.993994 0.992214 0.982564 0.973099 1.009020 1.018359 1.014270 1.006717 0.924369 1.041274 1.084845 1.073101 1.133361 1.053195 0.981189 0.937541 0.999318 1.087571 1.096722 1.072108 1.082372 1.070862 1.042627 1.069073 1.092451 1.066122 1.040138 1.046520 1.017329 1.049911 1.069442 1.079978 1.049138 1.055470 1.053200 1.060717 1.081851 0.971049 0.929848 0.907735 1.019192 1.069420 1.038619 1.055830 1.061664 1.034949 1.042658 1.063174 1.066762 1.045783 1.080720 1.048555 0.992471 1.044093 0.999761 1.050810 1.046248 1.141984 1.149865 1.077624 0.990439 0.943766 0.804585 1.161238 1.099923 0.939816 1.251271 1.022721 0.652716 1.239743 1.282615 1.239039 1.227662 1.199739 1.137290 1.215977 1.210544 1.070395 1.053733 1.158552 0.954057 1.144234 1.166120 0.735580 0.961020 1.174158 1.009820 1.024933 1.148027 1.147133 1.016062 0.807074 1.102795 1.084316 0.944465 0.955862 1.056476 1.055648 0.988932 1.005788 1.005568 1.021974 1.024201 1.074209 1.056279 1.008225 1.050336 1.071180 0.842248 0.926083 1.094123 1.138831 1.119941 1.074637 1.059611 1.077380 0.994540 0.980035 1.190917 1.199539 0.979049 0.699354 0.706454 0.749654 1.168821 1.200116 1.227729 1.219441 0.952931 0.700263 0.474657 0.868577 0.961717 1.123937 1.190411 1.244666 1.179935 1.154130 1.038482 0.543426 0.755575 1.309802 1.297441 1.128093 1.192557 1.252032 1.233358 0.998054 1.205897 1.235125 0.742257 1.222526 1.138242 1.205781 1.235455 1.215662 1.165606 1.143484 1.128830 1.135654 1.112056 1.068122 1.132602 1.144730 1.098078 1.093554 0.947977 1.007903 1.206598 1.235035 0.867541 0.955866 1.157974 0.739317 1.161350 1.184487 1.075280 1.098013 1.212783 1.210809 1.125639 1.101371 1.153581 1.090568 0.888094 0.944364 0.903206 1.036026 1.076571 1.157328 1.130971 1.142417 1.151569 1.049730 1.011548 1.072190 1.089228 1.059073 1.055998 1.068278 1.082354 1.094503 1.096803 0.883354 1.163437 1.008138 0.740113 1.097010 1.166559 0.971634 1.026174 1.040700 1.067948 1.051585 0.987518 0.986451 0.991637 0.976699 1.019771 1.035307 1.006429 1.006257 1.012500 1.025270 1.028927 1.029254 1.071419 1.097536 1.043054 0.946648 0.927655 1.121669 1.156724 1.100978 0.962251 0.857114 0.485629 0.557062 0.969036 1.065275 1.068776 1.079815 1.063805 1.085612 1.118981 1.043504 1.100933 1.078374 1.021805 0.933144 1.058707 1.060572 1.044869 1.044243 1.035166 1.021343 1.010428 1.022565 1.024138 1.015285 0.997051 0.985511 1.002500 1.011489 1.044133 1.021941 1.030790 1.038503 1.036439 1.043774 1.074896 1.073848 1.036634 1.037682 1.021566 1.011890 1.034606 1.026043
1.056824 1.087763 1.060393 1.008903 1.053254 1.057792 1.045646 1.065747 1.082538 1.036425 1.019647 1.078218 1.048826 1.078583 0.988088 1.025181 1.019239 1.003757 1.032717 1.084221 1.005903 0.994398 1.008044 1.104704 1.025152 0.997883 1.036153 1.029066 1.083527 1.019706 1.121790 1.091582 0.921333 1.042692 1.102409 1.063541 1.046310 0.995349 0.986631 1.019517 1.001309 1.042679 1.052943 1.053038 0.989160 1.053837 1.070208 1.035245 0.960910 0.968272 1.040149 1.005041 1.035722 1.026543 0.977070 1.018982 1.031369 1.061375 1.022359 1.036617 1.032373 1.024993 0.979523 1.008572 1.056685 1.062768 1.030423 1.019054 1.015363 0.996547 0.986445 0.992411 1.005383 1.006932 1.021349 1.010712 1.031338 1.022480 1.013438 1.020507 0.999100 0.994161 1.007794 0.981444 0.982143 0.999026 1.012067 0.968052 0.958253 0.968985 1.002705 1.026150 0.956519 0.903928 0.867730 0.920026 0.986824 0.985222 0.978049 1.008045 1.021999 1.021227 0.998464 0.977915 0.973862 1.003768 1.085952 1.027188 0.999563 0.925560 1.010392 1.035401 1.124650 1.093685 1.032933 0.990611 1.008123 1.012504 1.042523 1.064965 1.060287 1.086561 1.107890 1.092427 1.067801 1.054484 1.039596 1.037049 1.036520 1.048650 1.017760 1.046068 1.039619 1.027788 1.073059 1.053735 1.041698 1.098504 0.983121 0.861116 0.872660 1.042013 1.073236 1.061789 1.017351 1.037569 1.048324 0.975378 1.048353 1.065516 1.062852 1.064891 1.053148 1.012334 1.021539 1.036509 1.077378 1.093553 1.096277 1.048318 1.134795 1.144667 1.025096 0.851099 0.844052 0.828810 0.675731 0.828595 0.762944 0.716471 0.796726 1.220489 1.273236 1.226927 1.094052 1.118366 1.219334 1.165099 1.082934 1.015415 1.017185 0.990881 1.158262 1.247254 0.740528 1.024332 0.992831 0.925640 1.085796 1.157701 1.157255 0.892261 0.700472 0.830171 0.872126 0.909737 1.031351 1.068382 1.062414 1.037094 1.002174 0.992813 0.986251 0.935675 1.027727 1.083924 0.979082 0.986056 1.062824 1.007914 1.030211 1.135335 1.108457 1.091378 1.126635 1.115755 1.043531 0.885191 0.872967 1.167315 1.195595 1.086231 0.897386 0.715207 0.653076 1.088904 1.145584 1.188427 1.180825 1.170742 1.151379 0.961323 0.619841 1.173871 1.202994 1.154589 1.250439 1.202750 1.204235 1.098716 0.563037 0.962652 1.187448 0.995037 1.129806 1.162137 1.221934 1.227290 0.727566 1.155872 1.201792 0.938738 1.249953 1.130467 1.092951 1.058637 1.168826 1.207671 1.220349 1.192360 1.095044 1.093073 1.109961 1.144093 1.141337 1.054979 1.134367 0.969205 0.892458 1.143410 1.253262 0.986497 0.756494 0.791358 0.683681 1.072037 1.018775 1.084563 1.178161 1.214847 1.105224 1.121792 1.026751 1.204391 1.174764 0.687636 0.792682 1.094661 1.075133 1.040937 1.101079 1.062690 1.031788 1.067064 1.109585 1.014951 1.064826 1.112840 1.001563 1.038303 0.974412 1.076019 1.138353 1.042551 0.881056 1.163973 1.002940 0.747668 1.008091 1.172387 1.088901 1.040272 1.026046 1.048547 1.074489 1.017934 1.007435 1.018595 1.026702 1.049933 1.026048 1.005023 1.000922 1.021089 1.023119 1.021314 1.002102 0.956493 1.095831 1.114464 0.968288 1.014661 0.867763 0.978491 1.092619 1.162354 0.989349 0.932742 0.800148 0.943645 1.088679 1.092905 1.102975 1.095615 1.099266 1.109059 0.993138 1.131318 1.013794 0.951349 0.912641 1.037451 1.036808 1.056204 1.053115 0.989595 0.996601 1.008994 1.019894 1.019893 1.017630 1.006181 0.993243 0.991058 1.013302 1.066056 1.065501 1.066734 1.069304 1.069315 1.058924 1.037863 1.046128 1.020951 0.971622 0.983167 0.998680 1.056861 1.040074
1.068403 1.061692 1.047994 1.056224 1.094403 1.055826 1.017402 1.026205 1.033408 1.019880 1.015914 1.071805 1.010403 1.070123 1.004079 1.046351 1.051281 1.024024 1.046077 1.036447 0.973602 0.991895 1.060880 1.112237 1.048528 0.917497 0.938630 0.960299 1.000306 1.001898 1.138919 1.176759 1.085949 1.022765 1.086631 1.049350 0.932621 0.950587 1.103523 1.100259 1.060029 1.050447 1.079376 1.062542 0.987383 1.019428 1.074628 1.069225 1.053882 1.010006 1.004173 0.990735 1.047660 1.032350 0.985246 1.013295 1.034600 1.030143 1.006292 1.040192 1.020995 1.031345 1.000698 0.967724 0.919352 0.988164 1.041351 1.053210 1.047457 1.009548 0.996096 0.990865 0.979200 1.018270 1.019329 1.017029 1.014213 0.989898 1.008491 0.990022 0.997488 1.005235 1.011945 0.999654 1.006878 1.001361 0.992068 0.976002 0.974377 1.008182 0.974644 1.028193 1.033184 0.965586 0.946288 1.012062 1.024136 1.009024 1.002061 1.025228 1.041724 1.021133 0.954793 0.969594 0.989809 1.016505 1.065120 1.018844 0.994553 0.938722 1.008327 1.038196 1.113757 1.047909 1.005391 1.031768 1.057042 1.045022 1.057038 1.062888 1.053212 1.060879 1.050914 1.001833 0.988107 1.023381 1.058045 1.067327 1.055792 1.022876 1.048894 1.066278 1.000502 1.042743 1.082530 1.033771 1.018855 1.072066 1.003819 0.921929 0.905903 0.971868 1.052566 1.021187 0.993998 1.027017 1.055423 1.032151 1.073688 1.015801 1.033820 1.071656 1.066229 1.073938 1.054293 1.019474 1.037090 1.038835 0.987912 1.062787 1.076163 0.909208 0.832087 0.986466 1.078063 0.919302 0.905444 1.092412 1.050036 1.099910 0.740091 0.623478 0.792262 0.985188 1.058068 1.224713 1.208178 1.182941 1.156582 1.048859 0.833754 1.036464 1.154378 1.083743 0.888825 1.103740 1.123884 1.021667 1.116974 1.157238 1.041322 0.922613 0.597189 0.837967 0.974200 1.041327 1.108378 1.021123 1.007777 1.059774 1.019123 1.002296 0.997303 1.003726 0.977720 1.093776 1.097598 1.112249 1.125445 1.130411 1.121454 1.090954 1.058656 1.089236 1.082347 1.066530 1.180865 1.168350 0.834044 1.095547 1.198524 1.151908 1.081975 0.929160 0.663202 1.167392 1.170410 1.237374 1.220759 1.028685 0.862143 0.663650 0.751092 1.150760 1.092485 1.110458 1.203378 1.199478 1.187574 1.091292 0.652745 0.570096 1.116109 1.204916 1.159098 1.187719 1.225371 1.288632 0.687176 1.218475 1.103134 0.803293 0.997376 1.019168 1.200435 1.257311 1.237391 1.188622 1.222304 1.176622 1.080889 1.083546 1.103088 1.152849 1.131214 1.037272 1.137661 1.054569 0.788995 1.013698 1.225681 1.225475 1.143507 0.991962 1.230222 1.174483 1.089692 1.137043 1.221894 1.171738 1.110673 1.033083 1.053639 1.241051 0.949519 0.815654 0.980502 1.021711 1.136864 1.137967 1.121943 1.106044 1.057034 1.028797 1.077930 1.096080 1.089450 1.076347 1.026168 1.053754 0.988363 1.011303 1.118819 1.043265 0.976128 1.140201 1.018482 0.875427 0.916068 1.122229 1.147449 1.129470 0.991299 1.003035 1.056369 1.034408 1.005450 1.020824 1.031688 1.026824 1.003452 0.998338 1.004782 1.011561 1.021185 1.019771 1.021727 0.934402 0.967916 1.115389 1.120782 1.112004 1.010516 0.911289 0.767500 0.704805 0.777445 1.230818 1.085520 1.079703 1.139039 1.108929 1.075181 1.109627 1.138255 1.042444 1.014709 1.145670 0.955198 1.024872 0.971259 1.048648 1.027038 1.023353 0.978960 0.992013 1.000351 1.008684 1.005220 1.014253 1.014505 1.027952 1.054834 1.046686 1.062720 1.041729 1.032703 1.005558 1.033432 1.040421 1.034292 1.031382 1.024886 1.089807 1.079763 1.070472 0.967338 1.003113 1.086363
1.032006 1.046676 1.061243 1.046002 1.047954 1.029249 1.047483 1.029921 0.993987 1.034300 1.038556 1.071225 1.000209 1.096159 1.016759 1.070688 1.104107 1.055576 1.027603 0.928837 1.026449 1.004331 1.026326 1.120655 1.103831 1.040993 1.023291 0.973601 0.936980 0.939165 1.121276 1.154567 1.081274 1.104149 0.934350 0.962517 0.815594 0.944353 1.097765 1.084977 1.060438 1.085419 1.111184 1.058109 0.997417 1.022439 1.038306 1.066642 1.069270 1.069449 1.049194 1.026695 1.055863 1.033944 0.987803 0.977891 1.030793 1.007362 1.012744 1.015488 1.008503 1.044678 1.055135 1.043913 0.939448 0.942020 1.026977 1.070554 1.051438 1.023263 1.016513 1.012930 1.021055 1.023622 1.009681 0.995376 0.985107 1.011007 1.005054 0.971699 1.024016 1.018357 0.999685 1.000852 1.015323 1.020253 1.004636 0.982206 1.014508 0.980994 0.990572 1.028854 1.017648 1.031629 1.007424 0.982924 0.990425 0.982653 0.990166 1.016409 1.020871 1.024448 0.967700 1.026352 1.037373 1.007583 1.044570 1.034076 1.024640 0.972578 0.989472 1.049893 1.101328 1.020842 1.032041 1.031597 1.052595 1.060408 1.054543 1.024217 1.057251 1.078001 1.031871 1.034404 1.052159 1.047954 1.073941 1.061079 1.026320 1.016417 1.069328 1.004275 1.044225 1.064394 1.053537 1.041049 1.040429 1.094671 1.033178 0.961315 0.862068 0.924736 0.987174 1.017438 1.086775 1.132223 1.059410 1.049131 1.066887 0.969245 0.974973 0.996270 1.076063 1.066482 1.067670 1.064765 1.055151 1.054674 1.075955 1.042244 1.105016 0.953982 1.009957 1.090689 1.040633 0.986923 1.011885 1.091009 1.102182 1.155156 1.000061 0.923003 0.774966 0.750777 0.895991 1.106736 1.089442 1.158204 1.166370 1.157512 0.811494 0.767094 0.941781 1.086704 1.113170 1.154128 1.138229 1.116077 1.154387 1.160462 1.054590 0.934801 0.655450 0.957960 1.023521 1.034176 1.034136 0.951577 0.974839 1.049946 1.058186 1.036097 0.939958 0.979056 0.975016 0.988181 1.047519 1.067231 1.020895 0.960908 1.050897 1.046972 1.055403 1.108770 1.059559 0.935198 0.883949 1.111322 0.822729 1.072874 1.203764 1.115928 1.089443 1.048836 0.723726 1.112942 1.178143 1.202466 1.245926 1.119598 0.808122 0.454043 1.063999 1.288494 1.235838 1.121403 1.168046 1.206063 1.231459 1.074480 0.687106 0.875469 1.315789 1.171666 1.210392 1.187881 1.286216 1.277710 0.717414 1.024732 0.987597 0.801847 1.132456 1.151881 1.056406 0.952069 0.768038 0.781986 0.803733 0.927707 1.065648 1.077941 1.068328 1.154932 1.127386 1.088678 1.115446 1.190450 0.998207 0.814842 1.091460 1.133073 1.112116 1.054956 1.178524 1.186888 1.153627 1.203341 1.225131 1.143991 1.134590 0.890318 1.113924 1.097761 0.672262 1.049415 1.122910 1.094734 1.131573 1.099866 1.078468 1.125802 1.054258 1.046939 1.052144 1.078860 1.088566 1.084608 1.093183 1.108504 1.105686 1.079724 1.084255 1.080153 1.071614 1.086616 0.945551 0.866884 0.749880 0.998364 1.034323 1.118832 1.108487 1.004639 1.015583 1.027578 1.021103 1.030992 1.030291 1.006183 1.006164 1.006952 1.007329 1.016666 1.023393 1.046417 1.026263 0.956912 0.902050 1.077842 1.130213 1.050923 0.922946 0.937760 0.931662 0.794338 0.643166 1.196516 1.221553 1.161626 1.113739 1.150212 1.144062 1.145027 1.122319 0.975638 1.142566 1.154780 0.917331 0.864594 1.001489 1.062832 1.045113 0.996395 0.978224 1.027384 1.028835 1.047801 1.016772 1.021148 1.027186 1.003101 0.993091 1.000385 1.016609 1.005517 1.034213 0.984486 1.009424 1.072097 1.059088 1.054470 1.024305 1.053209 1.057371 1.088729 1.135111 1.036695 0.916864
1.056194 1.074451 1.068466 1.068586 1.042740 0.992279 1.039818 1.052137 0.991362 1.054855 1.035702 1.108328 1.010804 1.112278 0.962217 1.100040 1.061393 1.002550 0.940084 0.871827 0.971253 1.050370 1.058975 1.127501 1.106767 0.961356 0.961363 0.952184 0.833305 0.737917 1.113048 1.134112 1.140906 1.167718 0.867284 0.776267 0.859223 1.096458 0.978861 1.019164 1.073684 1.068833 1.097078 1.019901 0.970089 0.995688 1.036045 1.070345 1.005839 1.061222 1.071346 1.066709 1.063847 1.061378 1.063180 1.055490 1.062644 1.016250 1.005142 1.027554 0.998641 1.021823 1.024190 1.043651 1.031553 0.911806 0.933610 1.020048 1.026120 1.031585 1.037370 1.023415 1.025866 1.007340 0.978094 0.974467 0.980801 0.993685 0.994550 1.011365 1.006975 1.027537 1.052991 1.034917 1.023579 1.017255 0.969748 0.998643 1.001135 1.019799 1.049140 0.996906 0.989419 1.032848 1.028310 1.011660 0.997521 0.980663 0.998494 1.011452 1.025141 1.024201 0.992186 1.015395 1.007622 0.992324 1.032565 1.013420 1.041543 1.023361 0.998041 1.056424 1.052382 1.038422 1.026990 1.050596 1.033878 0.988458 1.023849 1.046370 1.061443 1.048954 1.023381 1.049882 1.024527 1.060444 1.061629 1.043134 1.010393 1.050012 1.075424 1.040182 1.050355 1.037313 1.093936 1.053893 1.017897 1.064193 1.001588 0.944290 0.831072 1.030992 1.137721 1.154000 1.093013 1.132720 0.964405 1.042171 1.029312 0.953038 0.967147 0.991850 1.038258 1.042132 1.058666 1.068668 1.034372 1.056746 0.975879 1.005441 1.098196 1.038063 1.071730 1.067265 1.072232 1.055492 1.052448 1.107894 1.173389 1.146343 1.074907 1.022394 0.990280 0.942926 0.839461 1.122635 1.220263 1.240068 1.156398 1.197822 1.023173 0.789163 0.682599 0.958599 0.967143 0.888076 0.883281 1.003253 1.168872 1.164318 1.056283 0.757648 0.820617 1.063047 1.048803 1.040616 1.042195 1.010319 0.986542 1.047282 1.061108 1.061355 1.017744 0.955712 0.985758 1.025734 0.982253 0.937500 0.935877 0.988487 1.056772 1.070127 1.066153 1.130189 1.081143 1.031102 0.900648 0.908154 0.768068 1.045821 1.211240 1.200685 1.076327 1.026512 0.759152 1.054443 1.200731 1.189612 1.219203 1.203981 0.995109 0.527516 0.830095 1.227929 1.189339 1.230549 1.210839 1.153038 1.202413 1.221248 0.929717 0.682537 0.983900 1.192100 1.220441 1.186973 1.294898 1.093812 0.537710 0.861295 1.277578 1.100469 1.134915 1.260669 1.249492 1.212186 0.842762 1.117942 1.078390 0.792011 0.957912 1.025661 1.049065 1.156504 1.115806 1.093954 1.082848 1.142448 0.965610 0.937467 0.810764 0.793897 0.838200 0.750864 0.826528 1.021730 1.125919 1.232295 1.147752 1.135944 1.195222 0.758285 0.948627 0.853060 1.012867 0.993447 1.067248 1.100582 1.102133 1.051491 1.030247 1.094054 1.069077 1.049373 1.106149 1.113384 1.108846 1.111905 1.110310 1.077790 1.104290 1.098597 1.095769 1.093096 1.096984 1.050694 1.009275 0.983288 0.848284 1.011554 0.987957 0.978008 1.040254 1.079481 1.000873 1.017299 1.028178 1.024907 1.009363 1.012883 1.025241 1.016084 1.025823 1.038551 0.981093 1.023367 1.022410 0.979842 0.905486 1.031013 1.141157 1.147967 1.083890 1.147424 1.108464 1.016259 0.614945 1.054821 1.136228 0.967137 0.972322 1.132866 1.161716 1.120277 0.967769 0.991500 1.161103 1.014688 0.937244 0.944590 1.046070 1.070529 1.050477 1.066077 1.059453 1.083305 1.071215 1.043473 0.984731 1.034369 1.031755 0.966101 0.964117 1.013522 0.981114 0.960935 0.970391 0.910056 0.915187 1.063365 1.089983 1.010362 1.028042 1.023315 1.037345 1.092299 1.033951 1.120545 1.014673
1.080965 1.088630 1.010826 1.019952 1.077783 1.031069 1.010318 1.063837 1.034852 1.016128 1.071012 1.136349 1.078627 1.120925 1.034956 1.145632 1.036562 0.927623 0.904361 0.977133 1.055252 1.087415 1.098328 1.132236 1.111407 1.137609 1.138911 0.983020 0.918888 0.729585 0.774228 1.119327 1.209789 1.034408 0.764465 0.571736 0.832141 1.082212 1.062366 1.090492 1.156994 1.101784 1.051340 0.986011 0.973028 1.029627 1.114059 1.047125 1.009976 1.014644 1.032347 1.005977 1.031364 1.016507 1.067108 1.065138 1.058612 1.058633 1.058672 1.037650 1.014761 1.017945 1.022050 1.018599 1.002710 0.938473 0.857187 0.926250 0.981482 1.010540 1.039427 0.979418 0.994209 0.994952 0.983093 0.989664 1.005878 1.020897 1.017544 1.023239 1.010721 0.943973 1.033897 1.047139 1.006570 0.998856 0.995067 1.020850 0.993975 1.065410 1.029272 0.980655 0.985852 1.009992 1.031197 1.026353 1.027073 1.029949 1.014986 1.003271 0.990861 0.990104 1.006683 0.989656 1.003061 1.007216 1.021532 1.015535 1.027689 1.025744 0.997547 1.022035 1.032414 1.011174 1.003970 1.021145 1.032878 1.029147 0.988295 1.020444 1.068376 1.051743 1.018537 1.000524 1.043483 1.056831 1.084045 1.046010 0.985377 1.053363 1.034235 0.991101 1.048889 1.092154 1.064814 1.075334 0.999143 1.028532 0.847735 0.717104 0.844640 1.202161 1.177334 1.098062 1.070068 1.054479 0.927832 1.150020 1.033689 0.961176 0.998804 1.003652 1.007804 1.016742 1.043216 1.070905 1.069365 1.067757 1.062545 1.023424 1.059039 1.043238 1.072709 1.074216 1.058394 1.072122 1.084189 1.153708 1.099491 1.075160 1.180899 1.111552 1.019239 1.108227 1.059672 1.102199 1.180436 1.094860 1.128371 1.204953 1.218909 0.890605 1.025099 1.266599 1.249322 1.171534 1.213888 1.147543 1.174633 1.170723 0.981193 0.692549 1.069241 1.102266 1.090642 1.095169 1.077916 1.059422 0.991933 1.013276 1.040882 1.063353 1.065307 1.042510 0.896891 0.884549 0.976545 1.019296 0.999667 1.041056 1.069477 1.082159 1.115144 1.125961 1.150872 1.170591 1.173457 0.970432 0.750651 0.964188 1.179866 1.214624 1.133394 0.913158 0.641767 1.199650 1.257984 1.194090 1.206964 1.217697 1.277162 0.903539 0.642313 0.863169 1.116170 1.145255 1.129651 1.160604 1.185034 1.281423 1.200385 0.635177 0.782952 1.220900 1.225159 1.187046 1.307422 0.643597 0.655382 1.127149 1.265581 1.098086 0.940207 1.013864 1.054380 1.111738 1.043618 1.037923 1.197467 1.131946 0.985152 0.974383 1.046657 1.156200 1.160672 1.144347 1.090338 1.072460 0.945179 0.836959 0.651424 0.665171 1.204709 1.284594 1.212032 1.151694 1.240963 1.237301 1.098635 1.164085 1.151231 0.676567 0.946729 1.155346 1.222004 1.147709 1.094057 1.092432 1.051849 1.064865 1.056916 1.088833 1.124981 1.120809 1.121040 1.087877 1.062138 1.015244 1.062821 1.013189 1.035001 1.041265 1.061522 1.056094 1.087652 1.091528 1.073178 0.933684 0.879832 1.036591 1.037788 1.024660 0.998887 1.034697 1.020151 1.030446 1.026191 1.013443 1.024450 1.019373 1.010328 1.027260 0.987940 1.063918 1.042687 0.966003 0.969007 0.960095 0.876047 0.866580 1.136329 1.157442 1.160824 1.182284 1.177778 1.108299 0.553057 0.675344 0.955203 1.078228 1.138656 1.120069 1.166012 1.139608 0.937020 1.134143 1.178142 0.880001 0.824006 1.080627 1.096717 1.116943 1.117975 1.108933 1.095851 1.059235 1.048950 0.988925 0.977664 1.025026 1.050527 1.037231 1.006368 1.015762 1.011200 0.989524 0.941944 0.938090 0.859389 0.958478 1.086511 1.054387 1.044302 0.940495 0.984469 1.120575 1.061673 0.965462 1.089500
1.082799 1.030760 1.067056 1.029835 1.003793 1.139426 1.049440 1.046986 1.077891 1.088239 1.104066 1.162522 1.061868 1.055903 1.100291 1.077090 1.074865 0.875484 0.849874 1.040325 1.034154 1.018419 1.096116 1.138591 1.084815 1.004635 1.127681 1.197899 1.157710 1.076628 0.797495 1.247072 1.244202 1.017973 0.714224 0.849893 0.909679 0.986991 1.144609 1.136736 1.183215 0.996569 0.957932 0.973498 1.078242 1.135057 1.110614 0.976143 0.994834 1.052916 1.071380 0.986985 1.049584 1.014631 1.010666 1.004624 1.011750 1.046426 1.059980 1.055005 1.048206 1.005457 1.000961 0.989253 1.003288 1.019889 0.984786 0.945366 0.968580 1.044285 1.025112 0.942404 0.986440 1.006113 1.022550 1.030170 1.030694 1.041879 1.032794 1.016878 1.000265 0.966038 0.942501 1.072691 1.023603 1.013584 1.020029 1.003759 1.056445 1.078059 1.028582 0.936549 0.993319 1.000464 1.016870 1.024815 1.030791 1.016437 1.027277 1.029260 1.029149 1.023876 0.966445 0.974521 0.998459 1.014479 1.026041 1.030889 1.031447 1.023806 1.013471 1.027452 1.022878 1.001356 1.009408 1.024137 1.039769 1.041423 0.988933 0.947719 0.977507 1.009490 1.054209 1.105029 1.078328 1.084702 1.088377 1.048947 0.990095 1.034262 1.018558 1.072821 1.077964 1.118558 1.000090 1.124944 1.094181 0.981579 0.807055 0.801647 1.181275 1.223622 0.918115 0.955752 1.068422 0.975992 1.051775 1.155273 0.980946 0.896336 1.028160 1.027807 1.018481 1.052907 1.050444 1.037063 1.040002 1.066112 1.076060 1.051942 1.044966 1.029937 1.069305 1.074420 1.084582 1.076937 1.065336 1.171544 1.091064 1.075615 1.093533 1.125540 1.084612 1.136868 1.134755 1.096374 1.209582 1.143656 1.116943 1.217476 1.069219 0.769527 0.850491 1.251768 1.238078 1.174524 1.103640 1.106695 1.177367 1.178684 0.869093 0.926870 1.110095 1.085102 1.128301 1.094106 1.023366 1.059806 1.014050 0.988520 1.013625 1.029412 1.064789 1.055449 0.987972 0.940737 0.961043 0.989105 0.984162 0.958425 1.001639 1.068521 1.104891 1.056681 1.152133 1.070385 1.169509 1.117847 1.004124 0.969774 1.213279 1.216587 1.174505 0.936945 0.619756 1.224912 1.222420 1.195197 1.228266 1.204105 1.280164 1.289263 1.102108 0.556237 1.104458 1.157608 1.170015 1.191228 1.185216 1.284149 1.091332 0.632515 1.061339 1.291722 1.250865 1.162134 0.925128 0.696384 1.284086 1.223846 1.223186 1.167728 1.077651 1.056138 1.009420 1.080680 1.135679 1.170797 1.198504 1.173714 1.141562 1.117033 1.147343 1.157006 1.165976 1.043157 1.121434 1.138463 0.979384 0.792154 0.500318 1.124490 1.292091 1.214638 1.137782 1.256235 1.247394 1.240455 1.030434 1.172362 0.932909 0.781899 1.026865 0.960813 1.026689 1.038776 1.070654 1.105503 1.065343 1.032206 1.071533 1.118505 1.121425 1.109333 1.016755 1.051740 1.051492 0.995006 1.070566 1.038145 1.059677 1.020897 1.005565 1.014289 1.045187 1.082871 1.092607 0.941166 0.935358 1.004111 1.026316 1.020056 1.010388 1.052153 1.006716 1.010490 1.022379 1.029887 1.018409 1.009746 1.028038 1.049146 0.964066 1.008253 1.081801 1.026178 0.966259 0.960758 0.853385 0.771536 0.937324 1.098602 1.180320 1.064981 0.992320 1.165770 0.732840 1.021695 1.087973 1.156448 1.194448 1.146940 1.085893 1.111090 0.870002 1.130361 1.033925 0.817852 0.908553 1.096822 1.150244 1.135946 1.103478 1.045032 1.061388 1.068486 1.049654 0.984528 0.984710 1.013264 1.030540 1.038803 1.032537 0.999296 1.019001 0.985247 0.978631 0.966099 0.928746 0.861860 0.840341 1.018156 1.054291 0.912392 0.919277 1.120128 1.066416 0.935739 0.930603
1.039244 0.976696 1.017242 1.131057 1.029178 1.059054 1.117221 1.016502 0.977220 1.026781 1.110170 1.181031 1.035729 0.981010 1.127675 1.101427 0.994829 0.641615 0.740485 0.981118 1.059152 1.069684 1.103131 1.146135 1.073783 1.057253 0.949999 1.032502 1.070278 1.141065 0.890094 1.267756 1.261485 1.096132 0.820032 1.244605 1.238393 1.163308 1.214227 1.201370 1.093105 0.933375 1.035788 1.121817 1.151640 1.082932 1.075467 0.955599 0.976173 1.109437 1.055570 1.028406 1.037373 0.993817 0.988423 1.026040 1.043939 1.019941 1.041601 1.026808 1.060091 1.055702 1.055826 1.057554 1.002074 0.995756 0.983884 0.972455 0.967415 1.040895 0.994331 0.985839 1.012464 1.004881 1.025749 1.033123 1.045230 1.032040 1.033758 1.061537 0.978297 0.948001 0.911538 1.041809 1.066288 1.057923 1.037970 0.984417 1.093839 1.063003 0.974653 1.005041 1.019571 1.002124 1.002110 0.996673 1.002874 1.006506 1.005829 1.006276 1.032152 1.029177 1.006517 0.978445 0.986651 0.991775 1.003604 1.002351 0.999575 1.007950 1.015078 1.007361 1.001409 0.995797 1.009992 1.028289 1.039075 1.030692 0.993633 0.999126 0.925774 0.962795 1.079453 1.078732 1.031643 1.061284 1.073179 1.031322 1.031582 1.015170 0.994388 1.128357 1.107893 1.093450 1.019421 1.094075 1.099432 1.116281 0.858345 0.706026 1.241385 1.091844 0.640064 0.743566 0.769828 0.934314 1.081118 1.159410 1.067350 0.865681 1.045474 1.010862 1.065122 1.054870 1.062542 1.042604 1.064271 1.042553 1.026755 1.069025 1.076218 1.063938 1.011499 1.016262 1.052163 1.062341 1.081950 1.071998 1.080136 1.078515 1.079570 1.052335 1.157389 1.092566 1.051084 1.063130 1.189030 1.058359 1.152074 1.083727 1.095161 0.748937 0.513224 1.013649 0.871993 1.008423 1.047387 1.134250 1.157608 1.099814 0.830895 1.014824 1.130609 1.097312 1.095179 1.029626 1.005686 1.064350 1.040692 1.020155 0.939590 1.001123 1.073595 1.067672 1.075654 0.962620 0.963085 0.992965 0.988319 1.005397 1.040527 1.099493 1.080658 1.075341 1.063005 0.959418 1.039997 1.021933 1.022182 0.935448 1.205173 1.220561 1.185152 1.021330 0.602178 0.954374 1.191959 1.196388 1.229032 1.170279 1.254683 1.176964 1.082836 0.788605 1.306715 1.127948 1.202844 1.160108 1.191827 1.289310 1.012452 0.522598 0.966868 1.002717 0.715462 0.948662 1.159413 1.078591 1.061089 1.168123 1.158621 1.083471 1.135423 1.091723 1.132433 1.176689 1.193393 1.201075 1.197179 1.153948 1.160498 1.126195 1.160583 1.159449 1.127590 1.012103 1.064175 1.171755 1.177952 1.006309 0.666782 0.626475 1.298784 1.257793 1.255065 1.272280 1.250599 1.137087 0.778253 0.887274 0.785488 1.136337 1.191088 1.140148 0.934771 0.999104 1.048379 1.011715 1.047137 1.104817 1.129738 1.127570 1.108959 1.029184 1.019259 1.038065 1.069355 1.037436 1.057317 1.041158 1.036470 1.009963 1.032260 0.997584 1.003856 1.060268 1.079600 0.939690 0.886050 0.954320 0.986828 1.001701 1.056343 1.033052 1.009712 1.019662 1.024707 1.011113 1.021465 1.018761 1.026393 1.026068 0.931968 1.001653 1.087918 1.091995 1.007536 0.983390 1.002168 0.833442 0.884983 1.198951 1.180840 0.997138 0.774591 0.833424 0.795326 1.127630 1.193613 1.211136 1.205986 1.185491 0.887017 0.983085 0.998863 1.130118 0.864604 0.686130 0.984202 1.110017 1.133272 1.139174 1.056265 0.948860 1.045625 1.056681 0.981171 1.008070 1.040904 1.024556 1.020856 1.034726 1.039726 1.033504 1.016660 1.026885 0.999319 1.000149 1.011423 0.986118 0.925614 0.863718 0.853494 0.854256 0.821459 0.919799 0.909468 0.855623 0.807059
1.069798 1.011585 0.919268 1.152804 1.104750 0.950579 1.020363 1.049027 0.924718 0.860236 1.140724 1.162869 1.051867 0.922346 1.139769 1.097989 1.038103 0.601410 1.050702 1.201589 1.107986 1.078832 1.138896 1.153247 1.124662 1.104465 1.009863 0.821200 0.845320 0.887694 0.965558 0.653107 0.678939 0.629740 1.114601 1.254468 1.240313 1.236478 1.155611 1.022345 0.981588 1.084635 1.167943 1.162446 1.120697 1.092640 1.086251 0.992796 1.024006 1.141103 1.040156 1.041554 1.061082 1.059695 1.049834 1.035802 1.050992 1.010073 1.035706 0.996621 1.052253 1.054058 1.062667 1.053482 1.054424 1.045615 1.029700 0.988651 1.031271 1.042076 1.010781 1.010551 0.985147 0.991551 1.015389 1.030960 1.042539 1.030648 1.026437 1.096182 1.076966 0.940881 0.863103 0.868721 1.058363 1.060885 1.048743 1.049786 1.112463 1.059920 0.908400 1.000252 1.020337 1.028945 1.023862 1.031708 0.994458 0.993934 0.994665 0.958746 0.992025 1.027499 1.029896 1.020335 0.997792 1.013387 1.022544 0.993338 0.971598 0.971616 0.973638 0.989209 0.984594 0.986587 0.978996 1.002409 1.011209 0.999324 0.995803 1.015767 1.019430 0.899772 0.941985 1.020784 1.016376 1.031962 1.059507 1.029329 1.044717 1.020046 1.071149 1.097776 1.104027 1.052883 1.032036 0.937580 1.006649 1.185253 1.012485 0.695204 0.776495 0.865206 0.971911 1.164033 1.183407 1.127463 1.176318 1.166698 1.117176 0.859689 1.045893 1.146041 1.077416 1.058237 1.083637 1.075543 1.061740 1.073518 1.069804 1.074311 1.077571 1.074178 1.004294 1.014407 1.046417 1.051993 1.049947 1.012858 1.059458 1.070119 1.091553 1.056062 1.134801 1.081994 1.049924 0.983396 1.113896 1.178450 1.231237 1.237388 1.293041 1.194888 0.597376 0.704588 1.100640 1.167931 1.141988 1.177128 1.173377 1.131943 0.896670 0.971112 1.106888 1.075231 1.032605 1.046893 1.048678 1.041801 1.032879 1.066685 1.000902 0.930084 1.001717 1.033818 1.071438 1.044116 0.998917 1.006212 1.047888 1.113501 1.134957 1.073268 0.925789 1.010099 1.033388 0.926982 0.907291 1.101684 0.859105 0.998216 1.196439 1.227511 1.237717 1.115801 0.865613 0.623537 1.171520 1.259720 1.067913 1.013249 1.308127 1.101026 0.883753 1.022993 1.121710 1.139245 1.199392 1.205130 1.279729 1.298213 1.073783 0.517643 0.968222 1.125480 0.960877 1.203546 1.286596 1.275935 1.163346 1.144540 1.184884 1.100876 1.119150 1.064850 1.185810 1.206744 1.204012 1.172536 1.091094 1.049756 1.116526 1.098107 1.162024 1.166112 1.072567 0.915437 1.027411 1.165236 1.186545 1.218998 1.042155 0.527565 0.997227 0.935496 0.838524 0.782882 0.737256 0.734634 0.899205 1.198690 0.759398 0.810052 0.969477 1.120476 1.084046 1.055347 1.071715 1.039851 1.130669 1.130954 1.127040 1.087413 1.067468 0.941042 0.985734 0.982409 1.094546 0.996065 0.955617 0.994318 1.039403 1.052601 1.043212 0.990447 0.996282 1.036764 1.075687 1.016659 0.897498 0.984294 1.028786 1.058161 1.030668 1.008119 1.019088 1.023397 1.016347 1.024425 0.997813 1.010997 1.022142 1.004417 0.928993 1.026685 1.062541 1.091549 1.087513 1.031058 0.996052 0.823293 0.839454 1.161267 1.112033 0.972509 0.581483 1.100645 1.202261 1.202792 1.073014 0.908841 0.954898 1.022334 0.839071 0.941742 1.118524 1.041811 0.853081 0.888149 0.920713 0.953225 1.082303 0.965574 0.924023 0.888416 1.017936 0.931957 0.934467 1.026028 1.046706 1.019056 1.005985 1.025956 1.028544 1.052178 1.003626 1.016489 1.010987 1.007779 1.022248 1.011780 0.989553 0.983573 0.975359 0.965190 0.963659 0.914718 0.748676 0.996516 1.010708
1.098598 1.100447 0.934071 1.178409 1.143856 0.890107 0.788320 0.820596 0.720053 0.984141 1.225703 1.215544 1.151260 0.736594 0.944090 1.234595 1.121491 0.629694 0.974769 1.092391 1.119697 1.063747 1.126226 1.140532 1.087387 1.100967 1.058319 0.962695 0.680181 0.613535 1.159376 0.748125 0.854898 0.974024 1.106340 1.112207 0.972783 0.684548 0.709174 0.817026 1.092734 1.178923 1.172043 1.097097 0.998734 0.983384 0.976673 0.916708 1.087790 1.154132 0.890366 1.036068 1.075584 1.099061 1.078188 1.012841 1.036089 1.016989 1.034474 0.990319 1.011156 0.970120 0.979924 1.052014 1.060796 1.054013 1.045895 1.041634 1.033381 1.016412 1.024378 1.026349 1.022953 1.045529 1.037810 1.018941 1.047506 1.022047 0.990672 1.032063 1.137274 1.051932 1.006652 0.830908 1.041692 1.062556 1.062386 1.124719 1.069588 1.098431 0.901557 1.009676 1.031214 1.059699 1.034165 1.057149 0.999104 1.000218 0.984279 0.963561 0.981550 1.017676 1.015682 1.030620 1.029302 1.030434 1.032059 1.023174 1.006915 1.003099 1.016228 1.027443 1.033264 1.026490 1.018853 1.005559 1.016499 1.029557 1.015939 1.024487 1.079441 0.955298 0.875924 0.938884 0.913904 0.980964 1.033190 1.043748 1.053787 1.081276 1.055869 1.069171 1.071874 0.996592 0.993016 0.932074 0.834278 1.213926 1.174865 0.966017 0.702677 0.834205 1.189699 1.199906 1.105114 1.056908 1.153360 1.181261 1.081398 0.843155 1.086258 1.131341 1.008072 1.002287 1.003395 1.083579 1.004454 0.961186 1.010177 1.085579 1.085070 1.081479 1.087139 1.087861 1.069487 1.073707 1.076021 1.041039 1.068870 1.092300 1.070867 1.014563 1.056975 1.118899 1.120617 1.034988 0.882827 0.924291 0.972698 1.151799 1.277233 1.239660 0.769636 0.480081 0.790788 1.027557 1.063604 1.152125 1.173824 1.162767 1.002748 0.818737 1.089454 1.138589 1.104031 1.062147 1.092432 1.047756 0.988867 1.069856 1.045415 1.011954 0.959559 0.948574 1.076126 1.074665 1.053349 0.987840 1.083085 0.977716 1.022323 0.987890 0.969435 0.959486 0.977342 0.880311 0.784035 0.767624 0.634568 1.022158 1.194540 1.225681 1.238304 1.091172 0.927019 0.495110 0.580692 0.691529 0.530613 0.931536 1.238633 1.195646 0.677374 0.964832 1.190283 1.264147 1.251439 1.221530 1.095273 1.099302 0.730984 1.036747 1.112378 1.205527 1.234261 1.267399 1.202734 1.244784 1.185718 1.111427 1.117945 1.043860 1.113202 1.118860 1.214472 1.213941 1.103783 1.139381 0.962209 0.954622 1.042509 1.146018 1.174458 1.174903 1.194598 1.045228 0.832539 1.181891 1.191279 1.268509 1.278782 1.043086 0.467660 0.619050 0.774812 1.054856 1.162283 1.130747 1.162020 1.242047 0.918970 0.813523 1.005980 1.100150 1.135577 1.076973 1.082935 1.069070 1.133232 1.133037 1.120375 1.118248 1.156563 1.017290 0.865676 1.043318 1.150205 0.871673 0.968445 1.069945 1.095035 1.086160 1.028865 1.017327 1.022011 1.029075 1.074854 1.069160 1.011155 1.051202 1.055385 1.020316 1.008072 1.025225 1.049406 1.041735 1.020404 1.055711 1.026330 1.026315 1.009387 0.950912 0.940272 1.037046 1.077255 1.097091 1.065918 1.045698 1.013920 1.094691 0.854069 0.806611 0.900002 0.865639 0.894095 1.059026 0.992329 1.110933 1.126171 1.040604 0.849708 0.656490 1.022411 1.037130 1.096396 0.994849 0.871159 0.963621 0.936640 0.913300 1.030764 0.977954 0.921165 0.871616 0.826622 0.775988 0.894962 1.028094 1.042501 1.009360 1.006337 1.017867 1.008646 1.047535 1.024440 1.017856 1.034597 1.014602 1.023422 1.019040 1.001362 0.970088 0.934770 0.988696 0.928471 1.029294 0.981476 1.114952 1.070931
1.011533 1.087176 0.961371 1.049980 1.161918 1.112368 0.966182 0.846876 0.706856 0.663748 1.119671 1.244351 1.248334 1.038014 0.740439 1.010395 0.988819 0.812114 1.057911 0.877555 1.092264 1.161065 1.154660 1.158778 1.055607 1.100542 0.915977 0.865217 0.809115 0.539551 0.904039 0.470811 0.965422 0.928756 1.056286 1.112020 1.029836 1.083635 0.946621 1.016243 1.187657 1.183003 1.169070 0.910405 0.875111 0.825586 0.859225 0.984743 1.106829 1.169578 0.834042 1.009662 1.077227 1.093245 1.012880 1.014149 1.013938 1.057301 1.057122 1.059550 1.014937 0.967156 0.970176 1.060181 1.005700 0.976379 0.961496 0.977335 1.041834 1.032793 0.996988 1.011907 1.037756 1.048984 1.022459 1.023205 1.043466 1.020527 0.992397 0.983766 1.112139 1.134194 0.967806 0.877586 0.926750 1.103318 1.087149 1.128873 1.021692 1.047510 0.930769 1.035030 1.078430 1.067240 1.040691 1.049789 1.007310 1.005441 0.986608 0.959546 1.019500 1.024078 0.993137 1.013963 1.022540 1.002698 0.995534 1.018548 1.040736 1.041891 1.024327 1.036108 1.031183 1.027637 1.034845 1.034407 1.035685 1.035582 1.041873 1.017976 1.042972 0.943412 0.875795 0.934767 0.946629 1.029848 1.073915 1.060411 1.073074 1.092414 1.024433 1.123803 1.042326 0.989203 1.033131 1.004328 0.833852 1.100026 1.232682 1.048595 0.824036 1.114728 1.155787 1.070805 1.042251 1.151628 1.107383 1.117076 0.858367 0.988050 1.139374 1.123788 0.958373 0.999018 1.104032 1.110140 0.927682 0.976717 0.967740 1.090306 1.062537 1.097511 1.095241 1.085159 1.088542 1.077435 1.071495 1.043529 1.054587 1.035831 0.989621 1.033437 1.173912 1.181130 1.179083 1.144245 1.063361 0.844410 0.585711 0.611861 0.685543 0.719393 1.032000 0.893833 0.718559 1.022187 1.046656 1.169994 1.191246 1.156927 1.004856 0.712695 1.042193 1.138817 1.107373 1.102717 1.079523 1.052495 1.023466 1.027375 0.989567 1.036608 1.030012 0.932502 1.020523 1.018035 1.076854 1.056753 1.086321 0.913573 0.902872 0.935270 1.028058 1.021908 1.052017 0.959418 0.812590 0.707720 0.591834 1.162631 1.251308 1.242672 1.250586 1.110556 0.939613 0.700234 1.132748 1.156687 1.083725 0.789303 0.744400 1.044441 1.102982 1.092879 1.109002 1.063049 1.055064 0.969350 0.697500 0.889489 1.053233 1.165382 1.302736 1.192705 1.145067 1.170681 1.178492 1.138715 1.189049 1.183408 1.202019 1.081716 1.122250 1.218158 1.208846 1.137907 1.019963 1.226118 0.898223 0.802153 1.071088 1.175030 1.189760 1.188499 1.049417 1.179257 0.963475 0.857341 0.942834 0.944156 1.270483 1.202703 0.973945 1.294970 1.270908 1.254445 1.226932 1.161026 1.127271 1.223706 1.126048 0.884300 1.044270 0.978511 1.026139 1.082324 1.115885 1.137380 1.136601 1.068418 1.059160 1.060272 1.160957 1.037578 0.719818 1.074706 1.121456 0.774328 1.076384 1.041245 1.046281 1.037486 1.002695 0.991699 1.010593 1.010152 1.012736 1.051068 1.034829 1.019547 1.009353 1.014744 1.039927 1.036979 1.038348 0.987691 1.035878 1.021857 1.041792 1.010985 0.985970 0.924120 1.008767 1.044419 1.073182 1.100302 1.071931 0.979797 0.930388 0.903048 0.985943 0.919720 0.557616 0.549852 0.751036 1.094098 1.167575 1.166482 1.161156 1.175785 1.057796 0.756222 1.058970 1.098748 1.109041 0.974183 0.976157 1.004071 0.948862 0.927526 1.012941 1.014560 1.024949 1.006553 0.950810 0.939206 0.965495 0.965103 1.035844 1.027949 0.995522 0.981146 0.997261 1.026893 1.039909 1.007940 1.039424 1.034911 1.046728 1.007182 1.007526 1.055022 1.044314 0.978276 0.829954 1.071505 1.153850 1.165039 1.062683
0.905702 0.995428 0.921367 0.996720 1.193030 1.203060 1.195497 1.087344 1.101584 0.965342 0.871779 1.024308 1.192146 0.931163 0.639551 0.819929 0.778099 0.859313 1.033868 0.981224 1.098852 1.169479 1.159051 1.079477 1.019966 1.032893 1.053822 1.110143 1.114814 0.976118 0.430779 0.633348 0.871963 0.580797 0.554917 0.971675 1.251668 1.253034 1.235332 1.183710 1.142743 1.148561 1.179027 0.922315 0.790845 0.840217 1.054483 1.113254 1.182323 1.086599 0.958198 0.949040 1.001994 1.002691 0.980803 1.020033 1.025433 1.101841 1.095245 1.055457 1.057198 0.972604 1.037026 1.048785 0.977565 0.936716 0.949534 1.052419 1.051923 0.987476 0.986614 1.005320 1.019876 1.053558 1.054606 1.068365 1.073230 1.059768 1.008268 0.923800 1.105246 1.156606 0.972566 0.758238 0.828046 1.094787 1.118754 1.151218 1.029784 0.911483 0.923317 1.058245 1.098095 1.046660 1.019602 0.982428 0.978876 0.977532 0.938771 1.004118 1.069123 0.993471 1.000815 0.996519 0.992896 0.983702 1.000604 0.984440 0.992555 0.986311 0.974470 1.024046 1.014706 0.992257 0.997388 1.011067 0.979919 1.014717 1.036055 1.044982 1.037377 0.954868 0.932569 1.006804 1.015396 1.029108 1.027077 1.034061 1.091182 1.026724 1.050218 1.080182 1.009686 1.051749 1.046630 1.020168 0.957599 0.838284 1.154557 1.212922 1.156537 0.863498 0.956795 1.099330 1.140363 1.197335 1.152170 1.115488 0.954172 1.205252 1.177911 1.072479 0.872228 1.052154 1.153475 1.083409 0.917963 1.027017 1.056291 1.118584 0.903964 0.961793 0.973998 0.947719 1.036081 1.090750 1.064867 1.071621 1.066174 1.031698 1.087324 1.177868 1.182813 1.116471 1.152286 1.186277 1.082651 0.816851 0.938304 1.218369 1.114039 0.494583 1.238611 1.170620 1.010530 1.013518 1.075281 1.143531 1.139197 1.170524 1.059003 0.802337 0.973804 1.104905 1.081803 1.106245 1.085724 1.030163 1.020619 1.040623 0.979069 0.987598 1.056764 1.007344 1.042559 0.969431 0.962450 1.018679 1.076187 1.062231 0.958586 0.917035 1.004313 0.996670 1.001034 0.984456 0.965655 0.965110 0.679632 0.861263 1.222369 1.138469 1.227127 1.118713 0.898986 0.989788 1.154751 1.053153 1.196976 1.133119 0.991236 1.301681 1.123612 1.147527 1.155677 1.112298 0.709310 1.088430 1.227821 1.290143 1.289807 1.295039 1.296650 0.929176 0.839686 1.070641 1.280117 1.157307 1.197833 1.181937 1.142758 1.121601 1.205278 1.222512 1.120791 1.089589 1.066815 1.275413 0.867217 0.716281 1.084430 1.096541 1.189454 1.186009 1.071625 1.086004 1.247731 1.200336 0.898680 0.776593 1.092486 0.684518 0.950565 1.175388 1.145522 1.153213 1.242071 1.161540 1.114938 1.187425 1.182716 1.050804 1.115247 1.118175 1.139401 1.143914 1.138940 1.107904 1.110994 1.064683 1.022699 0.974867 1.179300 1.126850 0.759880 0.789756 0.844044 0.969608 1.029137 0.916939 0.919935 1.006547 1.033011 1.019613 1.007383 0.999737 1.010269 1.038448 1.013059 1.001422 1.022097 1.029518 1.050060 1.043342 1.030371 0.971762 1.049086 1.085388 1.022476 1.008098 0.935472 0.914400 0.993294 1.027022 1.057705 1.103965 1.080719 1.044740 1.029272 0.836621 0.753925 0.692964 1.013352 0.937533 0.746352 0.646768 0.943256 1.131428 1.194171 1.190252 1.131327 1.042077 0.935365 1.112330 1.175820 0.929043 1.050538 1.005758 1.027985 1.041130 1.039801 0.947101 1.021955 0.994823 0.968503 0.985642 1.032587 0.973089 1.030593 1.012550 1.011652 0.974760 1.006252 1.007200 1.039265 1.008269 1.013544 1.030525 1.049252 1.081591 1.108203 1.083970 0.940753 0.808578 0.897729 1.108939 1.147484 1.064098 0.887824
0.886679 0.881152 0.765011 0.952911 1.215005 1.122076 1.162490 1.184136 1.112352 0.801487 0.646750 0.804514 0.638649 0.966591 0.869884 1.052705 0.944014 1.073593 1.151744 1.090422 0.929996 1.057832 1.167175 1.079439 1.091704 1.017824 0.991830 0.842675 0.859498 0.714738 0.644229 1.039133 1.229671 1.174682 0.871079 0.602992 0.963030 1.065770 1.196416 1.195005 1.178483 1.167032 1.016951 0.831371 0.759285 1.043324 1.157396 1.112492 1.189240 0.993345 0.967033 0.932368 1.036651 0.942648 0.936870 1.043910 1.099018 1.020093 1.041527 1.042374 1.000768 0.923260 0.941669 0.943836 0.961575 0.968599 0.963548 1.051136 1.016079 0.940865 0.939227 0.926619 0.923236 0.999642 1.068922 1.081136 1.037000 1.028370 0.985434 0.916204 1.147868 1.166235 1.173551 1.032214 0.861219 0.878285 1.093290 1.162053 1.057737 0.874124 1.061755 1.133627 1.043059 1.000617 0.931199 0.941856 0.981270 1.031884 1.066949 1.082096 1.036397 1.015675 0.999174 0.996004 1.022535 0.990567 1.044163 1.019834 0.990269 1.021990 0.983745 1.028646 1.036887 1.021368 0.987221 0.998384 0.998060 0.987544 0.999381 1.038819 1.009398 0.955356 0.968042 1.019253 1.005663 0.957969 1.024684 1.086695 1.050223 1.007889 1.008099 1.022792 0.976035 1.025110 1.080952 0.944448 0.963560 0.652656 0.691909 0.897731 1.102028 0.686313 0.760563 1.000637 1.059657 1.091897 1.161178 1.014428 1.138201 1.218613 1.178536 0.861287 1.097338 1.185319 1.178846 1.059931 0.953380 1.050997 1.123557 1.123892 0.890898 1.036444 1.048303 1.074812 1.050200 1.093538 1.059136 1.046068 1.084726 1.068085 1.055728 1.026369 0.973773 0.990145 0.860011 0.817259 0.769424 0.833750 1.161219 1.224025 0.905714 0.655856 1.288422 1.267704 1.251235 1.216806 1.159302 1.049377 1.071788 1.167637 1.177887 0.931571 0.881730 1.065279 1.075768 1.091847 1.052804 1.055337 1.031210 1.069125 1.098697 1.055668 1.066108 0.995275 1.022713 1.029929 0.984092 0.988908 1.064201 1.083925 1.031297 0.906196 0.990346 1.017377 1.020415 1.045539 0.972694 0.931353 0.855811 0.652772 1.133932 1.245621 1.183750 1.124668 1.089804 1.057944 0.749983 0.840338 0.927932 0.586100 0.817394 1.105266 1.190249 1.204133 1.205547 1.242762 1.054643 1.214552 1.255757 1.277272 1.211662 1.246910 1.011193 0.944748 1.306288 1.297007 1.256841 1.146777 0.943258 0.937863 1.076911 1.179718 1.225011 1.165720 1.136080 1.018229 0.912182 1.005835 0.607193 0.971077 1.096758 1.170891 1.230103 1.174952 1.181495 1.022746 1.147561 1.265649 1.246465 1.026385 0.833185 0.943050 1.043168 1.027691 1.054047 1.032918 0.958097 0.889176 0.957246 1.068770 1.164272 1.123681 1.161214 1.147686 1.146097 1.142919 1.127468 1.125183 1.119864 1.091563 0.908433 0.851324 1.159841 1.062235 0.820196 0.921885 1.062319 1.102418 1.145699 1.112875 1.105733 1.101730 1.075111 1.040510 1.042035 1.003612 1.031906 1.045266 1.025086 1.027871 1.056229 1.027080 1.016678 1.014269 1.032213 0.985205 1.027028 1.131848 0.997251 0.884999 0.871646 0.991533 1.082825 1.054960 1.068277 1.099323 1.098199 1.121780 1.111560 0.999802 0.808795 0.672584 1.246748 1.206501 1.085922 0.917123 0.824813 0.968779 1.070230 1.156878 1.173880 1.157320 1.037674 0.929192 1.141799 1.043417 1.007018 0.917909 1.074460 1.104402 1.069885 0.941002 1.028028 1.079085 0.965733 1.039829 1.047829 1.037026 1.034109 0.984498 0.988843 0.955703 1.000575 1.020182 1.030698 1.010114 1.014930 1.038531 1.066431 1.066756 1.012355 0.915348 0.896842 1.071376 0.957384 1.110660 1.131798 0.899134 0.894843
1.025850 0.902984 0.788921 0.736660 1.125563 1.093872 1.172666 1.151019 0.953450 0.838593 0.860252 0.891414 0.627790 1.278786 1.106567 1.138974 0.897722 0.943909 1.115567 1.129826 1.072687 1.165499 1.172581 1.070977 1.084729 0.918748 0.798338 1.051280 1.175484 0.908159 0.833547 1.095555 1.261651 1.261503 1.137501 0.678543 1.272775 1.032623 1.175068 1.155171 1.216603 1.163332 0.940526 0.659240 0.967904 1.148907 1.130182 1.080299 1.199179 1.033818 0.995544 0.941708 1.059365 0.929697 0.817169 1.060342 1.113167 0.969050 1.021178 1.031244 0.897548 0.746601 0.782870 0.997155 1.039908 1.019182 1.023008 1.051256 1.019786 1.020151 1.058892 0.997758 1.006996 0.931579 0.998895 1.055228 1.018424 1.012429 0.946627 0.822652 1.098490 1.178036 1.160973 1.128160 1.041638 0.832333 0.966322 1.143574 0.920640 0.987199 1.177108 1.008319 0.883782 0.937288 0.907204 0.977969 1.034792 1.063061 1.092318 1.049349 1.028703 1.010857 0.995202 1.042963 1.042480 0.980963 1.017439 1.027669 1.017847 1.023665 1.021539 1.014327 1.006251 1.035113 1.021031 1.026840 0.991507 0.892278 0.973652 1.037265 1.016235 0.958780 0.984572 1.061458 1.009640 0.960282 1.061348 1.032026 0.991235 1.043871 1.040092 1.020268 0.998729 1.070892 1.020970 1.025143 0.982597 0.881829 1.061649 0.872141 0.659730 0.554119 1.074366 1.147412 1.142703 1.161895 1.217394 1.024584 0.705462 1.109634 1.122257 0.780654 1.110045 1.200663 1.194396 0.930442 1.051571 1.120605 1.155682 1.144090 0.916769 1.036959 1.054096 1.045457 1.041399 1.086664 1.092149 1.062462 1.074138 1.036457 1.036328 1.079042 0.998722 1.060475 1.107511 1.101245 1.075302 1.183562 1.189850 1.188894 0.757838 0.899973 1.206703 1.226276 1.244182 1.195583 1.156407 1.083666 1.049452 1.190306 1.199626 0.926364 0.823946 1.111233 1.122841 1.100268 1.100642 1.109139 1.102497 1.055063 1.048430 1.080861 1.089105 1.065031 1.044521 1.033790 1.013235 1.010834 1.031566 1.079013 1.042026 1.023173 1.095725 0.964035 0.967537 0.980092 1.020554 0.986426 0.973222 0.853066 0.748948 1.165104 1.239126 1.199190 1.185230 1.007264 0.594178 0.702015 0.941387 0.623668 0.469290 1.060963 1.175101 1.194497 1.099887 1.224669 1.033459 1.070462 1.217364 1.242514 1.062142 0.774501 0.919500 0.658949 1.035841 1.169016 1.247813 1.005614 1.146121 1.254073 1.144084 1.186503 1.230241 1.132715 1.141607 1.018797 0.798698 0.571434 0.606645 1.083627 1.200393 1.116534 1.240109 1.204658 1.207778 1.029887 1.182192 1.066159 0.828024 1.006144 1.243440 1.207407 1.167151 1.129700 1.120023 1.140604 1.147590 1.066086 1.075173 1.131006 1.134177 1.066885 1.092166 1.152610 1.129532 1.111210 1.091784 1.151180 1.089563 1.161897 1.135107 0.817576 0.856227 0.914865 0.817858 0.997060 1.052412 1.021852 1.024883 1.066587 1.081551 1.028601 1.016710 1.041231 1.036731 1.022223 1.015079 1.035793 1.040607 1.052240 1.027868 1.019714 1.061381 0.996561 1.008614 0.988151 1.031383 1.133130 1.003578 0.740763 0.894832 1.031113 1.054282 1.036258 1.072460 1.109176 1.087024 1.024790 1.163298 1.187409 0.952680 0.534928 1.032284 1.060908 1.176598 1.138119 1.030512 1.053197 0.912396 1.021227 1.138638 1.159051 1.138475 0.916814 0.954183 1.135660 1.123804 0.861723 1.058953 1.112865 1.057321 0.973794 1.054897 1.066950 1.050054 1.044368 1.040676 1.036580 1.033027 1.018789 1.018733 0.988777 1.012518 1.027081 1.016326 1.023808 1.015078 1.006884 1.018018 1.004737 0.936495 0.884625 1.005953 1.092573 1.016194 1.072416 0.985436 1.030997 1.143940
1.065761 0.999087 0.958676 0.811184 1.090735 1.205180 1.170634 1.181189 1.098102 1.100380 1.110090 1.124646 0.730839 1.006830 1.217692 1.202222 0.906052 0.943558 1.120915 1.105665 1.059944 1.163505 1.177990 1.139726 1.202279 1.183326 1.005485 1.039686 1.123756 0.983304 0.773358 1.106184 1.233907 1.180711 1.063382 0.633274 0.700784 0.903725 1.106763 1.156071 1.161583 1.156051 0.950608 0.742568 1.149868 1.021252 1.055721 1.147585 1.140203 1.060770 1.001758 0.928524 0.905541 0.821483 0.888299 1.140728 1.171009 1.011608 0.891240 0.912385 0.827222 0.888950 0.935821 0.987498 1.036909 1.022982 1.043225 1.053601 1.006616 1.017258 1.030075 1.057546 1.053827 0.972998 0.900268 0.987640 0.998434 1.012445 0.952137 0.809307 1.117673 1.196017 1.088261 1.053684 1.140962 1.004193 0.788210 0.910347 1.034733 1.179469 1.004870 0.850124 1.036594 1.073462 1.025260 1.059606 1.113541 1.100643 1.051779 1.011807 1.045299 1.006998 0.981259 1.066013 1.064986 0.983245 0.996738 1.058257 1.038955 1.004884 1.033256 1.024770 1.011163 0.987484 1.052691 0.950844 0.944556 1.011038 1.035250 1.040407 1.037313 1.006178 1.009635 1.073446 1.025241 0.999948 1.008749 1.054856 1.028574 1.094652 1.074476 1.017551 1.003571 1.017903 1.083409 0.954093 1.018312 1.113455 1.141656 0.984257 0.723699 0.706610 1.211118 1.242076 1.233668 1.222955 1.228398 1.139307 0.709042 1.140900 0.873169 0.677647 0.996786 1.179488 1.026995 0.950004 1.129854 1.168901 1.135859 1.039678 0.883284 1.055150 1.089142 1.070450 1.025117 1.026436 1.052293 1.076063 1.058701 1.021793 1.065396 1.091110 1.100340 1.180763 1.212491 1.230814 1.244134 1.257120 1.271632 1.192139 0.713904 0.650622 0.992454 1.117063 1.194719 1.197554 1.198294 1.164782 1.161914 1.204796 1.209584 0.923317 0.780968 1.177227 1.133419 1.127624 1.108935 1.094342 1.040058 1.031871 1.019166 1.017149 0.973911 1.059661 1.029063 1.012722 1.014221 1.018080 1.014959 1.061342 1.061994 1.058703 0.927447 0.854996 0.971361 1.049019 1.102477 1.115265 1.131021 1.078671 0.757638 1.078741 1.277800 1.280751 1.081003 0.890835 0.758506 1.271270 1.276531 1.106396 0.654879 0.678023 1.093598 1.289008 1.277482 1.230020 1.150142 1.176688 1.211915 1.237599 1.007206 0.607603 0.872539 1.319538 0.633087 0.585737 0.890554 1.000235 1.279191 1.105779 1.008357 1.159698 1.236598 1.157966 1.207938 1.055641 0.799920 0.366600 0.737752 0.993964 1.164825 1.175823 1.210006 1.178061 1.174757 1.028614 1.271084 0.837370 0.590773 0.888085 1.235532 1.258374 1.267772 1.170743 1.096228 1.100987 1.095505 1.115382 1.143808 1.150374 1.119251 1.084517 1.157648 1.105031 1.033581 0.979271 0.933451 1.166990 1.020165 1.132569 1.144323 0.820476 0.539635 0.580135 0.825115 1.046728 1.036278 0.968150 0.980838 1.034558 1.042291 1.022629 1.074069 1.059338 1.025086 1.025970 0.996619 1.033598 1.058892 1.037143 1.012221 0.994211 1.056757 1.074988 1.057658 1.011633 1.045967 1.119935 0.962856 0.698752 0.881706 0.985707 1.026045 1.036778 1.089976 1.112994 1.074107 1.046954 0.974805 1.058155 1.139756 0.734888 1.235124 1.166996 1.109740 1.178652 1.123150 1.152283 1.013858 0.963242 1.008605 1.129430 1.146750 1.062785 0.860668 1.086453 1.143045 0.992304 1.005383 1.066878 1.007159 0.976366 1.069151 1.058959 1.045429 1.044476 1.038965 1.024251 1.012075 1.015327 1.011250 1.014209 1.027196 1.026392 1.010814 1.031039 1.015557 0.976700 0.950748 0.916995 0.948611 0.965141 1.063153 1.062068 1.101679 1.113644 1.119645 1.125519 1.089238
1.002399 1.033781 1.040252 0.970731 0.768342 1.120851 1.155635 1.239035 1.230639 1.153897 1.195159 1.028088 0.718881 1.079436 1.173379 1.248277 1.134454 1.052166 1.121496 1.119183 1.094858 1.178592 1.165070 1.085720 1.192637 1.227184 1.238371 1.206848 1.156473 1.104587 0.785385 0.702046 1.208462 1.261407 1.208926 0.967644 0.599658 0.559839 0.996760 1.248394 1.192878 1.141718 0.877736 0.816027 1.108353 1.024538 1.121700 1.110287 1.082602 1.111675 1.099216 1.009675 0.832791 0.842461 1.202814 1.156158 1.058865 0.982459 0.759025 0.883291 1.095858 1.136195 1.111557 1.068693 1.036761 0.988566 1.057804 1.055910 1.020670 1.027501 1.021379 1.067299 1.090106 1.117447 1.006749 0.977280 1.017631 1.014037 0.959384 0.710697 1.058126 1.213820 1.079124 1.082053 1.186073 1.133282 0.787751 1.003752 1.068252 1.098686 0.847592 1.015779 1.105487 1.125500 1.090336 1.040029 1.112341 1.092102 0.966726 1.011310 1.002591 0.968998 1.012108 1.108415 1.044108 1.011050 0.959617 1.065013 1.055632 1.031955 1.038956 1.012295 1.010572 0.978869 0.972001 0.921868 0.943374 0.987528 0.992045 1.043634 1.034573 1.010427 1.005375 1.054099 1.053280 1.050840 1.054222 0.996291 0.856277 1.023960 1.032473 1.011783 0.963584 0.985433 1.130244 1.071459 1.174136 1.114348 0.922578 0.910929 0.859622 0.674247 1.201825 1.248710 1.184015 0.946038 1.116240 1.242114 0.978879 1.054164 0.709583 1.104345 1.182059 1.226756 0.722249 0.990947 1.125731 1.157728 1.169510 1.092101 0.891655 1.071484 1.077915 1.048641 1.051577 1.090166 1.078728 1.094847 1.073274 1.073012 1.104462 1.107905 1.061377 1.066902 1.022446 0.964240 0.979803 1.012705 0.863647 0.691153 0.515652 0.984270 1.236585 1.262054 1.256099 1.179367 0.974729 1.105402 1.162581 1.215977 1.221734 1.099582 0.738729 1.132975 1.067824 1.097683 1.075164 1.020894 1.022798 1.016410 1.009624 0.996957 1.026979 1.079180 1.034346 1.009993 1.008596 1.013749 1.010626 1.044492 1.054881 1.048655 1.030571 1.109708 1.166177 1.184558 1.196499 1.198824 1.148986 0.981332 0.654414 0.881282 1.262063 1.226378 0.997691 0.765215 0.980356 1.291050 1.286428 1.235490 0.871091 0.721393 1.195346 1.259339 1.217939 1.186772 1.176182 1.186212 1.213470 1.261158 1.207184 0.757420 1.285782 1.301273 1.009401 0.471952 0.850173 1.183264 1.276083 0.973453 1.097292 1.210976 1.217189 1.207540 1.218053 1.023560 0.786225 0.425184 0.738300 1.048417 1.015282 0.988646 1.249444 1.187854 1.112728 1.046463 1.290933 0.752622 0.817362 1.233249 1.019540 0.761949 0.980065 1.054329 1.055682 1.087879 1.085094 1.013524 1.016333 1.165283 1.144629 1.158497 1.148420 1.014194 1.099265 0.829384 0.931439 1.207450 1.041519 1.171651 1.205362 1.069112 0.784898 0.733711 1.049914 1.114440 1.055564 1.044767 1.113367 1.084866 1.074703 1.009671 1.059442 1.056396 1.012407 1.015356 1.032574 1.061681 1.058528 0.989855 0.987966 1.006674 1.004594 1.046434 1.073400 0.980350 1.045034 1.059783 0.930903 0.662560 0.997540 1.079762 1.087259 1.072170 1.109463 1.117121 1.116567 1.059769 1.034306 0.815486 0.919948 0.629852 1.146403 1.223892 1.185173 1.165725 1.188007 1.174451 1.081091 1.025542 0.976718 1.068517 1.131690 1.032284 0.838196 1.011337 1.132456 1.094721 1.019702 0.992962 0.988071 1.030914 1.059209 1.034449 1.025221 1.023726 1.010441 1.020718 1.030955 1.035657 1.041871 1.048241 1.043684 1.002413 0.995324 1.037975 1.032127 1.005319 0.917756 0.999735 1.070243 1.050758 1.090637 1.094937 1.084334 1.107481 1.075233 1.109287 1.095108
1.073557 1.092094 1.073775 1.026970 0.857413 0.669664 1.066960 1.245832 1.179235 1.254369 1.207446 0.836453 0.900553 1.216788 0.888010 0.974393 1.026449 1.036375 1.056364 1.087471 1.181089 1.185059 1.097193 0.902004 1.113894 1.111139 1.088134 1.232568 1.260043 1.236026 0.905922 0.908755 1.118942 1.257088 1.106232 0.974067 0.737148 0.543355 0.925153 1.248036 1.213216 1.176412 0.831334 0.644383 1.089165 1.075477 1.215428 1.119842 0.978868 1.141270 1.095661 1.104654 0.738159 0.712875 1.015346 0.909083 0.757253 0.728137 0.795504 0.929357 1.121378 1.091050 1.064752 1.067785 1.015349 0.992646 1.057012 1.056828 1.002752 0.961422 0.988492 1.035579 1.057206 1.018778 1.022042 1.019186 0.994864 0.941706 0.781747 0.800451 1.104664 1.202389 0.986105 1.015851 1.179256 1.089588 0.771204 1.115835 1.148872 1.068798 0.934548 0.953087 1.024981 1.050659 1.097756 1.123793 1.118922 1.049230 0.967984 0.994355 0.992946 1.017965 1.036037 1.106897 1.042220 1.061861 0.920485 1.060051 1.078609 1.043778 1.062003 0.978502 0.950092 0.933971 1.038479 1.031076 0.999608 0.964241 0.945014 1.010044 1.035987 1.016690 0.975163 0.981587 0.974876 0.928202 0.974340 1.082226 0.902763 0.950631 1.064391 1.063964 1.058629 1.062964 1.123781 1.117776 1.021717 0.972771 0.997862 1.041072 0.917112 0.755768 0.907040 1.236473 1.230329 0.851932 0.954814 1.264737 1.082598 0.687181 0.938963 0.981951 1.197155 1.150915 0.680902 1.156832 1.125368 1.067506 1.141206 1.037591 0.861517 0.987793 1.058606 1.067070 1.105008 1.055540 1.066873 1.097802 1.073540 1.053057 1.104297 1.095800 1.021961 1.052232 1.082373 0.962753 0.766233 0.769343 0.805044 0.816558 0.912272 0.826623 1.254139 1.235069 1.182816 1.197173 0.881142 1.101645 1.212813 1.197517 1.004362 1.205554 0.930927 0.877699 1.087998 1.097077 1.065741 1.048087 1.107794 1.018769 1.010459 1.042627 1.036798 1.082613 1.046474 1.010274 1.009405 1.012650 1.009380 1.025301 1.056045 1.065443 1.042235 1.047110 1.013401 1.007854 0.950242 0.951861 0.928115 0.883860 0.521963 0.581004 0.728920 0.699333 1.110130 1.262595 1.081042 1.175982 1.251723 1.265574 0.756890 1.008811 1.102388 1.121858 1.265618 1.266982 1.196525 1.100460 1.158830 1.240935 1.207404 0.996130 1.153555 1.294551 0.865179 0.579410 0.906520 0.811210 1.065149 1.084815 1.225758 1.205099 1.172323 1.233910 1.198868 0.978995 0.629254 1.053954 1.021363 0.836644 0.879964 1.143501 1.287294 1.163846 1.076261 1.220833 0.964657 0.604091 0.658423 1.086250 1.285188 1.218527 1.114126 1.056989 1.115056 1.162623 1.171458 1.134043 1.141351 1.164654 1.162950 1.156174 1.110400 1.049174 1.167008 1.092523 0.955874 1.228246 1.031909 1.127325 1.229988 0.900813 0.722712 1.012735 1.125137 1.160277 1.159583 1.065152 1.037773 1.124752 1.123979 1.085663 1.054172 1.004966 0.981416 1.020763 1.059940 1.065706 1.032276 1.043606 0.977368 1.005620 0.937714 1.030778 1.106826 1.027375 1.002000 0.965000 0.793941 0.771938 0.977758 0.978283 1.023118 1.073757 1.118720 1.091651 1.086377 1.053545 1.052600 1.203067 0.889555 0.592463 0.834444 1.035178 1.008849 1.026946 1.014704 1.143285 1.158571 1.148757 1.099135 1.050799 1.100585 1.029625 0.977696 0.950383 0.981012 1.084946 1.044320 1.054783 1.061759 1.055195 1.032320 1.023223 1.043936 1.051132 1.046146 1.054768 1.051228 1.053725 1.047997 1.035895 1.024538 1.018066 1.004791 1.041670 1.053042 1.030875 0.972605 1.077884 1.079526 1.083862 1.092336 1.071140 0.998468 1.026786 1.065822 1.043217 1.137641
1.075629 1.123380 1.085947 1.058313 0.940344 0.681209 1.227262 1.195185 1.092610 1.141386 0.973774 1.222165 1.159895 1.209736 1.081730 0.971386 0.917216 1.032661 1.059474 1.191373 1.184163 1.141172 1.065389 0.878423 0.852335 1.066112 0.971734 1.028158 1.129023 1.138765 0.956351 1.248628 1.165003 1.222582 1.140604 1.241535 1.033264 0.905861 0.651941 1.189179 1.205220 1.120585 0.807103 0.745539 0.779803 0.885258 1.024922 1.000081 0.758855 0.851558 0.841177 0.800771 0.775167 0.918710 0.855014 0.762597 0.842362 0.870380 0.992066 0.937498 0.996738 1.007851 1.023655 1.036097 1.002490 0.997617 1.054628 1.043095 1.077356 1.072764 1.040164 1.032286 1.006394 1.007463 1.074751 0.997192 0.863869 0.853618 0.705801 0.882283 1.169913 1.245527 0.936017 0.866764 1.217232 1.212228 0.809102 0.804698 0.997983 0.975719 1.067024 1.105179 1.064105 1.098849 1.119959 1.101123 1.043770 1.047807 1.009533 0.944668 1.048241 1.072842 1.070262 1.130196 1.074804 1.008949 0.889884 1.047725 1.084352 1.042436 0.988704 0.923825 0.895523 0.937095 1.011559 1.036737 0.931803 0.972146 0.997620 0.974806 1.027284 1.016241 0.995867 1.013202 1.032709 1.020706 1.024082 0.966207 0.884794 0.997131 1.050537 1.072366 1.062691 1.066762 1.103621 1.114439 1.015614 0.992516 1.090356 1.097157 1.075530 0.985961 0.710376 0.821098 0.849345 0.968342 0.924405 1.268475 1.090514 0.563397 1.097880 1.271706 1.248217 0.951063 0.849851 1.140694 1.064571 1.012734 1.156181 1.156274 0.933041 0.716706 1.093688 1.142284 1.085257 0.897649 1.045639 1.114946 1.099469 1.084754 1.095232 0.981337 0.963424 0.992125 1.029548 0.875943 0.994753 1.091600 0.966249 1.135381 1.092142 0.631183 0.876499 0.928532 1.113193 1.224792 0.837032 1.017543 1.244640 1.215248 0.825537 1.139243 1.033154 0.721401 1.093933 1.129069 1.153931 1.138472 1.119989 0.960397 1.030162 1.052265 1.041020 1.073815 1.068225 1.015161 1.009927 1.010622 1.009804 1.015187 1.054699 1.077509 1.033088 1.054922 1.066429 1.027108 0.962600 0.937105 0.842841 0.615371 0.835859 1.003903 0.978526 0.928685 1.138586 1.252537 1.056556 1.053489 1.113739 1.241874 0.971256 1.253709 1.191032 0.673959 0.811481 0.779074 0.874336 1.014445 1.057919 1.250575 1.233908 1.196917 1.196815 0.984306 0.982322 0.756246 0.841437 1.022795 1.185063 1.264396 1.261889 1.150733 1.207071 1.223144 1.209046 0.996474 0.654584 1.150585 1.246456 1.198005 1.099779 1.136614 1.106000 1.034029 1.142081 1.235230 0.938547 1.279110 1.245996 0.751865 0.957766 0.925944 1.060605 1.131732 1.181745 1.206957 1.201654 1.137125 1.146376 1.131271 1.098507 1.041511 0.997589 0.781286 1.061266 1.223807 1.029824 1.210448 1.072500 1.070364 1.227233 0.962228 0.705208 1.079331 1.221377 1.160109 1.129480 1.148451 1.095526 1.096615 1.016616 1.026614 1.046796 1.024551 1.014139 1.016145 1.065818 1.057645 1.040457 1.072539 0.972424 0.983594 0.820869 1.035722 1.186165 1.137216 1.050901 0.715956 0.553523 0.948534 1.037899 1.069772 1.015444 1.089741 1.122370 1.084509 1.065586 1.107783 0.899199 1.148292 0.930539 0.976765 1.165095 0.862961 0.748060 0.994503 1.012926 1.071844 1.146342 1.146637 1.133900 1.126671 1.120438 1.078232 1.040462 0.991521 1.018715 1.049441 1.049564 1.054234 1.041118 1.029496 1.034357 1.049713 1.053210 1.029758 1.032986 1.054644 1.035434 1.026877 1.041551 1.007821 1.014271 1.018524 1.022382 1.010601 1.031698 1.049610 1.030811 1.060881 0.938456 0.991951 1.012842 1.098197 1.018824 0.998634 1.051403 1.022573 1.022627
1.130000 1.082520 1.051238 1.036285 1.001272 1.000543 0.782367 0.893055 0.866692 0.675779 0.718265 1.008469 1.247826 1.244446 1.228289 1.158407 1.076567 1.073967 1.082527 1.190404 1.167428 1.031096 0.972110 0.999848 1.015880 1.017472 1.076396 0.784977 0.791648 0.639158 0.649856 1.062239 1.250522 1.225409 1.206325 1.226856 1.091970 0.947316 0.620823 1.086712 0.968895 0.808037 1.089795 1.077975 1.042243 1.017954 0.984485 1.071291 0.918180 1.043540 0.990764 0.877474 0.869112 1.004740 1.004442 0.920639 1.035397 1.079000 1.005256 0.981696 0.976554 1.070886 1.050537 1.030186 1.022295 1.060559 1.035491 0.970236 1.001614 1.065393 1.113853 1.058423 1.004688 1.046885 1.159760 1.190192 1.152670 1.042377 0.782175 0.901764 1.235551 1.255011 1.046494 0.718669 1.121057 0.944821 0.851246 0.754585 1.033671 1.070506 1.069180 1.049910 1.038800 1.070548 1.136602 1.070087 1.051072 1.065459 1.088157 0.964487 1.040359 1.071018 1.072561 1.096129 1.082473 0.963091 0.908394 0.916860 1.074060 1.080702 0.953633 0.927336 0.994314 0.993630 1.020490 1.028321 1.000196 1.004317 0.987028 1.003015 1.018459 1.011925 1.006723 1.008793 1.048796 1.012942 0.947251 0.910583 0.908810 0.963646 1.023324 1.074450 1.046225 1.101800 1.135402 1.028881 1.033979 1.017885 1.122296 1.164601 1.033914 0.911708 0.904401 0.860313 0.643011 0.609274 0.879068 1.171209 1.053777 0.559701 1.221032 1.272450 1.162590 0.645485 0.600058 1.080103 0.924786 1.035153 1.127954 1.221230 1.018425 0.784767 1.217049 1.051247 0.825147 0.807981 0.998825 1.062989 1.093040 1.096246 1.100849 0.999662 0.994391 1.014396 0.966919 0.938982 0.973687 1.160817 1.130096 1.107075 0.876990 0.931881 1.008087 1.060552 0.959780 0.913578 0.891141 1.171965 1.229860 1.209048 0.921081 0.879078 1.006835 0.842940 0.965477 1.075906 0.998767 1.001854 0.989737 0.988092 1.054497 1.045214 0.968812 1.058276 1.081000 1.037136 1.013269 1.011747 1.009847 1.010320 1.047572 1.079579 1.039336 1.027129 1.022513 1.016122 0.981950 0.958669 0.774594 0.754247 1.066599 1.120425 1.113006 1.005019 1.039050 1.227614 1.075351 1.158567 1.101080 1.157613 1.003956 1.270402 1.055362 0.825337 1.029507 0.933024 1.086467 1.116570 1.001699 1.145764 1.061786 1.177301 1.263005 1.125687 1.184881 0.696395 0.676158 1.138872 1.291537 1.205453 1.246659 1.123969 1.154120 1.207197 1.116474 0.773051 0.570607 0.892507 1.051983 1.233912 1.206984 1.127228 1.125877 1.163231 1.178986 0.845285 0.868816 1.180965 1.209842 1.206019 1.122020 1.109896 1.110760 1.159935 1.201126 1.145390 1.062271 0.893109 1.063987 1.154119 1.112259 1.122234 1.086719 1.013887 0.948753 1.136158 0.998494 1.006922 0.935260 1.025557 1.051720 0.736592 0.566524 0.865882 0.939259 0.997723 1.065905 1.085764 1.061310 1.030333 1.023862 1.010283 0.983790 1.003433 1.011057 1.034358 1.067772 1.032595 1.043335 1.068874 1.024788 1.003395 0.977141 0.888428 1.056854 1.195163 1.118988 0.743799 0.566405 1.009150 1.065170 1.107395 1.090089 1.120970 1.103581 1.105898 1.112310 1.076771 0.841350 0.953632 0.948241 1.117292 1.229753 1.116470 1.081448 1.077641 1.051214 1.052302 1.132606 0.933179 1.082081 1.058157 1.054062 1.106791 1.076021 1.028452 1.054505 1.058561 1.040167 1.043651 1.039556 1.041347 1.037453 1.027376 1.040926 1.017624 1.019418 1.031356 1.012359 1.008721 1.013198 0.999620 0.983438 1.001477 0.989659 0.994039 1.016096 1.050739 1.041572 1.002530 0.912384 0.871762 0.853895 0.956422 0.953896 0.882241 0.804016 0.932259 0.869081
1.107300 1.008999 1.021483 1.059165 1.096473 1.181246 0.767342 0.993913 1.280467 1.210589 1.121452 0.843559 0.833073 1.050572 1.191990 1.179977 1.066310 1.092956 1.194993 1.189349 1.085236 1.104377 1.146900 1.189691 1.039096 0.801362 0.572281 0.749353 1.042458 0.909016 0.964669 0.959886 0.946876 0.965948 1.218251 1.207947 1.038063 0.770729 0.785981 1.138741 0.998337 0.997191 1.153462 1.157379 1.151398 1.040399 1.013307 1.060462 1.112468 1.060049 1.040679 0.982806 0.938116 0.952488 1.085120 0.965361 1.061365 1.141491 1.079102 1.067298 1.025675 0.993702 1.021275 0.969661 1.018739 1.057305 1.020662 1.016211 1.005680 0.959649 1.113473 1.128105 1.071817 0.957539 1.016478 1.171940 1.216883 1.161566 0.996881 0.827068 0.833415 1.129473 0.794664 0.796000 0.948546 0.902283 1.108052 0.811850 0.970556 1.086565 1.200150 1.098419 1.087471 1.151013 1.132910 1.061966 1.057515 1.066781 1.048737 0.995979 0.986718 1.064633 1.061770 1.120591 1.094503 0.952656 0.946408 0.900493 0.851697 0.894835 0.794561 0.777327 0.968201 1.007046 1.047541 1.056742 1.044083 1.032434 1.019067 1.038523 1.008889 0.997876 1.025456 0.992581 1.008207 0.992987 0.956246 0.966219 0.952094 0.960380 1.024001 1.040478 1.049391 1.121331 1.085344 1.002957 1.006752 1.046362 1.164213 1.097651 0.979649 0.904972 1.083686 1.032702 0.957563 0.854679 0.929682 0.832088 0.779867 0.655232 0.918493 1.020336 1.223670 0.810961 0.474577 0.853881 0.999406 1.252150 1.230248 1.231072 0.968944 1.175359 1.215996 1.080934 0.722861 0.975564 0.928343 0.872300 1.003850 1.101672 1.096830 1.095828 1.042488 0.885336 0.945168 0.954948 1.116402 1.124333 1.089808 1.134326 1.172551 1.105938 1.076761 1.080217 1.037348 0.899201 0.842293 1.096562 1.228734 1.189575 1.114221 1.022076 0.774764 0.719845 0.702568 0.811364 0.977522 1.012812 1.089476 1.115370 1.029512 1.058133 1.055038 1.102521 1.066465 1.052338 1.025712 1.010758 1.010759 1.009759 1.040733 1.047878 1.028906 1.060270 0.985511 1.025600 1.054270 0.995412 0.776006 0.960331 1.109467 1.177970 1.129990 1.019604 1.056813 1.181135 0.991326 1.176662 1.186006 1.064778 0.984417 1.227927 0.919055 0.937471 1.193264 1.088965 1.125517 1.146073 1.114272 1.231666 1.242873 1.030385 1.154095 1.235967 1.220464 1.214421 0.998266 0.873536 1.256738 1.066631 1.234381 1.219880 1.204259 1.169800 1.077656 0.663800 0.959266 1.177594 1.103336 1.207012 1.186114 1.186628 1.179451 1.114069 0.978566 1.026170 1.099082 1.138964 1.190246 1.109721 1.067215 1.100567 1.223987 1.206557 1.187664 1.039408 0.991563 0.955334 1.182384 1.170522 1.118829 1.170412 1.181383 1.185793 1.156959 0.828131 1.059400 0.877618 0.655683 0.669979 0.759001 0.647308 0.688865 1.061594 1.189957 1.171642 1.068515 0.935550 1.069020 1.071321 1.037003 1.033149 1.027724 1.037670 1.056612 1.069040 1.047159 0.968190 1.007523 1.055444 0.947647 0.882090 1.082005 0.985827 0.944572 1.218766 1.079924 0.532429 0.757644 0.946584 1.028480 1.072624 1.078938 1.127884 1.102450 1.087265 1.060562 1.004751 0.754339 0.714050 0.724279 1.122673 1.194168 1.072270 1.094589 1.058445 1.114376 1.183554 1.114435 0.821395 0.941994 0.973551 0.985578 1.012037 1.067221 1.051695 1.033875 1.030688 1.028656 1.018093 1.030529 1.042025 1.046741 1.012823 1.031469 1.027345 1.032576 1.049109 1.004285 0.981899 1.003986 1.003685 0.991235 1.014299 1.001987 1.018105 1.047577 1.020527 1.045984 1.067673 1.042932 0.973703 1.001805 1.032192 0.997912 0.899527 0.750064 1.130507 0.951678
1.062446 1.026838 1.041710 1.089209 1.152111 0.973019 0.668823 0.969708 1.230653 1.229493 1.259346 1.191240 1.029292 1.060359 0.952205 1.069669 1.136544 1.197739 1.195179 1.170076 1.047799 1.189199 1.248160 1.241065 1.210636 0.965734 0.977176 1.197861 1.210306 1.030440 1.109559 1.179965 1.149805 0.638201 0.996853 1.211378 1.222736 1.058321 1.007241 1.148294 1.049374 1.031917 1.136228 1.078799 1.071677 1.085799 1.082779 1.118245 1.169638 1.148020 1.076564 1.033496 1.017074 1.035661 1.087149 0.983784 0.955584 1.068363 1.073767 1.082904 1.036024 1.026248 1.052884 1.026268 1.057292 1.061149 1.029547 1.047681 1.033678 0.964230 1.004123 1.144064 1.153538 1.026698 0.968410 0.889679 1.088303 1.088962 1.140665 1.256970 1.123277 0.585615 1.006751 0.626388 1.023722 1.073373 1.064624 0.956627 0.912576 1.074122 1.141961 1.095967 1.121006 1.136502 1.064556 1.061089 1.133864 1.067191 1.027610 0.995848 0.930858 1.056127 1.086932 1.112886 1.129487 1.051349 1.033086 1.043787 0.838150 0.809760 0.983711 0.978869 1.062219 1.057662 1.031639 1.072758 1.018117 1.008122 1.026592 1.008371 0.995272 0.989236 1.016385 1.019082 1.011264 1.048807 1.028052 1.003082 0.990161 0.996066 1.006043 0.988473 1.022634 1.117472 1.060738 1.020464 1.060744 1.133817 1.087049 1.020374 1.001260 1.021850 1.112217 1.078810 1.049622 1.006564 1.061334 1.041944 0.928877 0.985434 0.885442 0.647206 1.005362 1.056489 0.684212 0.972966 1.079968 1.221836 1.248399 1.207109 0.812474 1.216339 1.160486 0.961252 0.557423 0.959028 1.170587 1.103976 1.057166 1.114235 1.098200 1.099482 1.082956 1.058163 1.009236 1.015713 1.180019 1.184891 1.182284 1.213783 1.182594 1.187858 1.148928 1.283147 1.034585 0.896288 0.572950 0.974398 1.259123 1.165980 1.142510 1.038451 0.659798 0.901929 1.107633 1.195472 1.210325 1.143018 1.122689 0.995073 0.942887 0.993548 1.006590 1.060451 0.962043 1.046594 1.043652 1.010868 1.010158 1.010056 1.031718 1.054956 1.002605 1.088468 1.019324 0.961743 1.051297 0.948781 0.877123 1.072322 1.105544 1.195242 1.054089 1.096467 1.054204 1.105452 0.944207 1.174762 1.136564 0.964973 0.996956 1.190960 0.925031 1.082318 1.212405 1.179369 1.158316 1.226749 1.229478 1.234290 1.248327 1.186202 1.226766 1.271939 1.128560 1.258826 1.295710 0.709216 0.727012 1.040392 1.236628 1.178200 1.286145 1.063906 0.582324 0.744616 1.268760 1.189049 1.154382 1.173776 1.204593 1.185766 0.987839 1.149776 1.232526 1.293506 1.247457 1.089855 1.039657 0.995571 1.137251 1.225183 1.221210 1.020384 1.190466 1.142523 0.983039 0.840963 1.204579 1.097106 1.116426 1.098432 1.196463 1.178422 1.238782 0.968293 0.646203 0.542254 0.616852 1.108291 1.202129 1.090340 0.917336 0.943146 0.919434 1.029353 1.124085 1.045178 1.019299 1.084858 1.076488 1.041103 1.044973 1.069476 1.067590 1.045225 1.064216 1.027485 0.960365 1.074922 1.126205 1.038802 0.828892 0.775243 0.687361 0.918699 0.812550 0.733072 0.956127 0.985943 1.043652 1.043632 1.070679 1.133022 1.113749 1.122300 1.171694 1.195752 0.992468 0.500359 0.707453 0.886441 1.109497 1.153068 1.199198 1.082023 1.190635 1.153307 0.830054 0.931197 1.052610 0.972527 1.032374 1.048754 1.037239 1.016300 1.005058 1.029200 1.038970 1.037882 1.042322 1.045728 1.051766 1.024089 1.011004 1.017836 1.046088 1.057134 1.004959 0.937537 0.989547 1.006878 1.018476 1.017527 1.076235 1.063736 1.014525 0.978460 1.009156 1.067209 1.047034 1.052039 1.094072 1.018284 0.979757 0.874271 0.854658 1.110815 1.051497
1.063057 1.003705 0.996118 0.926676 0.896148 0.942070 0.906507 0.781888 1.224491 1.191205 1.222847 1.214854 1.192487 1.198287 1.059465 0.998303 1.188020 1.201636 1.167362 1.101438 0.906255 0.796672 0.909942 0.830463 0.630997 1.038683 1.136400 1.070902 1.121744 1.129491 1.092176 1.142444 1.165385 0.598566 1.140774 1.186654 1.209056 1.205763 1.144262 1.069992 0.988113 1.039581 1.127142 1.057681 1.061681 1.094953 1.088437 1.063164 1.111649 1.126205 1.086247 1.005462 1.042633 1.053721 1.120724 1.074129 0.881319 1.031609 1.031983 1.043806 1.036963 1.013696 1.058427 1.058705 1.057018 1.036989 1.032990 1.043832 1.036119 0.967915 0.919887 1.027163 1.165711 1.178044 1.049544 0.865249 0.738306 0.700254 0.771491 0.903117 0.948193 0.963743 1.276912 1.000996 0.775784 1.161176 1.153728 1.066947 0.990375 1.053343 1.045515 1.124211 1.157745 1.075559 1.070930 1.041406 1.087695 1.012824 0.983435 0.950217 0.881589 1.007986 1.134611 1.130715 1.155938 1.084543 1.027642 0.883141 0.676383 0.871390 1.068536 1.085377 1.069727 1.062634 1.040528 1.039270 1.018992 1.021811 1.019773 0.996396 0.993660 0.987725 1.001966 1.010167 1.032900 1.016606 0.924359 1.014031 1.019150 1.019114 1.044319 0.980503 1.012400 1.109762 1.012816 1.008220 1.091812 1.111185 1.023893 1.024180 1.061024 1.072240 1.092161 0.993218 1.105403 1.155558 1.112010 1.117859 1.123008 1.053034 1.045153 0.982447 0.915684 0.791349 0.825753 0.995245 1.280968 1.139276 1.199937 1.066134 0.917651 0.927611 0.750415 0.699829 0.775768 0.647589 0.815831 0.966351 1.026088 1.017962 1.101032 1.099123 1.091715 1.076188 1.004631 1.124096 1.166165 1.168541 1.164932 1.128634 1.138176 1.153641 1.095983 0.988032 1.253964 0.901619 0.567720 0.836781 1.261045 1.186317 1.159001 1.066528 0.961544 1.259473 1.264010 1.104994 0.989072 0.927063 0.934788 0.951756 1.008830 0.971419 1.029734 1.038770 0.994750 1.074069 1.065172 1.015790 1.010548 1.010585 1.019250 1.069601 1.015696 0.998847 1.040256 0.941132 0.929342 0.797638 0.939131 1.100047 1.094239 1.148428 1.055483 1.117518 1.083324 1.095890 0.999918 1.208064 1.070154 0.979940 1.046592 1.089205 0.929448 1.126666 1.184933 1.212049 1.207172 1.175518 1.118135 1.099890 0.955575 1.108586 1.215039 1.203198 1.068871 1.221446 1.263765 1.252174 1.055704 1.011883 1.237797 1.169766 1.267135 1.180466 0.585897 0.728198 1.265073 1.185886 1.183186 1.150332 1.000037 0.720709 0.756459 1.189859 1.165738 1.196053 0.991475 1.070117 1.050736 1.136884 1.227477 1.221774 1.170770 1.045987 1.183176 1.231889 1.136223 0.873792 1.202222 1.172727 1.176834 1.023186 1.085377 1.081228 1.180734 1.172172 0.580694 0.801284 0.973921 0.947976 1.006314 1.058322 1.022622 1.015100 0.934784 1.003563 1.046399 1.089084 1.000096 1.015283 1.051537 1.061627 1.071579 1.047513 1.057505 1.016572 1.048384 1.116483 1.095594 0.990102 0.968423 1.114542 1.020539 0.553547 0.791773 1.229418 1.173283 1.084974 1.057013 1.044464 1.045744 1.087793 1.132589 1.136931 1.087774 1.132789 0.791807 0.953000 1.227049 0.629070 1.135601 1.111728 0.802128 1.071795 1.114235 1.135068 1.095544 0.720896 0.819237 1.027933 1.072088 1.004219 1.050359 1.059494 1.040868 1.044652 1.040880 1.048975 1.034826 1.047942 1.028249 1.030477 0.991005 1.056724 1.037201 1.019033 1.054019 1.054508 1.022229 0.995566 0.985033 1.038681 1.049503 1.069961 1.083435 1.039986 0.983790 0.967582 0.973789 1.070971 1.067989 1.031643 1.031691 0.985595 0.910212 0.811464 1.022284 1.089059 1.035550
1.108798 1.008435 1.043963 1.119558 1.133484 1.100353 1.039698 0.739191 1.028987 1.164455 1.194385 1.158840 1.141620 1.209568 1.129125 1.091642 1.166825 1.145565 1.052255 1.059351 1.010474 0.789123 0.715955 0.795701 0.835871 0.912838 1.148250 1.078821 1.194102 1.173831 1.026175 1.173840 1.135113 0.611042 1.083305 1.165237 1.148678 1.183386 1.150333 1.111036 1.027132 1.074401 1.090038 1.092169 1.088443 1.086194 1.042653 1.006752 1.096576 1.113430 1.067816 1.009917 1.083121 1.108634 1.050618 1.130651 0.937343 1.015756 1.021140 1.035239 1.036794 1.039048 1.050075 1.030677 1.030796 1.021510 1.053823 1.060301 1.124414 1.116209 1.018486 0.931380 1.062183 1.188408 1.202712 1.134095 1.042733 0.833408 0.928958 0.677966 0.698570 1.100037 1.252898 1.259833 0.888660 0.892733 1.092047 1.028967 0.974098 1.036470 1.049834 1.176670 1.155529 1.080571 1.075657 1.090009 1.105561 1.012754 1.013190 0.964765 0.858734 0.978210 1.147537 1.095960 1.089639 0.968001 0.851906 0.807059 0.802925 0.932710 1.050580 1.081365 1.091183 1.090693 1.010347 1.017206 1.006191 0.997630 1.010510 1.019382 0.999439 0.986529 0.997231 1.015060 1.007222 0.965152 0.903315 0.992671 1.004464 1.024520 1.048220 1.017875 1.013959 1.080508 1.014708 0.999774 1.103845 1.032037 1.012528 1.048687 1.037765 1.029403 1.027242 1.037130 1.162035 1.078625 1.097832 1.131628 1.139496 1.113195 1.100434 1.095875 1.071273 0.979963 0.885656 0.888470 1.269734 0.897472 0.967733 0.759204 0.863658 0.821089 0.837193 0.903562 1.155027 1.096891 1.089228 1.053374 1.022396 1.033082 1.075642 1.063578 1.087743 1.039671 1.032499 1.101445 1.013761 0.899930 1.043753 1.133596 1.076949 0.896389 0.898364 0.973854 0.968379 0.958101 0.991729 0.865133 1.274701 1.191855 1.126570 0.921133 0.787528 0.880003 1.149225 1.019766 1.058728 1.175747 1.193738 0.948048 1.095444 1.146735 1.096289 1.057104 1.035316 1.040676 1.057543 1.027276 1.010922 1.010455 1.011896 1.036857 1.081610 1.026163 1.023562 1.005690 0.991426 0.960370 1.019744 1.068929 1.045937 1.134759 1.067374 1.116706 1.093202 1.049095 1.048470 1.159668 1.066909 1.037268 1.117017 1.033859 1.017898 1.118306 1.198716 1.206147 1.065663 1.056528 1.050981 1.138384 0.914945 1.021565 1.215562 1.156661 0.959677 1.189058 1.155408 1.247660 1.180232 0.941683 1.284320 1.225221 1.298750 1.312129 0.987309 1.039529 1.198434 1.149829 1.125284 1.091522 1.197188 1.307371 1.239043 0.799884 0.729863 0.716282 0.868749 1.072764 1.128901 1.231194 1.226580 1.163254 1.151015 1.055928 1.092302 1.136004 1.243031 1.097740 1.119040 1.126728 1.142860 0.840793 1.175309 1.158426 1.039983 1.205847 0.719878 1.011370 1.270303 1.088897 1.171772 1.193937 1.149812 1.110647 1.003577 0.973931 1.012854 1.052527 1.048870 1.048224 1.032021 1.065212 1.050834 1.028126 1.051065 1.021498 1.030737 1.052875 1.117087 1.136564 0.941303 1.026061 1.148505 0.751661 0.915004 1.166712 1.203423 1.162176 1.097338 1.086140 1.056006 1.106052 1.135842 1.144841 1.126003 1.187729 1.113857 0.679146 1.004060 0.959088 1.178792 1.217387 0.943887 0.836727 0.859234 1.059767 1.039811 0.911836 0.978953 1.074965 1.055556 1.068152 1.058435 1.059154 1.037294 1.039631 1.038794 1.030900 1.056654 1.041950 0.985685 1.030211 1.007530 1.073889 1.059738 1.013701 1.038463 1.008455 1.019345 0.975504 0.979521 1.085067 1.072531 1.047478 1.023330 1.067858 0.975849 0.976319 0.954601 0.997915 1.068192 1.057130 1.038370 0.954484 0.810193 0.854687 1.024002 1.063450 1.054858
1.071529 1.025876 1.127521 1.144294 1.087787 1.072988 1.143041 0.766015 0.574647 0.746299 1.113932 1.103865 1.144290 1.238416 1.228320 1.222923 1.216610 1.226712 1.140936 1.213980 1.232967 1.029671 1.224730 1.192359 1.123828 1.058593 0.997746 1.088191 1.154721 1.217243 1.079430 1.200653 1.139055 0.691606 0.998599 0.989698 0.984151 1.121845 1.103997 1.161604 1.076593 1.081790 1.090660 1.079653 1.067536 1.088457 1.035496 1.019654 1.102416 1.091784 1.020692 1.035195 1.098445 1.069032 0.996508 1.063456 1.009532 0.974767 1.035795 1.042409 1.063025 1.057445 1.051200 1.046655 1.053441 1.004076 1.016726 0.948368 0.986437 1.080622 1.117910 0.988488 1.078479 1.013930 1.155536 1.167472 1.033779 1.018394 1.197554 0.970703 1.130241 1.124694 1.210538 1.150327 1.158415 0.960767 0.815287 0.931166 1.035960 1.111551 1.161151 1.177020 1.066857 1.039998 1.061563 1.097631 1.085016 1.020842 1.035648 1.030327 0.859797 1.095793 1.197121 1.034261 0.951518 0.870791 0.904456 0.930215 0.915671 0.924757 1.044942 1.122860 1.055118 1.041683 0.978970 1.035760 1.007576 0.998111 0.980131 1.004377 0.998337 0.985786 0.990289 1.023986 1.005068 0.967443 0.993870 1.025143 1.031505 1.025321 1.023181 1.014774 1.003089 1.035501 1.006132 0.973559 1.081180 1.009325 1.005555 1.048671 1.045813 1.058019 1.105258 1.149032 1.075099 1.034409 1.120905 1.128645 1.071474 1.103391 1.064884 1.119389 1.012425 0.982422 0.970651 0.786534 0.847195 0.528637 0.959996 1.289667 1.276964 1.267922 1.252021 1.176229 1.226107 1.208014 1.192067 1.175851 1.113079 1.051563 1.091199 1.087262 1.086279 1.064026 1.077129 1.071063 1.094966 0.980136 0.800675 0.952765 1.078026 1.110800 1.163886 1.036563 0.953384 0.836106 1.044748 0.936488 1.240691 1.083902 1.016311 1.170416 1.284062 0.699924 0.849312 1.043536 1.050756 1.128921 0.928522 0.956896 1.167964 1.168855 0.968576 1.009183 1.075265 1.038713 1.064772 1.054481 1.018415 1.010886 1.010501 1.015283 1.045382 1.081389 1.038580 1.032115 1.025573 1.007329 1.008465 1.071377 1.086233 1.118721 1.029052 1.076044 1.070899 1.074421 1.095205 1.084019 1.064688 1.049168 1.118742 1.070964 1.046915 1.070068 1.188511 1.204574 0.834944 0.706619 1.007512 1.189237 1.120098 1.012445 1.246428 1.052163 1.182759 1.181654 1.141405 1.228012 1.087953 0.838009 1.242662 1.234561 1.287362 1.240698 0.665036 1.218749 1.177852 1.116321 1.055600 1.013776 1.197872 1.198291 1.278728 1.278729 1.216580 1.146144 1.119505 1.150195 1.233042 1.229342 1.235565 1.108086 0.954756 0.876386 1.082542 1.041087 1.185718 1.041797 0.967321 1.093145 1.091043 0.955462 1.146761 1.164951 0.924981 1.232765 0.792753 0.974790 1.190275 1.177747 1.199410 1.174186 1.168788 1.159388 1.170459 1.081012 0.955004 1.029198 0.993831 1.050038 1.046422 1.068976 1.039357 1.038298 1.029821 1.022175 1.044740 1.003133 0.977195 1.128516 1.128356 0.966242 1.139975 1.043774 0.522122 0.912531 1.047910 1.023482 1.054519 1.065803 1.060091 1.143535 1.142113 1.072645 0.952667 1.004597 1.098529 0.858456 0.744307 1.031219 0.999536 1.207905 1.198295 0.889808 0.673440 1.007442 1.151934 1.168230 1.032799 1.045213 1.052225 1.049304 1.056349 1.038533 1.031980 1.035945 1.031425 1.049449 1.019344 1.061097 1.031582 1.029504 1.020264 1.062023 1.069896 1.025216 1.026896 1.049783 1.021873 0.950370 0.982658 1.061911 1.057170 1.021469 1.012507 1.075936 1.029990 0.965953 1.005398 0.988091 1.069479 1.021895 0.926444 0.838953 0.959394 1.027711 0.993034 1.046097 1.082738
1.082706 1.050257 1.119125 1.079603 1.091503 1.112889 1.098247 1.005309 1.075750 0.574772 0.648217 1.061203 1.092143 1.175955 1.132582 1.125214 1.213414 1.218316 0.968688 0.904895 0.866351 0.748719 0.975110 1.238485 1.238896 1.178445 1.104252 1.001183 1.058455 1.209668 1.163294 1.171328 1.030908 0.896271 1.066685 1.015901 1.049066 1.107885 1.103713 1.082512 1.114106 1.081905 1.087419 1.044571 1.046719 1.060941 1.019331 1.042442 1.114203 1.063281 0.978751 1.054927 1.095896 1.049239 1.004860 1.026567 1.038843 0.937640 1.017514 1.058100 1.059588 1.057368 1.057456 1.030040 1.041244 1.047071 0.984259 0.922551 0.879222 0.917881 0.921590 0.889314 0.954611 1.037939 1.152579 1.164081 1.182561 1.118437 0.985994 0.730833 1.270392 1.204100 1.151700 1.103233 1.205105 1.179421 1.058153 0.990553 0.761804 1.049072 1.180480 1.175029 1.059683 1.071192 1.075716 1.121941 1.077497 1.023175 1.036216 0.990898 0.833298 0.852506 1.000215 1.090435 0.893156 0.965323 0.978925 0.971302 0.971315 0.932524 0.942753 1.040295 1.058048 1.029606 1.021206 1.021678 1.009582 1.010063 1.010349 1.030983 0.995283 0.986556 0.986670 1.014681 1.001132 0.994266 1.004598 1.010028 1.017702 1.023371 0.998163 0.990869 1.023371 0.975263 1.010581 0.975550 1.057310 1.025336 1.028961 1.025117 1.064920 1.086923 1.092320 1.014451 1.008734 1.044456 1.148051 1.086091 1.077956 1.048679 1.105726 1.120430 1.100853 1.094791 1.087632 1.227495 1.171219 0.909412 0.756100 1.081304 1.010089 0.925220 1.193257 1.139931 1.195437 1.130162 0.977532 0.958996 1.046834 1.066955 1.076927 1.089260 1.102007 1.065463 1.091853 1.061627 1.023296 0.915396 1.040103 1.086994 1.120083 1.088631 1.047029 1.035014 0.959366 0.872746 1.230758 0.864876 0.618261 1.094309 1.119227 1.079635 1.205240 1.160266 0.806155 0.739728 0.779969 0.997037 0.960041 1.173890 1.189363 1.011758 0.914489 1.023354 1.030791 1.040790 1.091241 1.070287 1.056850 1.020234 1.010671 1.011776 1.014740 1.049603 1.079136 1.032579 1.013934 0.997163 1.068650 1.091144 1.085486 1.060483 1.049793 1.066091 1.058283 1.070729 1.057701 1.065396 1.076780 1.058163 1.091098 1.079450 1.036640 1.151034 1.145540 1.159836 1.206831 1.225365 0.971427 1.190910 0.915106 0.905441 0.823379 0.881473 1.238647 1.186798 1.162490 1.229520 1.137056 0.611881 1.045997 1.245854 1.193332 0.797535 0.535107 1.236937 1.230171 1.170118 0.994302 1.201124 1.241885 1.273526 1.276047 1.270175 1.217828 1.203111 1.244102 1.234747 1.233364 1.195229 1.209628 0.915699 0.853292 1.101681 1.148665 1.231683 1.262931 0.967741 0.949061 1.195878 0.881946 1.184294 1.190398 1.207907 0.920550 0.987492 0.574755 0.993631 1.257375 1.244270 1.142354 1.175977 1.168066 1.159690 1.169549 1.158072 1.020738 0.973310 0.995721 1.068315 1.066495 1.044972 1.076150 1.047359 1.037768 1.105050 1.064055 0.984439 0.831049 1.102364 1.169341 0.955704 1.044657 1.150218 0.555091 0.755549 0.873869 1.023631 1.063316 1.116840 1.107446 1.145329 1.095701 1.053137 0.718561 0.683289 0.702403 0.582072 1.124919 1.236792 0.938327 0.995617 1.184438 0.994516 0.671323 0.845772 1.019234 1.076063 1.119251 1.048236 1.062243 1.048987 1.050483 1.038514 1.054246 1.042122 1.037800 1.041305 1.027805 1.038255 1.061711 1.047278 1.002517 1.055165 1.126785 1.024343 1.032983 1.038001 0.991931 0.946904 0.983333 1.008085 1.008637 1.023106 1.028744 1.056891 1.040941 1.057621 1.068128 1.004388 1.070747 1.037038 0.971659 1.042996 1.051741 1.045831 1.048728 1.084579 1.081892
1.044669 1.080435 1.111944 1.208121 1.215896 1.079810 1.106703 1.074067 1.169088 0.892137 0.770141 1.145757 1.233852 1.192463 1.157746 1.116632 1.064848 0.945525 0.853283 0.681254 1.164170 0.949073 0.725825 0.882885 1.184292 1.184883 1.156375 1.102818 0.957511 1.060474 1.153013 1.130105 0.987192 1.059176 1.009161 1.010363 1.107617 1.059427 1.074782 1.025953 1.077294 1.093760 1.041867 1.028119 1.015202 1.047270 1.037907 1.046494 1.119522 1.019467 1.001274 1.036596 1.057764 0.982450 0.997007 0.985470 1.030720 0.983362 1.023222 1.062536 1.062276 1.035332 0.985609 1.011585 1.034526 1.051053 1.134405 1.143219 1.082361 1.062692 1.031947 0.957562 0.890540 0.883616 1.046687 1.179416 1.194201 1.258359 1.170046 0.757212 1.119045 1.204100 1.215049 1.171708 1.174816 1.153821 1.160292 1.160817 1.012395 1.100674 1.178914 1.113552 1.084863 1.022646 1.009341 1.135746 1.138450 1.071556 1.072335 0.993040 0.900245 0.904426 1.201432 0.985972 0.858944 0.990944 0.987257 1.006821 0.982600 0.923910 0.969758 1.051470 1.027024 1.025357 1.030862 1.028407 1.044393 1.003138 0.988200 1.029123 0.995172 0.987108 0.986160 1.004706 0.986295 0.983685 0.983054 0.995978 1.000913 0.992499 1.012916 1.019235 1.046423 1.009247 1.025722 0.987151 1.018936 1.009215 1.042315 1.031011 1.007349 1.030692 1.003719 1.005953 1.013052 1.078324 1.079174 1.077021 1.094092 1.126644 1.093317 1.150328 1.181981 1.152321 1.129018 1.166196 0.924705 0.720339 0.617716 1.168991 1.178707 0.657493 0.744347 0.804146 1.033719 0.938124 1.005233 1.152579 1.137817 1.036140 1.067491 1.059169 1.071046 1.098151 1.102481 1.086664 1.042906 1.106058 1.175728 1.193507 1.207119 1.208010 1.181860 1.150930 1.043478 1.042052 1.134359 0.948660 0.631029 1.269301 1.228697 1.043828 1.153289 1.250492 1.087635 0.955060 0.906311 1.150331 1.164916 1.192232 1.025577 0.774906 0.951422 1.068083 1.134568 1.122450 1.054704 1.014087 1.068624 1.058244 1.017152 1.013530 1.013245 1.020415 1.061228 1.085603 1.057886 1.033746 1.101885 1.107060 1.113816 1.119068 1.122186 1.127333 1.130283 1.134050 1.102697 1.134414 1.130550 1.117493 1.090826 1.122811 1.129739 1.149624 1.147142 1.083458 1.017989 1.008494 0.834169 1.202370 0.938100 1.030426 1.061645 1.270822 1.272259 1.209812 1.238564 1.305857 1.147313 0.825257 1.215986 1.130697 1.092974 1.203971 0.837795 0.817761 0.926621 0.792839 1.200923 1.282955 1.270462 1.247136 1.216910 1.135640 1.175675 1.162674 1.240654 1.224684 1.174716 1.185879 1.151251 0.924992 1.117503 1.119591 1.273185 1.171797 1.159574 0.988913 1.135033 1.046345 0.587531 0.970927 1.133522 0.796446 0.721209 1.227066 0.926168 0.592755 1.196250 1.060503 1.012136 1.184248 1.146993 1.074686 1.092822 1.133171 1.124533 1.025527 1.054625 1.076129 1.054561 1.051872 1.085095 0.963450 0.962008 1.126538 1.132053 0.930945 0.872483 1.179899 1.156837 1.060901 0.630924 1.008678 0.798994 1.225018 1.228096 1.139309 1.046092 1.084811 1.154814 1.150536 1.055243 1.070459 1.061612 0.827433 0.469558 0.570310 0.871888 1.191364 1.210585 1.120730 1.174018 1.160146 0.838003 0.894725 1.042792 1.073478 1.056614 1.053996 1.048857 1.053856 1.038098 1.045387 1.042777 1.064585 1.068664 1.012312 1.005072 1.043746 1.074637 1.024867 0.976628 1.034410 1.161858 1.023511 0.944616 0.986542 0.972619 0.891211 0.972150 1.011195 1.012548 1.027318 1.030469 1.055124 1.041318 1.045247 1.011431 0.967598 1.013506 1.069552 1.070954 1.074581 1.056662 1.055465 1.073727 1.049587 1.026968
1.174842 1.150134 1.107250 1.152167 1.121290 1.091157 1.142470 1.179242 1.185846 1.248428 1.130899 0.788722 1.097766 1.239632 1.251738 1.196789 1.102180 0.762124 1.131406 1.113738 1.220073 1.090656 0.954419 0.780999 0.949439 1.121361 1.147757 1.140177 1.113414 1.007609 1.141848 1.118759 1.002933 1.092016 0.984589 0.973245 1.112641 1.040902 1.059921 1.013464 1.042810 1.080488 1.017121 1.045782 1.039560 1.053490 1.020361 1.018427 1.091748 1.016612 1.011287 1.024895 1.031933 0.999093 1.018610 1.030842 1.071921 1.067081 1.064303 1.043023 1.040325 1.023037 0.992419 1.036745 1.026655 1.002639 1.071069 1.150853 1.141015 1.010478 1.030200 1.057570 1.044188 0.997254 0.910745 0.861583 0.914697 1.011473 1.257569 0.905324 0.823628 1.183304 1.218976 1.143963 1.021285 1.021672 1.093550 1.196406 1.188951 1.181520 1.187959 1.086906 1.077928 1.037655 0.934197 1.093413 1.086393 1.068837 1.074624 0.866992 0.785283 0.766844 0.853442 0.833456 1.038354 1.170503 1.130900 1.111163 1.096882 0.970203 1.039645 1.084467 1.043143 1.034022 1.038410 1.031730 1.034980 0.941559 0.982853 1.012842 0.997128 0.986408 0.988942 1.010600 1.021317 1.034968 1.039905 1.046760 1.045731 1.049493 1.025207 0.987857 1.026350 1.053588 1.048684 1.014065 1.019343 1.049060 1.060200 1.064322 1.062092 1.024728 1.032829 1.027817 1.032930 1.063664 1.068979 1.076434 1.078815 1.092128 1.102921 1.150727 1.171430 1.140941 1.104192 1.173098 1.152009 1.068691 0.924029 0.875380 1.280764 1.238181 1.183283 1.009661 0.919451 1.069641 1.160580 1.187038 1.112732 1.050479 1.084132 1.031499 1.044635 1.094595 1.102166 1.089221 1.091098 1.097530 1.005902 0.952381 1.170228 1.205003 1.174994 1.195907 1.268049 1.213955 1.197163 1.008772 0.539791 1.089695 1.149177 1.164673 1.241727 1.236625 1.220010 1.177150 1.178166 1.200818 1.195951 1.091592 0.896213 1.081193 1.169630 1.156253 1.108662 1.002808 0.955294 0.987617 1.026905 1.083166 1.063287 1.028382 1.017856 1.026199 1.044693 1.025993 1.090383 1.095190 1.070219 1.045466 1.058066 1.073557 1.083564 1.089304 1.100121 1.123354 1.138024 1.136475 1.135893 1.129473 1.109344 1.114098 1.107894 1.079824 0.997272 0.943745 0.913854 0.901653 0.672120 0.689812 0.757479 0.873964 0.620761 0.876229 1.203355 1.175133 1.161454 1.237299 0.665326 0.627384 0.668549 1.042974 1.217346 1.321677 1.225260 0.822700 0.712400 1.011508 1.078241 1.256013 1.222337 1.194938 1.097692 0.950249 1.087927 1.197136 1.245276 1.223951 1.042904 1.069441 0.939171 1.096798 1.166460 1.142295 1.189836 1.159502 1.081494 1.024944 1.044614 0.701366 0.739428 0.984331 0.910390 0.819166 1.060570 1.262846 1.262424 0.780882 0.691833 0.797334 0.862015 1.011247 0.801251 0.907110 0.964536 0.987377 1.002948 1.094104 1.079784 1.063947 1.075200 1.054416 1.067817 1.051424 0.962578 0.996084 1.135977 1.001036 0.869354 1.157994 1.183295 1.204626 0.668830 0.581675 0.719206 0.932042 0.973779 1.036702 1.045853 1.095683 1.156983 1.145745 1.155151 1.165146 0.973151 0.479012 0.687683 0.960940 0.469199 0.862186 1.176083 1.106354 1.164122 1.156585 0.885705 0.881869 1.030067 1.075617 1.025562 1.043574 1.021225 1.038212 1.040026 1.037918 1.040423 0.967183 1.053740 1.047559 0.926885 1.014053 1.069917 1.035817 0.974699 0.899189 1.152019 1.040574 0.909104 0.931692 0.926390 0.982778 0.994435 1.025132 1.041987 1.043878 1.019536 1.055658 1.043840 1.030466 1.020753 0.961884 1.030691 1.039936 0.999390 1.077902 1.072609 1.056382 1.036218 0.988603 0.880064
1.179925 1.094467 1.065495 1.040302 0.960516 1.006940 0.982601 1.170152 1.223073 1.024972 1.073863 0.845031 0.631244 0.894404 0.748247 0.825695 0.806493 0.838875 1.100920 1.240793 1.237359 1.199569 1.069694 0.950701 0.897167 1.125844 1.150044 1.142356 1.161440 1.092339 1.073252 1.157205 1.061016 1.092571 0.971105 1.007270 1.094532 1.022882 1.058989 1.078144 1.048494 1.060934 1.047464 1.011127 1.012848 1.024202 0.998982 1.003601 1.045384 1.006320 1.008062 1.027023 1.028682 1.048052 1.070698 1.065765 1.066582 1.062428 1.015025 1.055362 1.039741 1.016893 1.012750 1.012662 0.961737 0.944906 1.008100 1.088349 1.163595 1.110109 1.023598 1.071909 1.068714 1.076822 0.996059 0.982570 0.868947 0.797536 0.805324 0.672185 0.722053 0.839885 1.146496 1.107575 1.021790 1.060638 1.204000 1.190847 1.177088 1.177808 1.105161 0.993276 0.946048 0.928014 0.888553 0.991956 0.927444 0.922604 0.843238 0.803970 0.819169 0.884153 0.783849 0.768270 0.953032 1.061729 1.081486 1.094849 1.101909 1.042746 1.052382 1.039194 1.028959 1.029114 1.023236 1.001989 1.026856 1.022209 1.032541 1.039214 1.005929 0.991829 1.009089 1.009902 1.005296 1.012204 1.028716 1.021826 1.008139 1.012423 1.056256 1.051829 1.057548 1.011303 1.054822 1.055592 1.056254 1.058247 1.055427 1.048441 1.064054 1.044566 1.054630 1.045418 1.068226 1.074451 1.037324 1.056106 1.070137 1.086029 1.069716 1.098656 1.090936 1.025620 1.050615 1.173171 1.122628 0.932413 0.772696 0.628663 1.121958 1.170868 1.156127 1.235344 1.222814 1.135400 1.173589 1.124069 1.054721 0.976821 1.031710 1.007928 1.015582 1.042228 1.078402 1.104711 1.074295 1.037907 1.014542 0.947518 0.910379 1.005588 1.093138 0.959705 1.112867 0.811890 1.204513 1.148060 0.841193 1.220854 1.263297 1.241895 1.174175 1.240297 1.206329 1.130489 1.206646 1.202863 1.071151 0.953386 1.153385 1.182673 1.170477 1.118631 0.930955 0.829715 0.895667 1.019609 1.071090 1.051266 1.005314 1.010719 1.023389 1.046465 1.024183 0.947826 1.044898 1.109999 1.074526 1.038795 1.050725 1.053988 1.023384 1.101217 1.058124 1.062943 1.061377 1.074932 1.088620 1.119753 1.122894 1.126785 1.142486 1.115287 1.092556 1.105302 1.115198 0.929472 0.883766 0.893402 0.678307 0.527174 1.112870 0.830194 1.061869 1.125900 1.143090 0.998053 0.961677 1.320633 1.074261 1.139515 1.272592 1.211477 1.320624 1.206428 0.698046 1.224772 1.199061 1.159048 0.962526 0.997806 0.925203 1.088102 1.079363 1.127594 1.245206 1.229200 1.087999 0.787598 1.045490 1.207462 1.233207 1.171279 1.213165 1.233707 1.078616 1.085849 0.694690 1.016860 1.226704 1.215452 1.106818 1.161924 1.155157 1.078025 1.240630 1.083966 0.925299 1.094337 1.111661 1.089223 0.918397 0.981556 1.029081 1.014694 1.002384 1.071200 1.065320 1.074923 1.047845 1.004977 1.007964 1.100017 1.146750 1.059059 0.933326 1.029121 0.956538 0.880835 1.164170 1.232752 0.769231 1.128553 1.223900 1.185268 1.128134 1.043578 1.100042 1.163714 1.138641 1.064736 1.078461 1.141921 0.956067 0.500656 1.161929 1.184151 0.480863 0.841095 1.054107 0.950150 1.038380 1.140028 0.898880 0.912508 1.018580 1.042585 1.035437 1.057213 1.044937 1.044695 1.053738 1.040937 1.073122 0.894004 0.926688 1.144578 0.983317 0.915185 1.040917 1.003569 0.980346 0.887454 1.115916 1.134397 0.821996 0.780320 0.917242 1.020770 1.024890 1.031240 1.051417 1.060441 1.045383 1.051008 1.057369 1.038908 1.010293 0.956906 1.075708 1.023751 0.858105 0.962243 1.023205 1.048534 1.069820 1.071057 1.052997
1.185752 1.113321 1.122684 1.213490 1.153610 1.193302 0.976618 0.822719 0.922065 0.527813 0.901585 1.137663 0.820661 1.284275 1.002095 1.048851 0.715258 1.169919 0.699181 1.124780 1.235439 1.219069 1.061379 1.002452 0.938673 1.054987 1.115797 1.063449 1.095534 1.113871 1.064252 1.144084 1.059843 1.086835 0.985889 1.034617 1.084022 1.047097 1.047726 1.045047 1.054747 1.056360 1.050926 1.015089 1.024787 1.014618 1.039185 1.036329 1.048010 1.026443 1.056752 1.063769 1.069260 1.067792 1.053298 1.025860 1.009760 1.020751 0.997207 1.049063 1.092765 1.048411 1.001061 0.976718 0.965831 0.933730 0.892432 1.048174 1.168633 1.179507 1.086373 1.024966 1.066379 1.060842 1.075291 1.154743 1.218667 1.236894 1.139865 0.975892 1.257912 1.140678 1.149815 0.968357 0.995117 1.169008 1.200814 1.116909 1.038884 1.096494 1.166109 1.129512 0.977173 0.824580 0.672704 0.797930 0.902489 1.023836 1.033259 0.998055 1.028924 1.025009 0.998725 0.940709 0.962802 0.974367 1.109010 1.137983 1.105336 1.039566 1.056152 1.043378 1.027455 1.034378 1.036673 1.045071 1.030426 0.984291 0.983009 0.999239 1.015258 1.006003 1.018224 0.973236 0.959777 0.988090 1.038601 0.993601 0.989748 0.994545 1.019920 1.045214 1.028529 0.992802 0.985116 1.046917 1.020476 1.012925 0.994249 1.016796 1.050354 1.065162 1.051387 1.067224 1.044493 1.018704 1.025957 1.064715 1.099540 1.077614 1.014533 1.046700 1.044427 1.053034 1.111419 1.182518 1.145459 1.127448 1.045142 0.686058 0.620417 1.052004 1.175650 1.228477 1.186660 1.018081 1.198024 1.154731 0.856893 0.861528 0.996783 0.987957 0.985260 1.026744 1.076214 1.103807 1.096959 1.031312 0.980881 0.945027 0.911087 0.866165 0.868896 0.888132 0.835844 0.825442 0.856655 0.769333 1.041895 1.302024 1.163009 0.880527 0.872953 0.945392 1.063047 1.158895 1.201149 1.091396 0.952485 1.174034 1.189672 1.181754 1.155791 0.997218 0.940490 0.978476 1.080425 1.091467 1.050938 0.966774 0.948204 1.052224 1.024938 1.067119 1.063622 1.044636 1.010314 1.027566 1.068423 1.019923 1.055796 1.129194 0.990816 1.096576 0.974117 0.966027 0.998481 1.052822 1.091640 1.065071 1.045388 1.080851 1.143942 1.118562 1.092121 1.122660 1.096060 0.983486 1.003969 0.969160 0.804013 0.769700 1.296818 0.888612 1.011717 1.192674 0.974365 1.189310 1.303830 1.311137 1.219064 1.205570 1.226796 1.096491 1.242873 1.104199 0.533173 1.015820 1.111478 0.866325 1.006947 1.192465 1.137165 1.032959 1.083065 1.125570 1.227363 1.271464 1.084224 0.848831 1.297669 1.212183 1.228305 1.049091 0.911189 1.318018 0.929573 0.953347 0.558441 0.606876 0.677299 0.976488 1.109913 1.116536 1.139517 1.123532 1.138396 1.151947 1.012037 1.078790 1.163978 1.169001 1.119958 1.062467 1.019184 1.008539 1.061666 1.082084 1.076660 1.083507 1.038545 1.046777 0.957384 0.949807 1.158630 1.155267 1.068794 0.844099 0.734048 0.643255 0.923570 1.163596 0.915296 1.140232 1.223177 1.110827 1.102211 1.074980 1.169171 1.165974 1.100074 1.103649 1.130217 0.852045 0.903189 0.534282 0.887273 1.222446 0.853833 0.691760 1.054943 1.130358 1.011707 1.127940 0.952905 1.047382 1.065744 1.059017 1.061832 1.047219 1.042887 1.055853 1.064457 0.992577 1.092994 1.067973 0.863622 1.102949 1.102824 0.921707 0.989975 1.001916 0.933873 0.886338 1.127694 1.153337 0.866623 0.756831 0.974043 0.995231 1.021263 1.043903 1.029567 1.046211 1.032752 1.040831 1.060741 1.045237 1.024542 1.011145 1.074234 1.050039 0.973311 0.834581 0.989005 1.048120 1.080420 1.080677 1.067527
1.149809 1.024956 0.958485 1.015348 1.110975 1.257041 1.205674 1.192039 0.946749 0.770315 1.164086 1.271756 0.953771 1.109642 1.124501 1.255071 0.823773 1.144579 0.942246 0.734250 1.128582 1.221742 1.143962 1.024060 1.001062 0.911582 1.083450 1.063928 1.091877 1.066972 1.030889 1.079968 1.099476 1.052556 1.023002 1.022837 1.069785 1.039492 1.047019 0.995702 1.033525 1.051656 1.018305 0.993615 1.027205 1.029584 1.048211 1.060388 1.068331 1.071147 1.071743 1.071563 1.052894 1.038563 1.033121 1.018288 1.034250 1.018379 0.984559 1.006070 1.047265 1.101488 1.043127 1.011593 0.976231 0.915920 0.880546 0.847919 1.023140 1.149091 1.190175 1.194847 1.163175 1.127242 1.113868 1.134287 1.069700 1.116015 1.242293 0.965328 1.212425 1.191689 1.130647 1.113666 1.112495 1.193285 1.196492 1.059278 0.953264 1.123719 1.185907 1.191305 1.148071 0.990652 0.688687 1.046250 1.035482 1.132815 1.134581 1.114855 1.133500 1.016167 1.041548 1.085043 1.076212 0.933622 1.066271 1.074820 1.075270 1.073357 1.071536 1.060481 1.007727 1.028394 1.067584 1.048598 1.001052 0.952166 0.960818 0.933869 0.995840 1.020379 1.016356 1.001616 0.961155 0.989042 1.065511 1.006364 0.994648 0.991848 1.043805 1.021624 1.035143 1.013585 0.984155 1.031464 0.974587 0.999382 1.043924 1.033966 1.003814 1.041775 1.071489 1.072640 1.015976 1.030127 1.004975 1.009250 1.035790 1.051016 0.998805 1.025898 1.028072 1.089149 1.095642 1.080562 1.166942 1.209042 1.194801 1.092547 0.781026 1.190386 1.245790 1.236990 0.976427 1.038640 1.210251 1.147459 0.705455 0.836660 0.964894 1.069056 1.133522 1.087538 1.074391 1.105646 1.106702 1.087286 1.055070 1.049372 1.112147 1.202675 1.195495 1.163834 1.250708 1.247815 1.166599 0.973014 0.662032 1.000950 0.805334 1.013212 1.148997 1.199386 1.146685 1.144530 1.181984 1.125945 0.912041 1.109586 1.114123 0.971500 0.962736 0.743182 0.958699 0.981537 1.062190 1.064763 0.969918 0.977470 1.047234 1.067739 1.025797 1.080531 1.041080 0.966083 0.940135 1.012645 1.068029 1.018153 1.043079 1.142961 1.054706 1.069032 1.047545 1.099706 1.057830 1.043401 1.040402 1.020855 1.042594 1.041839 1.107716 1.147539 1.126349 1.123673 1.106075 1.012830 1.033612 0.935315 0.890976 0.993211 1.237157 0.941487 0.611524 0.801184 0.604714 1.049047 1.094265 1.173658 1.164318 1.192317 1.242004 1.232728 1.306160 1.072639 0.747242 0.921487 1.263165 1.308963 1.184233 0.878204 1.019614 1.171564 1.170997 1.256618 1.145446 1.212364 1.007084 1.014629 1.247942 1.122236 1.235114 0.702952 0.555573 0.907387 0.572961 0.882433 1.252194 1.266491 1.119350 1.042640 1.002081 1.094776 1.091313 1.058405 1.125250 1.132473 1.124865 0.853968 1.092209 1.144210 1.118564 1.142833 1.080084 1.028831 1.074700 1.081022 1.061686 1.041005 1.016711 1.051638 0.838594 0.927858 1.141252 1.133959 1.149681 1.068191 1.061836 0.850389 0.508656 0.591296 0.758877 1.015884 1.057500 1.021642 0.994493 1.093110 1.165776 1.113810 1.017888 1.001780 1.031294 0.525936 1.198296 1.102803 0.754188 1.200557 1.142224 0.822660 0.954935 1.041204 1.038480 1.107802 1.016065 1.071645 1.085385 1.065844 1.037757 1.040504 1.043345 1.066754 1.047084 1.040563 1.037878 1.113467 1.001833 0.846479 1.131655 0.936339 0.953403 1.007609 0.947506 1.012482 1.172267 1.165193 0.897790 0.889929 1.006608 1.038325 1.029938 1.018624 1.008222 1.043992 1.059484 1.050579 1.049567 1.035902 1.020667 0.985350 1.075648 1.050786 1.026558 0.985859 0.956068 1.057560 1.042039 1.083741 1.084337
1.136569 1.016749 0.862519 0.827397 0.856528 0.860566 1.107720 1.207829 0.886209 1.217101 1.212801 1.269314 0.987831 0.997129 1.222557 1.207131 1.017209 1.022388 1.087817 0.801477 0.945089 1.135159 1.134383 1.041424 1.039065 0.973615 1.035793 1.068677 1.061556 1.060633 1.075052 1.070171 1.119830 1.024417 1.048409 1.020512 1.068491 1.042817 1.034467 1.018022 1.025409 1.021946 1.033731 1.066080 1.076239 1.072642 1.071093 1.072108 1.076140 1.033767 1.009657 1.013902 1.025561 1.054064 1.053442 1.017172 1.015414 1.020325 1.028101 1.002326 1.027841 1.123487 1.061527 1.062075 1.083046 1.036150 0.977842 0.907315 0.881744 1.005255 1.157964 1.197073 1.133915 1.127827 1.175580 1.087796 0.982786 0.923347 0.961616 0.761991 1.008066 1.162025 1.026876 0.956802 1.105632 1.218582 1.148326 1.107284 0.814458 1.086172 1.149981 1.105269 1.195400 1.051313 0.872595 1.141993 1.091689 1.114911 1.098639 1.117866 1.146417 1.020722 1.051688 1.119094 1.101556 1.018019 0.978389 1.016023 1.017540 1.037779 1.062563 1.044889 1.043338 1.037093 1.023377 0.990637 0.960792 0.976488 1.026587 1.024015 1.021744 1.037512 1.017510 1.009616 0.950556 0.982161 1.083155 1.061357 0.984338 0.996762 1.090028 0.929388 0.896677 1.016100 1.005453 1.028813 1.011424 1.024045 1.066963 1.009840 1.020081 0.982200 1.032157 1.077821 1.034563 1.017427 1.011728 1.020283 1.069491 0.980131 0.974665 1.039847 1.104042 1.117012 1.068930 1.000298 0.944838 0.919820 0.675009 0.640468 0.898385 1.270503 1.250440 1.248376 0.967696 1.117293 1.181797 1.016111 0.861176 1.111890 1.136613 1.171523 1.064570 1.036616 1.059210 1.045085 1.085815 1.114807 1.077674 1.058725 1.153939 1.084712 1.105962 1.157655 1.244957 1.260515 1.211203 0.891994 0.683699 1.134586 1.257159 1.277750 1.256369 1.093677 1.045517 1.109293 1.153393 0.984898 1.090536 1.212687 1.192349 0.986421 0.622225 0.595989 0.997581 1.021231 1.043487 1.051335 1.012971 1.027667 1.085008 1.039697 1.049864 1.086534 1.023163 0.888896 0.988026 1.048419 0.881986 1.007765 0.987137 1.041408 1.108724 0.888505 1.051615 1.182671 1.042629 1.046322 1.071848 1.072127 1.038229 1.080708 1.061208 1.149982 1.152335 1.130133 1.056444 1.004731 1.003810 0.987466 1.070175 1.139448 1.171639 0.934007 0.828669 0.937977 0.858817 1.178890 1.169458 1.228347 1.202827 1.130902 1.165055 1.260545 1.268471 1.275951 0.746904 0.998081 1.296268 1.210323 1.264262 1.283879 1.132769 1.109462 1.263990 1.274970 1.126737 1.150581 0.775695 0.847764 1.211868 1.177255 1.091444 0.582011 1.181302 1.322131 1.316682 1.040699 0.892960 1.100334 1.170201 1.259908 1.150092 1.118433 1.102608 1.097347 1.166395 1.177360 1.185480 1.068010 0.800898 1.005189 1.030670 1.025001 1.034135 1.062765 1.084254 1.047932 1.037173 1.055277 1.030056 1.015046 0.866681 0.896377 1.136260 1.150559 1.166819 1.208820 1.095399 1.160912 0.958659 0.587313 1.260267 1.239036 1.158809 1.079091 1.063739 1.175009 1.173354 1.120507 1.137841 1.118527 0.701003 0.582458 1.165997 1.208459 1.150169 1.008590 1.158067 0.952964 0.988250 1.074279 1.019533 1.042372 1.049541 1.048239 1.038612 1.030200 1.038601 1.045714 1.053853 1.066634 1.042573 1.000713 1.034548 1.140555 1.058772 0.854582 1.138924 1.019700 0.932860 0.945821 0.858826 1.096095 1.194616 1.068246 0.891670 1.003041 1.013336 1.045502 1.032189 1.018926 1.020877 1.035756 1.051229 1.053932 1.054772 1.037642 1.023832 0.950023 1.078737 1.046524 0.956196 0.938989 0.863971 0.894158 1.025244 1.062661 1.091932
1.093137 1.050778 1.013414 1.112832 1.143201 0.845732 0.890066 0.638484 0.678266 1.200719 1.193791 1.202748 1.083478 1.124885 1.211224 1.103405 1.113431 1.120799 1.134624 1.089409 1.041970 1.084194 1.110732 1.075111 1.056464 1.046932 1.028993 1.083062 1.024457 1.106118 1.077614 1.033268 1.074279 1.061784 1.009965 1.046952 1.038823 1.038423 1.033823 1.067908 1.078873 1.077209 1.076800 1.076515 1.065890 1.058565 1.028977 1.028335 1.023299 1.039438 1.024355 1.006819 1.013607 1.038750 1.057727 0.999796 1.015191 1.053844 1.070854 1.043667 1.023448 1.072917 1.130576 1.067198 1.100330 1.028308 1.062240 1.009503 0.998452 0.903891 1.094015 1.165141 1.090805 1.108675 1.128092 1.154212 1.176280 1.149786 0.932551 0.551056 0.830558 1.249818 1.243286 1.142090 1.150481 1.222651 1.154906 1.143901 1.134263 1.005918 1.028067 0.933470 1.000812 0.792512 1.035751 1.181892 1.135482 1.148374 1.096993 1.091542 1.088717 1.068825 1.001484 1.104913 1.088612 1.057759 1.048279 1.031065 1.015039 1.017655 1.066004 1.062329 1.041237 1.051436 1.047108 0.987828 0.945088 1.000483 1.011492 1.018882 1.013193 1.022855 0.996169 0.945551 0.895153 0.889800 0.993677 1.083260 0.937244 1.014252 1.127111 0.911806 0.816090 0.965776 1.055723 1.054733 1.018416 1.073333 1.060824 1.033653 1.038727 1.028492 1.016021 1.076262 1.085257 1.042918 1.021812 1.064787 1.064900 1.008261 1.143354 1.151682 1.162316 1.174838 1.168224 1.167554 1.142573 1.096713 0.897785 0.861045 0.618844 1.175304 1.241124 1.132872 0.948480 1.056270 1.201277 1.054556 1.080075 1.055546 1.061958 1.178610 0.995563 1.000135 1.070532 1.065802 1.065112 1.111337 1.071993 1.051678 1.034310 0.915051 0.933150 0.952850 0.858516 0.856187 0.738973 0.655958 0.684384 0.586889 1.284055 1.198953 1.001168 1.187149 1.248604 1.148007 1.114791 1.038111 1.169178 1.225823 1.210465 1.034818 0.552410 0.809584 1.088129 1.069152 1.056262 1.065491 1.066375 1.052207 1.080297 1.025596 1.073414 0.977125 1.037219 0.986471 1.039841 0.875537 0.872781 0.802504 0.797611 0.847444 0.942583 0.663906 1.121593 1.178582 0.909875 1.182575 1.189738 1.037075 1.027154 1.079771 1.093741 1.105292 1.144799 1.161900 1.169923 1.175479 1.156742 1.084252 1.162661 1.156090 0.919098 1.059541 1.046094 1.050788 1.002949 0.979509 1.134066 1.152881 1.130504 1.183182 1.195488 1.267012 1.269635 1.308256 0.853956 1.061585 1.278570 1.265809 1.193559 1.225582 1.196362 1.138554 1.267060 1.264218 1.220263 1.230491 0.997635 0.815758 0.944821 1.167950 0.831194 0.560336 1.072956 1.122573 1.124301 1.250466 0.903134 0.998600 0.984727 1.062122 1.101816 1.127817 1.212251 1.197042 1.186215 1.178562 1.174192 1.176183 0.857280 0.863866 0.948310 0.996562 1.044972 1.060905 1.079103 1.047420 1.045248 1.074752 1.019166 0.914097 0.863680 0.824264 1.175381 1.190327 1.111111 1.171101 1.234109 1.244581 1.179059 0.953981 0.910622 0.980976 1.047528 1.096060 1.185848 1.176092 1.094704 1.104341 1.137287 1.116148 0.628061 1.008821 1.007676 0.897255 1.109990 1.096313 1.138078 1.058998 1.055407 1.087494 1.085105 1.047002 1.017336 1.018738 1.035761 1.049438 1.073931 1.059116 1.091162 1.078491 0.999507 0.955997 1.025554 1.133335 1.106844 0.965574 1.010587 1.115013 1.071505 1.001069 0.899406 0.843610 0.952313 0.938032 1.034236 1.029610 1.042977 1.051527 1.079813 1.053419 1.016158 1.035332 1.049659 1.021843 1.018693 1.041810 1.026536 0.957582 1.079113 1.073379 1.022575 0.978321 0.911395 0.737463 0.928765 1.052484 1.077590
1.125488 1.114676 1.107526 1.122956 1.115329 1.060376 1.155278 0.803708 1.129167 0.933625 0.959530 1.228740 1.062032 1.144619 1.191157 1.114101 1.114813 1.126473 1.111300 1.119667 1.095174 1.141394 1.133273 1.138989 1.027036 1.034441 1.009102 1.059253 1.031902 1.028762 1.063321 1.039820 1.051939 1.083244 0.962137 1.005862 1.012331 1.036299 1.073090 1.073316 1.044481 1.033578 1.015898 1.020976 1.020660 1.012806 1.005280 1.025322 1.005621 1.057253 1.043238 1.001713 1.036243 1.054521 1.094410 1.016877 1.010079 1.040030 1.072019 1.040671 1.036839 1.003256 1.090214 1.125652 1.030987 1.017090 1.013297 1.036469 1.075106 0.919210 1.110306 1.176180 1.065507 1.076516 1.166731 1.110474 1.173199 1.202478 1.001566 0.626601 0.863195 1.241933 1.207141 1.090064 1.229056 1.192484 1.114201 1.057568 1.150800 1.146911 0.782440 0.731349 0.782945 0.816743 1.055418 1.124640 1.109054 1.119815 1.134694 1.113079 1.069380 1.078426 1.056682 1.051537 1.065978 1.050269 1.087760 1.056902 1.073767 1.060501 1.060369 1.040175 1.020591 1.035721 1.009647 1.008706 1.035424 0.990172 1.019704 1.006026 1.025157 1.022527 1.004398 1.004659 0.980550 0.963588 1.022824 1.092191 1.006591 0.996679 1.084267 1.126992 0.888373 0.961580 1.099923 1.005849 1.016271 1.118223 1.049573 1.071067 1.061776 1.010522 0.999122 1.025026 1.064291 1.086423 1.085878 1.079935 1.102191 1.106852 1.104560 1.133166 1.139675 1.151813 1.184465 1.169099 1.200577 1.173232 1.194046 1.125425 0.959105 0.785235 1.023205 0.979592 1.005804 1.188867 1.194054 0.969769 0.983983 0.963671 1.179779 1.184113 0.944648 1.030061 1.074538 1.058309 1.042596 1.090433 1.113610 1.057362 1.074461 1.093964 1.095725 1.103115 1.001647 0.986154 1.032705 1.091605 1.138026 0.983458 0.924839 0.945641 1.160829 1.245892 1.234283 1.189077 1.017872 1.082563 1.134668 1.153466 1.236574 1.014190 0.506427 0.774466 0.875418 1.018423 1.084953 1.077346 1.027141 1.055079 1.068621 1.020310 1.081603 0.873043 1.044601 1.063596 1.065274 0.976852 1.061760 0.957455 0.914066 0.708105 0.599576 1.102974 1.247101 1.033714 0.957877 1.187482 1.137722 0.867269 1.022170 1.072282 1.121077 1.136605 1.096393 1.111324 1.172217 1.172284 1.183756 1.145108 1.133627 0.972126 1.025001 1.142563 1.122750 1.082577 1.156311 0.700179 0.853173 1.083708 1.161253 1.261938 1.227822 1.230034 0.999745 1.309289 0.911989 0.747876 1.084929 1.018849 1.175912 1.162701 1.223682 1.193285 1.195810 1.228596 1.176122 1.176982 1.297911 1.278672 0.719783 0.701894 0.628544 0.752555 0.823185 0.644900 1.066329 1.116599 1.208962 1.183028 1.170527 1.234855 1.176823 1.080626 1.214428 1.165863 1.104842 1.033318 1.032622 1.133839 1.091820 0.994151 1.026732 1.023281 1.042656 1.084143 1.082066 1.081512 1.069638 1.084101 1.133520 1.166666 0.972769 0.804370 1.146284 1.184430 0.951852 0.871418 1.070608 1.199470 1.204141 1.002259 0.621663 1.155204 1.211958 1.208093 1.188279 1.160818 1.104977 1.132464 0.919552 0.822741 0.846569 1.181229 1.111833 1.046528 1.056046 1.061833 1.076162 1.079743 1.069022 1.080128 1.068366 1.041466 1.030897 1.036569 1.060180 1.051937 1.068392 1.032349 1.098639 0.969236 0.750272 0.971878 1.080930 1.157940 1.090512 1.070536 1.015549 1.030841 1.159294 1.083190 0.936311 0.815464 0.912183 0.927632 1.038098 1.084659 1.050778 1.031944 1.043279 1.071344 1.046074 1.032437 1.037605 1.021444 1.027704 1.043494 0.992836 0.970082 1.079390 1.032428 1.030286 1.022885 1.011402 0.935300 0.774800 1.012731 1.035839
1.202843 1.200634 1.185931 1.206908 1.118419 1.084427 1.154718 0.872707 1.287265 1.208825 1.124565 1.210395 1.092148 1.121007 1.196141 1.132537 1.179479 1.152974 1.204260 1.197213 1.190031 1.183513 1.172645 1.164241 1.153090 1.078031 1.018544 0.998825 0.994742 0.959505 0.994978 1.037276 0.997590 1.062813 1.020611 1.040856 1.070891 1.078027 1.057066 1.066371 1.060083 1.065576 1.012754 1.003696 1.053143 1.036570 1.030886 1.027050 1.030427 1.051023 1.021958 0.990410 1.034407 1.033424 1.127412 1.041456 0.987244 1.044548 1.063459 1.043330 1.067550 1.017240 1.037713 1.158044 1.118946 1.009527 0.958583 0.890603 0.974262 0.931829 1.054790 1.200748 1.184590 1.192109 1.167811 1.116350 1.185043 1.217383 1.141304 0.842474 0.612016 1.170137 1.252516 0.952097 1.219036 1.163348 1.124621 1.083289 0.896654 1.106044 0.739990 0.941557 1.059039 1.052569 0.963380 0.997334 1.085795 1.127748 1.127389 1.133038 1.111584 1.064041 1.094915 1.048493 1.069655 1.043947 1.079113 1.050602 1.042984 1.020863 1.039327 1.032217 1.025161 1.000110 0.969487 0.949879 0.976793 1.022773 1.009868 0.999290 1.027858 1.005831 0.960914 0.919979 0.903189 0.894224 0.874792 0.962481 0.932827 0.991530 1.056294 1.110557 1.020513 0.926420 1.072133 0.996300 1.085429 1.100935 1.063822 1.091169 1.017275 0.996277 0.989544 0.986638 1.023759 1.039518 1.052008 1.028722 1.085077 1.046005 0.888373 0.894119 1.006909 1.105372 1.164735 1.156803 1.148058 1.104661 1.125515 1.192487 1.207977 1.025969 0.621597 1.151910 1.260764 1.131533 0.934096 0.945293 1.079318 1.132682 1.188972 1.021395 0.890745 1.063651 1.028431 1.043068 1.026340 1.046170 1.110126 1.096447 1.085845 1.045159 1.099400 1.058872 1.007323 1.143570 1.223585 1.247339 1.233489 0.924705 0.636350 1.192922 1.278565 1.273565 1.111569 0.977951 1.114257 1.228429 1.156293 1.087827 1.028214 0.698102 0.894207 1.002584 0.863702 1.046592 1.032634 1.058095 1.041731 1.053708 1.070928 1.017656 1.080411 0.989598 1.000304 1.080139 1.002109 0.992676 0.960018 0.838012 0.924475 0.546503 0.427369 1.078130 1.261624 0.706788 1.147610 1.165424 0.919305 0.952143 1.184608 1.150589 1.109304 1.050665 1.107678 1.069234 1.117132 1.115149 1.180119 1.154266 1.158016 1.048292 1.099693 1.081454 1.128409 1.151922 1.147069 1.022937 1.119987 1.227974 1.195879 1.155306 1.292397 1.187338 0.879887 1.057495 0.771111 0.756669 1.295668 1.230288 1.100049 1.075711 1.233321 1.187370 1.220793 1.256834 1.047144 0.889274 1.325536 1.299923 0.808164 1.193862 1.328425 1.321129 1.310603 1.209901 1.137029 1.124179 1.227575 1.213814 1.224248 1.203498 1.145877 1.166688 1.168293 1.037029 0.971291 1.071210 1.134114 1.121765 1.089701 0.960163 1.057575 1.049550 1.067516 1.078149 1.084137 1.027321 1.027912 1.042843 1.056865 1.024841 1.040847 0.774874 1.157780 1.205523 1.073179 0.931809 0.666911 0.823674 1.253855 0.869275 1.151351 1.264476 1.142849 1.209410 1.204676 1.062449 1.161591 1.178048 0.675248 0.885424 1.047826 0.927727 1.031737 1.114791 1.093332 1.050362 1.058306 1.048752 1.036091 1.034183 1.033398 1.039914 1.058762 1.054641 1.075486 1.043489 1.059371 1.020014 1.098438 1.163757 0.702938 0.883812 1.039011 1.138793 1.085985 1.067058 1.080474 0.995698 1.132574 1.179763 1.086707 0.959543 1.030842 1.020613 1.065892 1.095321 1.103366 1.086390 1.072701 1.089001 1.113030 1.089317 1.076495 1.061378 1.070789 1.040353 0.982088 1.003713 1.083067 0.975182 1.036670 1.052330 1.025061 0.976920 0.826406 0.887535 1.049944
1.145955 1.140717 1.112651 1.229987 1.236361 1.176203 0.978441 0.556081 0.729415 0.990261 1.229315 1.254175 1.209251 1.170961 1.108784 1.108770 1.223390 1.217899 1.202471 1.165765 1.098904 0.998537 1.046177 1.090857 1.157459 1.148727 1.021591 1.034510 1.052579 1.024150 1.049104 1.038754 1.037394 1.042971 1.080954 1.078337 1.080874 1.044546 1.023990 1.050723 1.016452 1.061192 1.051006 1.013532 1.042176 1.040301 1.038579 1.024293 1.059329 1.067216 1.066088 0.993479 1.034408 1.002575 1.120683 1.096785 0.996853 1.015283 1.034508 1.074954 1.097923 1.024693 1.051228 1.110907 1.162983 1.087911 1.032434 1.000541 0.953259 0.841138 0.812994 1.016218 1.174232 1.120213 1.182741 1.160373 1.193709 1.217587 1.234800 1.189147 0.758755 1.157978 1.270726 0.856553 1.188235 1.234575 1.154408 1.112535 0.651082 0.853786 0.928412 1.082792 1.186327 1.141975 1.088416 0.948103 1.039416 1.107443 1.120986 1.070807 1.077327 1.081006 1.056074 1.049897 1.061688 1.025949 1.059913 1.044960 1.020707 1.021472 1.044690 1.011904 1.000359 0.976575 0.999594 0.995987 1.005535 1.027858 0.997410 1.000742 1.024218 1.002494 0.982719 0.996330 0.989332 0.943135 0.964535 0.945460 0.833842 0.890077 0.957770 0.940127 0.982865 0.856367 1.013539 1.051684 1.126345 1.109315 1.099853 0.941725 0.977944 1.037742 1.015150 0.994368 1.011887 1.039416 1.053392 1.064480 1.086266 1.100700 1.105463 1.050923 0.811025 1.001165 1.128130 1.105928 1.218715 1.190304 1.104681 0.993015 1.030850 1.166904 0.893329 1.010746 1.036161 1.066607 1.122717 1.059133 1.018949 1.160145 1.190871 0.916768 0.831670 1.104810 1.093966 1.077366 1.070841 1.091977 1.091200 1.093571 1.080658 1.082272 1.037728 1.065973 1.187623 1.199892 1.178964 1.009716 0.873731 0.691064 0.785202 1.135621 1.149958 1.059356 0.847489 1.099375 1.177640 1.255732 1.259975 1.100563 0.558220 0.917657 1.243506 1.219427 1.202143 1.182563 1.103347 1.068488 1.038239 1.036476 1.049308 1.017871 1.057467 1.029785 0.985211 1.099416 1.054211 1.138743 1.156053 1.142602 1.112128 1.032884 0.478879 0.720779 1.196438 0.988985 1.257482 1.247385 0.919362 1.148295 1.219038 1.190725 0.933457 0.965212 1.044689 1.018496 1.103174 1.096864 1.142417 1.182839 1.186764 1.146119 1.160684 1.099229 1.109920 1.153143 1.206280 1.129178 1.062319 1.267533 1.237564 1.145129 1.277776 1.013193 0.543375 1.008558 1.204607 1.134693 0.695939 0.842410 1.182848 1.273434 1.281533 1.202803 1.288319 1.258142 1.100769 0.935877 0.883440 0.710214 0.794813 1.346369 1.329648 1.246455 1.159292 1.154440 1.171406 1.256885 1.247496 1.222244 1.232999 1.199007 1.171992 1.178497 1.099935 0.818124 0.973462 1.092000 1.100369 1.098533 1.135954 0.964877 1.024894 1.073837 1.078878 1.084214 1.069621 1.033745 0.977737 0.907029 0.957581 0.937604 0.941646 0.853685 1.136963 1.234010 1.167062 1.012244 0.703296 0.626585 1.110295 0.664698 1.116485 1.073173 1.059207 1.233818 1.192415 1.065135 1.214524 1.039756 0.571775 0.994440 1.168937 1.084312 1.039849 0.992628 1.054274 1.047631 1.065191 1.039441 1.045021 1.053023 1.071323 1.071188 1.057497 1.062667 1.102340 0.994882 0.948709 1.050183 0.872862 1.156766 0.850379 0.885791 1.062071 1.163614 1.057386 1.006919 1.030394 0.923073 1.087953 1.141302 1.076508 1.084320 1.108007 1.108149 1.107552 1.099383 1.097187 1.106570 1.106448 1.077368 1.024338 1.051992 1.053988 1.030394 1.047523 1.056146 1.005731 1.030206 1.081910 1.048945 1.040511 1.047648 1.017474 0.956572 0.842366 0.671062 1.033002
0.989420 0.844387 0.768431 1.100524 1.242388 1.249832 1.149594 0.747064 1.066035 1.168150 0.996118 0.985492 0.902062 0.948582 1.012460 0.943723 0.843485 0.807782 0.784843 0.855849 0.991592 0.940187 0.915688 0.920473 0.965011 1.114090 1.075546 1.001785 1.043102 1.017414 1.055706 1.078973 1.082916 1.081922 1.046129 1.061728 1.068592 1.050212 1.024178 1.030887 0.977689 1.062840 1.087851 0.973619 1.034491 0.976234 1.028066 1.004348 1.040584 1.067567 1.070571 0.984185 1.002685 0.995218 1.101553 1.138345 1.032121 1.034827 1.004961 0.991558 1.017948 1.042351 1.040803 1.057764 1.167565 1.104350 1.064685 1.092990 1.049176 0.955958 0.868460 0.854691 1.069218 1.160812 1.171821 1.101490 1.108739 1.133169 1.001941 0.902063 0.683594 1.234286 1.277991 0.853052 1.144240 1.135844 1.164240 0.937344 0.716338 0.990898 1.151726 1.111467 1.139282 1.105502 1.126281 1.053038 0.931645 1.083434 1.067382 1.077401 1.069167 1.100352 1.092614 1.023592 1.048045 1.060026 1.063355 1.044053 1.028649 1.028037 1.034532 1.002004 0.979749 0.973708 1.027180 1.017786 1.030291 1.001469 0.994628 1.013135 1.019607 1.027653 1.021667 1.031003 1.047889 1.032513 1.008470 0.969969 0.942269 0.924884 0.865190 0.834710 0.827363 0.745470 0.768595 1.118485 1.125553 1.102748 1.037109 0.897084 0.982456 1.051271 1.032396 1.051944 1.034747 1.046109 1.049003 1.062879 1.083816 1.092205 1.029112 1.032514 0.948272 0.744980 1.132594 1.100999 1.189787 1.236780 1.175850 1.224008 1.221158 1.101387 0.630282 1.136055 1.206643 1.104227 1.066352 1.074573 1.112766 1.199165 1.196264 0.972143 0.785765 1.070602 1.066772 1.067667 1.096730 1.096826 1.100480 1.100209 1.075959 1.087608 1.111022 1.078709 1.080500 1.121944 1.051050 0.807725 1.206028 1.214198 1.234092 1.113489 0.764777 0.558984 0.892565 1.249471 1.162511 1.184288 1.275090 0.975826 0.930132 1.266808 1.248528 1.037975 1.051414 1.061659 1.090408 1.085596 1.061788 1.032929 1.045265 1.017999 1.029960 1.067332 1.032989 1.109947 1.043896 0.981515 0.864140 0.892365 0.804847 0.843180 0.693064 0.488499 0.768355 1.178140 1.268739 1.120390 1.014108 1.208233 1.249658 1.107448 0.997939 1.214142 1.158666 1.121341 1.050529 1.014086 1.068303 1.103773 1.186328 1.189273 1.194473 1.184562 1.186592 1.213245 1.153994 1.023747 1.082261 1.263449 1.233050 1.197990 1.315935 1.044104 0.698510 1.110049 1.125196 1.201331 0.972926 1.065574 1.219866 1.207855 1.238053 1.293696 1.316910 1.001184 0.588359 0.726542 0.801281 0.514736 0.494116 0.643426 0.775423 0.959546 1.147294 1.179743 1.150829 1.196820 1.153540 1.183859 1.240607 1.206715 1.138126 0.969730 0.673648 0.762212 1.096069 1.080093 1.066533 1.053106 1.090837 1.072791 1.080439 1.085949 1.075539 1.065791 1.036192 1.037730 1.126757 1.152546 1.048790 0.860763 1.034480 0.852902 0.819440 1.240724 1.160650 1.133539 0.922874 0.683915 0.757066 0.438463 0.680615 0.966481 1.028033 1.251597 1.022995 1.052643 1.175995 0.841942 0.697160 1.131317 1.177362 1.104674 1.118121 1.127669 1.085701 1.050521 1.051377 1.055472 1.066552 1.058534 1.058052 1.062078 1.017041 0.996612 1.115367 1.126193 0.862444 0.624376 1.003438 1.190645 1.015365 0.975185 1.083875 1.175651 1.074135 1.008666 0.966024 0.831106 0.838897 0.907494 1.066944 1.101185 1.108726 1.086891 1.111177 1.085049 1.028186 1.013776 1.012727 1.027449 1.014579 1.039588 1.012621 1.003505 1.024701 1.025055 1.027203 1.070594 1.079185 1.032064 1.035347 1.016559 0.962494 0.865108 0.737662 0.773741 0.933157
1.140350 0.943925 0.911035 1.106113 1.129357 1.098982 1.260513 1.004380 1.133641 1.146500 1.187290 1.216389 1.211609 1.128371 1.045015 1.093555 1.089200 1.005294 0.858435 1.072520 1.098151 1.035245 1.030278 0.987555 1.019061 1.025661 1.089351 1.022148 1.038522 1.061243 1.084612 1.082484 1.067246 1.030386 1.024387 1.056717 1.048504 1.039248 1.048173 1.051061 0.967101 1.108831 1.107326 0.991115 1.024533 1.072665 1.096768 1.048694 1.016383 1.032604 1.039262 0.977215 1.008536 1.029817 1.106856 1.146057 1.014195 0.993528 1.023826 0.980301 1.022530 1.061588 1.068621 1.044851 1.173360 1.175276 1.111468 1.145719 1.152742 1.084285 1.003847 1.023075 0.860767 0.953891 1.213881 1.092948 1.138672 1.025842 0.853637 1.118549 0.908244 0.838251 1.192164 0.911152 1.182281 1.168993 0.999638 0.972296 1.113462 1.026977 1.153655 1.068119 1.113158 1.108085 1.083391 1.124440 1.003881 0.890865 0.990910 1.074643 1.085593 1.069045 1.111928 1.105633 1.055096 1.022286 1.037463 1.032748 1.017717 1.012485 1.006020 0.986683 0.986589 1.010631 1.006616 1.019319 1.006137 0.992753 1.011643 1.022808 1.012469 1.064206 1.019589 1.055381 1.071715 1.061836 1.053981 1.030581 1.076327 1.070048 1.051033 1.042953 1.010615 0.940621 0.794824 1.008891 1.093794 1.058672 1.006348 0.922463 0.868831 1.014924 1.040839 1.087340 1.069298 1.041544 1.045687 1.071386 1.079541 1.094942 0.973379 0.914915 0.966473 0.863198 0.736560 0.891563 1.046147 1.203520 1.184351 1.243333 1.234976 1.260804 0.844349 0.756946 1.111581 1.175689 1.080685 1.081033 1.139148 1.200157 1.190925 0.905817 0.832688 1.071043 1.129829 1.088994 1.066148 1.041802 1.054970 1.108179 1.072883 1.085610 1.085811 1.079077 1.001764 1.081825 1.161425 1.114904 1.248405 1.190058 1.040112 0.808098 1.094558 0.798411 0.574946 1.228633 1.233841 1.250182 1.038211 0.707748 1.196574 0.976883 0.870264 0.875519 0.991265 1.049942 1.101981 1.077213 1.074619 1.072876 1.055603 1.018197 1.017574 1.050278 1.019153 1.068553 0.819784 0.873145 1.034893 1.071320 0.913441 0.916425 0.861474 0.868226 0.472448 0.765481 1.144260 0.747142 1.212479 1.212153 0.724718 0.791278 1.253827 1.247353 1.112381 0.839225 0.977360 1.037771 1.103062 1.110369 1.147188 1.198507 1.198221 1.200261 1.165982 1.211541 1.222371 1.097742 1.190978 1.240707 1.220918 1.064663 1.193078 0.853892 1.018054 1.282789 1.259603 1.176507 1.060907 0.737608 1.235380 1.152882 1.082361 1.153497 1.037196 0.866481 0.630834 1.202566 1.267252 1.145068 1.176346 1.070277 0.858716 1.189804 1.281305 1.182089 1.172646 1.223609 1.232714 1.175645 1.188955 0.875513 0.642197 0.637287 0.829095 0.877849 1.058772 1.094112 1.068390 1.080160 1.067418 1.055205 1.078669 1.075326 1.076518 1.049095 1.075428 1.056664 1.020795 1.120595 1.176387 1.097417 0.952415 0.936527 0.726821 1.250650 1.259734 1.110691 0.997656 0.550357 0.478485 0.349768 0.549842 0.616503 0.922750 1.217559 0.923176 1.047159 1.052965 0.677961 0.913515 0.946145 1.076028 1.132858 1.047389 1.015125 1.058062 1.054986 1.057899 1.061435 1.050056 1.033927 1.039789 1.049373 0.935225 0.927549 1.087415 1.127340 1.018971 0.584197 0.791083 1.051894 0.957343 1.050987 1.127609 1.177190 1.137444 0.993953 1.023569 0.906877 0.865826 0.932047 1.047703 1.061529 1.080836 1.048150 1.065019 1.098872 1.074682 1.055328 1.032338 1.053395 1.045463 1.030181 1.021214 1.018549 1.014392 1.041525 1.033421 1.072372 1.038687 1.002476 0.992882 0.952793 0.908267 0.818288 0.732134 1.043640 1.083441
1.190818 0.910893 1.177045 1.263903 1.251870 1.026933 1.022573 0.737385 1.132432 1.224181 1.083124 1.134909 1.231418 1.218336 1.214136 1.207874 1.205861 1.143942 0.945442 1.039012 1.138109 1.075701 1.029996 1.043676 1.063095 0.999575 1.033725 0.997140 1.044984 1.085440 1.083753 1.069124 1.073342 1.014279 1.003605 1.073874 1.044525 1.046414 1.077911 0.996925 0.958101 1.154008 1.121469 0.969714 0.993688 1.018228 1.081448 1.102551 1.019053 1.009954 0.993248 1.048038 1.065264 1.063745 1.150038 1.160584 1.034287 0.983765 1.020993 1.016435 1.089064 1.024372 1.077812 1.033917 1.105082 1.178336 1.076138 1.055546 1.124714 1.186308 1.105654 1.042188 1.038090 0.944309 0.919631 0.737173 0.656497 0.890141 1.188319 1.182652 1.076948 0.945275 0.703565 0.665954 1.041569 0.951116 0.924513 1.122367 1.184565 1.062372 1.090363 1.057047 1.083505 1.094352 1.102829 1.143128 1.133851 0.963877 1.024105 1.050608 1.062240 1.058459 1.062335 1.082080 1.091648 1.049644 1.046469 1.016905 0.978075 0.956003 0.955490 0.997171 1.006855 1.019733 1.034857 1.009772 0.990455 1.004012 1.028412 1.017784 1.004817 0.978663 1.027059 0.990012 1.048736 1.079542 1.092923 1.095734 1.103427 1.104439 1.107877 1.110307 1.093390 1.065597 0.978290 0.837897 0.966871 0.951234 1.068086 0.880386 0.848016 0.995594 1.045559 1.084889 1.019268 1.023591 1.021818 1.085032 1.061765 1.101494 1.060112 1.161406 1.191769 1.213172 1.216422 0.913062 0.745531 1.089377 1.201401 1.210349 1.135776 1.247333 0.523943 0.762119 1.277582 1.257637 1.195460 1.152555 1.215267 1.206193 1.163272 0.852335 1.117196 1.087001 1.053030 1.041287 1.034178 1.040215 1.056426 1.090377 1.105793 1.115221 1.080831 1.038025 1.008495 0.992290 1.063094 1.134866 1.194715 1.118054 1.110348 1.114133 0.948978 1.139719 0.788686 1.183458 1.231245 1.203050 0.694620 0.572303 0.661672 0.644214 0.857620 1.001360 1.044029 1.059297 1.082570 1.058260 1.046623 1.052278 1.063498 1.022865 1.013793 1.030366 1.074628 1.052366 0.830889 0.983192 1.113377 1.068909 1.045937 1.020188 1.029603 0.953644 0.863732 0.400539 0.655243 1.160112 1.272750 1.087107 0.584028 1.079790 1.264874 1.261722 0.741980 0.904352 1.159873 1.137415 1.218316 1.105580 1.037719 1.125261 1.079146 1.101352 0.984243 1.166266 1.215142 1.096128 1.030279 1.036901 1.223420 0.782844 0.621934 0.466481 0.880375 1.248947 1.276523 1.207829 1.143688 0.684690 1.268602 1.185542 1.169200 1.215539 1.221126 0.984529 1.078741 1.165236 1.137274 1.241099 1.246373 1.265252 1.280334 1.182641 1.224947 1.222462 1.260929 1.259768 1.168443 0.908723 0.765953 0.832744 0.955980 1.046697 1.026095 1.037411 0.957065 0.975113 1.054039 1.074289 1.049923 1.040429 1.092261 1.021031 1.051482 1.070204 1.074085 1.094919 1.013094 1.004852 1.129849 1.204452 1.098612 1.044361 0.920444 1.195952 1.210475 0.950954 0.509038 0.843546 1.125240 0.685383 0.935757 0.900511 1.196605 1.110111 1.192186 1.147671 1.219377 1.058390 1.088181 1.056588 0.971285 0.958767 1.036773 1.073504 1.064635 1.059464 1.069957 1.055390 1.054472 1.072101 1.067638 1.019317 0.764846 1.003225 1.107285 1.132630 1.092848 0.866509 0.622571 0.840803 0.938834 1.137986 1.184625 1.122568 1.155539 1.072655 0.927605 0.963462 0.993722 1.010293 1.057801 1.092755 1.062013 1.060916 1.080361 1.068183 1.044386 1.038178 1.061242 1.063188 1.021369 1.011284 1.025398 1.016225 1.034796 1.037649 1.032973 1.058218 1.007252 0.992884 1.007547 0.980287 0.926180 0.838495 0.815049 1.061864 1.106309
0.920604 0.848712 1.182208 1.263402 1.181732 1.093962 0.998728 0.923379 1.278602 1.266758 1.205431 1.203957 1.176639 1.229242 1.172235 1.160417 1.201919 1.190369 1.107569 0.970121 1.120501 1.092782 1.008978 1.046075 1.045162 1.026731 1.060602 1.063867 1.084968 1.087307 1.060588 1.010022 1.012642 1.124127 0.969243 0.991646 1.088858 1.056562 0.954043 0.733138 0.998913 1.164508 1.162649 0.952281 0.805454 0.920868 1.032403 1.132127 1.111477 0.955670 1.082499 1.081067 1.083440 1.067605 1.097649 1.166719 1.025885 0.994936 0.970763 1.047365 1.098295 1.003338 1.043155 1.035707 1.085691 1.183213 1.117611 1.016361 1.104216 1.149517 1.164529 1.079249 1.227133 1.075732 1.087662 1.213921 0.827528 1.140966 1.283381 1.010045 1.256170 1.255327 0.836119 0.823750 0.926451 0.996931 1.166954 1.182815 1.165626 1.100747 1.106800 1.097415 1.096652 1.093169 1.095369 1.095016 1.096763 0.976052 0.988290 1.047246 1.027515 0.992469 1.035296 1.062831 1.053208 1.089338 1.074617 1.089252 1.091063 1.028400 1.004066 0.999824 1.001736 1.040415 1.017062 0.994424 1.006861 1.030223 1.030956 1.008695 0.970166 0.953300 1.093557 0.947607 0.989217 1.065146 1.081524 1.092378 1.097296 1.104776 1.102279 1.093418 1.107881 1.117665 1.080966 1.004109 0.831125 0.723200 0.931594 0.868193 1.041374 0.951542 1.018945 1.085937 1.036065 1.024610 1.041135 1.073272 1.063901 1.102014 0.933048 0.864982 0.892847 0.911092 0.955620 1.043304 0.812638 0.649374 1.038836 1.089050 1.084201 1.266641 0.684579 1.300203 1.187061 1.176717 1.196664 1.179601 1.208729 1.089751 1.159034 0.857892 1.152817 1.028993 1.083658 1.114273 1.047139 1.069502 1.088172 1.064045 1.113298 1.112897 1.109264 1.045745 1.026346 1.078842 1.081634 1.163351 1.228522 1.192002 1.250446 1.201123 1.233235 1.229369 0.622165 0.704118 0.931419 0.790841 0.528034 1.143879 1.094924 1.041237 1.033773 1.063272 1.003971 0.997373 1.024555 1.027935 1.025337 1.057654 1.052050 1.035723 1.015083 1.015570 1.045440 1.086300 0.963114 1.010644 1.100909 1.093237 1.054669 0.934992 0.945109 1.052079 0.954729 0.539268 0.767950 1.287618 1.284431 1.026644 1.098530 1.264250 1.258979 0.936771 0.920122 1.141752 1.160091 1.181257 1.233808 1.058452 1.092992 1.152076 0.949287 1.043341 0.984496 1.149739 1.199807 1.127187 1.103054 0.973964 0.925408 0.756728 0.507178 0.601124 0.651886 0.870719 1.130315 1.165684 1.263024 0.951825 1.246508 1.181251 1.206543 1.287282 1.100162 0.520116 0.910243 0.944451 1.192619 1.342329 1.265974 1.148634 1.234309 1.209896 1.225688 1.253866 1.182526 1.228026 0.726167 0.747532 1.250598 1.240414 1.125394 1.184447 1.135275 1.114931 1.085803 0.959108 0.994793 1.063515 1.088864 1.066887 1.092533 1.051117 1.024058 1.063756 1.075329 1.088491 1.076844 0.977417 1.004983 1.196022 1.241357 0.978984 1.200491 0.832710 1.273592 1.175247 0.741770 1.114517 1.234374 1.088287 0.925222 0.875822 1.192037 1.196555 1.151375 1.162307 1.220642 1.120119 1.115472 1.109861 1.103060 1.069407 1.037531 1.068212 1.041577 1.070157 1.080633 1.071782 1.026462 1.076574 1.037360 0.995577 0.672799 0.926235 1.148208 1.138638 1.152110 0.970806 0.792320 0.810855 1.005092 1.136622 1.180786 1.109265 1.159487 1.095090 0.833450 0.923793 1.020406 1.035550 1.035310 1.077284 1.092192 1.068895 1.083445 1.065161 1.040776 1.044374 1.055976 1.071781 1.043020 1.029805 1.036143 1.013022 1.021306 1.040440 1.050067 1.047273 1.085267 1.042968 1.017381 0.983195 0.933964 0.829295 0.941277 1.114155 1.138761
0.526306 0.670292 1.091781 1.151547 1.029608 0.979334 0.577704 0.731419 0.965600 0.995043 1.026702 1.184332 1.038869 0.971436 1.013398 0.969654 1.024132 1.130146 1.177176 1.009016 1.055415 1.121518 1.021008 1.057073 1.056863 1.039895 1.075842 1.085150 1.090601 1.062085 1.012101 0.918257 0.971850 1.139615 1.120236 0.891856 0.873413 1.088210 1.008358 0.727601 1.093216 1.172673 1.169797 1.008163 0.857118 0.730514 1.075095 1.157801 1.143424 0.946914 1.135425 1.105507 1.040363 1.023526 1.088262 1.170304 1.045807 1.025574 0.980986 0.974972 1.062028 1.033726 0.892074 1.036077 1.129294 1.189161 1.174602 0.959861 0.975775 1.188268 1.217379 1.191457 1.152690 1.108364 1.222401 1.108371 0.582648 0.906274 1.171288 1.048645 1.143574 1.174124 1.038020 0.901265 1.113114 1.109044 1.117085 1.120767 1.125031 1.105473 1.109410 1.077960 1.071380 1.057909 1.067748 1.109800 1.133908 1.115251 1.038421 1.064560 1.041571 0.902126 0.925557 1.038141 1.055950 1.034942 1.013565 1.020135 1.057884 1.071808 1.049848 1.018100 1.018454 1.026306 1.005075 1.005652 1.024542 1.030339 1.034898 1.006001 0.923398 1.014700 1.102038 0.993104 0.956023 0.979248 0.958782 0.970325 1.027113 1.062522 1.090331 1.095055 1.099150 1.111899 1.112847 1.093947 1.008243 0.711528 0.606429 0.886125 1.071987 0.985160 1.022527 1.004287 1.031942 1.013097 1.037827 1.071630 1.072263 1.103948 1.035066 1.036469 1.050118 0.935486 0.851274 0.870597 0.960435 0.979493 0.706746 0.631601 1.270999 1.232723 0.854129 1.040600 1.047341 1.148273 1.046383 1.186234 1.206746 1.071528 1.135220 0.867247 1.113404 1.003443 1.172366 1.190051 0.997950 0.983104 1.077578 1.047072 1.090593 1.114207 1.118536 1.072587 0.989320 0.960288 0.837861 1.053822 1.244782 1.191783 1.261697 1.052242 1.040788 1.076216 0.957776 0.963045 1.144550 1.105470 0.757271 0.966856 1.233776 1.223480 1.166989 1.086179 1.102038 1.152399 1.141784 1.070070 1.055734 1.050963 1.049947 1.057258 1.022777 1.013473 1.017838 1.068157 1.022035 1.083104 1.085141 1.097367 1.064810 0.906543 0.993812 1.193807 1.101027 0.763741 0.595226 0.924635 0.850985 1.152310 1.171468 0.543050 0.678257 0.826364 1.163300 1.238152 1.243928 1.221228 1.117263 1.118234 0.894320 1.105657 0.720793 1.065665 1.140491 1.218899 1.216235 1.194829 1.125660 0.963473 0.762282 0.733220 0.975367 1.072526 1.011113 1.017490 1.274595 1.230361 1.290474 1.056782 1.163546 1.182889 1.203876 1.137714 1.093934 1.108673 0.591337 0.481979 0.958397 0.961586 1.044125 1.121428 1.252168 1.300586 1.295536 1.250574 0.899939 0.913149 0.621559 0.902443 1.197220 1.184686 1.189859 1.175326 1.065648 1.093770 1.138789 1.095267 1.057640 1.056922 1.036733 1.097486 1.096352 1.006460 0.976379 1.017943 0.950940 0.936447 0.819755 0.749262 0.864439 1.161037 1.180205 1.032983 1.256346 1.067540 1.011490 1.221435 0.408070 0.636055 1.190244 1.263095 1.009570 0.843190 0.779743 1.050195 0.972552 0.838609 1.015535 1.094227 1.060169 1.043929 1.073792 1.094152 1.075467 1.077345 1.068052 1.066463 1.041290 1.042451 1.006540 1.076637 0.977429 0.877314 0.721243 1.027981 1.155316 1.149213 0.964635 1.090185 0.702459 0.824953 1.098295 1.055433 1.139493 1.025253 0.953018 0.991324 0.990740 1.043664 1.076441 1.078103 1.081971 1.088184 1.085861 1.055178 1.074769 1.044266 1.032999 1.030192 1.026661 1.013633 1.030165 1.039076 1.027066 1.035969 1.082887 1.065881 1.044700 0.997247 1.028962 1.086999 1.075484 1.010524 0.932702 0.786236 1.000885 1.138474 1.084400
0.743645 0.532683 0.711144 0.681654 0.820457 0.883270 0.921283 0.979056 1.244374 0.932313 0.587228 0.836545 0.957024 1.008420 0.845482 0.703946 0.798090 0.992826 1.123900 1.089305 1.016270 1.095120 1.053227 1.039634 1.090518 1.088153 1.089813 1.092016 1.059018 1.053170 1.044452 0.841797 0.876805 1.149865 1.155136 1.089938 0.928983 0.854614 0.885738 0.733880 1.007495 1.126260 1.174418 1.089435 0.971733 0.673382 1.104283 1.199415 1.156843 1.014434 1.107291 1.117203 0.949540 1.043858 1.121834 1.173263 1.079872 1.017241 1.075455 0.976549 1.037101 1.130819 0.791408 1.066215 1.164046 1.197735 1.202373 1.115005 0.874914 0.971203 1.210155 1.248138 1.256550 1.071929 1.100591 1.068847 0.745014 1.158664 1.208709 1.192451 1.181632 1.219141 1.198141 1.121112 1.192833 1.106090 1.021569 1.048015 1.065719 1.082028 1.094554 1.076168 1.093363 1.067618 1.053394 1.041676 1.046730 1.087863 1.085505 1.070337 1.066823 0.996087 0.968908 1.026738 0.979376 1.021967 1.041899 1.039818 1.014438 0.992973 0.965301 0.972025 1.032754 1.019264 1.004474 1.010149 0.994960 1.008397 0.996280 0.955287 0.968104 1.027383 1.085425 1.103487 1.115514 1.094178 1.057571 1.027540 0.947129 0.908431 0.996017 1.078193 1.073801 1.107678 1.135585 1.134136 1.024594 0.743875 0.998609 1.021926 1.089104 1.133886 1.041624 0.984370 1.031398 1.027761 1.047111 1.078913 1.080833 1.105807 0.990993 1.010118 1.120286 1.200444 1.134000 1.042124 0.993486 1.021840 0.813491 0.704444 0.585040 0.771122 0.794920 0.649240 1.204137 1.091666 1.158477 1.163959 1.081855 1.183269 1.157145 0.792522 1.032453 1.159856 1.205741 1.050732 0.744505 0.948891 1.030307 1.012064 1.054005 1.117517 1.115599 1.095772 1.099478 0.916243 0.722570 1.027192 1.215412 1.031383 1.272402 1.274025 1.040900 0.938649 1.236291 1.252188 1.228783 1.239778 1.069238 0.943999 0.923029 1.024922 1.100348 1.106851 1.089643 1.094086 1.041345 1.037852 1.039210 1.050812 1.066954 1.063787 1.050938 1.022382 1.015557 1.028417 1.064248 1.084419 1.091746 1.103684 1.095940 1.044619 1.170772 0.989405 0.983730 0.876888 1.017696 0.810344 0.615949 1.281893 0.738734 0.603208 1.129000 1.247177 1.205644 1.256773 1.228856 0.996823 1.079700 1.231368 1.185616 0.592669 1.030866 1.070238 1.069270 1.179494 1.215783 1.210073 1.145332 0.898206 0.876661 0.882769 1.144222 1.262650 1.147318 1.230064 1.241224 1.268292 1.087956 0.923482 1.154309 1.165331 1.150192 0.957550 0.794579 0.999775 0.701766 0.902645 0.800359 1.065548 0.939074 0.920537 0.952004 1.048976 0.998451 0.635094 0.529939 0.853585 1.301608 1.183924 0.922468 0.797105 1.033606 1.105035 1.051279 1.134460 1.106281 1.070375 1.027496 1.069210 1.081279 1.098345 1.101338 1.039075 1.051255 1.102165 1.173775 1.131900 1.040744 0.936564 0.707251 0.805874 1.056563 1.091624 1.196100 1.276796 0.586485 1.108615 0.604059 0.806148 1.246323 1.269287 1.267676 1.034936 0.755294 1.010298 1.176166 1.082264 0.863439 1.013222 1.051504 0.917000 1.024783 1.072802 1.069184 1.061380 1.069980 1.059807 1.077931 1.054737 0.962784 1.088631 0.868472 0.744684 1.101533 1.129593 1.138641 1.159521 0.996263 0.901394 0.572811 0.900315 1.157881 1.124561 1.167765 0.924423 1.008144 1.002176 1.050677 1.045927 1.050212 1.055903 1.053707 1.071289 1.064324 1.051472 1.083240 1.057311 1.030968 1.038239 1.028595 1.007305 1.023936 1.023872 1.043881 1.090202 1.064448 1.021876 1.026353 1.053299 0.969230 1.053827 1.089230 1.029850 0.890777 0.917666 0.986404 1.096823 0.993289
0.845253 1.244168 1.263181 0.942486 1.164005 1.269582 1.266630 1.257639 1.103982 1.134134 0.951699 0.678417 1.078070 1.249683 1.232095 1.217794 1.076857 0.970043 0.999065 1.053623 1.041227 1.074841 1.063359 1.089892 1.090370 1.055748 1.042218 1.060525 1.024006 1.067313 1.117221 0.826280 0.981204 1.154159 1.054323 1.009980 1.051960 0.964581 0.812562 0.618312 1.005379 1.091068 1.181297 1.142659 0.986072 0.632334 1.060427 1.170614 1.133348 1.049988 1.094974 1.144482 0.929601 1.014694 1.065552 1.177363 1.138583 0.972682 1.070372 1.082702 0.921565 1.000520 0.657150 1.129374 1.153367 1.186312 1.082357 1.128676 0.945866 0.737463 1.026574 1.101007 1.170684 1.210915 1.028506 1.022789 1.225067 1.284392 1.184727 1.165345 1.016691 1.151302 1.126932 1.129507 1.137049 1.102631 1.127172 1.038602 1.085307 1.117249 1.109207 1.094933 1.098920 1.113072 1.097247 1.097252 1.101393 1.045287 1.036019 1.077215 1.081368 1.061991 1.035076 1.002477 0.993016 1.009226 1.050780 1.013873 0.991875 0.963778 0.966333 0.981506 1.032731 1.001675 1.012095 0.989841 1.021374 0.992263 0.983630 0.982301 0.983075 0.992786 1.068262 1.059635 1.064223 1.082349 1.109058 1.101282 1.093329 1.057153 1.045815 1.045504 1.013966 1.043153 1.036626 0.982299 0.972674 0.646106 0.917891 1.219090 1.106346 1.121989 1.132975 1.089465 1.070835 1.043077 1.071413 1.075933 1.067888 1.072496 1.136271 0.983685 0.995567 1.203228 1.184898 1.056830 1.158434 1.249682 1.125226 1.144597 1.030598 1.014489 1.191263 0.527341 0.800251 1.185554 1.231940 1.167483 1.202537 1.230243 0.966842 0.985528 1.135101 1.221760 1.206662 1.127138 0.958726 1.062852 1.076048 0.981595 1.048436 1.113292 1.116493 1.087293 1.143604 1.136150 0.916895 0.700342 1.156711 0.671603 1.165756 1.188677 0.861332 0.826388 1.291021 1.249765 1.251823 1.198082 1.144293 1.143949 1.111545 1.085048 1.146046 1.176567 1.140019 1.130074 1.125600 1.069339 1.106752 1.085658 1.041394 1.036555 1.076427 1.072294 1.054644 1.055080 1.073678 0.963766 1.082375 1.094199 1.061566 1.080585 0.974840 0.835511 0.976942 1.160510 1.135839 1.045885 0.761127 0.731791 0.621880 1.217321 1.289060 1.271585 1.225747 1.180464 1.021001 1.128874 1.234103 1.110199 1.287925 0.589096 0.957170 1.099582 1.095742 1.163635 1.216796 1.200866 1.137497 1.016356 0.948860 0.976504 1.194871 1.238176 1.194259 1.285035 1.304319 1.301878 0.716896 1.060658 1.215772 1.074942 1.024399 1.339339 0.963301 0.621206 0.990265 1.198846 0.815342 1.003049 1.015762 1.139574 1.134346 1.011350 1.172922 1.195910 1.030101 0.731165 1.136236 1.187250 1.149694 1.129880 0.837823 1.028803 1.151099 1.101656 1.046232 1.066054 1.024664 1.074769 1.105567 1.056257 1.074175 1.052354 1.030730 0.909224 0.989212 1.161184 1.223604 1.225371 1.159266 0.685278 0.935991 1.059005 1.277566 1.221050 0.648732 1.184962 1.170741 0.758934 0.969766 1.226749 1.251827 1.189835 0.969397 0.830075 1.017858 1.137402 1.052123 1.066747 1.060575 1.037472 1.028402 1.096216 1.073861 1.082062 1.101303 1.062769 1.078114 1.009891 1.014428 1.040137 0.892418 1.053612 1.166561 1.087982 1.167233 1.168597 1.005646 0.997296 0.725139 0.856843 1.187204 1.165572 1.071569 1.021131 1.065245 0.998671 1.060407 1.103822 1.051661 1.053644 1.051881 1.047169 1.049521 1.018951 1.022460 1.030683 1.054144 1.065405 1.050902 1.034142 1.018591 1.025972 1.088551 1.086248 1.025494 1.035702 1.009554 1.037385 1.044570 0.968493 1.097171 1.088701 1.094703 1.099473 1.110383 1.027778 0.953596
0.493580 1.081932 1.285526 1.079705 1.028984 1.246905 1.129430 1.172562 0.844393 1.007456 1.142647 0.774758 0.708049 1.012700 1.033186 1.085180 1.108905 1.054730 1.005091 1.033554 1.026736 1.063184 1.090142 1.079437 1.061678 1.050421 1.046430 1.063475 1.061936 1.040164 1.036310 0.822757 1.142843 1.162484 1.084297 1.025766 0.966573 0.933659 0.843959 0.712980 1.097171 1.124669 1.187865 1.113757 1.037723 0.784642 1.154500 1.217194 1.099339 1.043146 1.137239 1.207213 0.974649 0.918791 1.038278 1.182080 1.186997 0.981988 0.970851 1.059651 1.062366 1.144527 0.705523 0.977431 1.025707 1.136219 1.155225 1.201079 1.167390 1.211480 1.115142 0.905943 0.996474 1.250990 1.001074 0.869922 0.984442 1.018352 0.941792 1.140362 1.177762 1.173390 1.163369 1.213838 1.124170 1.113444 1.134315 1.102524 1.008847 1.014801 1.080784 1.112055 1.098406 1.093133 1.137466 1.149219 1.123045 1.110124 1.114636 1.085048 1.104866 1.044218 1.042061 1.046826 1.049240 1.012509 1.054222 0.945562 0.922838 0.976643 1.048782 1.042679 1.014214 0.989211 1.023605 1.017686 1.012743 0.971276 0.987445 0.995328 1.001382 0.939604 1.043498 1.024319 1.062627 1.066174 1.076118 1.099074 1.085748 1.092618 1.122823 1.127196 1.102600 1.102137 1.051370 0.951983 0.776297 0.516827 0.742004 1.000656 1.089699 1.071381 1.086264 1.077016 1.037240 1.036274 1.072666 1.065788 1.080835 1.080715 1.105417 0.942513 0.732236 1.183767 1.217330 1.222587 1.229723 1.238994 1.254959 1.219197 1.264780 1.256235 1.206305 0.780818 0.446007 1.141769 1.290657 1.275272 1.272409 1.099536 0.953320 1.100004 1.236284 1.141888 1.153755 1.057942 0.976133 1.113124 1.086442 1.058822 1.077746 1.126478 1.116381 1.085262 1.131165 1.157468 1.063750 0.903453 1.154663 0.913583 0.718238 0.924861 1.118505 1.020402 1.044035 0.826656 0.990497 1.070143 1.147654 1.234653 1.227416 1.216328 1.209658 1.205990 1.168566 1.137773 0.963579 1.037471 1.120675 1.058038 1.059326 1.074586 1.096891 1.085500 1.025581 1.027439 1.086559 0.961476 0.981169 1.086630 1.067761 1.017232 1.042706 0.894288 1.076809 1.213619 1.202533 0.999984 0.800809 0.613036 0.843045 1.177083 1.291177 1.151125 1.116295 1.124179 1.130197 1.197060 1.006187 0.778915 0.914440 1.079349 1.099071 1.041588 1.068411 1.122669 1.217758 1.173821 1.039715 1.000778 1.152400 1.059360 1.128016 1.176241 1.232472 1.289836 1.295589 1.111202 0.613194 0.999420 1.031593 0.976383 1.306874 1.324310 1.201676 0.701515 1.273691 1.225101 1.228293 1.213651 0.653819 0.919077 1.158182 1.102025 1.112610 1.229692 1.185162 0.974131 0.793306 1.161700 1.179625 1.241336 1.076983 0.744910 0.958842 0.945657 0.993676 1.044050 1.004924 1.065799 1.102928 1.055044 1.061155 1.075474 1.043177 0.956327 0.816512 0.766641 0.890374 1.096354 1.250690 0.975176 0.622976 1.117916 1.142648 0.763483 1.200351 1.165525 1.279874 0.886259 0.710563 1.070366 1.178183 1.201132 1.125455 1.043123 0.933541 1.080519 1.052412 1.083180 1.077644 1.042429 1.057292 1.074840 1.065330 1.076393 0.983679 0.939076 0.887076 0.869961 0.922693 0.863062 0.810390 0.963755 1.001159 1.112419 1.181201 1.182368 1.058002 0.874713 0.692341 0.879321 0.866963 0.997803 1.071787 1.100000 1.083275 1.074611 1.073393 1.088162 1.068457 1.075518 1.070555 1.046734 1.057005 1.057838 1.031694 1.026951 1.017667 1.040165 1.032215 1.087818 1.096522 1.093897 1.089664 1.032358 1.027976 1.026793 0.991412 1.044223 1.069163 1.011237 0.987938 1.068761 1.097137 1.091193 1.099554 1.046754 1.048150
0.467457 0.808615 1.284549 1.269255 1.247190 1.252144 1.136382 1.157377 1.030565 0.985497 1.195047 1.079738 0.768623 1.060898 1.115605 1.104117 1.064585 1.066803 1.023865 1.063557 1.072209 1.091993 1.067097 1.062753 1.040220 0.981444 1.015307 1.070249 1.059129 1.037821 0.942192 0.927517 1.169297 1.119592 1.022297 1.023270 1.017693 0.961212 0.831829 0.931888 1.155970 1.140508 1.194158 1.149940 1.087893 0.899558 0.973816 1.176255 1.013060 1.171359 1.111680 1.086674 0.993980 1.002471 1.096699 1.185642 1.187294 1.060674 0.970444 0.901506 0.916456 0.967984 0.959259 1.258106 1.195685 1.172766 1.197908 1.206585 1.033261 1.122309 1.226908 1.074990 0.753485 0.850118 0.706722 0.587238 0.824637 1.135620 1.191595 1.204555 1.192742 1.108309 1.162115 1.205052 1.159184 1.167269 1.199786 1.194794 1.184636 1.105156 1.049510 1.072680 1.089516 1.068341 1.048793 1.017550 1.012341 1.037593 1.057066 1.056976 1.093591 1.079234 1.051105 1.033268 1.038683 0.989054 1.015342 0.971662 0.994552 1.035624 1.043333 1.002089 0.986561 1.008888 1.017965 0.960645 1.013724 1.042251 1.018444 0.995692 0.999858 0.930477 0.962883 0.963406 1.045182 1.078048 1.076403 1.101116 1.073075 1.091214 1.100951 1.081588 1.044356 1.100786 1.090505 1.054504 0.866537 0.705328 0.868867 0.861002 1.015306 1.076283 1.025774 1.019472 1.044928 1.062481 1.088816 1.064357 1.097924 1.079273 1.023554 0.927316 0.715720 0.736820 1.129598 1.237694 1.239076 1.247388 1.262815 0.929439 1.046352 1.115061 0.648455 0.657799 0.580754 0.878363 1.126624 1.288736 1.293384 0.961605 1.168568 1.195894 1.128654 0.866526 1.152525 1.113583 0.945974 1.046376 1.062373 1.011455 1.003294 1.129491 1.116224 1.125479 1.086673 1.004562 1.050900 0.658718 1.038691 1.211918 0.692157 1.144435 1.299543 1.241904 1.281459 1.227603 1.052102 1.163286 1.241882 1.212324 1.186775 1.194939 1.188312 1.154555 1.108058 1.027813 0.961043 1.072531 1.164579 1.000739 1.038181 1.031134 1.030715 1.071589 1.073201 1.038227 1.096391 1.023459 0.859082 1.090618 1.086999 1.098795 1.070278 0.857561 1.145871 1.199698 1.032248 0.841194 0.829502 0.956533 1.154487 1.018429 1.299336 0.986142 1.189062 1.106193 1.290613 1.125265 0.601016 0.998154 1.224538 1.257729 1.146675 1.098654 1.121920 1.134301 1.208894 1.197028 1.130664 1.154502 1.133139 1.078597 1.150933 1.224615 1.284427 1.189148 1.033988 0.900837 0.703180 0.685411 0.713065 1.279748 1.321628 1.277238 1.238252 0.631852 0.859104 1.142805 1.200562 1.198213 0.735984 1.011046 1.258376 1.201090 1.169158 1.148953 1.134020 0.944599 1.004656 0.911158 1.004489 1.182065 1.141805 1.000255 1.053720 1.048641 0.996824 0.982379 0.991448 1.076280 1.103688 1.078987 1.059832 1.082849 1.129660 1.127390 1.124066 1.071645 1.029330 0.838609 1.119358 1.166152 0.592447 0.938905 1.068986 1.187391 1.207001 1.165010 1.252223 1.135337 0.806342 1.181369 1.238628 1.205423 1.152581 1.125511 1.085446 1.077798 1.063127 1.065675 1.065285 1.051254 1.094165 1.095728 1.087728 1.073333 1.050914 1.046291 0.930846 0.836464 0.817833 0.672883 0.607941 0.842472 1.043548 1.124938 1.119996 1.057911 1.158939 0.778631 0.809913 1.061572 1.006736 1.000601 1.077723 1.091083 1.090266 1.069144 1.039245 1.064902 1.042417 1.065001 1.045314 1.027192 1.047202 1.053117 1.064728 1.055786 1.054157 1.079349 1.103486 1.101603 1.065464 1.047091 1.066627 1.004451 0.994801 1.038110 0.997128 1.053506 1.086940 1.055820 1.021423 0.960796 0.946251 1.057233 1.096919 1.042026 1.060594
0.910081 0.543017 0.893257 1.091401 1.188214 1.253873 1.227120 1.130130 1.160480 1.126618 1.117705 1.135526 0.873011 0.984604 1.034030 1.107876 1.094574 1.055068 1.077131 1.078566 1.092154 1.080657 1.048074 1.027532 0.999976 1.060222 0.990916 1.000454 1.115008 1.005663 0.847363 1.055765 1.172201 1.112723 1.053758 1.039643 1.081430 0.991179 0.747872 0.984793 1.101800 1.158241 1.199435 1.124528 1.046423 0.883450 0.927464 1.211605 0.998381 1.177458 1.120803 0.787244 0.970904 1.128305 1.133608 1.190134 1.168044 1.123180 1.060315 0.967803 0.808406 0.716544 0.829268 1.191689 1.080859 1.151775 1.223191 1.136074 0.977971 1.034538 1.088206 1.196247 1.119707 0.815521 0.953502 1.108710 1.101710 0.854200 1.076188 1.168026 1.102553 1.063676 1.154600 1.148887 1.103693 1.107412 1.081702 1.125528 1.155972 1.142606 1.111178 1.073572 1.012230 0.950080 1.002251 1.034070 1.017085 1.059098 1.066290 1.048510 1.061638 1.064023 1.088216 1.046727 0.994943 1.003581 1.026326 0.977760 0.987673 1.035436 1.040283 1.011193 1.019390 1.022022 1.031637 1.056926 1.023222 1.030680 0.969759 0.852025 0.854461 0.791635 0.890530 0.850238 1.002567 1.056182 1.076501 1.107831 1.084405 1.085694 1.079000 1.098502 1.066076 1.140120 1.132014 1.045663 0.693161 1.087474 1.203537 1.088991 1.018234 1.060124 1.046215 1.059147 1.058151 1.046290 1.073409 1.073193 1.092685 1.045568 1.019989 1.043728 0.754358 0.573227 0.605758 1.016910 1.205441 1.223157 1.216444 1.166497 0.977451 0.750590 0.866092 1.272106 1.273892 1.113616 0.717933 1.055379 0.899049 0.894762 0.812393 0.815500 1.071695 1.108384 1.187459 1.130289 1.004156 0.628538 0.909213 0.956125 1.020317 1.128633 1.118178 1.126475 1.008877 0.841358 0.990946 1.093955 1.070235 0.892097 0.562151 0.714999 1.160689 1.092090 1.040312 1.266120 1.257637 1.242314 1.210910 1.141077 1.164975 1.204017 1.126502 0.980137 1.002902 0.946729 1.090017 1.153668 1.181316 0.865727 1.081467 1.084682 1.060511 1.063538 1.099069 1.044065 1.084984 1.112603 0.856299 0.981927 1.086126 1.088912 1.079753 1.043826 1.163799 1.055505 0.980333 0.986683 1.008733 1.215450 1.191645 0.749763 0.783970 1.236404 1.242860 1.198471 1.196519 0.947371 0.827114 1.265714 1.281548 1.179539 1.227176 1.162007 1.141469 1.133605 1.214969 1.196294 1.186000 1.182716 1.215431 1.266540 1.271069 1.278787 1.252364 1.164318 1.122272 1.297632 1.270284 1.145114 1.207599 1.244244 1.179163 1.259290 1.245634 0.855069 0.899005 1.128105 1.260119 1.153749 0.980313 1.013799 1.135380 1.200187 1.161055 1.213471 1.156060 0.964701 0.954573 1.186073 1.031160 1.086044 1.125209 1.074779 1.080037 1.052243 1.065848 1.007589 0.965280 1.110906 1.093988 1.085203 1.063406 1.078842 1.001356 1.076301 1.007728 1.098345 1.180249 1.113050 0.676386 0.838037 0.581447 0.954659 1.049433 0.961887 0.902670 1.054283 1.150347 1.250206 0.844432 0.888628 1.115978 1.063970 1.116406 1.170276 1.068866 1.018698 1.090087 1.093534 1.082730 1.103566 1.101889 1.065517 1.069160 1.038400 1.121382 1.128273 1.146292 0.990747 0.907809 0.779294 0.453200 0.941501 1.136133 1.176500 1.205389 1.057393 1.206821 0.651697 0.910365 1.059651 1.144212 1.124352 1.054064 1.087741 1.093296 1.077770 1.054201 1.044947 1.054192 1.040545 1.041883 1.063139 1.042927 1.051080 1.101076 1.091710 1.105235 1.084837 1.057027 1.024531 1.015985 1.029290 1.112752 1.019822 0.949881 0.937590 1.007058 1.070803 1.103136 1.036427 1.061136 1.024104 0.909161 1.009341 1.101133 1.046221 1.034598
1.108766 0.933750 0.859017 0.566968 1.018851 1.166399 1.249699 1.233444 1.096181 1.084110 1.095635 1.124510 1.085876 0.985135 1.011222 1.054193 1.040496 1.063870 1.085631 1.094409 1.083445 1.049496 1.088147 1.089087 1.038932 1.076897 1.055371 0.909079 1.040810 0.973255 0.789179 1.128893 1.174030 1.088519 1.043150 1.028648 0.954682 1.045510 0.849614 0.948472 1.098856 1.146531 1.204288 1.078223 1.158156 0.982724 0.703387 1.103304 0.975293 1.153593 1.207214 0.834011 1.103044 1.118843 1.073820 1.193374 1.192290 1.114264 1.090386 1.001314 0.824690 0.513179 0.664053 1.053955 1.019486 1.199384 1.185544 1.131638 1.107842 1.118276 1.109451 1.065917 0.862343 0.864957 1.109011 0.906178 1.201758 1.142682 0.811163 0.873188 1.051223 1.177745 1.213043 1.128162 1.033309 0.939125 0.940182 0.975479 1.032150 1.009189 1.063230 1.099874 0.889462 0.963450 1.072418 1.090600 0.986662 1.036491 1.057036 1.045264 1.042914 1.071277 1.104378 1.100712 1.083666 0.940480 0.977139 0.969252 0.976015 1.023504 1.028667 1.036661 0.995846 0.984657 0.970261 1.069696 1.069092 0.989100 0.867839 0.888743 0.980419 0.940208 0.981122 0.842535 0.921687 1.034200 1.084129 1.119699 1.094322 1.108813 1.104568 1.025080 0.958156 1.164695 1.228386 1.115909 0.743143 1.230864 1.237296 1.183146 1.117830 1.101560 1.005114 1.004738 1.024913 1.064104 1.083498 1.086380 1.039575 0.993945 1.005074 1.042897 0.965773 1.129075 0.561211 0.612184 0.760894 0.599995 0.811039 0.920433 0.764143 0.731571 1.186124 1.294838 1.293353 1.233512 0.898272 0.448615 0.365802 0.483995 0.720917 1.094223 1.162781 1.204308 1.131471 1.067075 0.744507 0.796931 0.931805 0.986863 1.039881 1.104130 1.112883 1.109574 1.100127 1.148882 1.203988 1.216536 1.189296 1.012115 0.494964 1.082157 0.643467 1.105253 1.133233 1.265868 1.183185 1.157861 1.202731 1.201713 1.138476 0.955615 0.735614 0.733406 0.811918 1.073724 1.157789 1.194393 1.180702 0.856950 1.070532 1.031306 0.871810 0.916714 1.022012 1.060572 1.060387 1.121822 1.007819 0.940580 1.090241 1.084788 1.074946 1.081670 1.000433 0.996462 1.043820 1.016567 1.089319 1.255828 1.009981 0.745093 0.692351 0.686750 0.847435 0.948765 0.958533 1.087954 1.202384 1.185928 1.085592 1.116874 1.102139 1.145788 1.139036 1.112841 1.177888 1.224199 1.225642 1.194514 1.014234 1.088938 1.113413 1.286481 1.087786 1.181285 1.118891 1.282902 1.228200 0.850532 0.636204 0.864846 1.014506 1.223101 1.227973 1.193280 1.123199 1.128176 1.247094 1.106854 1.137843 1.112001 0.904802 1.038782 1.222326 1.223500 1.190263 0.947585 0.816044 1.031237 1.097410 1.008139 1.098780 1.094467 1.053427 1.028725 1.084636 1.080896 1.114146 1.108883 1.090139 1.033221 1.003147 1.041918 1.003983 0.983521 0.957115 0.805402 0.839506 1.002424 0.746330 1.256821 1.199150 1.130702 1.226102 1.092760 1.008402 0.850535 0.992109 1.154971 1.164667 0.866418 0.736270 0.957145 1.005416 1.111755 1.125324 1.022887 1.095220 1.089054 1.108695 1.101997 1.100433 1.086426 1.012680 0.970552 1.083789 1.130700 1.140460 1.054758 0.775513 0.781653 0.475355 1.125710 1.226100 1.216610 1.158025 1.064073 1.052357 0.676638 0.950839 1.005307 1.092666 1.127932 1.141250 1.086252 1.076659 1.076087 1.044322 1.030764 1.048359 1.040402 1.032223 1.053986 1.054193 1.095257 1.077430 1.080906 1.081409 1.052072 1.030194 1.013166 0.999605 1.035697 1.121193 1.062688 1.007284 0.906801 0.960749 1.052916 1.067704 1.024458 1.063572 1.093119 1.013075 0.927968 1.102665 1.090326 1.070979
0.962884 1.124708 1.153557 0.780500 0.674243 0.720222 1.009284 1.085846 1.142324 1.093174 1.159911 1.191741 1.178527 1.040846 1.016983 1.064596 1.032879 1.074107 1.095213 1.074024 1.059780 1.025158 0.996341 1.138566 1.037772 1.046636 1.061924 0.988963 1.094201 0.900359 1.021503 1.187849 1.178697 1.117837 1.038987 1.034581 0.926612 0.690951 0.563766 1.000006 1.057542 1.141702 1.206580 1.095222 1.091696 1.116765 0.873004 0.799420 1.126522 1.145129 1.187073 1.028461 1.177735 1.049436 1.074569 1.198461 1.150163 1.100534 1.061026 1.229351 1.136863 0.938092 0.687464 1.116629 1.162744 1.190534 1.175839 1.179634 1.154424 1.200337 1.098533 1.059046 0.744143 1.106016 1.276548 1.132900 1.190806 1.210504 1.130887 0.997353 1.074366 1.110237 0.993866 0.929899 0.994487 0.955293 0.965628 1.062711 0.934739 1.068563 1.171607 1.098992 0.969235 1.036643 1.092862 1.126665 1.009618 0.979472 0.959181 0.996406 1.012071 1.057999 1.005663 0.969378 1.093052 0.920809 0.906388 0.970351 1.015369 1.042520 1.024487 1.035467 0.970312 0.990402 0.982026 1.005170 1.082796 1.091257 0.966199 1.113214 1.115355 1.125103 1.056631 1.089529 0.901758 0.868827 1.039041 1.126664 1.103400 1.066293 1.183129 1.177577 1.025056 1.041744 1.225872 1.050809 0.676923 0.961043 0.910806 1.012329 1.058243 1.062047 1.089983 1.063549 1.057561 1.084819 1.084129 1.100413 1.018553 1.128502 1.149505 1.143386 1.128047 0.973348 0.823508 0.877270 1.041615 0.784222 0.543311 0.681554 1.181163 1.235753 1.200967 1.134990 1.209376 1.284001 1.225507 1.039713 0.658277 1.004215 1.282003 1.302694 1.286913 1.277792 1.198911 1.234959 1.228569 1.231600 1.201330 1.127836 1.093425 1.121493 1.121333 1.122518 1.114536 1.053485 1.007919 1.158077 1.223568 1.131760 0.618344 1.141481 0.722756 1.169013 1.233949 1.235105 1.216677 1.150205 0.955637 1.202917 1.154369 0.738801 1.143841 1.273734 1.149719 1.158318 1.181627 1.207178 1.100291 0.855978 1.091375 1.081821 0.986897 0.871555 0.992469 1.043331 0.974409 1.025957 1.055657 0.891391 1.086444 1.070803 1.080378 1.097773 1.061417 1.047495 1.090626 0.935197 1.193411 1.050869 0.872318 1.060743 1.194583 0.991063 0.646587 1.220540 1.312390 1.211467 1.158616 1.180390 1.125551 1.215305 1.240074 1.199294 1.191603 1.059496 1.112793 1.193939 1.216254 1.216110 1.002357 0.821534 0.711954 1.229709 1.085725 1.198969 0.582919 0.820795 0.763435 0.922651 1.148149 1.157657 1.096495 1.134010 1.037377 1.108781 1.146878 1.176526 1.213210 1.102347 1.097872 1.103243 1.093015 0.985860 1.074061 1.184233 1.108779 1.062040 0.940043 1.035584 1.079267 1.053961 1.060647 1.056445 1.072839 1.119234 1.117973 1.114220 1.114008 1.107579 1.104649 1.069897 1.038334 1.036274 0.989206 0.910420 0.940106 0.962574 0.872444 0.629315 0.552262 1.176243 1.295672 1.283450 1.269858 1.259218 1.246576 1.199869 1.176777 1.161933 1.213608 1.049400 0.879480 1.112285 1.040150 1.018155 1.073321 1.054441 1.085443 1.112162 1.084844 1.031227 1.044637 1.076949 1.014455 0.928860 1.045457 1.134697 1.136981 1.115083 1.086177 0.947020 0.504324 0.937873 1.232265 0.938954 0.672689 1.003528 1.034581 1.111896 1.162748 1.118312 1.088611 1.048877 1.076239 1.075061 1.063178 1.049920 1.062796 1.049219 1.040269 1.062957 1.064900 1.078492 1.091771 1.076978 1.042229 1.057030 1.046755 1.030053 0.991892 0.994682 0.990286 1.044527 1.128505 1.081781 1.017679 0.974738 0.877190 1.050691 1.065575 1.039917 1.026932 1.082152 1.019837 0.935192 1.109092 1.099845 1.101631
1.032662 1.154222 1.050055 1.037438 1.002252 0.758977 0.988406 1.096913 1.026932 0.910579 1.013829 1.015622 1.112494 1.110126 0.972211 1.065245 1.083145 1.094816 1.100553 1.047854 1.039309 0.994517 0.930755 1.146491 1.105912 1.043670 0.988995 0.860360 1.127960 0.990260 0.743551 1.095518 1.185666 1.165249 1.086934 1.014621 0.970851 1.127765 0.831420 1.074345 1.081099 1.123986 1.211692 1.172926 1.071812 1.053418 0.950969 0.719470 0.835327 0.847441 0.832491 0.822943 0.898618 0.932549 1.090263 1.203001 1.073666 1.026217 0.949047 1.122972 1.063917 1.172307 0.941074 1.187834 1.177531 1.194743 1.231015 1.177844 1.025746 0.973446 0.942046 0.804081 1.223026 1.183942 1.208923 1.163744 1.203043 1.206684 1.170568 1.093175 1.045793 1.053999 1.031856 1.032447 1.082263 1.050128 1.011118 1.113130 1.124121 1.053097 1.162830 1.064386 0.890643 0.980314 1.072902 1.112206 1.034430 0.974982 0.944683 1.013459 0.984652 0.979739 0.986299 0.973222 1.089007 0.900626 0.908115 0.981076 1.047596 1.024216 1.040308 1.034899 0.975294 1.017657 1.006483 1.006434 1.009809 1.091473 1.097026 1.058447 0.973026 1.122506 1.123731 1.139537 0.995345 0.863321 0.869424 1.118061 1.097356 1.058344 1.150239 1.184092 1.145351 0.954182 0.931443 0.724779 0.794685 1.053993 1.067261 1.100752 1.089957 1.079485 1.054425 1.040560 1.058745 1.070116 1.096264 1.073244 0.982980 1.041795 1.151498 1.160013 1.173940 1.186313 1.053380 1.038351 1.120036 1.181415 0.903552 0.901069 1.091799 1.239724 1.264224 1.120271 0.823484 1.205343 1.218215 1.179289 0.954388 1.078684 1.323230 1.304094 1.062781 0.916280 0.841840 1.128277 1.148575 1.184501 1.152973 1.083773 0.980853 1.111950 1.120936 1.123302 1.103775 0.971537 0.882752 0.883254 1.139812 0.952554 0.945948 1.284698 1.018646 1.200987 1.105193 1.098460 1.150160 1.134727 0.949525 0.799307 0.668010 1.045835 1.189191 1.089211 1.081296 1.162362 1.191935 1.225618 0.890272 0.551975 0.941618 1.071066 1.097452 0.988970 0.946830 0.976553 0.938578 0.994327 1.121339 1.058360 1.048680 1.080184 1.085773 1.099661 1.107594 1.010751 1.059931 1.125027 1.122083 1.021676 1.181356 1.265483 1.201023 0.881574 0.542722 1.208585 1.252623 1.227469 1.283681 1.270213 1.251495 1.207131 1.176218 0.967877 1.093605 0.963519 1.156266 1.118309 1.139579 1.250379 1.120816 0.935579 0.687447 1.244532 1.205998 1.075279 0.655448 0.854113 1.092787 1.311434 1.286146 1.217247 1.266700 1.268006 1.013992 1.152781 1.134905 1.143530 1.212392 1.143613 1.029682 1.031978 1.069974 1.075326 1.022031 1.091681 1.127588 1.102771 0.972785 1.003891 1.046247 1.067056 1.069918 1.114561 1.122652 1.116535 1.118588 1.104950 1.076277 1.069852 1.082367 1.131808 1.127653 1.080620 1.111600 1.042936 1.059415 1.020188 0.889644 0.808439 0.520181 0.692932 0.747984 0.807200 0.889131 1.093385 1.117470 1.193875 1.207610 1.199883 1.198647 1.125607 0.884680 1.068297 1.045501 1.026106 1.065604 1.068180 1.115753 1.116777 1.024371 1.016283 1.030241 1.070050 1.004184 0.775441 1.022390 1.069161 1.145218 1.117177 1.041145 0.975088 0.896808 0.640693 1.256793 0.609562 0.690768 0.952805 1.105988 1.147518 1.152919 1.104710 1.081102 1.046165 1.086009 1.061553 1.048192 1.049078 1.074680 1.075304 1.075903 1.072787 1.068928 1.076522 1.088760 1.053638 1.055120 1.069254 1.013600 1.039433 0.944334 0.934889 1.020156 1.060380 1.133962 1.092891 1.033138 0.965530 0.851409 0.994482 1.025237 1.043833 1.054870 1.076801 1.079005 0.918165 1.088471 1.103495 1.048455
1.115395 1.114835 1.010328 1.036277 1.114686 0.975491 1.029607 1.210543 1.167416 1.021410 0.931537 1.007945 1.051124 1.075638 1.050980 1.101460 1.097238 1.082198 1.044764 0.990802 1.018594 1.006626 0.966029 1.128063 1.154467 1.068629 0.958331 0.723682 1.108210 0.894721 0.734946 1.067752 1.176277 1.191130 1.127663 1.058737 0.862809 0.645157 0.706279 1.139485 1.156707 1.098949 1.195252 1.163838 1.088366 1.034583 0.887523 0.656159 0.894379 1.134062 1.198365 1.163578 1.098403 1.107595 1.182294 1.205807 1.187383 1.102651 1.049538 0.849649 0.800096 0.744987 0.620042 1.247410 1.253596 1.200425 1.238079 1.224178 1.231566 1.198906 0.821358 0.840468 1.034232 1.093766 1.159287 1.172230 1.172637 1.175961 1.153685 1.114932 1.178523 1.192788 1.196975 1.143076 1.162639 1.032932 0.946290 1.046440 1.106798 1.102976 1.157210 1.099783 1.008230 0.997218 1.068123 1.082729 0.996422 0.904409 0.956399 0.986669 0.942872 1.007165 1.029490 1.002976 1.070093 0.966633 1.000100 1.028256 1.036270 1.020060 1.048086 1.006364 0.990153 1.034788 1.001386 1.010286 1.015295 1.068272 1.088938 1.089244 0.998713 0.899648 1.021735 1.135360 1.113149 1.047732 0.911182 1.038223 1.127142 1.018238 1.109149 1.083474 1.193432 1.096095 0.755540 0.516415 0.960242 1.121917 1.129030 1.105967 1.098714 1.133258 1.132460 1.085516 1.047912 1.081609 1.082852 1.023028 0.985347 0.961656 1.038598 1.089643 1.172871 1.177545 1.165403 1.170496 1.169028 1.101624 0.997896 1.027631 1.156949 1.209720 1.251646 1.216296 0.624702 0.889263 0.871454 1.032811 1.078491 0.674310 0.813550 0.603230 0.601578 0.534319 0.977990 1.204382 1.199583 1.145268 1.090955 1.066419 0.998214 1.085128 1.120495 1.121303 1.104641 1.109755 1.014821 0.593388 0.616977 0.911615 1.214918 1.148090 1.129406 1.229385 1.158559 1.176887 1.210578 1.043438 0.628699 0.716293 0.745122 1.027576 1.138974 0.996663 1.111379 1.231680 1.179551 0.946008 0.849836 0.753072 1.056800 1.114779 1.059240 0.961794 0.863848 0.937653 1.047145 1.132618 1.061768 1.026007 0.997546 1.088368 1.073740 1.023388 0.986298 0.981004 1.145014 1.177103 1.200846 1.223542 1.242248 1.260863 1.169394 0.845205 0.656477 0.942709 0.798451 0.723689 1.148560 1.154297 1.089566 1.253347 1.125365 0.678420 0.740215 0.969903 1.090296 0.999357 1.249858 1.257328 1.003051 0.875076 0.676662 1.034463 1.068200 0.840179 1.181727 1.148527 0.896203 0.990221 1.077947 1.113354 1.173551 1.257277 1.149884 1.085372 1.005892 1.041264 1.126987 1.060771 1.070458 1.108635 1.080734 1.104574 1.082627 1.093750 1.139083 1.116101 1.046030 0.961457 1.040253 1.085069 1.132253 1.123335 1.126376 1.116214 1.056911 1.064865 1.039414 0.945685 0.915857 1.046399 1.137895 1.107528 1.132689 1.113595 1.127039 1.115787 1.093989 1.004181 0.810322 1.276680 1.283800 1.122553 1.084119 1.108091 1.153555 1.189190 1.186555 1.184740 1.145864 1.167293 1.054403 0.981934 1.014109 1.067394 1.118385 1.118141 1.120366 1.091579 1.032655 0.971927 1.051283 1.027501 1.089391 0.844581 1.001176 1.038638 1.147419 1.155410 1.071113 0.987391 0.902038 0.534653 0.987762 0.753556 0.943840 1.068293 0.970950 0.983678 1.048271 1.056121 1.043590 0.967912 1.055931 1.043069 1.071708 1.080900 1.076357 1.074472 1.083392 1.078388 1.078260 1.095232 1.027360 0.943245 0.987548 1.062677 1.035104 1.103429 0.983147 0.892261 1.025261 1.068982 1.141889 1.087242 1.011557 0.978643 0.877183 0.874170 0.964637 1.025603 1.039569 1.042184 1.101115 0.942194 1.026172 1.111505 1.037834
1.200276 1.136723 1.076314 1.041445 1.101428 1.041097 0.849138 1.144989 1.160644 1.137440 0.961528 1.077970 1.099540 1.092269 1.044407 1.098473 1.060491 1.061641 1.067208 1.031031 1.020388 1.021578 1.017517 1.096485 1.180178 1.110211 0.878750 0.544826 0.947349 1.025175 0.977912 1.119988 1.166264 1.193577 1.113371 1.043635 1.064244 1.025679 0.650031 1.126856 1.167084 1.073876 1.216686 1.218698 1.139219 1.004822 0.954891 0.816936 0.908063 1.226173 1.215737 1.143733 1.098682 1.108448 1.216013 1.213097 1.141534 1.160219 1.138156 1.120762 1.022570 0.968706 0.876032 1.157518 1.194313 1.071824 1.177026 1.200976 1.209867 1.018779 0.623007 1.066273 1.178245 1.206888 1.188866 1.173230 1.146057 1.123050 1.164743 1.129149 1.187499 1.192599 1.189899 1.151276 1.198136 1.156842 0.953752 0.982028 1.007802 0.987736 1.040549 1.140707 1.079711 1.081155 1.095279 1.047572 0.906622 0.840628 0.880497 0.971276 0.992114 1.050345 1.044888 1.006823 1.011572 1.014528 1.041961 1.033759 1.009909 1.039118 1.031081 1.009217 1.013536 1.063731 1.019571 0.950319 1.010767 1.069374 1.026374 1.068423 1.121467 1.026591 0.909370 1.144309 1.135095 1.012846 0.942492 0.839728 0.918974 0.820604 0.949960 1.174319 1.236194 1.187087 0.782069 0.581194 1.060262 1.096061 1.108376 1.114767 1.051766 1.015637 1.043259 1.005340 1.034159 1.095281 1.103101 1.061752 1.097842 1.098589 0.981671 1.045795 1.082343 1.160892 1.182451 1.131950 1.140918 1.081832 1.100880 1.148138 1.228187 1.218662 1.175901 1.019480 0.759991 1.308156 0.813300 0.596736 0.981349 0.698588 1.084544 1.103930 1.280393 0.918734 0.581428 0.678572 0.703584 0.879289 1.010516 1.024646 1.049754 1.088562 1.121458 1.124148 1.092647 1.072265 1.133265 1.170972 0.890912 1.238678 1.063426 1.182734 1.172195 1.171592 1.181228 1.165375 1.033651 1.125643 1.109858 1.317344 1.309325 1.290099 1.121564 1.081261 1.204749 1.245143 1.220869 0.734372 0.590055 0.886653 1.075595 1.065632 0.978426 0.839530 1.023708 1.107881 1.143345 1.139507 1.040882 1.069471 1.043839 1.093326 1.089997 1.045030 0.983864 1.056459 1.116775 1.069976 0.953609 0.893179 0.845519 0.831907 0.830027 0.718412 1.196578 1.258084 1.224782 0.893050 1.081712 1.220422 1.115764 1.172251 0.999368 1.228189 1.168360 1.196665 1.176871 1.158916 1.251180 1.164252 1.123962 0.737473 1.092680 0.789727 1.150147 1.288110 1.112750 1.197693 1.263862 1.273852 1.123571 1.026111 1.153896 1.036850 1.067185 1.101758 1.102372 1.147988 1.128299 0.981590 1.005335 1.087991 1.117776 1.139651 1.110110 1.150949 1.146916 1.144832 1.146232 1.107332 1.091298 1.131798 1.125752 1.130923 1.080478 0.997353 0.986881 1.115789 0.983049 0.832400 1.032559 1.119805 1.137343 1.143467 1.073251 1.039662 1.154922 1.187999 1.213762 1.149785 0.744321 1.291682 1.278781 1.227129 1.195407 1.240774 1.231612 1.197542 1.044216 1.086869 1.044789 1.084795 1.091579 1.083469 1.100175 1.126750 1.120704 1.103850 1.032622 1.032627 1.138272 0.900988 1.040486 0.754951 1.029353 1.131053 1.131766 1.084903 1.152600 1.132417 1.118178 1.079010 0.877660 0.544211 1.252772 1.237692 1.153785 1.095974 1.106912 0.965613 0.950832 0.997172 1.033093 0.936021 1.084986 1.060300 1.088602 1.073598 1.075517 1.087540 1.032895 1.040202 1.036405 1.062897 1.118284 0.980468 0.858448 0.854247 0.930124 1.115039 0.984518 0.963121 1.058004 1.056042 1.148607 1.095492 1.031754 1.014992 0.867209 0.817191 0.911906 0.965841 1.047387 1.051668 1.080265 0.979877 0.899377 1.071949 1.109317
1.207693 1.202183 1.128005 1.136755 1.104812 1.095436 0.849050 0.945099 1.093577 1.103661 1.052954 1.058211 1.067931 1.074074 1.095845 1.102324 1.080454 1.083758 1.070439 1.032301 1.059726 1.082899 1.007715 1.041427 1.166513 1.161417 0.923071 0.849195 0.730795 0.770747 1.032067 1.119109 1.199988 1.195952 1.133018 1.088533 1.063216 1.111250 0.686152 0.940521 1.070958 1.093387 1.219123 1.219488 1.118542 1.115663 1.174776 1.006806 0.603825 1.122522 1.169019 1.092434 1.179052 1.185487 1.219939 1.176764 1.056772 1.093420 1.137373 1.231229 1.241877 1.113011 0.612976 0.782790 0.896964 0.734954 0.947993 1.018471 0.891274 0.781161 0.848766 1.215538 1.226745 1.190776 1.196529 1.198935 1.213142 1.118942 1.119808 1.171726 1.191526 1.133173 1.087834 1.011662 1.101347 1.183968 1.099810 1.027751 1.019541 1.086665 1.044604 1.074432 1.126517 1.117620 1.113972 1.109115 0.998782 0.843242 0.881898 0.967263 1.049438 1.058293 1.034551 1.007497 1.021267 1.035821 1.016029 1.008625 1.008055 1.046322 0.972901 0.944294 1.002308 1.000328 0.973274 0.980991 1.015479 1.081933 1.003157 1.014878 1.128560 1.106337 0.831257 1.091066 1.153637 1.115960 1.080964 0.945321 0.982509 0.934517 0.687796 0.924779 1.226034 1.165780 0.749817 1.153124 1.194347 1.189481 1.211225 1.199940 1.152660 1.165206 1.091820 1.108097 1.077934 1.096666 1.086356 1.010407 1.051328 0.990489 0.933874 1.074530 1.110801 1.118980 1.182781 1.183962 1.195037 1.204205 1.207525 1.210843 1.216383 1.103757 1.017647 0.975148 1.096810 1.295071 0.843287 1.167632 1.170874 0.935180 1.206451 1.177637 1.246451 1.173497 1.022596 1.013848 0.953060 0.817726 0.966050 1.037238 1.035273 1.102046 1.123394 1.124970 1.111364 0.930079 0.782898 0.887165 1.052226 1.238163 1.213212 1.188579 1.174988 1.132263 1.089579 0.986287 0.910181 0.716405 0.800435 1.294373 1.313366 1.207963 1.076821 1.201798 1.260143 1.241409 1.135978 0.874800 1.122347 1.174329 1.153557 1.007391 0.901979 1.012758 1.035283 1.156005 1.150487 0.977989 0.974911 1.084973 1.014053 1.080482 1.096481 1.089782 1.020680 1.095739 1.084009 1.037580 1.032654 1.073382 0.978547 1.016197 0.949510 0.854867 1.291387 1.248875 1.293183 1.253462 0.928216 1.061239 0.881382 1.080452 1.305019 1.226372 1.180029 1.107768 1.172761 1.229112 1.257270 1.116480 1.071038 1.130601 1.285809 0.627773 1.079069 1.283158 1.194548 1.231729 1.200353 1.158769 1.156911 1.110853 1.021595 1.013510 1.105761 1.158600 1.153692 1.185452 1.175651 1.083744 1.058806 1.141546 1.157590 1.152792 1.153483 1.155752 1.130146 1.112561 1.145239 1.137586 1.131041 1.130264 1.105361 0.996211 1.065660 1.103907 0.877066 1.038927 0.970996 0.981376 1.049972 1.131184 1.137960 1.138954 1.096643 1.081162 1.098179 1.109901 1.165156 1.171694 0.619841 0.826202 1.077934 1.201480 1.242426 1.211405 0.990573 0.840188 0.829735 0.876372 0.864477 1.013927 1.078463 1.113666 1.126478 1.116352 1.116590 1.042222 1.015625 1.020772 1.168218 1.052134 0.946180 0.596715 1.051443 1.123814 1.041284 1.077823 1.157204 1.110718 1.119006 1.120848 0.937817 0.656257 1.178103 1.030198 1.108748 1.079306 1.145095 1.036210 1.037813 1.035980 1.087252 1.017912 1.063115 1.081771 1.075207 1.077203 1.066210 1.042301 1.035536 1.030658 0.979205 1.021879 1.130604 1.131443 1.029810 0.928154 0.821484 0.884071 0.911938 1.023134 1.067494 1.062991 1.152114 1.082536 0.970567 1.000202 0.919278 1.031570 1.055336 0.968051 0.990306 1.010155 1.081030 0.986051 0.995062 1.112780 1.107993
1.109161 1.201236 1.191832 1.103505 1.124081 1.125788 0.939925 0.838561 1.065912 1.059039 0.994041 1.085088 1.084253 1.100637 1.085745 1.057598 1.012605 1.060674 1.108155 1.161273 1.088512 1.028175 0.846538 1.069133 1.202739 1.193948 1.097057 0.965269 0.746166 0.747894 1.091285 1.134361 1.201447 1.200320 1.118352 1.054274 1.043061 1.112473 1.013022 1.186933 1.184488 1.136184 1.211130 1.221546 1.078280 1.063198 1.000853 0.930396 0.848859 1.178529 1.223626 1.084024 1.084279 1.221574 1.203779 1.054897 1.033122 1.139721 1.192429 1.058646 1.032554 0.893140 0.627589 1.224457 1.242748 1.063583 1.073651 1.206626 1.155730 1.112628 0.987416 1.131912 1.217089 1.215055 1.177551 1.099305 1.150339 1.034484 1.012444 1.218253 1.210686 1.014661 1.062647 1.105280 1.131770 1.164033 1.175113 1.068337 1.091964 1.103441 1.142647 1.135555 1.081646 1.044941 1.030137 1.108185 1.075075 0.883442 0.866129 0.922989 1.027356 1.058012 1.005172 1.029252 1.043244 1.009807 1.005095 1.033933 1.043568 1.049871 1.069918 0.993824 0.849277 0.859529 0.834111 0.783959 0.983492 1.040277 1.025689 1.067426 1.140118 1.137837 0.834532 1.018747 1.160694 1.051940 0.951493 0.942826 1.056827 1.070153 1.031775 0.803711 0.959815 1.108317 0.845176 1.231132 1.252254 1.235468 1.207007 1.064619 0.927826 0.960536 1.037346 1.113601 1.096188 1.086534 1.076939 1.063962 1.020105 1.008406 0.897725 0.948848 1.101968 1.126695 1.126131 1.134509 1.129341 1.162796 1.115248 1.168705 1.216699 1.222628 1.237933 1.250636 1.265648 1.202825 0.746012 1.129787 1.284029 0.936258 1.022562 1.215533 1.172883 1.101085 1.158016 1.188522 1.207066 1.059912 1.002064 1.013723 1.035133 1.103789 1.123967 1.125432 1.034149 0.920365 0.996689 1.142342 1.167670 1.205510 1.217519 1.174566 1.188486 1.213676 1.261066 1.068494 0.684019 0.694591 0.681965 1.057083 1.061543 0.870243 1.190058 1.280609 1.270006 1.053450 0.841804 1.085403 0.935244 0.834884 0.927177 0.944105 1.097148 1.176485 1.163025 1.160925 1.056850 0.862464 0.895898 1.031238 0.940163 1.018865 0.995458 1.095237 1.098928 1.059882 1.078814 1.060107 1.108477 1.080545 1.109562 1.074298 0.889061 0.812336 1.226093 1.172499 1.248774 0.911116 0.655331 0.795195 0.705023 0.834383 1.054247 1.102861 1.166810 1.132104 1.145550 1.226853 1.228454 1.112862 1.138043 1.280117 1.289608 0.726446 1.126441 1.293620 1.197574 1.138896 1.252176 1.193259 1.207951 1.200124 1.081010 0.972587 1.009063 1.205559 1.196718 1.191366 1.174139 1.123096 1.153793 1.158809 1.157331 1.160769 1.096090 0.996854 0.901237 1.043393 1.085865 1.110291 1.140847 1.146018 1.092122 1.019239 1.087309 1.168412 0.963371 0.669777 0.976764 1.050107 1.091886 1.144628 1.141829 1.094834 0.968255 1.051937 1.137219 1.095098 1.035917 0.979146 0.586732 0.738978 1.152735 1.136218 1.089900 0.945134 0.977744 1.101372 1.108970 1.122273 1.102906 1.093323 1.138268 1.124909 1.111726 1.114334 1.114937 1.065737 1.035389 1.049720 1.183420 1.177960 1.040448 0.563911 0.890820 1.039936 1.037930 1.104860 1.161314 1.100088 1.142217 1.063657 0.987175 0.824501 1.221325 1.119160 1.087025 1.009353 1.120115 1.156258 1.128316 1.138266 1.129547 1.125584 1.096530 1.054878 1.059130 1.091496 1.034358 1.045026 1.048930 1.044186 1.012741 1.014087 1.087123 1.135579 1.093081 1.005429 0.851052 0.744156 0.815541 1.015646 1.068984 1.079823 1.155463 1.123253 0.995598 0.887724 0.886201 1.060716 1.124007 1.114581 1.088042 1.014211 1.049791 0.978233 1.033922 1.108705 1.091653
1.049852 1.115578 1.177185 1.179325 1.151051 1.126041 1.052045 0.940407 1.029539 1.070060 1.083667 1.080139 1.088346 1.101095 1.077823 1.058388 1.031605 1.064159 1.051922 1.107630 1.182851 0.964982 0.738705 0.944083 1.213873 1.191704 1.120260 0.962568 0.757007 0.720994 1.114268 1.120527 1.203027 1.169791 1.085157 1.073633 0.981932 0.909192 0.861226 1.073273 1.181671 1.112088 1.178746 1.223733 1.096361 1.141252 1.126385 1.144358 0.850358 0.838587 0.993292 0.866149 1.044339 1.233076 1.188162 1.136941 1.096469 1.197437 1.116198 0.917682 1.042427 0.909446 0.583280 1.059271 1.190560 1.277022 1.220728 1.185919 1.190451 1.195632 1.096806 1.046952 1.069840 1.011115 0.881151 0.675556 0.951200 0.848538 0.822280 1.057731 1.045170 0.882258 0.930669 1.109263 1.163092 1.170862 1.174742 1.171167 1.161625 1.155429 1.111246 1.059496 1.012858 0.984913 1.002340 1.106115 1.107733 0.909533 0.877838 0.899557 1.053048 1.044092 1.003440 1.038708 1.009667 1.007729 1.040754 1.033969 1.027586 1.005328 1.013568 1.102161 1.108158 0.984606 1.007841 0.769806 0.784737 0.916469 1.043863 1.086714 1.149959 1.138182 1.029398 1.013038 1.174572 1.171481 1.136622 1.047133 1.065629 1.095699 1.112741 0.967898 0.706252 0.700091 0.584332 1.028771 0.989429 0.918936 0.848293 0.947940 1.023690 0.985476 0.983655 1.116584 1.100146 1.102832 1.070626 0.991243 0.980449 0.925497 0.844705 0.727271 1.048017 1.054956 1.003765 1.066828 1.112549 1.141828 1.113305 1.138050 1.226094 1.223395 1.243911 1.252176 1.263836 1.280071 0.871444 0.814775 1.225028 1.285995 1.282114 1.268210 1.267690 1.259650 1.176530 1.232571 1.219112 1.209777 1.177878 1.101535 1.033941 1.090597 1.125271 1.078476 1.096379 1.163383 1.187456 1.205320 1.195543 1.194898 1.170065 1.180593 1.228926 1.233480 1.270974 1.186071 0.741516 1.016233 0.789246 1.032024 0.758342 0.876242 0.730498 0.759346 0.891235 0.854616 1.006188 0.852537 1.045484 0.911720 0.922432 1.022948 1.161272 1.165787 1.118778 1.113591 0.971882 0.769242 0.990478 1.101397 1.080870 1.059684 1.053631 1.089419 1.094234 1.047389 1.016464 1.076390 1.097913 1.082530 1.084142 0.995669 0.856223 0.904736 1.162223 1.155303 1.205247 1.126414 1.047542 0.968728 0.580571 1.010205 1.274248 1.257529 1.232295 1.121071 1.146989 1.203623 1.245523 1.169949 1.128855 1.269357 1.031144 1.029035 1.284917 1.235788 1.146947 1.186568 1.273453 1.188233 1.162047 1.134982 1.230204 1.221558 1.215629 1.208243 1.067077 0.972191 1.028492 1.107074 1.163435 1.109691 1.138198 1.073206 0.972612 1.009702 1.060720 1.041032 1.015412 1.097391 1.123089 1.094785 1.046786 1.036953 0.951084 1.080045 0.979397 0.773320 1.135711 1.122166 1.180308 1.157151 1.147615 1.100992 1.033322 1.029570 1.106226 1.167675 1.128196 1.117518 0.661897 0.528095 0.783227 0.939230 0.990405 1.127041 1.105589 1.154716 1.127021 1.135672 1.158367 1.142823 1.134258 1.086331 1.065666 1.037937 1.089195 1.057338 0.978981 0.970336 1.121427 1.082535 1.131500 0.701268 0.957200 1.093918 1.048188 1.168392 1.167344 1.095501 1.129782 1.135573 0.888038 0.690674 1.031218 1.110685 1.177458 1.156826 1.142409 1.147460 1.141439 1.132714 1.130214 1.113484 1.082158 1.062177 1.095730 1.065338 1.023236 1.025860 1.038519 1.028978 1.007093 1.024883 1.051323 1.140491 1.079092 1.012037 0.925359 0.884078 0.739752 1.034205 1.076623 1.097311 1.162158 1.106561 0.901572 0.902067 1.042184 1.109835 1.167752 1.153735 1.120829 1.119516 1.096899 1.043168 1.073400 1.108284 1.066395
0.884150 0.981665 1.083399 1.121514 1.152893 1.153829 1.050006 0.983798 0.996298 1.058044 1.065377 1.094160 1.104998 1.050970 1.078194 1.078902 1.017271 1.038767 1.038806 1.029915 1.200387 1.175553 0.906825 0.787793 1.114165 1.180175 1.185954 0.918436 0.582215 0.816204 1.154093 1.153593 1.208334 1.179242 1.097383 1.103098 0.959966 0.716250 0.569676 0.936461 1.115176 1.087387 1.154028 1.227008 1.088739 1.195485 1.211941 1.154221 0.812389 0.923973 1.203691 1.209648 1.150530 1.175654 1.178484 1.131143 1.075275 1.215652 1.166323 0.930093 0.717714 0.738756 0.934640 1.122752 1.196006 1.121467 1.123905 1.110175 1.175427 1.182337 1.136324 0.933529 0.841092 0.960881 1.186716 0.948801 0.868309 1.194060 1.076528 0.826747 0.641556 0.971761 1.076604 0.855496 1.114047 1.107861 1.076228 1.064545 1.100841 1.081137 1.097606 1.089006 1.024397 1.002979 1.044982 1.085208 1.096949 1.025589 0.861958 0.876281 0.999715 1.001492 1.030539 1.037220 1.002043 1.038987 1.029943 0.985505 0.979681 0.989502 0.996440 1.029822 1.116787 1.126988 1.132016 1.023766 0.879042 0.827876 1.053686 1.101166 1.158998 1.078929 0.984333 0.934948 1.048207 1.129430 1.178682 1.169379 1.115922 1.120081 1.135345 1.155343 1.002361 0.916148 0.463807 0.612379 1.180604 1.245753 1.227058 1.035624 1.025644 1.001053 0.963001 1.052798 1.103678 1.106569 1.032712 1.084174 1.179222 1.198496 0.983750 0.765054 0.901370 1.131449 1.015121 1.157972 1.165081 1.118226 1.105044 1.168636 0.968939 1.086542 1.125757 1.067157 1.274042 1.242979 0.882287 1.253910 1.273303 1.149937 1.131947 0.908136 1.137527 1.195589 1.155969 1.214991 1.208126 1.179613 1.086595 1.123193 1.106602 1.113959 1.126218 1.109508 1.093932 1.039803 0.948583 1.038124 1.141865 1.092381 0.964262 0.928628 1.025391 0.958752 0.963513 0.877612 0.556190 1.175883 0.990088 1.044270 1.062678 1.270952 1.255451 1.204350 1.233682 1.246412 1.237615 1.233808 1.222120 1.190790 1.038473 1.096301 1.168244 1.171886 1.096976 1.100187 0.837961 0.688111 1.061223 1.070122 1.050815 1.052066 1.094055 1.103674 1.093983 1.053772 1.066342 1.083469 1.022271 0.960347 0.980001 0.920349 1.024204 1.137399 1.071589 1.097789 1.263118 1.275642 1.224479 1.203233 0.957116 0.806725 1.221383 1.214295 0.924669 1.073293 1.207126 1.230810 1.273459 1.250392 1.015557 0.951070 0.808641 1.223497 1.302536 1.249020 1.128875 1.190699 1.077263 0.945155 1.132739 1.232088 1.218189 1.207153 1.219543 1.115596 0.972297 0.968613 1.057755 1.173562 1.154634 1.128795 1.095011 1.088784 0.918939 1.159288 1.171272 0.914404 0.980268 0.978801 0.991480 1.144812 1.007919 0.915657 0.781616 0.746203 0.683131 0.884449 1.106475 1.093971 1.091246 1.046357 1.156999 1.167244 1.086921 1.096254 1.109793 1.190223 1.121816 0.827708 0.503995 1.009898 1.063402 1.049676 1.117241 1.093685 1.101271 1.196357 1.102296 1.141249 1.164205 1.152213 1.116399 1.074662 1.067502 1.026745 1.071826 1.085627 1.035114 0.739406 0.868096 1.129329 1.045309 0.779332 1.118341 1.122881 1.126145 1.168928 1.124407 1.041827 1.080228 0.996737 0.591968 0.853296 1.045438 1.038273 1.066899 1.124137 1.154659 1.120054 1.094063 1.032952 1.067954 1.070750 1.065666 1.103342 1.088218 1.022970 0.960768 0.982277 0.966585 0.969162 0.987650 1.040011 1.040572 1.112016 1.145364 1.044993 0.959684 0.883154 0.721995 0.960453 1.055892 1.083593 1.167637 1.048996 0.943888 1.126367 1.180569 1.175118 1.125914 1.032015 1.014893 1.063026 1.011828 0.972448 1.113653 1.111680 1.021217
1.105304 0.886050 0.932225 0.956408 1.032276 1.122241 1.096373 1.031241 1.060376 1.106255 1.097369 1.104781 1.079863 1.014046 1.024529 1.084192 0.936974 0.940188 1.130523 0.828803 1.216521 1.183099 0.801363 1.112388 1.202171 1.182755 1.161098 1.171034 0.849566 0.722947 1.174960 1.159094 1.212118 1.210973 1.071889 1.047782 0.928534 0.974502 0.830679 0.719119 1.068947 1.113045 1.212120 1.232367 1.124680 1.113143 1.173036 1.157488 0.752250 1.245803 1.198450 1.170161 1.214095 1.252416 1.198318 1.055033 1.062414 1.246933 1.209188 0.979670 0.831148 0.992809 1.183248 1.273374 1.143184 1.170890 1.171575 1.142643 1.177331 1.139452 1.190835 0.998990 0.891929 1.172944 1.227327 1.087259 0.737810 0.936467 1.257570 1.231248 0.870519 1.115271 1.231188 0.885059 0.948678 1.024258 1.072060 1.138868 1.136718 1.097485 1.138903 1.059884 0.967652 1.089665 1.085970 1.067570 1.102978 1.090435 1.070250 0.959621 0.965736 1.013785 1.046149 1.001610 1.010272 1.039279 0.976979 0.863478 0.982449 1.009454 1.001618 1.014607 1.100607 1.049649 1.137508 1.148375 1.093054 0.838582 1.066091 1.118045 1.172971 1.021474 0.896704 0.842520 1.104873 1.145267 1.123315 1.184576 1.183707 1.190502 1.188012 1.194320 1.097731 1.001987 0.908912 0.628572 1.156675 0.926501 1.061346 1.183238 1.160252 1.112656 1.006126 1.001431 1.105063 1.093360 1.044307 0.932680 0.848672 1.187270 1.199356 1.104797 0.847754 1.157380 1.101145 1.240259 1.198949 1.144566 1.062826 1.216526 0.915011 1.255818 1.073020 1.162231 1.290203 1.030713 1.084241 1.300685 1.196104 1.083238 1.139017 1.024705 0.806852 0.771630 0.919893 1.070657 1.061270 0.985265 1.021757 1.015749 0.998001 1.077324 1.126841 1.122432 1.044685 0.972195 0.852061 0.750281 0.826082 0.691422 0.695617 1.196404 1.191905 1.010695 1.153943 0.967975 0.845555 1.283778 1.095432 0.986368 1.096339 1.294656 1.280822 1.189258 1.195430 1.242422 1.146318 1.048874 1.209534 1.200691 1.186014 1.172201 1.170205 1.109469 0.972812 1.187916 0.917870 0.592002 1.094945 1.100795 1.115651 1.129448 1.032425 1.059063 1.077209 1.097810 1.081889 1.043339 1.061713 0.950765 0.938518 1.133182 1.170513 1.168240 1.192959 1.252327 1.261455 1.207553 1.214241 1.303744 1.316413 1.046071 0.884335 0.881461 1.096614 1.255344 1.204161 1.124459 1.241588 1.165313 1.233191 1.015519 0.721919 0.878997 1.121615 1.252752 1.252361 1.141719 0.843671 0.970697 1.110003 1.246262 1.158208 1.135739 1.187031 1.105206 0.910845 1.038185 1.184058 1.178963 1.135192 1.125309 1.067203 1.080322 0.915000 1.215034 1.142018 0.898971 0.904004 1.100204 1.177967 1.180673 1.179659 1.040333 0.978847 0.643866 0.513597 1.177145 1.180031 1.103971 1.045137 1.076798 1.175317 1.181267 1.079927 1.120199 1.157323 1.168255 1.204227 0.823880 0.780525 1.076977 1.185265 1.161405 1.098112 1.091230 1.174214 1.199200 1.094702 1.001486 1.091759 1.061877 1.042468 1.115627 1.100397 1.127580 1.094360 1.140046 1.202322 1.013341 0.616458 1.212573 0.833140 0.938044 1.100684 1.109499 1.139248 1.175612 1.066034 1.074496 1.088177 0.825342 0.649125 1.097586 1.110299 1.086560 1.090459 1.151354 1.161628 1.085165 1.071160 0.973942 0.993710 1.034157 1.027556 1.086655 1.116636 1.081164 1.011031 0.989032 0.937617 0.843432 0.941438 1.036025 1.054008 1.065609 1.143937 1.088644 1.023595 0.971707 0.928650 0.927225 1.088676 1.169160 1.173197 1.068859 0.949861 1.093278 1.121680 1.096976 0.986710 0.983371 1.059234 1.087088 0.966892 0.997886 1.109047 1.075564 1.027236
1.009935 1.122235 1.119898 1.014232 1.039878 1.042203 1.050068 1.083144 1.083129 1.094250 1.083598 1.062280 1.056931 1.054056 1.064138 1.054954 1.095486 0.969400 1.053834 0.831418 1.232113 1.122724 0.776566 1.238316 1.233699 1.236481 1.075164 1.007690 1.177923 0.767378 0.944879 1.139178 1.214624 1.213933 1.123748 1.115841 1.128633 0.808618 0.838611 1.039785 1.164630 1.075397 1.229940 1.242186 1.061459 0.814932 0.921002 1.062704 0.747161 0.866862 0.837999 1.203842 1.219647 1.161644 1.230852 1.176686 0.955266 1.021167 0.878669 1.105145 1.204196 1.138836 1.073727 0.840565 1.139560 1.167997 1.121167 1.097954 1.229065 1.185410 1.231222 1.090501 0.902881 1.174825 1.244817 1.168220 0.941578 0.666923 1.053692 1.240527 1.121464 1.162976 1.200321 0.848745 0.649134 0.720361 1.072548 1.115280 1.096716 1.027364 0.975405 0.883800 0.929798 1.033658 1.004110 1.031522 1.042087 1.042666 1.083933 1.072559 1.020394 1.042557 1.020940 0.986522 1.015956 1.007190 1.008942 0.932338 0.977910 0.994086 0.932462 0.986771 1.075470 1.069730 1.088881 1.079143 1.139701 0.911769 1.041024 1.131850 1.188026 1.155743 0.924291 0.892163 1.186147 1.103728 1.050968 1.116779 1.104135 1.190135 1.197183 1.211826 1.142673 1.214608 1.110054 0.776467 0.594723 1.036399 1.152469 1.129676 1.127494 1.104540 1.077157 1.079148 1.108470 1.089731 1.081484 0.980285 0.783232 0.887091 0.988679 0.859098 0.742324 0.847160 1.069217 1.227396 1.215738 1.192614 1.035591 1.212778 1.033855 0.981381 1.059805 1.306707 1.312631 0.703247 1.043754 1.211835 0.791904 1.115089 1.255962 1.273408 1.147373 1.074020 0.792247 0.669908 0.932879 1.041407 1.101324 1.109011 1.081099 1.093791 1.123093 1.116215 1.110679 1.119424 1.196601 1.213335 1.230215 1.192301 1.047078 1.276893 1.186444 0.718121 0.890745 0.777502 0.955278 1.345415 1.333904 1.326516 1.221867 1.197907 1.134693 0.949656 1.193522 1.248116 1.065293 1.089335 1.138748 1.064376 1.171436 1.175973 1.122798 0.941598 0.831355 0.787675 0.774089 0.576870 0.992388 1.039455 1.059418 1.045664 1.025310 1.103955 1.066556 1.081701 1.098958 1.118315 1.036579 0.958645 1.088276 1.089182 1.127213 1.240388 1.247941 1.260974 1.148441 1.267054 1.183248 0.858848 1.172932 1.290522 0.789884 1.123932 1.144267 1.275889 1.204903 1.104312 1.171096 1.116565 1.118853 1.130312 0.580133 0.814338 1.204021 1.169805 1.011304 0.760893 1.021272 1.066528 1.088405 1.080052 1.215048 1.101778 0.973494 0.825598 0.930945 1.189134 1.197554 1.189770 1.165309 1.117529 1.046688 1.017189 0.920557 1.072570 0.816688 0.907734 0.987718 1.165562 1.176428 1.179703 1.077640 0.779712 0.705127 0.833431 0.518972 0.888351 1.131439 1.097545 1.055403 1.101681 1.156595 1.127678 1.060941 1.076147 1.174404 1.113248 1.042379 1.010038 1.278021 1.265472 1.210251 1.114999 1.106069 1.143093 1.206998 1.198548 1.068757 1.082422 1.021163 1.040160 1.079580 1.166499 1.046113 1.113554 1.051984 1.077780 1.091306 1.211060 0.797289 1.089582 0.724002 1.126734 1.070605 1.139634 1.162308 1.168459 1.121797 1.135909 1.171522 1.026223 0.713672 1.188723 1.166759 1.146575 1.161247 1.169237 1.155370 1.108959 1.068443 0.844127 0.994752 1.036081 1.033353 1.093236 1.112175 1.111334 1.072756 1.020473 0.988011 0.868007 0.841873 1.052737 1.027081 1.079191 1.144425 1.083147 1.026318 1.110810 1.048275 0.966502 1.143718 1.184220 1.159540 1.111051 0.918648 0.971722 1.006272 0.908280 0.874617 0.968919 1.046354 1.003732 0.969758 1.075462 1.107887 1.094446 1.087836
1.067886 0.964183 1.036425 1.065129 1.055063 1.057192 1.073099 1.079852 1.049933 1.087907 1.078356 1.079777 1.091061 1.044545 1.098845 0.982925 0.960949 0.888379 0.774291 0.780695 1.251066 1.012900 0.679927 1.137352 1.119987 1.188058 1.019532 0.704058 0.736217 0.736102 1.017226 1.157897 1.199991 1.218911 1.125493 0.991788 1.075055 0.843397 1.074345 1.281674 1.179320 1.142657 1.227366 1.251778 1.008939 0.849404 0.758794 1.016308 1.147834 1.084144 1.068917 0.989533 1.021483 1.043340 1.113220 0.928697 0.795172 0.666472 1.088732 1.244187 1.153154 1.054420 0.987818 0.745076 1.109676 1.172212 1.164412 1.175274 1.056842 1.114119 1.236832 1.054929 0.742477 0.997963 1.200988 1.229829 1.060160 0.813885 0.832823 1.103346 1.219836 1.187815 1.185604 0.982191 0.876823 0.722803 0.943130 0.860720 0.951835 0.891865 0.793406 0.875086 0.842267 0.927609 0.954322 1.001407 0.968517 0.991917 0.953906 0.992840 1.016043 1.027470 1.009688 1.011635 1.039230 1.038660 1.036950 1.013942 0.984531 0.972785 0.810728 0.902636 0.953986 1.035406 1.081932 1.052123 0.965315 0.908894 0.960889 1.160253 1.143428 1.211877 1.059652 0.795756 1.156061 1.078251 0.964602 1.088826 1.088486 1.145334 1.205927 1.104615 1.057944 1.241899 1.216907 0.778214 0.829886 1.115198 1.058311 1.053431 1.083531 1.109021 1.107774 1.087118 1.110480 1.115231 0.986417 0.902505 0.980621 0.906015 0.846621 0.760980 0.639543 0.593034 1.058935 1.258914 1.196724 1.084789 0.782427 0.633173 0.512121 0.582297 1.335093 1.248458 1.035681 0.588353 1.122611 1.161488 0.983498 1.140785 1.217974 1.176734 1.250695 1.254723 1.003133 0.824735 1.001467 1.132634 1.142676 1.092485 1.092762 1.107697 1.130896 1.130697 1.096594 1.059746 0.991169 1.160626 1.225585 1.217889 1.192465 1.250813 1.277799 1.060726 0.806165 0.589166 0.603406 0.995822 0.876445 1.044124 1.084254 1.143356 0.987686 1.206127 1.213344 1.257707 1.033432 0.973000 1.033318 1.044608 1.143624 1.181982 1.080337 1.060567 0.698649 0.494398 0.969313 0.971189 1.032080 1.115165 1.090446 1.001670 1.043500 1.059131 0.991679 0.987031 1.102926 1.109694 1.065333 1.052239 1.091351 1.066342 1.080651 1.054678 1.108004 0.965237 0.784060 1.291457 1.189919 0.689691 0.916523 1.082071 0.510949 0.847300 0.996781 1.231813 1.244637 1.222545 1.220806 1.121047 1.144462 1.090846 0.826818 1.127122 1.103519 0.971781 1.092966 1.130397 1.200132 1.151744 1.231007 1.132453 1.254174 0.804493 0.791877 0.780793 1.098730 1.218950 1.172031 1.073276 1.166404 1.206549 1.022721 0.869500 0.755406 0.703307 0.863489 1.128826 1.106917 1.186861 1.177353 1.190497 1.146132 1.146997 0.953887 1.117525 0.833453 0.609651 1.013833 1.005162 1.053924 1.078420 1.196761 1.111646 1.008514 0.955285 0.975118 0.977478 0.813962 1.055523 1.280205 1.224548 1.193299 1.239391 1.230907 1.221338 1.150933 1.022275 1.144146 0.930938 0.764396 1.157507 1.128724 1.169626 1.065187 1.093270 1.074659 1.019730 0.996234 1.199107 0.992787 0.959664 0.793088 1.142976 1.098960 1.201644 1.142912 1.194288 1.141260 1.090162 1.229268 1.125890 0.573296 1.230747 1.191822 1.191622 1.183161 1.186618 1.200585 0.996393 1.065918 0.795784 1.045166 1.070074 1.062535 1.073220 1.038504 1.057016 1.096499 1.035173 1.021819 0.960905 0.782817 1.019201 1.004269 1.061122 1.147476 1.075559 1.045857 0.973056 0.952284 0.903412 1.103642 1.156087 1.055155 0.989167 0.825131 0.892867 0.946423 0.896130 1.023604 1.099180 1.127694 1.059116 1.057511 1.109228 1.111501 1.041705 1.054805
1.141758 1.094547 1.074176 1.054001 1.064545 1.060909 1.076969 1.075487 1.040427 1.074666 1.028585 1.013119 1.016637 0.915273 0.832152 0.934053 0.827889 0.850931 0.646869 0.557601 1.205603 1.232166 1.000281 1.248181 1.178899 1.123322 1.112969 1.116035 0.859207 0.583430 0.951814 1.127879 1.166469 1.225223 1.102106 1.007881 0.858231 0.580067 0.800575 1.172063 1.127699 1.163873 1.142777 1.183532 1.199302 1.149490 0.825990 1.100860 1.057316 1.010218 1.131166 1.074114 0.773215 1.088597 1.108839 1.017837 1.089148 1.005081 1.114063 1.160081 1.127445 1.206445 1.207608 1.044456 1.136310 1.214657 1.113348 0.937155 1.061707 1.112958 1.217150 1.180580 0.795712 1.074306 1.135884 1.219558 1.129849 0.918558 0.658297 1.088706 1.205965 1.214318 1.212102 1.125583 0.851227 0.750097 1.170785 1.052092 1.081789 0.827457 0.673929 0.921329 0.964063 1.006775 0.961313 0.918014 0.962122 0.955814 0.982027 1.021413 1.030730 1.027007 1.025360 1.019568 1.005840 1.029693 1.075298 1.083504 1.072077 1.034566 0.934929 0.998858 0.886230 0.757023 0.914934 0.908047 0.721120 0.701559 0.726004 0.758817 1.011940 1.200479 1.166876 0.876348 0.991119 1.093628 1.151265 1.226233 1.187304 1.140685 1.014029 1.048976 1.026097 1.229779 1.245190 0.729996 1.020888 1.156172 1.186556 1.185668 1.151968 1.064825 1.001231 1.122564 1.111135 1.103872 1.086944 1.115868 0.982482 1.044010 1.130247 1.039488 0.964652 0.847365 0.691238 1.225836 1.246352 1.138438 1.175141 0.890076 0.996650 0.463082 1.033306 0.751832 0.701487 0.745156 1.094728 1.165433 1.100235 1.208683 1.144279 1.005084 1.113831 1.247777 1.246025 1.149553 1.223091 1.224047 1.137186 0.998144 1.044610 1.083037 1.133755 1.133192 1.063031 0.965194 0.919598 0.895698 1.126335 1.190734 1.239474 1.220189 1.178227 1.079755 0.827920 0.605562 1.122618 1.353158 1.290335 1.178308 1.012840 1.022154 1.042561 1.274139 1.258988 1.263428 0.682626 0.792130 0.960547 0.995964 1.194386 1.186803 1.144092 1.091634 0.998368 0.652679 1.213184 1.073686 1.014658 1.071055 1.028309 0.998228 1.064999 1.030480 1.040164 1.001912 1.105934 1.106092 1.112155 1.061680 1.042229 0.964643 0.869999 0.769244 0.941029 0.879127 0.706099 1.154776 1.310803 0.813360 0.536408 0.789430 0.891325 1.346350 1.213139 1.262471 1.175597 1.134516 1.166495 1.072603 1.129247 1.228182 0.828729 1.089620 1.259137 1.294209 1.278025 1.274029 1.245429 1.157960 1.115685 1.103893 1.146153 1.192044 1.147715 1.130545 1.129326 1.123412 1.142015 1.097487 1.148669 1.181582 1.023984 0.654106 0.726011 0.846766 1.119088 1.216483 1.212404 1.196209 1.191353 1.063815 1.035541 1.004466 0.960071 0.937011 0.910449 0.638948 1.210267 1.183233 1.150714 1.182668 1.200353 1.118007 1.036333 0.985403 0.803855 0.543975 0.524865 0.711543 1.007219 0.823138 0.977069 1.003880 1.043032 0.934170 0.900495 1.031488 1.221484 0.931744 0.727598 1.194260 1.150751 1.060957 1.159968 1.147712 1.108825 1.078211 0.781491 0.887052 1.022700 0.906599 1.054597 1.208991 1.132764 1.201817 1.136387 1.210836 0.882116 0.888682 1.244368 1.215264 0.541023 1.243805 1.194418 1.174471 1.201509 0.858302 1.117304 0.726641 0.773661 0.749757 0.992932 1.061876 1.029818 1.081249 1.094326 1.098863 1.096473 1.013589 1.014424 0.927494 0.722971 0.992592 1.077126 1.121604 1.151604 1.088442 1.080878 1.143289 1.049347 0.789181 0.909164 0.936091 0.892666 1.129661 1.061022 1.143788 1.109177 1.081611 1.175132 1.154492 1.076505 1.009689 1.082782 1.107467 1.037799 0.990390 0.943669
1.029220 1.071051 1.069536 1.066455 1.062299 1.074124 1.076667 1.085776 1.046873 1.092758 1.025058 0.911065 0.845883 0.927886 0.948375 1.075763 1.037924 0.982881 0.829074 0.775317 0.804171 1.219378 1.091537 1.160405 1.141735 1.151032 1.235777 1.183254 0.920636 1.069296 1.061558 1.166315 1.205093 1.199565 1.096583 1.157139 1.111668 0.775610 0.850835 1.169188 1.118390 1.178540 1.214018 1.122703 1.164617 1.049944 0.911235 1.204358 1.186282 1.106550 1.153476 1.131155 1.008370 1.171296 1.148794 1.134716 1.098137 0.793044 1.135351 1.213537 1.194259 1.215873 1.212759 1.091206 0.767992 1.018925 1.158663 1.135249 1.114381 1.183581 1.227479 0.992252 0.644140 0.976169 1.096710 1.214094 1.167692 1.074517 0.812213 0.858432 1.161869 1.124428 1.196993 1.182734 0.963250 0.861019 0.977523 1.171075 1.068796 0.788546 0.815807 1.048364 0.992701 1.077597 1.117251 1.084071 1.005461 1.026900 1.018752 1.043272 1.023544 1.043155 1.022044 1.016746 0.979459 0.955555 0.990777 1.089872 1.005460 1.028492 1.136166 1.058937 0.913278 0.789468 0.990779 1.099495 1.101010 1.081580 0.994544 0.773231 0.688887 1.066500 0.981122 1.208365 1.007734 1.005698 1.163646 1.239852 1.134165 0.893025 0.975056 1.127497 1.136350 1.253881 0.997521 0.905714 1.264426 1.236166 1.220699 1.104187 0.977639 0.960677 0.992314 1.074012 1.115126 1.113055 1.082911 0.995113 1.084801 1.197157 1.208466 1.221223 1.236175 1.142503 0.796439 0.755899 1.220498 1.242024 1.237614 1.045432 1.194732 0.716552 1.272958 0.825315 0.428234 1.070462 1.326427 1.314748 1.306130 1.296931 1.194161 1.218247 1.212197 1.165980 1.128416 1.181440 1.237881 1.199737 1.071645 0.967086 1.045144 1.092829 1.112790 1.134193 1.114939 1.075201 1.006943 0.880353 0.815996 0.884784 1.112241 0.850521 0.674252 0.758824 0.929231 0.714129 0.579557 0.783621 1.080263 1.206365 1.289411 1.284743 1.243466 1.194588 1.264644 0.787059 0.715420 1.144275 1.110629 1.113411 1.196148 1.189834 1.117869 1.050876 0.901163 0.794755 1.148310 0.772239 0.995511 1.101395 1.091661 1.025506 1.015730 1.018312 1.064598 1.028282 1.093480 1.104649 1.065160 1.066998 0.973613 0.940529 0.938405 1.128787 1.206406 1.106516 0.973946 0.803453 0.984327 0.905106 0.881165 1.047603 0.635829 1.015925 1.130087 1.239237 1.184014 1.148099 1.155908 1.050930 1.137462 1.233666 0.696263 1.097696 1.206750 1.213079 1.168665 1.123588 1.131254 1.091527 1.094398 1.091105 1.039808 1.074901 1.205678 1.231636 1.176277 1.184303 1.167351 1.144935 0.961432 0.928560 0.618883 0.644384 1.092365 1.173293 1.131547 1.031856 1.047902 1.069510 1.036954 1.043730 1.172389 1.105443 0.970472 0.934767 0.992845 0.745011 1.173850 1.139423 1.128540 1.206826 1.204810 1.136996 1.191578 1.056178 0.717729 0.805044 0.703384 0.962379 1.027506 0.986831 1.100001 1.023944 1.058948 1.131216 1.169291 1.221717 1.224172 1.005607 0.670398 1.168251 1.149622 0.970053 1.224251 1.162964 1.180035 1.222110 1.164520 0.844338 0.711886 0.806899 1.072606 1.197825 1.185892 1.211961 1.188245 1.231879 0.677437 0.580793 1.194931 1.225815 0.535067 0.786307 1.245901 1.226814 1.155495 0.673642 0.982579 0.856791 0.928890 1.067530 1.055092 1.069783 1.033270 1.080272 1.090981 1.103328 1.086667 0.986271 0.993222 0.934300 0.843722 1.108547 1.063615 1.117806 1.158965 1.049207 1.020998 1.015828 0.994281 0.914095 1.184033 0.988424 0.784627 1.116053 1.166489 1.189474 1.184535 1.171636 1.166650 0.884518 0.913228 0.975517 1.114574 1.109383 1.060068 1.084330 1.123446
1.036155 1.036263 1.043369 1.081005 1.069203 1.092330 1.089789 1.087777 0.994966 1.067464 1.128850 1.067697 1.030485 1.148594 1.178099 1.190446 1.205242 1.089987 0.987431 0.976990 0.786570 0.697811 0.766029 1.226140 1.247703 1.238167 1.122266 0.951297 0.632748 0.978321 1.171204 1.152237 1.201753 1.182541 1.100699 0.959799 0.904549 0.577575 1.020187 1.224902 1.198540 1.224355 1.237083 0.870321 1.000384 1.108124 1.141705 1.142349 1.129449 1.109115 1.187748 1.118647 0.964185 1.164070 1.203443 1.161564 0.966406 0.770770 1.222539 1.167274 1.048257 1.105910 1.166718 1.150531 0.921033 0.832468 1.105940 1.107970 1.198616 1.090196 1.222315 1.151134 0.817683 0.871602 1.065654 1.197928 1.204591 1.049565 0.868116 0.627795 0.940108 1.094317 1.171459 1.192116 1.153510 1.036397 0.988297 1.157317 1.069492 0.726332 0.807532 1.013651 0.985579 1.019000 1.013092 1.040397 1.052027 1.002013 1.037228 1.029524 1.031413 1.040247 1.017546 0.985945 0.953366 1.000732 1.029275 1.048300 1.091798 1.019078 0.969739 0.930194 0.970239 1.026151 1.048409 1.090525 1.133322 1.140020 1.083559 1.025464 0.964560 0.888852 0.701587 0.971492 0.879506 0.836920 1.123675 1.257200 1.198413 0.748320 1.124284 1.175146 1.081540 1.266113 0.533143 0.792962 1.176968 1.030490 1.093234 1.043168 1.100472 1.098668 1.066514 0.990769 1.076221 1.113373 1.100672 1.082910 1.134583 1.113223 1.109695 1.149929 1.235900 1.243202 1.258506 1.208617 0.919280 0.908388 1.189637 0.988977 0.694831 0.578038 1.312707 1.190113 0.782357 0.738610 0.987221 1.202310 1.007212 1.133716 1.049081 1.248882 1.270389 1.146863 1.126230 1.257729 1.220107 0.835088 0.995482 1.127842 1.122825 1.104589 1.097579 1.135661 1.108334 1.073559 1.108504 1.044319 0.951115 0.926724 0.867607 0.992589 1.066295 1.092401 1.252884 1.224582 1.159776 0.715550 1.078075 0.849814 0.721879 0.943026 1.005216 1.228463 1.024803 0.561927 0.769846 1.111284 1.091274 1.124992 1.196855 1.198666 1.074866 0.910742 0.586757 0.563120 0.651164 0.876988 1.131315 1.130897 1.140212 1.168310 1.152923 1.087006 1.092367 1.057977 1.055306 1.102005 1.067379 1.073596 1.004995 0.856976 1.008800 1.150288 1.154189 1.049271 1.091546 1.007643 0.956291 1.082203 1.092274 1.226016 0.819805 0.706320 1.296587 1.264753 1.215050 1.195784 1.224168 1.110465 1.075306 1.209421 0.794210 1.206886 1.307810 1.137515 1.154879 1.180472 1.206956 1.212431 1.208792 1.150930 1.057643 1.165375 1.226513 1.183355 1.213888 1.211875 1.172170 1.164112 0.886636 0.783733 0.631690 0.995993 1.215166 1.241228 1.199427 1.142506 1.174250 1.228737 1.060423 1.174733 1.208427 1.218212 1.095018 1.010487 1.064026 0.762833 1.116522 1.102150 1.169849 1.140673 1.213443 1.153383 1.083194 1.204318 1.263592 1.211486 0.977732 1.190484 1.239435 1.236207 1.248676 1.222989 1.226233 1.168427 1.153393 1.225868 1.195711 1.145903 0.672939 0.994906 1.127779 1.003636 1.158525 1.177394 1.096996 1.224229 1.151172 0.948239 0.561371 1.053809 0.851419 0.629726 1.143685 1.187871 1.247097 1.174743 0.568379 0.464222 0.916453 1.011111 0.564666 0.497059 1.129898 1.223650 0.857552 0.755855 0.604877 0.999435 1.068505 1.008151 1.123840 1.127795 1.102558 1.075394 1.114107 1.072885 1.090923 1.001063 0.962819 0.867644 0.827779 1.101762 1.054157 1.133027 1.155900 1.066116 1.018860 0.919939 0.804084 0.997115 1.160262 1.023015 0.971805 0.878878 1.023247 0.995754 0.968288 0.865539 0.872833 0.858044 0.898924 1.009673 1.108434 1.101243 1.046356 1.021668 1.153386
1.050492 1.058594 1.080062 1.110216 1.094401 1.099540 1.081805 1.063051 0.976713 1.046368 1.130695 1.101536 1.131690 1.143524 1.079600 0.923933 1.121040 1.210148 1.188188 1.115218 1.072632 1.006880 0.740290 0.895707 1.175362 1.141247 0.980272 1.117621 1.147563 1.121827 1.191419 1.125349 1.237430 1.191672 1.151379 1.029934 0.896019 0.620251 0.851426 1.239101 1.215336 1.194506 1.143120 0.989867 1.143369 1.128349 1.142921 1.110735 1.121629 1.138617 1.189907 1.103939 1.046699 1.229647 1.218146 1.175986 1.027037 0.807552 1.031393 1.063839 1.020056 1.058844 1.170881 1.266638 1.206836 0.878665 0.645714 0.934506 0.978383 0.945802 1.153129 1.210501 0.926398 0.980600 0.962600 1.074967 1.193065 1.007965 0.941979 0.809406 0.642827 1.049030 1.177143 1.153898 1.190330 1.158385 1.118512 1.170710 1.071342 0.770342 0.837824 0.993788 1.057721 1.062894 1.034922 1.008766 1.034394 1.022022 1.033963 1.032473 1.041116 1.032471 1.040522 0.964360 0.963859 1.006277 1.030065 1.034931 1.102510 1.076591 1.001531 0.982130 1.015943 1.065453 1.019917 1.164304 1.171573 1.187890 1.201404 1.217860 1.204053 1.183122 0.953314 0.765624 0.756253 0.719964 1.102936 1.278290 0.954171 0.819845 1.174789 1.170645 1.122613 1.221841 0.471440 0.666332 1.045741 1.050729 1.198764 1.104759 1.033230 0.993466 1.038038 1.044200 1.121322 1.114362 1.087518 1.086288 0.997120 0.959656 0.678399 0.985018 1.253278 1.173332 1.130316 1.124787 1.259502 1.286739 1.263717 1.300539 1.230017 0.811366 1.094942 1.099277 1.171477 1.195346 1.012854 0.835333 0.623867 0.689511 0.863986 1.002378 1.025836 1.030222 0.882515 0.992116 0.787781 0.630739 0.843166 0.910689 1.008179 1.036808 1.139127 1.135736 1.144970 1.072322 0.828173 0.961311 1.122211 1.047491 1.141308 1.220329 1.177462 1.234290 1.296017 1.195761 0.935424 0.702350 1.229765 1.229392 1.311260 0.892272 0.833491 1.133294 1.011693 0.979078 0.980117 1.024770 1.071152 1.153878 1.200861 1.166192 1.061402 1.028528 0.686135 1.153172 1.161856 1.151167 1.219470 1.059379 1.067851 1.042389 1.021363 1.070974 1.061099 1.061613 1.000991 1.103265 1.045881 1.055570 0.950142 0.905077 1.109177 1.180315 1.117473 1.152298 1.147579 1.167436 1.214237 1.276484 1.293218 1.302960 1.126918 0.721876 0.996928 1.188920 1.232853 1.248607 1.207580 1.161630 1.114944 1.129985 0.810795 1.212962 1.272764 1.141682 1.127100 1.243827 1.215522 1.153664 1.066306 1.077917 1.120040 1.160329 1.165234 1.208666 1.191808 1.213700 1.119272 1.145958 1.038474 1.152237 0.984747 1.118576 1.217556 1.238009 1.142973 1.189090 1.111328 1.160006 0.929150 1.206373 1.235152 1.216312 1.143661 1.165363 1.164194 0.642725 0.992283 1.188794 1.139842 1.029228 1.226091 1.064584 1.074377 1.153349 1.267231 1.155430 0.739092 1.146474 1.230502 1.193867 1.218404 1.244793 1.204771 1.199296 1.218333 1.216319 1.086784 1.144548 0.863026 0.831785 1.178339 0.934816 1.160798 1.198174 1.075938 1.206722 0.902414 0.715256 0.982146 1.134616 1.227402 0.841842 0.527374 0.584899 1.175418 1.217500 0.776942 0.794982 0.803953 1.266570 1.206884 0.659507 0.662331 0.560111 0.625683 1.003892 0.664564 1.238864 1.197891 1.112079 1.061270 1.097417 1.121874 1.102648 1.094612 1.039682 1.077640 1.100698 0.969421 0.927337 0.905427 0.846225 1.007701 1.154855 1.155949 1.072623 1.050005 0.910826 0.861747 1.101742 1.158281 1.107018 1.069490 1.009640 0.923886 0.782343 1.002647 1.080763 0.888268 1.034071 1.024763 1.078458 1.105421 1.071579 1.026819 1.023637 1.021329
1.092301 1.081534 1.105404 1.092424 1.063789 1.076231 1.043623 1.067473 0.977517 0.990152 1.110304 1.139449 1.079883 0.958938 0.988716 0.928979 0.955191 1.194948 1.217234 1.169390 1.154885 1.070775 0.817726 0.685055 0.758502 0.505079 0.673392 1.157845 1.275669 1.258458 1.124841 1.146421 1.226298 1.154669 1.208714 1.209414 1.137046 0.962140 0.737289 1.117534 0.986521 0.933990 0.951329 0.930655 1.124994 1.181548 1.190823 1.191433 1.147592 1.143765 1.130304 0.948166 0.977214 1.213203 1.045046 1.044232 1.166019 0.795959 1.095485 1.250232 1.146628 1.231608 1.210990 1.025982 0.881997 0.710064 0.962757 1.270639 1.246363 1.228092 1.188246 1.199848 1.123843 1.171472 1.069616 0.961705 1.184221 1.053517 0.945351 1.138881 0.962967 0.807918 1.019723 1.116493 1.166861 1.179915 1.167140 1.154889 1.155476 0.929579 0.850136 1.005632 1.025936 0.999894 1.025801 1.012804 1.044502 1.030700 1.039070 1.049121 1.010293 1.039834 1.023472 0.958521 0.959153 1.029315 1.079067 1.046123 1.056972 1.092685 1.114382 1.125965 1.111497 1.136513 1.140119 1.147808 0.973615 0.887904 0.945465 0.935392 0.888763 1.047487 1.004132 1.198932 1.175757 0.816044 0.757554 1.096775 0.736801 1.191290 1.194810 1.195634 1.167434 1.173884 0.484232 1.034402 1.263124 1.204103 1.247194 0.854892 0.980471 1.115130 1.098695 1.067134 1.120141 1.114755 1.087867 1.011064 0.918903 0.798116 0.660975 0.615243 0.788966 1.152712 1.276402 1.148838 1.145526 1.268456 1.200890 1.248444 1.303819 1.061908 1.107595 1.205935 1.126242 1.228541 1.260057 1.202321 0.881931 0.942082 1.247570 1.190386 0.911109 0.848210 0.891813 0.926238 0.914488 0.901910 1.013549 1.093771 1.039857 1.031207 1.093112 1.137135 1.142614 0.999899 0.946184 1.203520 1.126465 1.137490 1.206659 1.256006 1.234446 1.280076 1.291331 1.273630 0.876642 1.055146 1.229109 1.236678 1.273241 1.123426 0.886704 1.229705 1.291273 1.256080 1.235211 1.089054 1.042704 1.210567 1.204673 1.165222 1.130404 1.122568 0.707394 0.925332 1.151429 1.042241 1.181148 0.992781 0.981126 0.966888 1.093784 1.086716 1.080120 1.100232 1.035939 1.102619 1.068978 1.046883 1.027214 1.157804 1.168654 1.183997 1.199542 1.217791 1.235910 1.252437 1.270165 1.283401 1.291857 1.296565 1.310564 1.012589 0.618667 0.984312 0.917402 1.158478 1.319919 1.324011 1.207238 1.048865 1.232565 1.247117 1.276242 1.154657 1.068073 1.215772 1.253739 1.104069 1.053252 1.195630 1.230720 1.130291 1.169721 1.219840 1.067270 0.948879 1.063148 0.676260 1.044153 1.273022 1.247921 1.254582 1.247063 1.196318 1.217230 1.225562 1.122860 1.203931 1.059549 1.100439 1.146854 1.246433 1.244713 1.249425 1.173714 0.942566 1.079829 1.160097 1.139749 1.073334 1.232821 1.016103 0.840700 1.081283 1.113474 1.028075 0.931049 1.234163 1.229727 1.175583 1.220138 1.075790 1.024365 1.082140 1.133082 1.106026 1.050780 1.174982 0.907184 0.569669 1.111141 0.649845 0.949887 1.237289 1.129894 1.046309 0.731525 1.011884 1.043627 1.093306 1.251367 1.247639 1.103360 0.682929 0.568485 0.477854 0.862577 1.247055 0.638846 1.115934 1.248262 1.153674 0.961630 0.506686 1.040416 1.188271 1.003278 1.095661 1.181477 1.123747 1.153980 1.125512 1.103660 1.111396 1.076373 1.057814 1.058074 1.095846 1.128842 0.943053 0.917073 0.812252 1.094479 1.151673 1.174195 1.084699 1.016358 0.924916 1.062937 1.060775 1.117669 1.171946 1.104780 1.030246 1.081504 0.854090 0.955697 1.109957 1.042602 1.054532 1.056563 1.105386 1.108593 1.052512 1.023109 1.015335 0.966959
1.086978 1.078150 1.094963 1.092222 1.074295 1.066828 1.041546 0.910309 0.800433 0.910696 1.106640 1.141695 1.067074 1.069978 1.102118 1.031963 0.958099 1.069453 1.198765 1.202791 1.206288 1.122665 1.022800 1.204730 1.198136 0.831490 0.551368 1.108137 1.266243 1.156520 1.117635 1.133767 1.208909 1.165223 1.186351 1.135605 0.847807 0.841282 0.892670 1.219819 1.073421 1.158152 0.981209 0.944050 1.161846 1.165273 1.162799 1.186939 1.185649 1.198700 1.114387 0.974309 1.058094 1.234380 1.170153 0.880978 0.838214 0.819209 1.261951 1.224959 1.184731 1.249935 1.245231 1.045480 0.846486 0.752358 0.738421 1.124792 1.129517 1.091076 1.100571 1.204004 1.190315 1.184284 1.180612 1.178228 1.173103 1.141453 1.101780 1.175622 0.914246 0.811784 0.670215 1.063325 1.095945 1.044742 1.001694 1.070520 1.141147 1.034754 0.928088 1.021566 1.052650 1.011966 1.010698 1.025491 1.046835 1.045589 1.033811 1.032053 1.015129 1.047095 0.970940 1.010112 0.975548 1.004439 1.074482 1.086547 1.046743 1.083661 1.077158 1.127459 1.095483 1.102766 1.143220 1.151836 1.048973 1.047669 0.990251 0.946379 0.852150 0.998396 1.012973 1.258363 1.175280 1.167273 0.679008 0.788232 1.219466 1.214151 1.172625 1.200059 1.195370 1.178730 0.898091 0.734310 1.279223 1.207847 1.183056 0.733987 1.030846 1.070183 1.061574 1.058559 1.123787 1.120139 1.114210 0.947694 0.921237 0.946405 1.094118 1.059583 0.916617 0.710211 1.173994 1.025708 1.291464 1.297037 1.136941 1.328698 1.333803 1.135348 1.330110 1.318545 1.173877 1.134864 1.261890 1.234645 1.019042 0.891846 1.074590 1.199880 1.077602 1.085244 1.146594 1.124374 1.084204 1.027768 0.917792 1.028450 1.076143 1.054096 1.076793 1.126656 1.094813 1.127082 1.176805 1.197832 1.213237 1.223891 1.144662 1.103467 1.128978 1.071886 0.905413 0.906809 0.720279 1.143872 1.114589 1.237360 1.236221 1.117649 1.096910 0.897749 0.729295 1.038254 1.169486 1.123566 1.097424 1.207575 1.186970 1.099277 0.968841 0.920776 0.656114 0.590932 0.943572 0.613544 0.715483 0.709691 0.987015 1.117147 1.116886 1.061169 1.118994 1.113388 1.015641 1.093533 1.085544 1.094088 1.137729 1.109210 1.034286 1.029238 1.138292 1.179009 1.173900 1.155327 0.895303 0.848724 0.917038 1.069660 1.260377 1.213203 1.220249 1.188701 0.924921 0.754682 1.016059 1.025989 0.767980 0.632660 0.921275 1.114097 1.290438 1.182935 1.012627 1.199262 1.166167 1.016506 1.208532 1.177632 1.184582 1.196489 1.063104 1.175997 1.148026 1.053659 1.220782 0.974396 1.281902 1.236463 1.137679 1.233706 1.127539 1.167965 1.207240 1.043552 1.162826 1.003601 0.751618 0.814646 1.089302 1.177163 0.970756 1.246164 1.189301 1.156342 0.812095 0.926694 1.125915 1.172270 1.238187 1.159502 0.880153 1.011402 0.963474 1.106848 1.066586 1.172544 1.195855 1.220209 1.198308 0.997212 0.964841 1.062314 1.156292 1.229210 0.983375 1.195420 0.862793 0.500694 1.040534 1.011008 0.487897 0.802506 0.861453 0.513933 0.624301 0.705967 0.937357 1.102414 1.234493 1.092591 1.241288 1.106341 0.523117 0.335113 0.633047 1.261428 0.878953 0.798965 1.225446 1.203696 0.835967 0.408438 0.951604 1.228702 1.226737 1.200585 1.192159 1.141016 1.125142 1.121262 1.128956 1.113879 1.016586 1.085663 1.101465 1.115565 1.160915 1.119584 0.880251 0.704810 1.108243 1.135923 1.179891 1.140468 0.982229 0.926375 1.089343 1.078525 0.990441 1.073060 1.155337 1.096569 1.103691 0.921660 1.038184 1.057734 1.071431 1.104288 1.102939 1.106949 1.075753 1.059172 1.093881 1.117242 0.977412
1.100431 1.105957 1.096639 1.088576 1.071256 1.100366 1.152233 0.998242 0.731028 0.938799 1.107431 1.144472 1.059815 1.078330 1.092822 1.056527 0.960576 0.945020 1.171225 1.208364 1.157366 1.128378 1.179703 1.266307 1.256121 1.142548 0.940508 1.207157 1.085034 1.052343 1.098225 1.233742 1.255161 1.150509 0.962512 0.902982 1.136754 1.075302 1.026430 1.214124 1.136175 1.187188 1.177424 0.914760 1.074886 1.093943 1.119881 1.122809 1.115898 1.216546 1.144116 1.086073 1.217894 1.227129 1.097846 0.997199 1.029828 0.904025 1.163810 1.070420 0.969692 1.057325 1.241061 1.176326 1.085289 0.849944 0.596675 0.907296 0.890708 0.988955 1.169173 1.174213 1.140721 1.136354 1.159985 1.155939 1.173604 1.159413 1.156170 1.096694 1.008239 1.000159 0.732403 0.670562 0.831325 0.970816 1.069296 1.078062 1.137800 1.127560 1.011832 0.980594 1.023847 1.028726 1.039472 1.048031 1.046597 1.030830 1.028573 1.020049 0.993088 1.038816 1.023998 0.958014 0.801918 0.910922 1.049221 1.091617 1.043999 1.063801 1.017280 1.101661 1.095183 1.012985 1.022145 1.154863 1.161401 1.065385 1.057299 1.076230 1.084377 1.214381 1.191685 1.042283 0.868892 1.140044 0.848411 1.129643 1.162390 1.186012 1.239218 1.026325 1.160805 1.269153 1.001140 0.861812 0.963262 0.846869 1.055243 1.002401 1.029150 1.085923 1.107181 1.056593 1.122033 1.086489 1.099024 1.139629 1.190417 1.210861 1.236569 1.244248 1.127186 0.712885 1.177771 0.964558 0.871169 0.622852 0.582760 0.741841 0.768149 0.570407 1.085687 1.248113 1.296016 1.237654 1.267339 1.282763 1.279088 1.229241 1.123335 1.176015 1.149131 1.207230 1.183010 1.115071 1.074042 1.127075 1.109431 1.100263 1.077755 1.039303 1.109015 1.137123 1.119055 1.107129 1.047734 0.854951 0.931328 1.153985 1.254236 1.222142 1.274175 1.276105 1.279712 1.129671 0.865503 1.253683 1.226573 1.227978 1.237966 1.114864 1.214040 1.190204 0.910973 0.755930 0.960618 1.077680 1.209058 1.208425 1.168143 1.050049 0.982083 1.035499 0.646227 1.026129 1.218257 1.062802 0.938192 1.027550 0.915206 0.863608 0.894464 1.054471 1.137489 1.057989 0.972791 1.097659 1.077711 1.081992 1.019660 1.053094 1.035386 0.914707 1.137728 1.157791 1.038391 1.199058 1.192500 0.973989 1.073210 0.992385 1.251537 1.243791 1.221058 1.230089 1.290069 0.905638 0.568363 1.000077 1.195081 1.277587 0.561784 0.782107 1.227722 1.170288 1.072049 1.205347 1.136372 1.134696 1.164988 1.130362 1.177939 1.207607 1.017293 1.165036 1.211893 0.751451 0.769794 1.204856 1.280404 1.266893 1.163168 1.100992 1.043231 1.068428 1.124044 1.141914 0.999089 0.815322 0.942048 1.281046 1.258738 1.246706 0.899508 1.176100 1.141201 1.233766 0.874285 1.117441 1.190105 1.145192 1.241974 1.204003 0.837859 0.856432 0.969754 1.127303 1.024740 1.279971 1.261371 1.232898 1.190565 0.906181 1.071395 1.215870 1.271603 1.226579 0.926348 0.749178 0.534493 0.672461 1.043493 1.259863 0.911578 0.445508 1.084489 0.839672 0.882194 0.739957 0.866137 0.881044 0.801601 1.000476 1.098522 1.050436 0.920430 0.512424 0.764204 1.139755 1.198960 0.884398 1.218875 1.220141 0.862515 0.468769 0.524601 0.719908 0.913360 1.091927 1.101666 1.095566 1.102750 1.136899 1.134664 1.073331 1.043462 1.024603 1.115645 1.134179 1.076165 1.172616 1.037643 0.809640 1.099201 1.094251 1.147097 1.176161 1.010408 1.040864 1.127937 1.171056 1.075339 0.990119 1.136091 1.099078 0.962903 0.953759 0.997855 1.093909 1.106537 1.101599 1.080354 1.070142 1.054983 1.012554 1.019949 1.079030 1.151527
1.112523 1.087168 1.073296 1.059699 1.050028 0.980343 1.031680 0.940544 0.786792 1.063190 1.148998 1.148699 1.094372 1.096531 1.109025 1.142260 1.033370 0.840352 1.110890 1.198787 1.167350 1.127789 0.996631 1.094945 1.047170 0.795699 1.222200 1.294699 1.244033 1.231410 1.180704 1.195836 1.185658 1.088276 0.918503 1.045233 1.142275 1.003388 0.853525 1.073694 1.233044 1.214248 1.168777 0.994212 0.872331 1.119694 1.142351 1.100831 1.050094 1.057227 1.188089 1.140663 1.178221 1.003428 0.957005 1.169876 1.163623 0.935335 0.848967 0.704776 1.028662 1.081805 1.174059 1.225877 1.160795 0.884463 0.892232 1.061820 1.093844 0.893604 0.846567 0.979416 0.904971 0.893425 0.988829 1.000326 0.912442 1.006614 1.142418 1.150136 1.015440 1.007617 0.892291 0.791776 1.052942 0.955813 0.833546 0.943000 0.970545 1.028370 1.091412 0.978817 1.022228 1.034216 1.047202 1.046492 0.982700 0.964923 1.017671 0.998042 1.005099 1.055584 1.043331 0.955854 0.786816 1.006803 1.120223 1.130244 1.048038 1.026445 1.027597 1.098779 1.141990 0.896537 0.967908 1.096364 1.164301 1.167579 1.121844 1.153522 1.166034 1.034341 1.084061 1.035832 0.769280 1.003017 0.932292 1.168605 1.155500 1.162820 1.275702 0.871588 1.130925 1.164818 0.939890 0.945056 1.191949 1.224785 1.179302 1.154212 1.079200 1.151126 1.104788 1.101929 1.128976 1.114421 1.099412 1.048457 1.091286 1.018616 0.891502 1.014894 0.675671 0.789970 1.293720 1.287415 0.848966 0.590589 0.768855 0.829052 0.882273 0.442509 0.725549 1.014220 1.313397 1.298853 1.196576 1.189948 1.278807 1.269674 1.265870 1.166579 1.129661 1.238919 1.226693 1.221635 1.216752 1.212580 1.207842 1.200773 1.162660 1.092511 1.117204 1.131021 1.094509 1.116625 1.132787 1.112822 1.074420 1.114375 0.959503 1.093383 1.228445 1.293539 1.298398 1.310477 1.034743 1.300458 1.286295 1.227174 1.284747 1.132649 1.160818 1.206786 1.070856 1.007826 1.073230 1.138418 1.212505 1.209306 1.149958 1.058271 0.651966 0.848263 0.884479 1.004691 1.099131 1.104843 0.956350 0.954869 0.921607 1.027552 0.869179 0.896815 1.095144 1.042295 1.066838 1.105201 1.102456 1.109595 1.037527 0.921174 0.985982 0.980170 0.968773 1.109574 1.029231 1.013699 1.215423 1.293552 1.301256 1.015596 0.747352 0.878553 1.188299 1.153951 1.208690 1.101198 1.059857 1.343177 1.329273 1.326291 1.225338 0.809024 0.705716 1.135372 1.188447 1.250268 1.194588 1.216243 1.230239 1.155174 1.289564 1.130357 1.083368 1.180108 1.171545 0.850140 0.642906 1.307049 1.171455 1.225152 1.238063 1.167946 1.094758 0.879535 1.160336 1.294967 1.257504 0.781337 1.086322 1.285229 1.241479 1.284722 1.206349 0.828643 1.050369 0.853292 0.980587 1.200755 1.177041 1.053504 1.248834 1.213050 1.037297 0.833102 0.847657 0.976728 1.126382 1.209294 1.225152 1.252631 1.062057 0.894761 0.871331 0.815442 0.795334 0.738023 0.626785 1.086037 1.072870 0.806081 0.807165 1.225995 1.038284 0.768949 1.114756 1.263249 1.056475 1.029042 0.966151 1.227568 0.970975 1.170985 1.215135 1.082197 1.157102 1.142802 0.945944 0.870215 1.070238 1.134417 1.196609 1.157582 0.850349 0.801976 0.902868 0.866931 0.772300 0.818130 1.041465 1.083078 1.100784 1.106699 1.021639 1.058556 1.071917 0.858444 1.106152 1.100033 1.078340 1.159556 1.175677 0.941723 1.029042 1.088790 1.127864 1.135397 0.864217 0.938606 1.063234 1.101578 1.152191 1.114165 1.099404 1.084650 1.010752 0.982375 1.017726 1.104405 1.100993 1.062785 1.020594 1.041535 1.074868 1.067384 1.034128 0.987084 0.976509
1.085965 1.066120 1.069019 1.082681 1.110879 1.017924 0.868777 0.768162 0.908678 1.091833 1.155248 1.150945 1.064222 1.070410 1.112124 1.053546 1.041320 0.936282 0.875082 1.139832 1.241344 1.189079 1.225968 1.123623 0.990492 0.810406 1.099481 1.053625 0.931900 1.094353 1.107970 1.188442 1.099714 0.881646 1.077743 1.145856 1.143543 1.082102 0.969361 0.930397 1.118886 1.256333 1.210755 1.151017 0.895562 1.073873 1.005558 1.013820 1.162132 1.135500 1.111881 1.171776 1.146467 1.080091 1.192965 1.230569 1.127869 0.994283 0.863653 0.703480 1.129403 1.072072 1.160578 1.217197 1.154262 0.830293 1.153041 1.061889 1.106468 1.137092 1.062065 0.719707 1.017189 0.828247 0.738265 0.954102 0.892969 0.861244 1.046508 1.136068 1.083114 1.022967 0.860332 0.935395 1.166572 1.127751 0.970904 0.996319 1.021191 0.966624 0.988701 1.018808 1.027782 1.043607 1.035716 1.052096 1.006597 1.021241 1.053923 1.046083 1.077553 0.977591 0.914953 0.926491 0.806675 0.967804 1.103878 1.147929 1.056041 0.890988 0.954161 1.122998 1.183468 0.987977 0.966456 1.076973 1.118697 1.173237 1.175511 1.187735 1.082401 1.062197 1.011331 1.071428 0.880594 0.757328 1.144926 1.182291 1.181265 1.180099 1.246663 0.863657 1.065928 1.018875 0.594450 0.826640 0.893342 0.886105 1.034351 1.167004 1.145060 1.109937 1.023899 1.008730 1.092191 1.126408 1.095978 1.018386 1.016536 0.880186 0.821105 0.745075 0.695929 1.083408 1.285675 1.015196 0.795029 0.957370 1.276625 1.142033 0.803089 0.516777 1.172818 1.327830 1.166729 1.172704 1.052537 1.138991 1.161510 1.036783 1.156025 1.138796 1.181774 1.206524 1.197001 1.223299 1.219684 1.177097 1.166707 1.052014 0.967445 1.087843 1.116720 1.133246 1.101499 1.111832 1.057177 0.929171 0.800928 0.835003 0.797787 0.717258 0.994431 1.296119 1.232740 0.994409 0.806147 1.021411 0.938896 1.070467 1.179677 1.243299 1.184084 1.177880 1.106353 1.008418 1.089584 1.217774 1.213430 1.213961 1.070293 1.138059 0.768783 1.046857 1.099702 1.116055 1.115430 1.119379 1.166151 1.006907 1.025648 1.014947 1.002956 0.964400 0.969325 0.941229 0.960916 1.061334 1.095595 1.088552 1.056151 1.064942 0.854970 0.872586 0.937043 0.880795 0.940978 0.678846 0.935006 1.151917 1.284289 1.089225 1.094839 0.820125 1.050330 1.123104 1.074630 0.715590 0.919143 1.048121 1.196776 1.263573 1.140243 0.871363 0.616602 0.814517 1.133532 1.270665 1.241569 1.122559 1.190562 1.059917 1.284077 1.085700 1.177075 1.189960 1.220666 1.245925 0.917904 1.144496 1.116205 1.065634 1.248263 1.233811 1.243213 1.022656 1.221966 1.192693 0.982289 0.718399 1.186324 1.150470 1.128208 1.278814 1.299587 0.746271 0.843453 0.902197 1.025177 1.242551 1.208273 0.962032 1.247006 1.095237 1.212425 0.859644 0.950800 0.737263 1.108941 1.048157 1.286602 1.306915 0.937223 0.940638 1.194558 1.277409 1.134368 1.096811 1.176161 1.163728 1.056068 1.159133 0.763496 1.063221 1.256229 1.009455 0.642891 1.167786 1.232839 1.144866 0.807682 1.214478 1.008145 1.016670 1.198693 1.075988 0.817824 1.196681 1.183542 0.954745 0.957026 1.178660 1.180810 1.021703 0.791393 0.749738 1.199494 1.118639 0.911712 0.565359 0.972936 1.061471 1.099350 1.130332 1.074172 1.066430 1.155080 0.951971 0.967983 1.004237 1.047614 1.103921 1.186107 1.056667 0.964231 1.055006 0.946053 0.929013 0.953119 0.991138 0.994079 1.081406 1.069454 1.108413 1.136132 1.128408 1.102386 1.018487 1.082626 1.100630 1.076450 1.049257 1.020005 1.003598 0.983342 1.031407 1.107632 1.097954 1.052147
1.083145 1.072587 1.080830 1.100915 1.011966 0.859323 0.649402 0.907569 1.066842 1.117409 1.153654 1.140820 1.055685 1.077196 1.135508 0.993641 0.963750 0.908713 0.809234 1.098865 1.224165 1.182249 1.207509 1.073077 0.850489 0.597233 0.645547 1.074707 0.901691 0.792038 0.840831 0.994352 0.866068 1.001490 1.195511 1.135999 1.140236 1.238006 0.985124 0.671457 1.115328 1.202465 1.233606 1.197678 0.935949 1.037095 0.980618 0.821292 0.985073 1.124143 1.133809 1.142076 1.194433 1.186419 1.198452 1.129747 0.926363 1.040460 1.036827 0.725177 1.159308 1.175273 1.186448 1.212228 1.109282 0.785354 1.212273 1.138791 0.867657 1.076432 1.142920 0.884325 1.119774 1.081053 0.964727 1.100752 1.089008 0.970719 1.041041 1.127318 1.057940 0.925668 0.749448 1.008742 1.122572 1.091466 1.001473 1.020072 1.058846 1.045554 1.033915 1.049143 1.022837 1.030885 1.046220 1.011764 1.027139 1.053356 1.059119 1.077831 1.019497 0.933424 0.899050 0.852633 0.944019 1.054949 1.077731 1.152430 1.057363 0.817948 0.842740 1.105279 1.155571 1.114519 0.951011 1.113196 1.126204 1.022389 1.150356 1.192477 1.201081 1.221923 1.243212 1.154958 1.095274 0.730904 1.093609 1.099658 1.145564 1.203775 1.190902 1.199446 0.788935 1.033152 1.156894 1.213217 1.135083 1.079736 0.977842 0.943636 1.014069 1.026605 1.024965 1.080291 1.125900 1.128086 1.097471 1.057141 1.054439 0.914415 0.904831 0.983245 0.919464 1.146945 1.199509 1.004906 1.070568 1.134822 1.312801 0.886006 0.557578 0.499425 0.660001 1.121284 1.108212 1.267991 1.207159 1.271676 0.904246 1.158386 1.290768 1.239453 1.178792 1.183169 1.217652 1.175159 1.082371 1.108852 1.011727 0.881115 1.007146 1.119281 1.113347 1.143385 1.098800 1.116552 1.143829 1.214990 1.001836 0.950328 1.000338 0.548429 0.523927 0.790176 0.739086 0.730166 0.935008 1.303540 1.158891 0.757474 0.918157 1.018902 1.077948 1.182123 1.138789 1.140258 1.220954 1.213202 1.224305 1.169532 1.028803 0.773510 0.779772 0.993031 1.128364 1.150540 1.172759 1.185646 1.216900 1.168117 1.145946 1.063443 1.041658 0.989772 1.026384 1.061003 1.062929 1.095898 1.085035 1.113571 1.077090 1.083310 1.098834 0.980986 1.032201 0.887198 0.582648 1.066458 1.200264 1.138475 1.016662 1.110965 0.990367 0.677769 0.911787 1.109241 0.582238 0.531262 1.195202 1.269821 1.295643 1.300851 1.016422 1.041075 1.081279 0.862537 0.971507 1.280678 1.036559 0.542572 0.850394 0.993557 1.310215 1.176017 1.167321 1.218371 1.235556 1.200235 0.944564 1.207275 1.134624 1.056009 1.089485 1.299786 1.230235 1.169434 1.023368 1.097739 0.559906 0.607122 1.255469 1.135220 1.041402 1.217171 1.203862 0.695656 1.071691 1.249343 1.160850 1.239338 1.260839 1.038666 1.262781 1.098834 1.111042 1.082977 1.063285 0.910711 0.966715 0.792713 1.207118 1.152838 0.594522 0.982544 1.241318 1.295459 1.231273 1.226619 1.270312 1.262833 1.183442 1.237205 1.102461 1.072379 1.165305 1.046921 0.835847 0.988560 1.178805 1.201892 0.961140 1.097488 1.103891 0.963878 1.158858 1.121102 0.806092 1.135103 1.121768 1.010422 1.153848 1.154886 1.171942 0.873777 0.896819 0.552373 0.897090 0.982324 1.083291 0.847371 0.849767 1.100658 1.160099 1.174628 1.146407 1.062102 1.122253 1.099165 0.930988 1.112746 1.115427 1.125778 1.151624 1.087957 0.927794 0.734314 0.914225 1.012632 1.093228 1.119087 0.950439 1.019827 1.027043 0.996294 1.049756 0.968427 1.008784 1.095067 1.099696 1.073134 1.024668 1.024871 1.046446 1.122175 1.080343 1.014487 1.069641 1.089235 1.141716
1.063154 1.045704 1.083803 0.946846 0.804722 0.563585 0.695348 0.936367 1.020162 1.120564 1.152324 1.138622 1.076285 1.086136 1.125375 0.994108 0.950098 0.996504 0.837769 0.947952 1.059750 1.048053 1.081884 0.853350 0.702367 0.710261 1.185280 1.287089 1.196481 1.276587 1.219736 1.265708 1.078057 0.982746 1.139015 1.128761 1.182856 1.183350 1.111981 0.816028 1.126370 1.206316 1.057517 1.215687 1.133329 1.070856 1.152360 1.003111 0.951913 0.991750 1.053569 1.130110 1.189489 0.991829 0.920208 1.038025 1.022209 1.208032 0.991546 0.651715 0.976563 1.045929 1.079863 1.210479 0.979988 0.827474 1.032342 1.111886 1.019774 1.097133 1.159427 1.126116 1.173256 1.155292 1.125068 1.105054 1.071178 1.010998 1.057397 1.120068 1.010671 0.902049 0.856614 0.962217 1.052515 1.097490 1.072288 1.053389 1.038699 1.038463 1.032964 1.020370 1.012189 1.047557 1.007499 1.001440 1.016086 1.052892 1.061792 0.920548 0.920714 0.956105 0.928481 0.866184 0.980424 1.078313 1.063764 1.154903 1.084233 0.845826 0.727391 0.803257 0.920578 0.920557 0.776160 1.035823 1.113976 1.013638 1.107000 1.112312 1.117940 1.023056 1.028978 0.982333 0.870748 0.773056 1.199804 1.247362 1.261053 1.233022 1.048451 1.237945 0.792892 1.169578 1.197710 1.215542 1.094717 1.046020 1.102467 1.020743 0.904423 1.067130 1.083725 1.087968 1.130825 1.128937 1.123454 1.049003 1.001974 1.039593 1.108567 1.089104 1.069349 1.084164 1.130595 1.168382 1.223002 1.172699 1.299268 1.069934 1.017915 1.054698 0.872542 1.338172 1.217276 1.307066 1.305327 1.184253 0.632581 1.186481 0.998634 0.868635 1.021209 1.043077 1.140437 1.184738 1.153372 1.044630 0.664866 0.845048 0.986469 1.071179 1.086184 1.110024 1.143943 1.146531 1.009004 0.889936 1.173205 1.161445 0.862020 0.610771 0.985304 0.484047 0.591153 1.309314 1.078217 1.122871 1.303117 1.300951 1.194868 1.075048 1.033929 1.184073 1.187469 1.225395 1.216878 1.212882 1.040404 1.048980 0.766486 1.011147 1.199176 1.140874 1.125786 1.075425 1.105755 1.117658 1.109558 1.139006 1.186095 1.175750 1.132468 1.064322 1.039816 1.080852 1.108153 1.078999 1.054592 1.092337 1.060377 1.128163 1.086785 0.885552 0.736403 0.521513 0.944110 1.267210 1.271655 1.144263 0.820822 0.992417 1.179224 0.671368 1.327170 1.265458 0.494406 0.618057 1.122628 1.285807 1.257994 1.257721 1.244586 1.315433 1.271140 1.147523 1.075514 0.934992 0.929247 0.648077 1.044031 0.935728 1.325935 1.168233 1.174606 1.234601 1.262859 0.900490 0.756491 1.173550 1.107069 1.023232 0.898845 1.197175 1.280760 1.248789 1.105471 0.898363 0.511406 1.211745 1.215015 1.123035 1.021901 1.077382 1.099663 0.912156 1.271978 1.303800 1.251984 1.163740 1.274066 1.089314 1.258402 1.252326 1.208158 1.285219 1.202387 0.829059 1.030230 0.836764 0.811309 0.756172 0.553298 1.171300 1.109254 0.984720 0.996473 0.967244 0.931311 1.017185 1.043194 1.119750 1.116411 1.047245 1.104562 1.129593 0.970467 1.070955 1.040896 1.110819 1.121441 1.103117 1.091400 1.028553 1.106201 1.054158 0.830202 1.053315 1.074561 0.967538 1.140446 1.148253 1.089859 0.859059 1.026742 0.715609 1.004146 1.038973 1.108537 0.809727 0.809661 1.074942 1.164244 1.137107 1.107308 1.097579 1.045457 1.000572 0.980884 1.132438 1.150785 1.086062 1.118904 1.018414 0.893268 0.963645 0.937073 1.121271 1.144674 1.155414 1.078990 0.935338 0.965225 0.985483 1.043337 0.968491 1.088201 1.099271 1.057039 1.021514 1.024673 1.019900 1.063397 1.084030 1.088253 1.048548 1.002093 1.002662 0.982597
0.960518 1.058212 1.107877 1.069643 0.862985 0.715307 0.990857 0.998271 1.060342 1.153751 1.153288 1.134386 1.077295 1.050151 1.021583 0.873215 0.769197 0.994930 1.091194 1.170813 1.193852 1.180197 1.174268 1.237400 1.150741 1.100084 1.286100 1.249163 1.203497 1.149092 1.113947 1.203693 1.112237 1.046633 1.060146 1.150558 1.161158 1.183783 1.216771 1.007877 1.036696 0.996044 1.019005 1.164438 1.220899 1.170908 1.165115 1.098627 1.100234 0.991693 1.070684 1.098429 1.182287 1.081116 0.918326 1.129736 1.202822 1.175986 1.052406 0.777891 1.059615 1.147739 1.124832 1.206570 1.083989 1.179706 1.191279 1.183963 1.179654 1.174971 1.171269 1.167982 1.163880 1.157120 1.147593 1.135683 1.126549 1.118364 1.112270 1.108611 0.959283 0.825355 0.910540 1.006170 1.072130 1.058036 1.036409 1.037132 1.026368 1.012937 1.014936 1.005864 1.040509 1.051035 0.980607 1.005598 1.025553 1.075766 1.108495 0.956450 0.898041 0.820818 0.825246 0.846679 0.965088 1.010901 1.071151 1.154074 1.128780 1.048764 1.061589 0.994646 0.997033 0.868985 0.886265 0.817425 0.758008 0.964533 1.079192 1.169661 1.195000 1.111098 0.992881 0.858411 0.994568 0.826056 0.803891 1.080536 1.207871 1.128741 1.087850 0.931762 0.884668 0.860953 0.843822 1.002301 0.956790 1.027181 1.104896 1.154048 1.044748 0.973588 0.973460 1.083062 1.129062 1.130288 1.112647 1.100921 1.192028 1.204336 1.213568 1.224930 1.232865 1.236512 1.247773 1.247712 1.212633 1.188986 1.205906 1.113998 1.265911 1.228094 0.590215 0.832037 1.219769 1.234410 0.921416 0.766972 0.824534 0.887457 0.965793 0.768848 0.553106 0.592503 1.135021 1.237325 1.078667 0.866627 0.968511 1.233114 1.203807 1.114461 1.090900 1.118885 1.144476 1.157252 0.963459 0.903301 0.954545 0.910796 0.708392 1.093795 1.172052 0.933570 0.727085 1.150766 1.281286 0.846296 0.926485 1.165237 1.179743 1.170960 1.153340 0.991481 1.064429 1.159993 1.223001 1.105911 0.989506 1.056040 0.943675 1.203002 1.194151 1.153208 1.127005 1.136678 1.108106 1.072610 1.089847 1.047465 0.996391 1.085260 1.138096 1.139764 1.098712 1.064266 1.066595 1.067256 1.103064 1.071491 1.108623 1.077073 1.035828 0.979858 0.819555 0.579999 0.984277 1.205876 1.224509 1.277349 1.038272 0.684390 0.758012 0.841741 1.244562 1.196487 0.784904 0.792468 1.115563 1.217158 1.267888 1.261346 0.854764 0.831140 0.861009 0.990790 0.845540 1.002772 1.183779 1.149221 1.238498 0.935530 1.252379 1.198457 1.264167 1.139239 1.101073 0.618571 1.107088 1.086147 1.126641 1.130864 0.900988 1.105591 1.320005 1.272933 1.279155 1.034319 0.584544 1.280773 1.306233 1.178811 0.806327 1.014209 0.894359 1.075153 1.134799 1.071098 1.196571 1.242189 1.206792 1.020418 1.267757 1.268799 1.268318 1.278231 0.901808 0.797576 0.575642 1.101408 1.307486 1.244806 0.866593 0.850363 1.092814 1.285156 1.204301 1.238355 1.195988 1.052635 1.059042 1.100399 1.123466 1.053123 1.025915 1.096914 1.065683 1.009108 1.073004 1.090123 1.129698 1.078325 1.008577 0.989518 1.093778 1.127543 1.060083 1.063854 1.048505 1.020297 1.088790 0.999968 0.891292 1.068120 0.968639 0.829553 1.140689 1.190790 1.022496 0.823511 0.809844 1.050486 0.998975 0.871493 0.851783 1.110186 1.145489 0.970888 0.840455 1.061265 1.110477 0.902331 1.031638 0.980838 0.860082 1.074066 1.023550 0.943758 1.076582 1.139992 1.149844 1.019487 1.028514 1.073279 0.973763 1.036116 1.099049 1.064584 1.022741 1.033765 1.042854 1.013998 1.061193 1.078602 1.089518 1.113645 1.102320 1.086437 1.068644
1.093753 0.999945 0.943973 0.933825 0.822931 0.875101 1.024980 1.093928 1.079017 1.133461 1.156077 1.094763 1.029065 1.021878 1.059906 1.110624 1.100963 1.179472 1.183531 1.196136 1.161522 1.190407 1.087217 1.185103 0.928298 1.127254 1.286097 1.206851 1.127139 1.150237 1.130068 1.141547 1.147930 1.106957 0.934928 1.017748 1.156529 1.184483 1.181100 0.955430 0.758159 0.656085 1.057930 1.101035 1.214610 1.200116 1.146260 1.116950 1.122889 0.984589 1.032576 1.104872 1.177350 0.993415 1.143016 1.201484 1.215876 1.085365 1.015512 0.712092 0.918759 1.123129 1.172978 1.184102 1.200235 1.192210 1.190768 1.115006 1.113383 1.117466 1.061210 1.066976 1.044186 1.041175 1.025833 1.071027 1.056598 1.016641 1.106384 1.045067 0.940096 0.946871 0.939700 0.955721 1.047297 1.063507 1.037646 1.003124 1.004473 0.999700 1.013011 1.026158 1.052476 0.999290 0.994308 1.041734 1.047066 1.057363 1.049206 0.936982 0.839099 0.855228 0.934955 1.007059 1.074417 1.063414 1.114139 1.156638 1.161710 1.166701 1.174183 1.183206 1.192687 1.204623 1.154871 1.070944 0.808877 0.686289 1.130722 1.183308 1.211146 1.225703 1.170061 1.031673 1.008542 0.814719 0.800263 0.634681 0.747571 0.859932 1.026305 1.152535 1.298056 1.287197 1.236028 1.200469 1.095341 1.039872 1.101414 1.150051 1.194559 1.164499 1.065692 1.104667 1.127980 1.135622 1.040262 1.024879 1.085133 1.146181 1.152089 1.138612 1.236424 1.230529 1.249132 1.256774 1.266852 1.212943 1.138505 1.216379 1.291409 1.133061 0.792608 0.956076 1.051834 0.961362 1.158135 1.330032 1.321894 1.235931 1.205697 1.292935 1.243435 0.983087 0.710778 0.753876 0.731338 0.975252 1.267702 1.035696 1.103821 1.107204 1.114950 1.151680 1.130937 1.130970 1.109706 1.070292 0.953465 0.739158 0.948319 1.273082 1.176739 1.009321 0.829507 1.279322 1.265862 1.252576 1.112425 1.083796 0.975800 1.092455 1.191031 1.094912 1.129644 1.164520 1.213416 1.162231 0.979672 0.732675 0.939896 1.171131 1.168970 1.102477 1.131257 1.146585 1.102316 1.091228 1.103924 1.104366 1.016497 1.002681 1.020431 1.022947 1.055034 1.003583 1.059526 1.087888 1.110601 1.019941 1.019957 0.995833 0.892156 0.887381 0.920131 0.834712 0.947261 1.141666 1.240593 1.238561 0.875657 1.018053 0.845942 0.999586 1.300719 1.297405 1.116768 0.820176 1.106440 1.183502 1.244405 1.277271 1.222238 1.081486 1.178920 1.154162 0.951738 0.975852 1.165476 1.209067 1.323170 1.058704 0.948976 1.006499 1.201941 0.876760 0.639722 0.935821 1.187477 1.166351 1.093670 1.096743 1.058993 0.975540 1.215078 1.263617 1.272479 0.994673 0.862455 1.044457 1.090841 0.737699 0.640634 0.817823 0.841162 0.982501 1.039817 1.146118 1.176331 1.286092 1.083367 0.892631 1.041896 1.060550 1.170233 0.937726 0.507788 0.428179 0.982873 1.328813 1.320876 1.175872 1.218867 1.140507 1.053332 1.161168 1.078017 1.067955 1.084685 1.105057 1.121949 1.065043 1.119740 1.078202 1.062962 1.093573 1.061266 1.098454 1.112135 1.136698 1.104577 1.070480 1.107066 1.096113 1.097853 1.065156 1.058782 1.053920 1.029678 1.090082 1.058309 1.018117 0.988112 1.094738 1.016441 0.942822 1.021818 1.167797 1.099933 0.970665 0.742460 1.068070 1.147614 1.080321 0.899657 0.794325 0.976403 0.896699 0.723316 0.875938 0.990207 0.714522 1.033234 1.116364 1.065494 1.070441 1.100260 0.856409 0.980423 1.018293 1.136287 1.139937 1.101517 1.001552 0.947408 1.108380 1.101686 1.040782 1.052755 1.046015 1.046350 1.018110 1.018054 1.106469 1.092197 1.100764 1.129790 1.122962 1.126083
1.151036 1.165515 0.969337 0.699716 0.978906 1.162134 1.125260 1.104313 1.125347 1.146959 1.132676 1.027983 0.994700 1.070273 1.116737 1.053412 1.080841 1.146003 1.178780 1.103329 1.094703 1.076700 0.954529 0.853663 0.665914 0.866455 1.045306 0.889609 1.044092 1.239611 1.127005 1.158522 1.127394 1.131785 1.091726 1.070952 1.061699 1.105703 1.211371 1.149153 0.923865 0.652334 0.994555 1.148729 1.154889 1.141431 1.188270 1.185430 1.119049 1.002292 1.008043 1.119123 1.169190 1.153703 1.185144 1.100304 1.049714 1.117051 1.034404 0.675219 1.014833 1.220112 1.116919 1.094746 1.129877 1.105245 1.065034 1.084241 1.086724 1.080338 1.068416 1.069330 1.081474 1.060554 0.938398 0.971096 1.033734 1.034957 1.104806 1.097752 1.013384 0.973360 0.945194 0.966529 1.013732 1.030986 1.035340 0.995434 1.008874 1.030137 1.038329 1.049144 1.021340 1.021636 1.031442 1.048409 1.012529 1.064276 0.999475 0.847463 0.910063 1.017082 1.062344 1.078007 1.092483 1.131784 1.137942 1.098828 1.042138 1.111064 1.112185 1.191911 1.155445 1.191020 1.206641 1.214024 0.976576 0.555350 0.885890 1.150048 1.204569 1.224882 1.231272 1.118325 1.029774 0.883286 1.206250 1.017584 0.942443 0.533848 1.031543 1.221932 1.201097 1.237985 1.137973 1.087673 1.124584 1.172430 1.212365 1.203252 1.165430 1.021575 1.006815 1.124925 1.129780 1.122105 0.970013 0.912605 0.894224 1.007371 1.103799 1.145088 1.210711 1.159300 1.129686 1.272663 1.165103 1.277687 1.244688 1.304763 1.314045 1.324956 1.123203 0.840869 1.250382 1.265824 1.182877 1.187719 1.281223 1.275772 1.258764 1.210304 1.198946 1.262860 0.945400 0.853019 0.752131 0.740965 0.720603 0.706754 0.876189 0.937191 1.021527 1.119372 1.124732 1.135359 1.032626 0.974625 1.025668 1.158428 1.253350 1.239850 1.032755 0.763569 0.711151 1.306113 1.256670 1.273749 1.297095 1.289171 1.212757 1.116079 1.151952 1.131915 1.201004 1.242613 1.206139 1.150011 0.867597 0.594619 1.130780 1.234512 1.114047 1.131543 1.107864 1.077208 1.101601 1.153003 1.137408 1.153254 1.154435 1.044921 1.050435 1.049173 1.044506 1.035523 1.061342 1.099923 1.066615 1.007951 0.993416 1.029657 0.989628 0.917895 0.954013 0.999833 1.023522 1.074849 1.185778 1.173352 0.921495 1.134520 1.048796 0.951563 1.171134 1.200102 1.127864 0.792691 1.012709 1.173467 1.210898 1.185950 1.041848 1.087216 1.121543 1.066040 0.984803 0.702674 1.124940 1.039068 1.160493 1.271060 1.204695 1.075050 0.832221 0.580458 1.078033 1.094808 0.963433 1.064554 1.038607 1.023231 1.179219 0.928344 1.109413 1.334910 1.272598 1.141408 1.131341 1.170405 0.945995 0.825841 0.615427 0.840179 0.897862 0.749135 0.727890 1.293706 1.252525 1.161585 0.761980 0.935009 1.169334 1.090540 1.033067 0.962733 1.033188 0.805175 1.102329 1.238381 1.252526 1.097109 1.189779 1.201720 1.100669 1.120825 1.212666 1.241018 1.166112 1.176268 1.201303 1.124254 1.157300 1.124179 1.118747 1.135545 1.142179 1.144612 1.138536 1.119981 1.124190 1.122941 1.114687 1.109013 1.101532 1.097339 1.093121 1.091161 1.090655 1.086952 1.090070 1.095699 1.096568 1.049386 1.055689 1.035238 0.994781 1.076009 1.141620 1.036176 0.894009 1.099144 1.161302 1.005108 1.006572 0.936505 0.792976 0.722844 0.928454 1.086228 0.983040 0.835427 0.865347 1.137510 1.162355 1.135084 1.168192 0.873674 0.965885 0.908161 1.001097 1.081293 1.102183 0.930660 0.997680 1.100000 1.048592 1.013883 1.030281 1.051439 1.065509 1.097991 1.096960 1.109047 1.106189 1.097254 1.125388 1.142623 1.154194
1.084759 1.151385 0.970255 0.650367 0.950420 1.066911 1.119269 1.170909 1.160156 1.141247 1.162989 1.108610 1.023794 1.026727 1.078665 1.035314 1.097497 1.149072 1.162332 1.149155 1.169150 1.137314 1.057732 1.040735 1.145604 1.179231 1.082600 1.088176 1.157634 1.170477 1.131519 1.160347 1.156603 1.178977 1.171074 1.152330 1.123860 1.037012 1.058317 1.189284 0.979597 0.889360 0.806627 0.971369 1.094338 1.142684 1.108979 1.149111 1.176188 1.096980 1.103163 1.166134 1.127878 1.125553 1.146786 1.156191 1.045526 0.944633 0.945471 0.666644 1.126243 1.216293 1.080706 1.154548 1.123228 1.134171 1.087109 1.077393 1.113454 1.085320 1.040098 1.005835 0.956885 0.926595 0.883851 1.074825 1.078015 1.060655 1.070163 1.092734 1.037987 1.007302 0.974285 0.980464 1.009230 1.035875 1.041047 1.002162 1.027144 1.000943 0.981924 1.025846 1.038159 1.034494 1.018479 0.936154 0.948402 1.021540 0.745841 0.835036 1.021354 1.044461 1.073384 1.068224 1.129010 1.145205 1.124041 1.080182 0.878045 1.054993 1.064945 1.131236 1.053906 0.950812 1.177951 1.218368 1.039344 0.809869 0.624287 0.940590 1.107113 1.233691 1.232564 1.155110 0.938253 0.908788 1.262555 1.105359 1.207824 0.783946 1.041516 1.109076 1.183989 1.047982 1.006697 1.084684 1.163065 1.213471 1.211705 1.073923 0.896082 1.000734 1.068531 1.116756 1.132572 1.097120 1.053924 1.080497 0.985353 0.740228 0.759637 0.819180 0.845054 0.919536 0.776602 1.073732 0.738543 0.781889 1.034557 1.228404 1.000895 1.253912 1.301432 0.784334 1.016507 0.986453 0.956771 1.262571 1.328472 1.179201 0.948176 1.108812 1.170907 1.214476 1.117929 1.043330 1.017012 0.933999 0.988345 1.027134 1.094801 1.135372 1.112532 1.127329 1.114901 1.108430 1.151556 1.189166 1.210795 1.230790 1.208675 1.084261 0.904767 0.714489 0.918806 1.147362 1.256818 1.201965 1.157674 1.132789 1.147818 1.185401 1.252700 1.226067 1.248425 1.197106 1.134185 1.179831 1.012859 0.549244 1.004785 1.064767 1.156210 1.100372 1.056625 1.067300 1.063614 1.073153 1.066170 1.039969 1.036175 1.078738 1.064250 1.033921 1.065843 1.036749 1.059924 1.103891 1.065148 1.054160 1.050787 1.114770 1.056388 0.973042 0.960715 1.048773 1.114986 1.106577 1.188089 1.097797 1.093712 1.101501 1.142257 1.070662 1.081307 1.127266 1.125769 1.020873 1.041201 1.124433 1.259817 1.152788 0.964325 1.157271 1.128967 0.945342 0.611261 0.563703 1.313228 1.022940 1.031422 1.302325 1.293382 1.271132 1.072183 1.135184 1.261838 1.165110 0.686177 1.165272 1.229931 1.127720 1.084357 0.661256 0.763619 1.336107 1.340278 1.266201 1.200880 1.077372 0.888597 0.974996 0.774419 1.249198 1.225234 1.147835 0.863517 1.324763 1.037617 0.855723 1.134500 1.283684 1.243709 1.211867 1.180151 1.146079 1.145766 0.907972 0.517613 0.926595 1.143793 0.951866 1.067050 1.298725 1.146937 1.116994 1.161305 1.191870 1.166667 1.116380 1.160446 1.181414 1.172056 1.151548 1.156923 1.149891 1.148813 1.081788 1.110188 1.028279 1.053922 1.067012 1.078311 1.055022 1.032226 1.024190 1.044653 1.073345 1.089901 1.052379 1.084146 1.087151 1.090348 1.086339 1.049524 1.030498 1.014291 0.964475 1.054589 1.081604 1.045730 1.080228 1.145960 0.833929 1.071068 0.913377 1.111388 0.840845 0.939557 1.147621 1.001571 1.047165 0.743056 1.043146 1.059217 1.118988 1.149471 1.039499 1.037082 0.972933 0.968632 1.013168 1.034314 1.034099 1.063589 1.101021 1.034859 1.081478 1.065053 1.056286 1.044281 1.044482 1.155058 1.135073 1.071435 1.139002 1.158783 1.118922 1.167197
1.035174 1.140157 0.772505 0.849120 1.017322 1.048812 1.161258 1.168889 1.089667 1.086440 1.072900 1.149885 1.188799 1.159964 1.133635 1.106243 1.127224 1.155254 1.040318 1.073794 1.173971 1.182744 1.088083 0.993622 1.155477 1.179307 1.146081 1.156863 1.148476 1.167056 1.151644 1.180788 1.213568 1.217317 1.209394 1.230096 1.230401 1.226262 1.119512 1.194931 1.194445 1.060989 0.902159 1.074797 0.973681 0.897953 0.967413 1.000817 1.032850 1.137752 1.160424 1.104784 1.061667 1.049843 1.078937 1.116491 1.190798 1.007006 0.815959 0.843321 0.801520 1.023661 1.093695 1.224006 1.019370 1.185338 1.116507 0.929205 0.866980 0.763662 0.823465 0.868987 0.828853 0.738465 0.958692 0.877354 0.886861 0.997064 1.052284 1.092368 1.084327 1.049104 0.909537 0.942249 0.982503 1.021899 1.034926 1.007815 1.024934 0.998842 1.016811 1.040117 1.018614 1.004912 1.020116 1.055898 0.937857 0.831781 0.797742 0.977861 1.040269 1.065829 1.053832 1.082243 1.130500 1.104932 1.109449 1.082521 0.938840 0.961932 1.095353 0.992384 0.916475 1.025681 1.176419 1.219648 1.064272 1.004554 0.899248 0.661827 0.975699 1.190940 1.236984 1.121770 1.133977 1.178555 1.274552 1.211042 1.261762 0.820475 1.054398 1.016987 1.057378 0.878495 0.967754 1.110788 1.223038 1.215902 1.064135 0.856740 1.073076 1.085399 1.111837 1.127736 1.134727 1.125542 1.063675 1.011460 0.942749 0.816603 0.818651 0.970899 0.982173 0.814643 0.953130 1.008252 0.982734 1.067958 1.045664 0.968358 0.842236 0.744529 0.929936 1.123606 1.105722 1.093020 0.628995 0.544115 0.624009 0.649529 0.876661 1.168714 1.223154 1.221023 1.210631 1.168050 1.083266 0.963937 1.116832 1.164109 1.178555 1.154786 1.111205 1.116196 1.135890 1.138468 1.077110 0.981862 0.953356 1.020955 1.049753 1.041923 1.037102 0.874740 0.638515 0.862203 1.206329 0.915549 1.009993 1.039914 1.037775 1.125247 1.254055 1.187583 1.188626 1.072468 1.113896 1.199658 0.914503 0.822680 1.208914 1.181693 1.140428 1.091016 1.112346 1.091073 1.040504 1.038781 1.022555 1.041557 1.052782 1.107036 1.108242 1.067183 1.074622 1.034247 1.077348 1.090543 1.041075 1.014878 1.005199 1.079702 1.054547 1.037014 1.023676 1.010853 0.979194 1.009004 1.160795 1.098978 1.109420 1.109792 1.167019 1.159528 1.104162 1.089997 1.065854 1.091658 1.101391 0.976976 1.169922 1.179255 1.091071 1.201069 1.157575 1.001799 1.059831 0.652526 1.309407 0.969539 0.976810 1.223583 1.217528 1.298377 1.128303 1.179167 1.251386 1.144288 0.723924 0.931247 0.737671 0.623453 1.040637 0.999412 0.696733 1.085581 1.065702 1.229180 0.979527 0.958376 0.960709 0.976635 0.940845 1.336737 1.285012 1.245419 0.918124 0.910578 0.968265 1.201188 1.081340 1.157186 1.217915 1.169789 1.037412 1.093009 0.903709 0.818298 0.907293 0.758045 0.733271 0.740206 0.921572 1.249419 1.188756 1.069468 1.136917 1.138382 1.035430 1.099827 1.199563 1.156140 1.155598 1.120527 1.114672 1.122638 1.051639 1.084903 1.108463 1.026139 1.011037 1.056399 1.086997 1.051220 0.985457 1.043486 1.018311 1.006518 1.060935 1.011181 0.997908 1.015789 1.084171 1.086090 1.061218 1.020215 1.043396 1.066837 1.075313 1.054665 1.040497 1.087225 1.043688 0.946761 1.081512 0.984043 0.998737 0.716396 0.856196 1.092792 1.143976 1.096177 0.849328 0.858515 1.097321 1.137124 1.144641 1.134670 1.094991 1.040975 1.027717 1.038054 0.980542 1.084589 1.093988 1.089343 1.048662 1.088482 1.075919 1.078171 1.036125 0.895148 0.960426 0.989644 1.090964 1.112159 1.219135 1.150648 1.114399
0.955374 0.880354 0.695501 0.966605 1.077167 1.107110 1.164569 1.109229 1.006934 1.096524 1.060390 1.030949 1.144684 1.113042 1.190217 1.123005 1.066105 1.132671 1.132006 1.156686 1.181004 1.083615 0.932728 1.170267 1.173491 1.061832 1.130870 1.071249 0.994897 0.904000 1.121515 1.145268 1.149855 1.147004 1.087714 1.157593 1.038536 1.021604 1.172566 1.176716 1.161168 1.077467 0.898428 1.190943 0.910968 0.908181 1.128406 1.124929 1.068056 1.132312 1.143846 1.042196 1.090741 1.096768 1.037133 1.099296 1.048181 0.847780 1.080187 1.085554 0.686842 0.653810 1.120650 1.142155 1.075498 1.144704 1.023246 0.791932 0.940522 0.919904 1.018574 1.157058 1.031235 0.897339 1.055548 1.082667 1.066815 1.007992 0.985308 0.959253 0.956250 1.067113 0.990934 1.019312 1.003580 1.009780 1.014060 1.000573 1.044994 1.020398 1.035065 1.054927 1.058477 1.026693 1.017559 0.968141 0.879842 0.785581 0.887631 1.037080 1.078135 1.063029 1.083520 1.129434 1.133576 1.106211 1.102677 1.062211 1.037913 1.009211 1.189821 0.824646 0.766854 1.128380 1.183941 1.223064 1.198215 1.132001 1.062180 0.891186 0.821580 1.208385 1.241132 1.175807 1.215203 1.201600 1.198182 1.238967 1.226934 1.113134 1.296112 1.286163 1.235653 1.206366 1.067352 1.144639 1.219990 1.179203 0.875029 0.806654 0.948128 0.887294 0.871170 1.063532 1.134520 1.140848 1.054433 0.929527 0.870136 0.934896 1.090639 1.157231 1.189058 1.157030 1.208526 1.219356 1.227704 1.248768 1.302059 1.143156 0.858446 0.459497 0.736156 1.084087 1.131303 1.267382 1.324024 1.036549 1.083941 1.191476 1.054343 1.042722 1.095878 1.172840 1.203682 1.213149 1.224623 1.190971 1.124368 1.009121 1.012241 1.036878 1.039726 1.110522 1.137424 1.152841 1.114031 1.081253 0.978465 0.900877 0.880684 0.967190 1.131584 0.986712 0.743852 0.519941 1.018369 1.026806 0.987766 1.082620 1.102266 1.199588 1.258416 1.172608 1.115551 0.955853 0.989688 1.072412 0.789824 0.924675 1.071259 0.971234 1.039882 1.068084 1.072513 1.039859 1.039341 1.064646 1.143668 1.189170 1.122336 1.091001 1.054065 1.036579 1.061622 1.019061 1.087824 1.087001 1.031387 1.031819 0.987123 0.986283 1.027320 1.030899 1.033882 1.059130 1.004045 1.034038 1.119957 1.107129 1.030963 1.049029 1.110902 1.100303 1.061517 1.085671 1.059753 1.040943 1.038955 1.028868 1.117893 1.104072 1.084851 1.184911 1.106527 1.063278 1.113545 0.821961 1.265229 1.065513 1.206968 1.167415 0.997974 1.119608 1.188361 1.150125 1.273391 0.988851 0.595478 0.506031 0.884911 0.975559 1.357951 1.262720 0.953007 1.313634 1.154878 1.082294 1.217243 1.323508 1.170554 1.081572 0.854692 1.253409 1.268179 1.251066 1.120593 0.696336 1.231813 1.061590 0.754879 1.115922 1.254169 1.124440 1.034696 0.964415 0.932232 1.023993 1.085084 0.950854 0.860206 0.979043 0.851317 0.945536 0.967023 0.867064 1.238472 1.131450 1.141879 1.130497 1.189842 1.106565 1.024008 1.065447 1.041435 1.113421 1.047371 1.006541 1.044995 1.107246 1.005727 1.048100 1.074292 1.098780 1.040022 1.012015 0.992163 1.039334 1.058123 1.025999 1.016225 0.987076 1.050498 1.043150 1.083990 1.082491 1.049730 1.081172 1.076165 1.046689 1.044723 1.056076 1.015994 1.006593 1.046051 1.092339 0.985104 0.894445 0.883553 1.045776 1.160709 1.019389 0.861290 0.950222 0.835195 0.928425 1.038717 1.119057 1.122123 1.081908 1.047992 1.008289 1.010111 1.089056 1.045291 0.968459 0.961760 0.959517 0.919620 0.872547 0.819265 0.727863 0.650987 0.659706 0.692481 0.745753 0.848218 1.039705 1.137448
0.824917 0.588331 1.078877 1.241539 1.180310 1.161601 1.171145 1.132731 1.017178 1.043346 1.100687 1.059124 1.013216 0.973992 1.160642 1.207114 1.030928 1.068953 1.056391 0.991582 1.006019 0.903023 1.117574 1.175182 1.112448 1.178886 1.197147 1.076684 1.125112 1.057452 1.044127 1.112348 1.162389 0.994522 1.079499 1.041957 0.936937 1.036828 1.182180 1.200026 1.155218 1.054371 0.820529 1.192341 1.139555 0.797630 0.943235 1.021537 1.035310 1.152878 1.156394 1.006595 1.001807 1.011690 0.917115 0.888197 0.753655 0.833684 1.141516 1.152043 0.952076 0.754754 0.734431 0.830951 1.063269 0.957930 0.820087 1.002524 1.192662 1.105338 1.002926 1.112407 1.165043 1.024789 1.022855 1.069423 1.064901 1.028135 1.033959 1.006296 0.996917 1.033977 1.029917 1.051039 1.040643 1.016837 1.006015 1.018551 1.051096 1.025113 1.033890 1.023159 1.057703 1.012369 0.997417 0.934478 0.744259 0.926267 0.961325 1.048033 1.066855 1.071715 1.111842 1.120547 1.109151 1.087500 1.083266 0.923739 0.784588 0.781087 1.148823 1.047322 0.740958 1.089487 1.167397 1.159914 1.223763 1.215547 1.133453 0.982303 0.732965 1.156716 1.201293 1.213133 1.155910 0.926008 0.875658 0.701292 0.575738 0.812017 1.096960 1.149212 1.181339 1.175304 1.115261 1.226579 1.226408 1.079134 0.770856 1.057717 1.176273 1.134547 1.056865 1.068330 1.138830 1.129225 1.058909 0.933350 1.069916 1.218758 1.226462 1.232012 1.238099 1.212192 1.178679 1.182499 1.241029 1.259562 1.269574 1.114544 1.063607 0.705954 1.158226 1.275788 1.272415 1.166012 1.287281 1.131400 1.135695 1.198090 1.154117 1.192675 1.242205 1.232666 1.232474 1.221925 1.210496 1.177578 1.163212 1.016719 0.886194 1.081146 1.065248 1.111894 1.147644 1.149507 1.108739 1.040354 0.958668 1.013386 1.099357 1.247525 1.141260 0.919282 0.835717 0.577880 1.257767 1.319665 1.308576 1.258616 1.251314 1.265586 1.260335 1.159323 0.978188 0.771946 0.904357 1.076875 0.988942 1.284149 1.222195 1.064254 1.037510 1.065306 1.106537 1.143942 1.182844 1.204252 1.190118 1.041489 1.026717 1.043198 1.045472 1.063651 1.075595 1.025846 1.068995 1.087686 1.058978 1.049940 1.037526 1.048003 1.063306 1.025487 1.057967 1.093156 1.084266 1.160360 1.177350 1.183730 1.110782 1.093215 1.123575 1.083307 1.089001 1.111504 1.105844 1.126253 1.132451 1.140104 1.190074 1.175129 1.163620 1.167763 1.115541 1.075300 1.057909 0.972237 1.053802 1.267588 1.231735 1.263160 1.187478 1.152713 1.132912 0.829624 0.737234 0.841217 1.227564 1.165300 1.332382 1.343453 1.315901 1.096588 0.930731 1.301910 1.236879 1.177467 1.135913 1.187590 1.183796 1.126645 0.853846 0.943460 1.161986 1.288913 1.056475 0.768572 1.132867 1.120926 0.888010 1.131561 1.221925 1.156344 1.075271 1.012800 1.125127 1.092366 1.091912 0.990347 1.068478 1.102383 1.272097 0.930885 0.556578 1.151546 1.271832 1.128344 1.204644 1.130620 1.076343 1.207782 0.998302 1.036452 1.057689 1.116021 1.158813 1.096674 0.856788 1.044492 0.951946 1.067523 1.084389 1.082142 0.993916 0.936128 1.021646 1.106230 1.037111 1.037394 1.042675 1.026802 1.052658 1.004673 1.035228 1.076379 1.080459 1.071105 1.068507 1.078108 1.063084 1.070055 1.060863 1.052418 1.051329 1.081511 1.046436 1.013909 1.020068 1.027691 1.139993 0.906591 0.902564 1.087181 0.981937 0.925789 0.971480 1.008598 1.032005 1.100226 1.026574 1.012325 1.018633 1.088143 1.078350 1.098648 1.035718 0.935892 0.934086 0.999635 0.895462 0.990801 1.082324 1.161102 0.956409 0.875929 0.629433 0.651847 0.852189
1.031837 0.627674 0.952649 1.020228 0.941217 1.125721 1.173636 1.131189 1.054370 1.086478 1.094572 1.147571 1.104550 0.980553 1.100337 1.228077 1.176464 1.033377 1.065591 0.982751 0.920739 0.743074 0.995540 0.997292 1.107070 1.223578 1.184237 1.150723 1.173919 1.212480 1.000592 0.912666 0.984826 0.669763 0.696926 0.856961 0.995148 1.053417 1.134556 1.194887 1.137962 0.931705 0.930868 1.186205 1.187620 0.891750 1.048363 1.027552 1.085257 1.147155 1.118210 1.151679 1.175578 1.086977 0.926144 0.638522 0.803353 1.170550 1.165150 1.220372 1.038280 0.833707 0.649295 0.571631 0.785492 1.092021 1.136221 1.097366 1.144531 1.088485 1.030791 1.046730 1.086477 1.125318 1.001266 1.010896 1.046788 1.005810 1.012462 1.017362 1.038242 1.046704 1.007963 1.004900 0.998971 0.994304 0.997527 1.047272 1.039751 1.023484 0.958989 0.951182 0.993524 0.820327 0.776872 0.676685 0.828981 0.963964 1.023938 1.045610 1.082655 1.101377 1.123215 1.131911 1.091643 1.058762 1.049344 0.951078 0.865011 0.985218 0.938992 0.958610 0.709055 0.854109 1.109818 1.089245 1.192456 1.225232 1.192308 1.043157 0.743954 1.056314 1.189063 1.216922 1.146720 1.190889 1.283099 1.146181 0.709840 1.139975 1.097566 1.035289 1.056015 1.150691 1.188717 1.230114 1.184723 0.876415 0.901105 1.112291 1.172087 1.191586 1.144777 1.125515 1.141326 1.092639 1.140309 1.178024 1.200281 1.219243 1.212300 1.221791 1.220490 1.244960 1.254038 1.233727 1.218218 1.199416 1.226117 1.286818 1.177245 0.872478 0.989888 0.913158 1.196498 1.072747 1.196641 1.111263 1.111343 1.114488 1.148551 1.233410 1.238011 1.169299 1.033950 1.061487 1.104381 1.142105 1.181324 1.157513 0.825490 0.946410 1.006529 1.108214 1.142266 1.145795 1.103851 0.997658 1.044900 1.100558 1.066422 1.120850 1.118179 1.042925 0.957625 0.574990 1.039855 1.095430 0.933696 0.972461 1.183094 1.269491 1.189547 0.857450 1.100511 0.581594 0.983579 1.197423 0.666133 0.884664 1.143374 1.115203 1.132768 1.095720 1.151459 1.208167 1.212014 1.150876 1.081152 1.009650 1.083404 1.102705 1.080393 1.090951 1.090640 1.049847 1.058757 1.090412 1.072190 1.064646 1.128148 1.137774 1.142852 1.152532 1.157448 1.161322 1.165432 1.171570 1.173327 1.178537 1.177629 1.181059 1.186755 1.189661 1.190069 1.190567 1.191947 1.193596 1.194822 1.195170 1.197116 1.201439 1.190123 1.188665 1.138444 1.098182 1.079025 1.029929 1.077125 1.253396 1.252576 1.262697 1.264546 0.832039 0.990082 1.247096 0.802959 1.123463 1.327151 1.325062 1.281364 1.283245 1.309218 1.008744 0.870963 1.341459 1.244440 1.133031 1.088140 1.237811 1.166510 1.104441 1.117919 1.225900 1.269249 1.296455 1.077207 1.043884 1.292453 1.178879 1.050089 1.237873 1.160604 0.991320 1.021461 1.119521 1.152045 1.054961 1.122140 1.221094 1.055933 1.219167 1.268220 1.010180 0.543873 1.042335 1.223146 1.082752 1.161040 1.155880 0.906744 1.089741 1.074005 1.111519 1.105455 1.145422 1.168239 1.136730 0.961915 0.690575 0.984869 1.194762 1.149319 1.065329 0.903665 1.035804 1.136878 1.140811 1.021409 1.018479 1.047411 1.025587 1.029285 1.015048 1.054855 1.053881 1.025292 1.036998 1.019644 1.016615 1.046645 1.066978 1.074628 1.063597 1.037340 1.045935 1.039296 1.017893 1.037381 1.016932 1.080243 1.015270 0.992984 1.099509 1.032863 1.003506 0.984183 1.027621 1.017443 1.057290 1.050416 1.042875 1.087248 1.078555 1.040902 1.086539 1.134869 1.150329 1.161775 1.148340 1.165231 1.194630 1.204056 1.191523 1.134815 1.087123 1.062232 1.168351 0.860461
1.168502 0.637193 0.586765 1.004427 1.089272 1.184572 1.173247 1.155065 1.083109 1.093626 1.076549 1.107755 1.137178 0.892276 1.006523 1.216581 1.236713 1.193591 1.121903 1.130793 0.978456 0.815610 1.094248 1.200851 1.214484 1.146586 1.151842 1.124318 1.200725 1.240234 1.103615 0.999640 1.103434 0.863670 0.830415 1.004003 1.055967 1.007403 1.052826 1.190307 1.166903 0.955836 0.996433 1.143531 1.171345 0.927197 1.070155 1.131477 1.139964 1.146966 1.049551 0.945077 0.966321 0.861995 0.812391 0.916804 0.769498 1.142659 1.205006 1.168147 0.880950 0.927473 0.977020 0.801731 0.907471 1.162825 1.184195 1.137468 1.080399 1.094356 1.024179 1.048057 1.107130 1.130241 1.078239 1.020409 1.045476 0.998943 0.996695 1.005961 1.026529 1.019703 1.002077 1.007232 1.002286 1.005182 1.004272 1.024838 0.948893 0.904373 0.938627 0.933588 0.811721 0.843854 0.812896 0.801194 1.023356 1.045600 1.059071 1.053433 1.103549 1.107481 1.114740 1.110357 1.041515 0.971407 0.992333 1.062469 1.040234 1.166243 1.040465 1.005878 0.948797 0.731813 0.873431 1.075478 1.136527 1.224157 1.230263 1.090292 0.940774 0.944785 1.217375 1.200016 1.114283 1.202255 1.057554 1.288334 1.066733 1.287756 1.236986 1.278486 1.166698 1.164561 1.189169 1.221283 1.147683 0.825803 0.924439 1.096511 1.054478 1.065081 1.079210 1.089992 1.143450 1.110848 1.115172 1.108916 0.909683 0.779056 0.780422 0.972135 0.977521 1.159698 1.194283 1.130808 1.244040 1.178552 1.221863 1.241537 0.963556 1.175142 1.332274 1.195592 1.198315 1.151099 1.231003 1.159187 1.163532 1.067169 1.177515 1.228511 1.245173 1.121817 1.024316 1.113631 1.052534 1.067533 1.117763 1.183223 0.928034 0.844987 0.997191 1.095389 1.134231 1.125928 1.147717 1.078663 1.074029 1.094413 1.133630 1.060035 1.042968 0.905722 0.842398 0.514984 0.948514 1.316995 1.232130 1.237043 1.172901 1.274436 1.205480 0.728012 0.981724 0.827491 1.043369 1.252682 1.110629 1.031654 1.096038 1.070230 1.112223 1.203906 1.216223 1.211552 1.101193 1.039134 1.007363 1.055169 1.085641 1.082293 1.075358 1.086141 1.094404 1.041340 1.035369 1.106316 1.088852 0.990215 0.963951 1.057074 1.091979 1.120469 1.098228 1.090655 1.132163 1.085178 1.019519 1.014614 1.081169 1.153746 1.176985 1.192688 1.135187 1.116669 1.151189 1.106260 1.144202 1.198373 1.197709 1.151123 1.194782 1.211477 1.204702 1.105158 1.093540 1.117481 1.207524 1.246836 1.254520 1.237222 1.177309 0.797805 1.150427 1.291704 1.145718 1.312756 1.251587 1.184682 1.182591 1.240718 1.295486 0.883861 0.528866 1.155817 1.159396 1.115875 1.111299 1.283442 1.151467 1.077385 1.205657 1.303827 1.255111 1.243174 1.157072 1.120991 1.278385 1.139494 1.094376 1.180772 1.071471 1.039979 1.082725 1.057196 1.094240 1.062065 1.183065 1.172971 1.076457 1.173311 1.195985 1.058573 0.965716 0.872647 0.831653 1.239666 1.165594 1.085506 0.936541 0.954267 1.018278 1.171432 1.098331 1.163834 1.141865 1.120157 1.108993 0.838403 1.096300 1.178582 1.061380 0.896617 0.926149 1.141102 1.151210 1.138123 0.904111 1.055062 1.092039 1.045476 1.011794 1.025742 1.082069 1.012112 1.006039 1.014187 1.022851 1.024870 1.031973 1.031326 1.049908 1.058781 1.045778 1.034464 1.052774 1.051899 1.039778 1.049709 1.033654 1.033884 1.022152 1.044139 1.047992 1.055096 1.012130 0.996471 0.994786 1.008330 1.006904 1.055270 1.087208 1.007065 0.977441 0.940798 1.009464 1.046482 1.130608 1.026645 1.026615 1.080871 1.047533 1.117866 1.234195 1.238410 1.223906 1.090485 0.689512
1.208550 0.702588 1.099658 1.174578 1.135135 1.122952 1.160380 1.152116 1.047439 1.093783 1.095894 1.098301 1.198741 1.050699 0.917888 1.200608 1.171986 1.134058 1.093247 0.962817 0.782681 1.078742 1.068276 1.062809 1.046206 1.024058 1.033238 1.068082 1.130808 1.192098 1.230411 1.222475 1.207639 1.100175 0.960762 0.980739 1.127036 1.078086 0.945511 1.085466 1.179216 1.024351 0.880431 1.083471 1.159517 1.052374 0.978088 0.934754 1.142816 1.084652 0.958755 0.844797 0.887393 0.960315 0.927672 1.111304 0.799524 0.917393 1.164239 1.189737 1.130862 1.067938 0.893799 0.925400 0.851453 1.058470 1.141353 1.178326 1.085157 1.067226 1.011325 0.944830 1.003033 1.029691 1.076063 1.055016 1.041280 1.015691 1.001829 1.015184 1.029824 1.009972 1.020725 1.039064 1.043314 1.041589 1.042444 1.059583 1.027049 1.003050 1.014782 0.916775 0.885151 1.045996 0.917854 0.851892 1.013256 1.032333 1.072299 1.115978 1.105925 1.063267 1.072730 1.003344 0.978600 1.019675 1.122516 1.194243 1.203773 1.217250 1.159536 1.155430 1.126933 0.997890 0.729780 1.033196 1.166159 1.187560 1.230029 1.107913 0.953887 0.728456 1.197985 1.195886 1.126004 1.179233 0.878420 0.659309 1.025329 1.183185 1.079385 1.258847 1.189794 1.150006 1.154699 1.204023 1.148055 0.885036 0.873055 1.068057 1.064443 1.079808 1.104778 1.122932 1.147271 1.134245 1.122905 0.972813 0.801176 0.973544 1.006544 0.797638 0.863394 1.226944 1.124786 1.045553 1.290552 1.144919 1.065829 1.061792 0.625736 0.989215 1.228615 1.250912 1.170634 1.159718 1.148521 1.146361 1.119210 1.212366 1.155096 1.181487 1.205610 1.131294 0.989294 1.167526 1.027813 1.026677 1.058080 1.192265 1.098955 0.953346 0.991178 1.063026 1.137153 1.109340 1.158480 1.106632 1.048857 1.094411 1.072263 1.079033 1.142514 1.089951 1.015959 0.766446 0.784279 1.219847 1.209074 1.138077 1.225560 1.278242 1.168130 0.885303 0.855418 1.286314 1.258405 1.201509 1.167241 1.077905 1.097522 1.171944 1.226286 1.221546 1.192283 1.092112 0.983122 0.967986 1.042220 1.079474 1.066050 1.058694 1.075315 1.028156 1.022361 1.029275 1.019529 1.098609 1.090657 1.063171 0.976303 1.015964 0.996614 1.020531 1.035698 1.024636 1.108609 1.137784 1.063530 1.011546 1.067067 1.080347 1.109339 1.108198 1.110936 1.110137 1.117504 1.089857 0.994455 1.091672 1.107945 1.106813 1.063207 1.137930 1.216186 1.180786 1.132640 1.205177 1.244496 1.161106 1.113784 1.038708 0.753332 0.634476 1.058215 1.270720 1.231556 1.240495 1.215209 1.264341 1.240266 1.250159 1.336343 1.035819 0.586901 0.695683 1.120409 1.276814 1.101464 1.254205 1.143037 1.109450 1.165989 1.230429 1.036097 1.076506 1.167467 1.217965 1.213085 1.044029 1.031617 1.011852 1.102113 1.199361 1.162958 1.191996 1.218432 1.210228 1.187401 1.084860 1.065231 1.049454 0.795882 1.161693 1.209034 0.855319 0.559857 0.673038 0.724188 0.867421 0.648022 0.708111 1.034257 1.228103 1.126916 1.016027 1.178015 1.096502 1.113744 0.905504 1.041380 1.156807 0.855357 0.935217 1.131451 1.163310 1.142403 0.975554 1.006674 1.099439 1.072586 0.981532 0.984944 1.097554 1.092786 0.961607 1.015952 1.018561 1.040254 1.037473 1.047755 1.029182 1.040177 1.070969 1.070358 1.048496 1.055352 1.066705 1.057643 1.058808 1.044054 1.049169 1.049328 1.038212 1.007174 0.997110 1.030831 1.020192 1.001610 0.992132 0.992710 1.083826 1.070891 1.029721 1.057729 1.058106 1.016909 0.984683 0.976546 0.892401 0.864271 0.815571 0.762918 0.828277 1.104111 1.194148 1.209799 1.001355 0.579085
1.133236 0.685080 0.989074 1.084972 1.167874 1.139256 1.176679 1.108856 1.012572 1.081019 1.009336 0.984348 1.179972 1.121744 0.856486 1.160518 1.191635 1.156025 1.105864 1.001919 0.851391 1.221737 1.154004 1.154741 1.141224 1.115483 1.089644 0.979642 0.939285 0.831059 0.998433 1.128174 1.202642 1.189950 1.070326 1.023607 1.136826 1.112093 1.083773 1.021952 1.154182 1.057475 0.978178 1.027434 1.108375 1.143576 1.141347 1.013097 1.138488 1.046196 0.963324 1.018941 1.078892 1.084973 1.112881 1.132426 0.883330 0.941821 1.118943 1.174609 1.063466 1.021263 0.904461 1.009595 0.922323 0.897456 1.085680 1.123831 1.158627 1.115113 1.067323 0.967209 1.037778 1.050411 1.055718 1.048323 1.040827 1.017453 1.014408 1.031949 1.013932 1.035919 1.023144 1.011130 1.014890 1.012406 1.024684 1.027372 1.072927 1.082122 1.043914 1.004097 1.034964 1.063328 0.878485 0.879685 1.004485 1.048034 1.082294 1.109896 1.065837 1.063841 1.090012 1.096427 1.124938 1.173330 1.182536 1.122022 1.140080 1.181217 1.103890 1.179311 1.207365 1.235551 0.981136 0.913695 1.129769 1.117079 1.234675 1.183333 1.057118 0.823421 1.051676 1.208223 1.244253 1.259407 1.184764 0.742587 0.905941 1.245031 0.980644 1.154307 1.000610 1.051975 1.203410 1.246577 1.215338 0.964144 0.840412 1.107614 1.109353 1.104234 1.127059 1.132541 1.116345 1.049759 1.112652 1.082674 1.085856 1.142157 1.054053 0.982517 0.770685 0.834317 0.840358 0.901343 1.213156 1.091927 0.703019 0.673015 0.831154 0.680363 1.192628 1.324294 1.314443 1.214351 1.115339 1.041608 1.032875 1.262352 1.252970 1.243697 1.189484 1.060280 0.778602 0.891644 0.925336 1.017095 1.036927 1.098543 1.140276 1.091799 1.084513 1.137519 1.161694 1.070220 1.156565 1.165580 1.114590 1.068477 1.072527 1.107245 1.153783 1.197782 1.150472 1.034651 0.618408 1.018204 1.172563 1.179933 1.242150 1.248581 1.173771 1.032040 0.846599 1.121652 1.042793 1.142710 1.056116 1.076053 1.196408 1.228326 1.231450 1.135253 1.112134 1.100213 0.855068 1.088013 1.105683 1.117130 1.089677 1.098705 1.097130 1.036512 1.038182 1.060866 0.999367 1.071878 1.078636 1.055819 1.039678 0.981195 0.980032 0.894235 0.874964 0.902512 1.068547 1.131510 1.124788 1.049268 1.086877 1.110068 1.070189 1.073378 1.081962 1.045626 1.108405 1.173742 1.062514 1.084267 1.057937 1.073820 1.017546 1.060466 1.201802 1.219444 1.094783 0.980803 0.941057 0.896848 0.860277 1.017767 1.066982 1.125439 1.073335 1.255864 1.162344 1.146841 1.018178 0.981522 1.003114 1.151091 1.146546 0.960894 0.800559 0.937392 1.353289 1.206715 1.095583 1.246938 1.179987 1.145074 1.109088 1.109793 1.213343 1.166323 1.112614 1.129644 1.048847 1.051920 1.245727 1.232239 1.224899 1.221035 1.208576 1.193014 1.095047 1.185080 1.208277 1.045311 1.117918 0.975825 0.950505 1.226789 1.203892 0.841070 0.898619 0.951202 0.739719 0.562197 0.745178 1.060474 1.149930 1.240949 1.135706 0.874973 1.171750 1.125885 1.112923 1.015361 0.868743 0.933776 1.029979 1.131308 1.179011 1.170495 0.992872 0.916645 1.098818 1.076082 0.958456 0.990541 1.032808 1.111470 1.127466 0.929030 1.015954 1.048618 1.032149 1.049733 0.990557 1.013193 1.011606 1.050163 1.042142 1.068673 1.066150 1.068413 1.070322 1.055914 1.053848 1.055007 1.051424 1.045941 1.039703 1.025539 1.033308 1.037016 1.005779 0.996957 1.019816 1.081236 1.042915 1.011096 1.030602 1.020908 1.003643 1.017309 0.977276 0.934140 0.907724 0.887608 0.876068 0.791649 0.638633 0.631308 0.638872 0.600342 0.938089
0.782585 0.806934 1.099503 1.126261 1.122511 1.144976 1.179276 1.118755 1.077276 1.142492 1.031033 0.946470 0.983970 1.059547 0.929686 1.156547 1.179063 1.204346 1.079440 0.861390 0.866080 1.225942 1.168116 1.165824 1.177806 1.176451 1.225375 1.229336 1.236176 1.081497 0.811784 0.957111 1.196246 1.160503 1.123430 0.947395 1.085815 1.117358 1.105790 1.078512 1.094924 1.099344 1.064289 1.117764 1.143904 1.144557 1.094025 1.135778 1.131814 1.029002 1.024591 1.070797 1.081436 1.066853 1.090294 1.148496 1.031741 0.964032 1.163559 1.130172 1.083550 1.101381 1.038165 1.103983 1.018124 0.858239 1.045673 1.117203 1.095132 1.124370 1.118598 1.033549 1.001771 0.976681 0.990492 0.988101 1.009244 1.027128 1.021050 1.028401 1.044994 1.029227 1.002241 1.010442 1.000861 1.006339 0.963730 1.029928 1.037776 1.083989 1.083546 1.076515 1.077508 1.015039 0.959312 0.939296 1.046821 1.098528 1.114645 1.071383 1.074981 1.082122 1.063332 1.085962 1.152462 1.082644 1.026801 1.024858 0.938761 1.002932 1.153038 1.215696 0.963519 1.047555 1.080625 0.956956 1.141816 1.068243 1.238681 1.170787 1.120817 1.000498 0.866762 1.179992 1.203649 1.249969 1.296879 1.027644 0.577940 0.917602 0.968782 0.741810 0.768631 1.049299 1.260551 1.201431 1.169447 0.976711 0.652678 1.038080 1.097045 1.033904 1.043744 1.081559 1.121590 1.082219 1.153240 1.107404 1.048748 1.067464 1.071932 1.082700 1.095584 1.180419 1.249531 0.972092 1.181362 1.081964 0.656133 1.080951 1.243567 1.072353 0.870394 1.161004 1.106100 1.192912 1.139375 1.234122 1.092864 1.229429 1.251387 1.165800 0.963762 0.748503 0.853108 1.060662 1.069321 1.109247 1.061669 1.106431 1.123449 1.161745 1.170513 1.170289 1.110038 0.987174 1.109681 1.168261 1.170463 1.113724 1.095533 1.101168 1.182058 1.160492 1.041969 0.902933 0.789081 0.775536 1.017608 1.188361 1.236487 1.171248 1.207731 1.000415 0.805947 1.051751 1.113614 1.132108 1.083007 1.173412 1.234556 1.238116 1.094479 0.956126 1.050810 1.153793 1.088775 1.184167 1.108292 1.097965 1.111547 1.096765 1.053100 1.061852 1.043814 1.073365 1.013532 1.100424 1.101012 1.060429 1.067942 1.048222 0.939973 0.937306 0.932870 0.835290 0.849798 0.984480 1.030788 0.928479 1.132056 1.117920 1.030342 1.059003 1.149423 1.042381 1.078801 1.178965 1.093002 1.143148 1.026543 1.127669 1.020256 1.051556 1.199084 1.225717 1.221250 1.215209 1.143312 1.096615 1.122337 1.125265 1.142053 1.210901 1.042900 1.069247 1.120445 1.290459 1.303291 1.192632 0.979745 0.874648 0.712902 0.737624 0.773787 1.099540 1.348824 1.165739 1.153478 1.260722 1.203405 1.208256 1.151388 1.109375 1.213408 1.104503 1.074697 1.187002 1.111385 1.151760 1.206033 1.218609 1.160148 1.118803 1.177294 1.156073 1.003451 1.026665 1.176203 1.166154 1.112141 0.997102 1.038356 1.207259 1.103343 1.061574 1.224069 1.183273 1.127620 1.006268 0.580069 0.894231 1.246284 1.249628 1.124195 0.971110 1.203805 1.109744 1.068207 1.132215 0.701839 0.873343 1.026649 1.172438 1.180227 1.169583 1.042456 0.980402 1.087000 0.961204 1.026712 1.062837 1.011621 1.132883 1.103956 0.924827 1.015988 1.039484 1.030882 1.074534 1.009424 1.009655 1.042702 1.014523 1.017693 1.022656 1.016801 1.006640 1.017443 1.053966 1.045637 1.062770 1.064039 1.064814 1.067661 1.056958 1.030110 1.018117 1.017516 1.010609 1.042654 1.077771 1.009577 0.994773 1.001809 0.984653 0.958713 0.958860 0.900332 0.882922 0.963751 0.950055 1.002527 0.897835 0.812550 1.146974 1.096946 0.818444 1.256442
0.806410 0.982173 1.074692 1.022624 1.139298 1.182539 1.142211 1.060151 1.078614 1.065274 1.055815 1.009860 0.986717 0.882757 0.951037 1.189805 1.176214 1.234304 1.241856 1.061384 0.891984 1.170540 1.158381 1.121574 1.204086 1.224525 1.171521 1.024283 1.114883 1.209900 1.166450 1.011418 1.119861 1.153270 1.178092 1.045268 1.083824 1.100862 1.112795 1.135908 1.143246 1.140198 1.135115 1.150175 1.096971 1.026866 1.002877 1.043244 1.116113 1.128901 1.072963 1.050714 1.053971 1.046575 1.040900 1.118346 1.035023 0.915881 1.146476 1.122745 1.081215 1.039388 1.018938 1.121893 1.110816 0.909638 1.007404 1.067437 1.051074 1.090346 1.121870 1.029893 0.927953 1.005426 1.042786 1.049327 1.052802 1.032581 1.040943 1.049178 1.030082 1.017172 1.007446 0.991918 1.035940 1.010759 0.948631 1.073925 1.012460 1.026008 1.056320 1.087962 1.094045 1.029069 1.035468 1.027015 1.077535 1.097815 1.064378 1.063902 1.075723 1.084518 1.018244 0.964657 1.068173 1.182030 1.159834 1.105123 0.959864 0.800697 0.966861 1.243208 1.219506 0.854401 0.645985 0.897975 1.163785 1.107962 1.215492 1.190082 1.138575 1.143731 0.835472 1.069740 1.183769 1.200647 1.303862 1.035137 0.704127 1.033405 1.304183 1.123674 0.927878 1.111185 1.239741 1.213985 1.200797 0.951017 1.018006 1.227099 1.171209 1.072995 1.048847 1.092435 1.151182 1.095775 1.159853 1.074461 1.064135 1.024349 1.118706 1.206634 1.229093 1.276386 1.285233 1.270561 1.308334 1.239226 0.786776 1.220615 1.240197 1.139684 1.042910 0.765793 0.694644 1.030714 1.030041 1.267976 1.259747 1.238893 1.185765 0.945303 0.691308 0.990631 1.068134 1.055266 1.090522 1.140785 1.120774 1.119155 1.112254 1.174293 1.157299 1.117810 1.092014 0.992733 1.064224 1.081645 1.168860 1.173668 1.169288 1.140487 1.082552 0.996360 0.982088 1.093121 1.111551 0.789078 1.096199 1.202877 1.260573 1.214069 1.140663 0.798477 1.140936 1.160703 1.163532 1.141028 1.246611 1.239441 1.233717 1.164678 1.092319 0.725781 1.148560 1.136796 1.005197 1.108353 1.100655 1.105550 1.116261 1.100997 1.086961 1.084522 1.074340 1.052952 1.057184 1.090504 1.078907 1.102792 1.114854 1.122423 1.138817 1.018692 1.045334 0.981307 0.857625 0.833840 0.649582 0.738450 1.136678 1.087998 1.104225 1.131159 1.246693 0.952170 1.086069 1.034802 1.122853 1.057316 0.932406 1.133256 0.899409 1.086062 1.202163 1.125487 1.159485 1.228227 1.224477 1.221198 1.126692 1.111817 1.142364 1.191794 1.036370 1.064280 1.139338 1.242637 1.103246 0.895870 1.174122 1.046493 1.271995 1.023217 0.714173 0.757878 1.272145 1.153544 1.217304 1.215140 1.149678 1.137548 1.202110 1.159311 1.136728 1.093354 1.240151 1.233515 1.108344 1.131855 1.235037 1.137236 1.118809 1.195791 1.121645 0.980945 0.897375 1.161675 0.959022 1.169541 1.133553 1.137747 1.117041 1.148702 1.135718 1.119645 1.120511 1.033065 1.140546 1.122674 0.700841 0.573674 0.837447 0.913935 0.805222 1.037363 1.239645 1.149830 0.994473 1.109079 0.541754 0.869986 1.150398 1.192342 1.193304 1.141629 1.058257 0.909649 1.070946 1.084619 1.082060 1.062954 1.025581 1.132712 1.073557 0.909781 0.973408 1.031421 1.062237 1.080224 1.002533 1.044845 1.097543 0.955554 1.046353 1.048873 1.025901 1.000481 0.981953 1.046343 1.011089 1.031640 1.033550 1.035362 1.052363 1.063627 1.061603 1.045065 1.034297 1.032225 1.038993 1.035922 0.984093 0.967684 0.978812 0.959856 0.981873 1.109220 1.071924 1.085593 1.179297 1.201172 1.204941 1.157086 1.186544 1.148354 0.886918 0.573727 1.135210
1.011308 1.052322 1.105734 1.116670 1.149564 1.184149 1.058023 1.026401 1.113992 1.119610 1.072788 0.975518 0.991264 0.733098 0.880912 1.198154 1.144215 1.098083 1.235924 1.042153 1.014836 1.131820 1.141427 1.140560 1.192919 1.230509 0.938044 0.915610 1.169147 1.208297 1.192512 1.148859 1.029025 0.840600 1.074198 1.123959 1.147116 1.158819 1.135848 1.092944 1.086494 1.092174 1.111022 1.111289 1.091174 1.045433 0.994547 1.041248 1.071268 1.128452 1.128191 1.125641 1.125719 1.127003 1.067098 1.081457 1.003039 0.889817 1.107525 1.048050 0.969892 1.008317 0.946668 1.117259 1.094508 0.939459 1.035886 1.142189 1.152614 1.111688 1.114997 1.112694 0.942630 0.957204 1.032033 1.045714 1.033797 1.020446 1.020083 1.017944 1.015244 1.046112 1.049547 1.011227 1.078153 0.988537 1.011985 1.127166 0.968625 1.049878 1.037873 1.029855 1.088333 1.095488 1.101710 1.106975 1.114717 1.063773 1.090314 1.110565 1.101265 1.138501 1.170493 1.112561 0.996694 1.138982 1.159023 1.206785 1.179150 1.086556 0.939590 1.023873 1.266771 1.232257 0.912232 0.797291 1.168600 1.104689 1.200422 1.224388 1.133234 1.110530 0.804847 0.945722 1.119907 1.050710 1.121583 0.770599 1.243948 1.313242 1.299768 1.192833 1.173427 1.127608 1.040265 1.152110 1.215307 0.874402 1.142872 1.155803 1.075295 1.104017 1.084787 1.068299 1.139510 1.103583 1.143812 1.076743 1.089135 1.040428 0.946670 1.018553 1.041048 1.137855 1.175739 1.229569 1.184405 0.953590 0.540730 1.175753 1.305450 1.204249 1.144092 1.155424 0.946643 1.136741 1.149275 1.231502 1.162018 1.193483 1.084110 0.964738 1.173752 1.175848 1.122291 1.155761 1.085624 1.034391 1.080900 1.176547 1.177046 1.171403 1.099071 1.054398 1.039329 1.007242 1.053849 1.082964 1.120803 1.177079 1.178584 1.137576 1.022489 1.071092 1.079142 1.177587 0.996159 0.718073 1.161215 1.311094 1.165521 1.166461 1.081970 1.005074 1.187886 1.117782 1.170164 1.249875 1.247393 1.223112 1.189208 1.104811 1.189276 0.869436 1.178874 0.971409 0.895983 1.023104 1.150241 1.070430 1.041916 1.077348 1.085491 1.106725 1.125999 1.087006 1.099856 1.077306 1.078416 1.081560 1.073686 1.022129 1.122813 1.118979 0.973231 0.984315 0.965240 0.905191 0.774246 0.621827 0.874644 1.122673 1.165164 1.215130 1.256827 0.888732 1.091202 1.127307 1.278596 0.973636 0.927935 1.159503 1.046342 1.160033 1.189718 1.068448 0.971952 1.028794 1.230506 1.229221 1.233197 1.239294 1.232880 1.225204 1.183951 1.190431 1.192063 1.130432 0.971070 1.063277 1.204026 1.136023 1.238182 1.247801 1.151931 0.531949 0.986277 1.061402 1.270810 1.241015 1.176858 1.138125 1.193784 1.223412 1.196785 1.146092 1.291914 1.111880 1.001222 1.251441 1.251487 1.090416 1.154827 1.192089 1.092152 0.952452 1.087545 1.193579 1.186760 1.167903 1.158734 1.160863 1.150862 1.007142 1.063461 1.137021 1.083309 0.944181 0.872753 0.748403 0.987099 0.912026 0.848761 0.849898 0.688724 0.851286 1.204112 1.215304 1.178700 1.066608 0.699312 1.143942 1.201842 1.209467 1.166235 1.020035 0.763967 0.760577 0.872567 0.980510 0.972845 0.974126 1.092918 1.136481 1.021539 0.922406 0.898474 1.057214 1.113215 0.988291 1.014712 1.133089 1.112632 0.914984 1.046928 1.060750 1.058617 1.049984 1.018507 1.076614 1.003610 1.012510 1.025662 1.015210 1.004648 1.015365 1.029341 1.045560 1.036084 1.017576 1.028986 1.011938 1.016150 1.024775 1.116266 1.106969 1.135773 1.100173 1.033396 1.158556 1.187989 1.145367 1.156414 1.117357 0.955171 0.845850 0.717326 0.645706 0.986157
1.109189 1.149640 1.118549 1.100111 1.142988 1.187316 1.106568 1.068446 1.068705 1.109919 1.044280 1.077135 1.044986 0.893713 1.025564 1.267328 1.176854 1.160935 1.193398 0.889154 1.045071 1.160405 1.238237 1.201102 1.215095 1.207128 0.825948 0.954581 1.014179 1.103146 1.164434 1.170038 1.171147 0.994280 1.122188 1.149028 1.108311 1.092627 1.066103 1.054848 1.097138 1.125536 1.106620 1.071765 0.986857 0.859953 0.826471 0.841761 0.941942 0.951745 0.988779 1.120306 1.063048 1.126633 1.120832 1.116883 1.117960 1.110531 1.115390 1.041408 1.023652 1.056260 0.996350 1.126958 1.028437 0.863140 0.780199 0.887845 0.956814 0.954377 1.032405 1.069609 1.035940 0.978386 1.002452 1.036097 1.042373 1.038346 1.002014 1.010782 1.015317 1.010837 0.969285 0.987167 1.058240 0.943257 1.072897 1.145851 0.958757 1.059514 0.987272 1.004097 1.014659 1.099296 0.954926 1.024179 1.103980 1.085587 1.115739 1.055236 0.982931 1.075900 1.098521 1.123364 0.913666 1.124731 1.121289 1.162158 1.218695 1.226697 1.228006 0.955235 0.943975 1.023152 0.801753 1.188982 1.198897 1.102580 1.181397 1.244880 1.161786 1.097473 0.891702 0.838291 0.917059 0.883891 0.955725 0.592578 0.862960 0.965206 1.243519 1.250159 1.233308 1.244477 1.175364 1.276772 1.093802 0.665402 0.921717 1.007132 1.041343 1.045690 1.072833 1.053640 1.139467 1.114908 1.163867 1.115858 1.070320 1.039415 1.108069 1.034768 0.886360 0.818752 0.799534 0.915435 0.774764 1.063680 0.525815 0.955900 1.236410 1.131575 1.119247 1.311794 1.210283 1.177761 1.227353 1.219800 1.223446 1.205503 0.931638 1.212103 1.222127 1.145281 1.140301 1.155027 1.111323 1.103427 1.137599 1.181318 1.165852 1.059097 1.072019 1.061272 1.013379 1.011449 1.055930 1.051928 1.076374 1.141695 1.180754 1.188546 1.086940 1.105698 1.171226 1.126670 1.131117 0.939854 0.866413 0.787915 1.050049 1.073994 0.765451 1.046897 1.132525 1.223504 1.261560 1.257668 1.212789 1.103694 1.183772 0.964754 1.289257 1.005281 0.900052 0.752009 1.203891 1.258875 1.082517 1.019893 1.021037 1.051275 1.079575 1.082010 1.062817 1.067268 1.088050 1.009453 1.029671 1.066219 1.066123 0.976415 1.126339 1.127861 1.116346 0.981859 0.951477 0.944954 0.965566 0.792562 0.677071 0.812046 1.042188 1.144202 1.219021 0.840674 1.146214 1.152003 1.209888 0.892501 0.969067 0.973387 1.142473 1.122574 1.003230 0.840876 0.987290 1.141963 1.207081 1.087107 1.204940 1.244703 1.227650 1.233239 1.249535 1.252691 1.258399 1.268872 1.222170 1.190505 1.149287 1.216041 1.278654 1.241076 0.945003 0.948124 1.331817 0.993810 0.986791 1.237020 1.175292 1.110610 1.186176 1.208071 1.122353 0.902253 1.216541 1.141410 1.027686 1.204857 1.074838 0.991581 1.174222 1.225349 1.149855 0.909579 0.956309 0.981904 1.123174 1.164093 1.145385 1.123894 1.105513 0.990864 1.010672 1.032798 0.976390 0.823475 1.050474 0.895025 1.122298 1.036209 1.099987 1.087184 0.909568 0.616756 0.846213 1.023656 1.061473 0.957656 1.034175 1.234612 1.225322 1.093969 0.744922 0.727809 0.963858 1.053938 1.028040 1.118349 1.127621 1.119852 1.137418 1.114994 0.957930 0.906284 0.885531 1.100034 1.073802 0.985724 1.147484 1.137576 1.037676 0.972572 1.011408 1.022975 0.970363 0.948409 1.092183 1.064929 0.995505 1.018479 1.031686 0.998343 0.989763 0.986092 1.011254 1.019380 1.043005 1.034064 1.026466 1.060699 1.055807 0.975020 1.002826 0.991460 1.017639 1.055968 1.055875 1.015802 0.923110 0.925891 1.032637 1.042670 1.008755 1.099569 0.990269 0.810807 1.176923
1.121442 1.156615 1.078219 1.111298 1.180833 1.116633 1.173602 1.138830 1.088799 1.060719 1.034244 1.022612 1.100605 1.019132 0.993786 1.219173 0.997846 1.036947 1.039166 0.930346 1.059430 1.190426 1.188072 0.980014 0.787079 0.796540 0.752930 1.071115 0.948710 0.992501 0.924124 0.935751 1.139453 1.142069 1.164797 1.089636 1.103944 1.097330 1.062630 1.070397 1.089504 1.133117 1.107898 0.904402 0.878334 1.005952 1.083074 1.079953 1.109362 1.148776 1.144997 1.081241 1.015318 1.021555 1.035277 1.049079 1.116266 1.111699 1.110340 1.104292 1.077156 1.029895 1.044913 1.086028 1.078132 1.100618 0.905789 0.794107 0.872410 0.950858 0.960133 0.999057 1.041075 1.037912 1.047893 1.047354 1.048866 1.058509 1.015528 1.040993 1.099408 1.119165 1.003947 0.948303 0.941236 0.886787 1.110658 1.054994 0.977869 1.000766 0.980704 1.023468 1.001146 1.102035 1.060628 0.946602 0.987073 0.963804 1.114942 1.116206 0.981581 0.931620 0.916039 0.887204 0.822929 0.975087 1.022598 1.118650 1.126344 1.097798 1.061374 0.882462 0.831362 0.807092 0.646228 1.045120 1.116820 1.108267 1.149502 1.212430 1.178052 1.118047 1.074024 1.079896 1.011962 1.025126 1.118502 0.990758 0.971454 0.638851 1.162431 1.225898 1.239887 1.213961 1.254686 1.146595 0.947368 0.738502 0.950580 1.015086 1.046118 1.064708 1.093760 1.076473 1.113782 1.126863 1.143216 1.092163 1.082004 1.079997 1.107486 1.122109 1.010126 0.931757 1.103800 1.250538 1.105566 1.117572 0.672927 1.282261 1.322917 1.177978 1.128529 1.133685 1.186425 1.210899 1.185704 1.190683 1.222837 0.848295 1.152933 1.143191 1.139673 1.160536 1.137704 1.124460 1.020393 1.017843 1.127069 1.182819 1.088053 1.060326 1.084692 1.076917 1.040507 0.808094 1.049644 1.072072 1.057527 1.080828 1.185068 1.185820 1.168071 1.150298 1.111537 1.117437 1.169304 1.291078 1.256843 0.922675 0.924207 1.145392 1.122616 1.216660 1.199347 1.274950 1.177028 1.105214 1.093813 1.131838 1.096102 0.851929 0.903420 1.175993 0.823324 0.885917 1.290596 1.224460 1.011271 1.114229 1.047585 1.063295 1.039274 1.068764 1.102424 1.121821 1.134788 1.057504 1.056671 1.029299 0.990990 0.929819 1.068074 1.122199 1.111704 0.983808 0.981658 1.048781 0.977599 0.968354 1.020326 0.601122 0.876345 1.269232 1.171645 0.950675 1.261923 1.217497 1.149911 0.976047 0.772304 1.009137 1.207085 1.015880 0.757096 1.136374 1.250902 1.167445 1.186830 1.000026 0.963309 1.181243 1.187213 1.028337 1.120963 1.160243 1.201234 1.185975 1.150103 1.125098 1.099294 1.122901 1.203556 0.919881 0.771661 1.214998 1.317216 1.300217 0.948626 0.965808 1.127567 0.902505 1.303124 1.224477 1.180895 0.971275 1.245835 1.261823 1.044935 1.048996 0.996589 1.057773 1.235302 1.237563 1.200822 1.036215 0.846806 1.123973 1.086106 1.108134 1.146963 1.106582 1.055353 1.152112 1.133212 1.058177 1.016559 0.961070 1.068756 1.051959 1.157643 1.065281 1.127466 1.049134 0.962773 1.001026 0.989954 0.750466 0.627410 0.639385 1.196378 1.239492 1.048272 0.693895 0.809298 1.133156 1.205785 1.192620 1.183048 1.162607 1.141626 1.149137 1.143822 1.117226 1.046293 0.846283 0.981516 1.115658 0.964341 1.081513 1.126858 1.114917 0.953155 0.907688 0.889405 0.941129 0.983077 1.076285 1.124473 1.010461 0.990881 1.024135 1.076729 0.988180 1.000203 1.013215 1.016734 1.027974 1.020155 1.057281 1.035104 1.046456 1.007663 0.953007 0.974470 0.943817 0.954030 0.917741 0.909893 0.996013 1.036666 1.110492 1.051103 1.096931 1.223426 1.108986 0.838743 0.704795 1.040609
1.096588 1.147300 1.114672 1.197879 1.148416 1.086466 1.115499 1.141709 1.184710 1.166123 1.090113 0.922569 0.880052 0.731469 0.721655 1.052397 1.005575 0.927198 1.070537 1.190980 1.044932 0.991168 0.980632 0.771889 0.834890 1.128873 1.001998 1.166831 1.076022 1.117227 1.090935 1.159187 1.166958 1.143927 1.103003 0.990088 1.164151 1.093439 1.047873 1.079847 1.108287 1.057797 0.873400 0.860293 1.099617 1.177909 1.167023 1.161601 1.159351 1.118845 1.056169 1.061931 1.033611 1.062702 1.076410 1.042249 1.075334 1.023460 1.038624 1.071316 1.100856 1.101588 1.086478 1.078593 1.080121 1.072160 0.912810 0.980627 1.036080 1.008820 1.027947 1.034872 1.017215 1.034093 1.052968 1.018329 1.056583 1.078081 0.896986 0.935805 1.034033 1.134971 0.949421 0.846048 0.859298 0.905410 1.156989 0.958088 0.970575 1.036725 1.117145 1.097674 1.079864 1.108342 1.090347 1.005916 0.812381 0.866103 0.922929 0.864295 0.757522 0.999455 1.079061 1.054199 0.967595 0.854493 0.891086 0.994581 0.975858 0.907158 0.924388 0.932831 0.911927 0.871535 0.760506 1.062081 1.147997 1.118359 1.172575 1.206876 1.213744 1.141753 1.143066 1.210596 1.210776 1.265512 1.295957 1.261055 1.191774 0.754665 1.213809 1.194739 1.199625 1.180696 1.037358 0.838703 1.236492 1.034893 0.898465 0.969758 1.061968 1.110408 1.098307 1.066024 1.098406 1.134464 1.131561 1.044037 1.036866 1.109566 1.129643 1.136248 0.933550 1.209456 1.251669 1.202273 0.913581 0.717576 0.616297 1.229641 1.260942 1.283618 1.257148 1.217456 1.168223 1.152231 1.211486 1.267010 1.009414 0.680125 1.022214 0.684964 0.859730 1.066138 1.116203 1.095550 1.082093 1.096926 1.189169 1.190142 1.077103 1.105980 1.105245 1.013975 1.093482 0.878080 1.073737 1.048868 1.123185 1.086658 1.132952 1.189594 1.194956 1.150740 1.103462 1.100283 1.226508 1.261218 1.140907 0.994332 1.149548 1.294376 1.174088 1.210530 1.194129 1.083411 1.120263 1.246291 1.034211 1.180624 1.212972 1.167264 0.818513 1.065483 0.645658 0.580985 0.997712 0.831971 0.970929 1.092788 1.047429 1.043987 1.010586 1.045304 1.087093 1.060405 1.087196 1.078251 1.020387 0.939655 0.949471 0.963723 1.104704 1.120787 1.086831 0.945465 0.984465 1.066832 1.069821 1.056801 0.925278 0.663560 0.710343 1.044661 0.864448 0.974387 1.181468 1.245229 1.239086 0.901286 0.815690 1.287224 1.047854 0.955656 1.173665 1.202265 1.164549 1.055312 1.204789 1.129029 0.805451 1.107626 1.157985 1.100192 1.148194 1.091401 1.147533 1.121903 1.162501 1.170084 1.221430 1.264384 1.072985 0.831822 1.223696 1.206829 1.158539 1.013696 0.920214 0.991938 0.785968 0.727867 1.239817 1.283416 1.214885 1.077398 1.008939 1.318378 1.111066 0.846687 0.804712 0.941487 1.073506 1.166601 1.187208 1.049384 0.980601 1.136363 1.096989 1.110270 1.116250 1.160320 1.140369 1.143564 1.142243 1.107476 1.110585 1.142849 1.100747 1.104562 1.094973 1.099781 1.149078 1.034017 1.030874 1.112741 1.077507 1.024459 0.950918 0.810402 1.011345 1.104195 0.881713 1.244925 1.231358 1.215891 1.202237 1.196723 1.148260 1.125579 1.068641 1.092850 1.104653 1.107236 1.119489 0.909597 1.049345 1.099258 1.125096 1.149060 1.165986 1.030685 0.749665 0.662983 0.867295 0.979718 1.044848 1.129844 1.082381 0.958855 0.943561 1.029502 1.048734 0.987643 1.042452 1.059760 1.033132 0.978860 0.988504 1.016934 1.029055 1.066634 1.015786 1.000729 0.989998 1.020273 0.946905 0.917184 1.051769 1.100334 1.114484 1.095610 1.116574 1.100336 1.069547 0.967064 0.781365 0.808185 0.977412
1.114104 1.142238 1.183463 1.197583 1.077298 1.062832 1.094480 1.055952 1.138380 1.204553 1.205437 1.102472 0.992843 0.680012 0.854738 1.186544 1.222476 1.142910 1.048807 1.227654 0.933829 0.834205 1.055224 1.172306 0.934711 1.221284 1.103222 1.069095 1.132593 1.134304 1.172245 1.164412 1.122927 1.105998 1.060631 0.989592 1.195336 1.073010 0.985319 0.996527 1.001278 0.825597 0.998316 1.107484 1.179375 1.172386 1.092179 1.078465 1.039429 1.100362 1.091952 1.096153 0.980966 1.059040 1.058311 1.075311 1.120665 1.018443 1.081587 1.066517 1.082492 1.079589 1.096938 1.100095 1.037059 0.957604 0.851036 1.022488 1.087571 1.053404 1.042063 1.006716 1.004985 1.046760 1.054879 1.034229 1.078580 1.045861 0.957822 0.972353 1.040667 1.162981 1.006211 0.833668 0.766554 0.914971 1.087788 0.984057 1.139048 1.175956 1.150240 1.077283 1.035624 1.074918 1.110619 1.114592 1.050419 1.048178 1.011633 0.891166 0.861139 1.144695 1.180920 1.036540 0.955053 1.001022 1.033864 1.082575 1.109933 1.077881 1.042140 1.009609 0.921985 0.989732 0.917919 1.217353 1.282600 1.163675 1.204958 1.219287 1.206328 1.113725 1.111418 1.216821 1.277061 1.042934 1.120548 1.309186 1.041514 0.592818 1.049474 1.003106 0.836603 0.686369 0.817759 1.155929 1.278804 1.195146 1.144392 1.210682 1.052621 1.046234 1.111961 1.077130 1.113397 1.132765 1.128045 1.100333 1.065517 1.079083 1.219517 1.152573 1.145760 1.254109 1.281663 1.027573 0.804554 0.974968 1.026887 0.886266 1.043517 1.243040 1.285006 1.293208 1.246446 1.223279 1.292597 1.089813 0.910459 1.102760 1.136543 0.973760 0.970505 1.110513 1.120671 1.062374 1.111786 1.173008 1.188072 1.128128 1.084903 1.101083 1.048387 0.962759 1.129217 1.077725 1.111374 1.042371 1.044668 1.084119 1.097320 1.164969 1.197479 1.213707 1.179542 1.169731 1.126680 0.972676 0.810398 1.049494 0.692029 1.092647 1.203518 1.227960 1.209132 1.206962 1.237474 1.284489 0.811103 0.937444 0.953497 0.822745 1.036124 1.311912 1.165265 0.693063 0.600318 0.895187 1.119805 1.124607 1.105731 1.059490 1.032153 0.972088 1.038347 1.015009 0.998060 1.041264 1.009733 0.906928 0.942337 1.036767 1.120706 1.113114 1.103316 1.084760 1.089671 1.056294 1.115129 0.986986 0.892233 1.032415 0.958289 0.874983 0.566066 1.106834 1.254367 0.982726 0.783902 0.678801 0.644556 0.862893 1.069335 1.118687 1.200089 1.154101 1.261040 1.084194 1.289943 1.210304 0.949838 0.903578 1.221488 0.886186 1.191889 1.221712 1.176680 1.253617 1.277159 1.272060 1.275897 1.119235 0.928847 1.294759 1.288215 1.214696 1.142839 1.031512 1.271635 1.203080 0.917751 1.246032 1.124545 0.939693 0.764458 1.004259 0.920267 0.781447 0.850488 0.933110 1.111640 1.015530 1.159258 1.160585 1.079415 0.844675 0.965199 1.127611 1.145514 1.131709 1.092335 1.090176 1.013452 1.082334 1.079476 1.137185 1.133434 1.132356 1.100682 1.044419 1.033314 1.064776 1.085573 1.056983 1.066142 1.126648 1.051840 1.136961 1.176226 1.075796 0.833686 0.651169 0.662708 1.188289 1.143328 1.195544 1.181988 1.010255 0.886181 0.977349 1.040389 1.131028 1.092478 1.084927 1.156839 1.015569 0.898685 1.115617 1.129500 1.062621 1.187472 0.968070 0.680995 0.828989 1.057572 1.086262 1.119853 1.131583 0.979982 0.919240 0.872006 0.973821 1.012398 1.047523 1.039311 1.039236 1.009865 1.000844 1.013028 1.017904 0.985283 1.064805 1.055269 1.071502 1.023868 0.942844 0.954912 1.038503 1.144619 1.141893 1.093974 1.071939 1.018962 0.967801 0.924794 0.746611 0.754727 0.954736 0.976547
1.033985 1.130827 1.180869 1.125506 1.095996 1.076173 1.099498 1.006058 1.062224 1.155432 1.097700 1.132109 1.170509 0.898639 1.124629 1.161539 1.195181 1.175545 0.972741 1.193409 1.018830 1.027686 0.961303 1.205496 0.909567 1.090238 1.142423 1.082327 1.136435 1.144369 1.131730 1.096183 1.070976 1.087486 1.080414 1.003400 1.211538 1.173713 0.992369 0.749774 0.863130 1.009443 1.123470 1.182559 1.179535 1.097771 1.062824 1.092400 1.055357 1.057454 1.088721 1.132377 1.021233 1.027982 1.045352 1.147041 1.151344 1.036282 1.109249 1.107727 1.067221 0.997201 1.031730 1.094333 1.074523 1.000215 0.974137 1.047816 1.047388 1.016406 0.970201 1.016436 1.055824 1.054229 1.067689 0.984888 1.048802 1.025732 0.803608 0.793204 0.960723 1.144986 1.185913 0.972486 0.740613 0.598013 0.791272 0.744552 0.909369 0.980377 0.967304 0.940788 0.994039 1.038973 1.078568 1.075891 1.122146 1.072499 1.058352 1.053596 1.017814 1.170912 1.026658 0.873737 1.000694 1.060706 1.104650 1.076250 1.147389 1.200903 1.173278 1.136619 1.077010 1.031886 0.925824 0.903081 0.857002 0.837846 1.153747 1.252126 1.233448 1.177027 1.090911 1.112763 1.205237 1.168687 0.990359 1.268651 1.140587 1.016052 1.277427 1.053053 0.978368 0.917968 0.766331 1.140115 1.277319 1.229315 1.187971 1.142805 1.104406 1.097044 1.104295 1.101166 1.115445 1.129176 1.128656 1.056206 1.108275 1.081051 1.156501 1.079641 1.113780 1.123206 1.151911 0.943622 1.142506 1.206055 1.231244 1.260137 0.879662 0.840253 0.874253 1.160851 1.253358 1.221339 1.025283 1.151488 1.215092 1.214593 1.274715 1.155974 1.076439 1.094865 1.102954 1.089193 1.161176 1.189627 1.160863 1.102585 1.089808 1.091712 1.119958 0.985182 1.076420 0.934558 0.876110 1.168564 1.135171 1.076041 1.141616 1.195395 1.197428 1.092736 1.058063 0.920411 0.729909 0.991342 1.183616 1.249309 0.714658 0.918563 1.290610 1.281983 1.282046 1.215449 1.205352 1.267774 0.672567 0.661588 0.570607 1.053211 1.041200 1.287793 1.232085 1.089612 1.045488 1.067637 1.152484 1.151458 1.131782 1.116575 1.034060 0.924815 0.980950 0.982052 0.951572 0.992327 0.988337 1.042774 1.121631 1.122079 1.121636 1.085312 1.106536 1.139562 1.134934 1.097421 1.020795 0.845306 1.010138 1.058487 1.095404 1.191532 0.856915 0.867633 0.931073 0.825323 1.172958 1.072796 0.650716 1.213992 1.252712 1.094901 1.289002 1.293593 1.171546 1.040703 1.139703 1.266585 1.269543 1.108464 1.242501 0.740696 1.006000 1.248981 0.972089 0.993148 1.250977 1.229116 1.001108 0.944733 1.126441 1.282288 1.203623 1.137811 1.197605 1.219068 1.192746 0.993902 1.050642 1.310789 1.126353 0.928706 0.850488 0.819021 1.169947 0.663151 0.921531 1.243703 1.280276 1.155485 1.147820 1.246949 1.129245 0.848901 0.822530 1.067321 1.171835 1.166461 1.081407 1.112359 0.981357 0.994645 1.022375 1.078112 0.966057 1.095100 1.075933 1.062359 1.028115 1.075580 1.033717 1.061961 1.079610 1.153463 1.135734 1.062588 0.989832 0.987330 0.843116 0.767964 0.577709 0.646426 0.837762 1.140677 1.119270 0.941780 1.134211 1.083078 1.018416 1.081952 1.147790 1.154276 1.136551 1.059831 0.970145 1.172021 1.187173 0.844076 1.169046 0.668533 0.821923 1.019165 1.045815 1.014140 1.140894 1.141873 0.949008 0.877140 0.784502 0.847773 0.870730 0.893758 0.913379 0.949522 0.994289 1.024613 1.009328 1.022935 0.972379 1.062886 1.025974 0.993144 0.911968 1.015827 0.999363 1.065658 1.123387 1.058036 1.090975 1.118118 1.151188 1.103757 0.931664 0.837598 0.895616 1.081664 1.023893
1.122739 1.185449 1.172335 1.109052 1.113267 1.110129 1.114471 1.021656 1.050233 1.237241 1.136692 1.023222 1.145922 0.963923 1.034918 1.173794 1.228559 1.249298 1.173137 1.238208 1.128251 1.087652 1.098026 1.097230 1.061516 1.045665 1.117001 1.123506 1.150521 1.130928 1.134251 1.088417 1.127559 1.060420 0.984559 0.929425 1.155505 1.190984 0.983006 0.677620 1.010364 1.112756 1.193214 1.184739 1.105088 1.078926 0.991576 1.165905 1.163713 1.012790 1.076844 1.173103 1.089426 0.933144 0.986257 1.211656 1.114177 0.899923 0.951078 0.940384 0.898676 1.007102 1.120031 1.060304 1.092401 1.088996 1.040427 0.969707 0.966019 0.986821 1.033345 1.054915 1.056955 1.055182 1.023311 1.013501 1.025918 0.993084 0.928171 0.873572 0.926786 1.082065 1.202468 1.148885 0.887685 0.701900 0.970933 0.981510 0.941675 0.946719 0.904374 0.950014 0.972149 1.005801 1.123136 0.995844 1.123354 1.112975 1.065715 1.071249 1.121440 1.070390 0.912834 0.903013 1.070717 1.085893 1.182569 1.208299 1.214791 1.222334 1.211764 1.204203 1.173282 1.055493 1.016405 1.202241 1.056106 0.705602 1.027148 1.142174 1.241598 1.259781 1.225365 1.205131 1.228959 1.179181 1.092474 1.024881 0.887615 1.044411 1.244228 1.171629 1.170431 1.049031 1.049601 1.011669 1.186610 1.104309 1.180981 1.004192 1.068561 1.166952 1.075000 1.073589 1.084458 1.127207 1.129871 1.053271 1.100541 1.096220 1.117743 1.149318 1.139664 1.223074 1.021536 0.742847 1.237836 1.252233 1.184406 1.318830 1.250711 0.764654 0.811841 0.795266 0.753594 0.706969 1.170051 1.309913 1.208536 1.112063 1.217364 1.189780 1.120491 1.111918 1.046630 1.093061 1.193179 1.170857 1.147755 1.138502 1.074647 1.123560 1.172082 1.101787 0.929837 0.758221 0.918208 1.179223 1.210960 1.238695 1.240379 1.226178 1.228931 1.233925 1.139037 1.040756 0.998789 1.147208 1.197848 1.298810 1.012755 0.743133 1.171307 1.183652 1.177517 1.095766 1.292176 0.967381 0.725147 1.315453 0.951651 1.175908 1.262021 1.190190 1.145165 1.140216 1.188609 1.082489 1.160928 1.157226 1.092580 1.119315 1.074931 1.015375 1.018893 1.053627 1.080934 1.136613 1.131056 1.125609 1.123063 1.125233 1.110619 1.016903 1.052383 1.100417 1.144459 1.130174 1.040291 0.896845 1.082879 1.100364 1.034361 1.042302 0.848939 0.709104 0.936381 1.216345 1.195588 1.151851 0.749065 1.233380 1.247619 1.255068 1.200887 0.894640 0.860658 1.137362 1.205278 0.684480 1.026667 1.102021 1.093608 0.926160 1.309661 1.301862 1.201753 0.904091 0.689086 0.682240 0.870197 1.260400 1.228739 1.142860 1.089131 1.187662 1.217287 1.027494 1.057437 1.056525 1.093820 1.222847 1.011630 0.899401 0.516207 0.605880 1.095704 1.057182 0.892565 1.290286 1.272913 1.103778 1.155208 1.246902 1.164121 0.936276 0.597234 0.925615 1.045142 1.071785 0.943290 0.947886 0.830996 0.887053 1.002884 1.050093 1.125557 1.114396 1.077815 1.114801 1.115353 1.086905 1.034381 1.047861 1.074323 1.103627 0.967038 0.906163 0.985569 1.093248 1.050970 0.988557 0.922481 0.806635 0.636780 0.816036 0.676490 0.653002 0.997483 1.143661 1.147077 1.186922 1.199779 1.139352 1.105221 1.012017 0.760172 0.879773 0.911897 0.848208 0.804247 0.784068 0.996932 1.116853 1.070018 1.125887 1.141434 1.067697 0.882439 0.804069 0.982228 1.022711 0.971107 0.968307 0.969040 0.940668 0.962753 1.022466 1.018047 1.046444 1.037957 1.048160 1.007504 1.020019 1.071334 1.100005 1.108487 1.120898 1.114199 1.143495 1.153972 1.173370 1.121463 1.061488 0.851030 1.079558 1.143635 1.033827 1.048011
1.133015 1.190165 1.138903 1.083009 1.118013 1.103572 1.062951 0.929775 1.113327 1.234616 1.194625 1.034524 0.959814 0.876729 1.108202 1.180238 1.136496 1.143592 1.148771 1.226432 1.173373 1.106989 1.178185 1.146360 1.044544 1.141760 1.187176 1.182558 1.149955 1.133434 1.161580 0.997387 1.045394 1.210389 1.183951 0.924411 0.921318 1.088306 0.711778 0.916173 1.073432 1.203659 1.189207 1.137256 1.055104 1.020911 0.933563 1.191780 1.197666 0.953341 0.842530 1.154739 1.009558 0.818923 1.013292 1.235344 0.885356 0.766596 0.895397 0.919056 1.122083 1.145568 0.959056 0.934247 1.066525 1.086491 1.081434 1.079243 1.073005 0.974496 1.056855 1.057460 0.996569 0.966247 0.988299 1.117997 1.036964 1.044584 1.095682 1.041880 0.781434 1.012396 1.146282 1.095736 0.820312 0.943271 1.142756 1.090100 1.054688 1.112247 1.137131 1.133531 1.150141 1.142226 1.124787 1.004508 1.085981 1.128209 1.088689 1.060346 1.070556 1.071484 1.081691 1.114977 1.181188 1.188011 1.172347 1.112983 1.099792 1.089036 1.121396 1.203822 1.220746 1.185420 1.186952 1.264923 1.278206 1.145339 1.083576 1.071218 1.094355 1.266128 1.233850 1.190757 1.195052 0.895024 0.654020 0.857786 0.774272 1.282396 1.295531 1.186964 1.063302 1.200415 1.252525 0.910135 0.778133 0.914173 1.012922 1.052707 1.116292 1.104448 1.092213 1.062529 1.085784 1.121778 1.131251 1.087677 1.080419 1.136929 1.098772 1.006484 0.863899 0.797236 0.833015 1.056154 1.147318 1.133983 1.225678 1.321977 1.053095 1.286339 1.335179 1.329144 1.288252 1.109024 0.931242 0.812196 0.783475 1.152461 1.161353 1.123968 1.070324 1.163129 1.121287 1.186711 1.171222 1.141934 1.105105 1.097209 1.110152 1.107369 1.115461 1.026999 0.815524 0.484725 0.967765 1.223643 1.260642 1.241893 1.117051 1.069360 1.172932 1.249408 1.253657 1.073381 0.978724 1.184981 1.234323 1.245083 1.270203 1.074347 0.942089 1.046516 1.107534 1.202054 1.112307 0.712756 0.901851 1.148833 1.042585 0.733552 1.030140 1.058391 1.150592 1.085775 1.074322 1.087573 1.116363 1.110602 1.106244 1.145234 1.064786 1.000949 1.051454 1.103578 1.132285 1.127049 1.127198 1.117020 1.128963 1.095532 1.067498 0.994077 1.029661 1.048539 1.145620 1.149068 1.043736 0.906873 1.010155 1.106002 1.135783 1.003365 1.021678 1.066957 1.049602 1.042917 1.127836 1.041736 0.674864 0.964887 1.131457 1.100422 0.904943 0.845288 0.664111 1.067828 1.068048 1.052071 1.057452 0.920118 0.839177 0.696098 1.018031 1.063336 1.117783 0.900243 0.699491 1.056287 0.956984 1.027173 1.276596 1.116285 1.210554 1.062988 1.038069 1.016210 1.235218 1.252826 1.267370 1.246073 1.239527 1.091436 1.183450 0.869537 0.805646 1.160631 0.990023 1.284005 1.192322 1.014946 1.136301 1.252263 1.102674 0.990146 0.725278 0.950282 0.972963 0.843565 0.873531 1.003436 0.977345 1.076660 1.109714 1.138941 1.027692 1.099215 1.098790 1.074802 1.073981 1.052594 0.985161 0.992155 0.950035 1.002413 0.976300 1.031570 1.106707 1.073189 1.095921 1.053509 0.951154 0.922114 0.987127 1.064723 1.008587 0.641755 0.870006 1.229253 1.219657 1.157790 1.025877 1.004021 0.720606 0.696187 0.870531 0.897365 0.671544 0.992456 0.929690 0.984849 1.065141 1.095390 1.156081 1.150147 1.112432 0.907572 0.885325 0.972049 0.988475 1.031163 1.028132 1.047844 1.034647 1.016081 0.940518 0.990521 0.983563 1.011843 1.056843 1.020544 1.044439 1.039027 1.038029 1.029843 1.006651 1.013314 0.988321 1.001610 1.003194 1.070040 1.094597 0.996533 0.789374 1.013024 1.165195 1.139112 1.093721
1.176448 1.174363 1.140490 1.086735 1.090172 1.122974 1.068265 0.827865 1.082372 1.203843 1.208759 1.104553 1.066160 0.952467 1.147724 1.200325 1.136018 1.130736 0.974004 1.142578 1.209872 1.203983 1.201402 1.194597 1.192365 1.188248 1.181202 1.153868 0.999017 1.080093 1.181613 1.072816 0.887877 0.996597 1.231614 1.194254 0.809298 0.756463 0.857878 1.214301 1.189208 1.200845 1.196944 0.986761 1.016677 0.993407 1.000713 1.213241 1.198658 1.066071 0.658170 0.708135 0.777528 0.738086 1.231563 0.949677 0.643888 0.985016 1.158840 1.168233 1.177036 1.143998 0.938642 1.125434 1.104979 1.032569 1.030782 0.958370 1.007592 1.056347 1.059443 1.008195 0.930106 0.909090 0.959580 1.067190 1.149827 1.112070 1.009665 0.873352 0.581426 1.042988 0.933921 0.988724 0.876326 1.046399 1.165015 1.108412 1.071289 1.086017 1.083259 1.162421 1.128007 1.102026 1.073143 0.980718 1.069393 1.080309 1.110265 1.087764 1.078518 1.106827 1.113725 1.139787 1.107316 1.091528 1.065531 1.043518 1.043295 0.953100 0.884841 1.159989 1.204039 1.217254 1.250087 1.092102 1.010607 1.239629 0.839404 0.838636 1.071453 1.234054 1.188089 1.280095 1.052207 0.864360 0.794941 1.325905 0.930144 0.885001 1.157746 1.288605 1.203393 1.036910 1.152514 1.194854 1.040892 1.033258 1.045951 1.020852 1.038874 1.139617 1.141529 1.045877 1.091293 1.109843 1.122981 1.150262 1.084221 1.106597 1.006694 1.002783 1.079279 1.105839 1.224721 1.256111 1.183420 1.200756 1.147293 0.865231 0.617770 1.243067 1.319478 1.275160 1.209410 1.218498 1.118335 0.707224 1.036834 1.241065 1.103632 1.090678 1.079718 1.102497 1.166151 1.195238 1.146282 1.121855 1.100913 1.101859 1.117152 1.131258 1.068052 0.808940 0.760949 0.865986 0.630328 0.941475 1.168051 0.991589 0.991364 0.950938 1.080801 1.018692 1.211389 1.159916 1.167734 1.274763 1.207446 1.212387 1.257665 1.104571 0.989762 1.168285 1.196205 1.095373 0.799594 1.045866 1.168039 1.235378 1.120640 0.940198 1.172405 0.884464 1.171693 1.203155 1.081335 1.066272 1.104431 1.086798 1.070648 1.117302 1.024506 1.036440 1.138714 1.129761 1.131522 1.086709 1.029278 1.079923 1.087982 1.088533 1.026973 0.981696 1.014865 1.047954 1.118805 1.146945 1.109556 0.996996 1.105027 1.148410 1.137205 1.047900 1.046153 1.137351 1.177819 1.108467 1.145205 1.058656 0.768055 0.899111 0.819311 0.925722 0.963292 1.131776 1.096395 0.673234 0.777310 1.295136 1.295106 1.257995 1.099043 0.765167 0.748015 1.155916 0.774347 1.010175 1.224588 1.265135 0.936223 0.993451 1.186433 1.043626 1.058496 1.143331 1.152436 1.210808 1.209509 1.193427 1.172083 1.246951 1.261842 1.190696 1.058674 0.818486 0.804681 1.175716 1.210196 1.280515 1.118545 0.958481 1.259836 1.196797 1.022512 0.789946 0.954665 1.128877 1.204619 1.149607 1.121412 1.125614 1.133045 1.147479 1.143181 1.114291 0.850480 0.924130 1.029893 1.066160 1.060506 1.070399 1.089891 1.076997 1.047234 1.093686 1.067337 1.045639 1.071962 1.086335 1.061883 0.971070 0.954423 0.948472 0.920120 1.084269 1.117187 0.774482 0.783474 1.005127 1.020365 0.806198 0.738751 0.696289 0.995352 1.100438 1.073008 1.154457 0.939260 1.031813 1.092971 1.108304 1.147167 1.162276 1.159256 1.065006 0.921642 0.900511 1.055296 1.026462 0.981368 1.038836 1.028238 0.961903 1.076674 1.089126 0.984066 0.980588 0.959982 1.004319 1.057369 1.013686 1.031216 0.988777 0.948133 1.000754 0.974599 1.010860 1.057986 1.080478 1.093236 0.998284 0.958545 0.835339 0.859360 1.069179 0.961127 1.022855 1.102278
1.158649 1.160790 1.086375 1.091293 1.084190 1.124480 1.124771 0.897094 1.045636 1.169191 1.202933 1.158333 1.140000 1.106604 1.110873 1.217794 1.085918 1.094009 0.987863 1.151412 1.216596 1.128654 0.956702 1.113684 1.193933 1.126041 1.098705 1.104369 0.885509 1.066843 1.184483 1.155718 0.991108 0.817772 1.023510 1.252227 1.089865 0.555899 0.951040 1.019897 1.176320 1.201361 1.151549 0.980989 1.033685 0.944612 1.088551 1.225412 1.052829 1.241893 1.184560 0.950055 0.679137 0.483066 0.877267 0.747264 1.102190 1.238811 1.220798 1.206800 1.197224 0.965480 0.991808 1.013890 0.957186 0.876668 0.935627 0.976750 1.062495 1.056489 0.979170 0.950024 1.024017 1.081906 1.080938 1.051456 1.008236 1.123262 1.142821 1.016387 0.809484 1.059127 0.906100 0.746090 0.964932 1.093546 1.095140 1.116181 1.116997 1.076475 1.131587 1.169795 1.013053 1.104605 1.037544 0.947489 1.028382 1.038261 1.083610 1.105020 1.033064 1.055855 1.044636 1.041777 1.029374 1.009457 1.017870 1.014820 1.061338 0.942372 0.802543 0.931044 1.132662 1.241741 1.263236 1.184328 1.094864 1.259275 0.901756 0.628996 0.947640 1.176675 1.218001 1.285758 0.893464 0.619576 1.092594 1.191886 1.207450 1.257060 0.934016 1.078905 1.229878 1.164573 1.196438 1.105780 1.100971 1.053060 1.047004 1.007322 1.008896 1.129422 1.067126 1.024289 1.119039 1.089786 1.119560 1.158346 1.058487 1.069834 1.143911 1.224629 1.153597 1.143089 1.165056 1.121043 1.183519 1.209802 1.108734 1.056599 0.635569 0.566622 1.030785 1.311829 1.255727 1.242063 1.207437 0.935251 0.790576 1.028657 1.114356 1.068580 1.091332 1.146990 1.196350 1.197593 1.161762 1.133889 1.181576 1.241531 1.198752 1.180092 1.193210 0.877899 0.908587 1.281772 0.984930 0.714586 0.719255 0.606281 0.656649 0.699778 1.002021 1.117524 1.262263 1.222718 1.241350 1.074946 1.100297 1.191470 1.157074 0.973736 1.079600 1.278297 0.980351 1.194534 1.183600 1.016459 1.019586 1.108654 1.218503 1.001613 1.056764 0.976315 1.014261 1.127312 1.178936 1.128788 1.084627 1.086524 1.044770 1.087732 1.070890 1.136671 1.130595 1.106500 1.076145 1.059672 1.063144 1.096935 1.058480 1.064585 0.997669 0.946543 1.033121 1.032712 1.106857 1.150312 1.156080 1.056715 1.064895 1.089723 1.076044 1.047269 1.093068 1.091038 1.130403 1.180041 1.223895 1.072082 1.065088 1.294918 1.295051 1.207034 1.011112 0.954896 0.804042 0.665954 0.796691 1.306178 1.267156 1.098677 1.209994 0.939803 1.000744 1.291605 0.986392 1.234042 1.274459 1.041872 0.876139 1.139330 1.250042 1.111511 1.167531 1.197041 1.112219 1.143997 1.189795 1.092844 1.039797 1.101342 1.172701 1.271290 0.976398 0.700949 1.116960 1.002889 1.223430 1.271495 0.973092 1.227269 1.229129 1.117864 1.043214 0.792981 1.253484 1.220219 1.163050 1.076970 1.094831 1.158605 1.146714 1.144541 0.991726 0.920487 1.034409 1.084346 1.092362 1.074467 1.047343 1.050584 1.064068 1.100487 1.097311 1.060908 1.074476 1.068689 1.066007 1.103175 1.074735 0.993663 1.046245 1.042027 0.961475 0.916733 0.979486 0.934099 0.982986 0.764801 0.677141 0.711436 0.641263 0.838380 1.041600 1.073261 1.066780 1.168765 1.177338 1.185450 1.177004 1.170343 1.168873 1.128013 1.076953 0.939750 0.963784 1.042232 1.087976 1.094013 1.051425 1.063993 1.087399 0.986198 0.999463 1.039105 1.049631 1.000369 0.985853 1.008915 1.056039 1.002034 1.040626 1.039386 1.048909 1.077635 1.074299 1.066741 1.024476 0.990691 0.971911 0.855594 0.870310 0.948564 0.828786 1.129797 1.087301 1.051275 0.972672
1.149098 1.143233 1.104552 1.100495 1.136295 1.071951 1.124511 0.881456 1.030286 1.161966 1.174719 1.197825 1.182001 1.185913 0.992113 1.043953 0.956239 1.095257 1.122643 1.168784 1.228768 1.090808 0.860907 1.122660 1.201282 1.034882 1.039825 0.972036 0.897599 1.077248 1.189284 1.134328 1.183255 1.141040 0.851508 0.894742 1.079238 0.707648 1.071986 1.170943 1.184379 1.206738 1.098778 1.005418 0.993364 0.925502 1.104871 1.238862 0.911143 1.074434 1.211379 1.149540 1.117725 0.691941 0.558650 1.100749 1.234764 1.163385 1.168388 0.962995 1.039636 0.709968 0.893901 0.811790 0.846238 1.000146 1.021269 1.058982 1.056913 0.978073 0.904617 1.017746 1.075140 1.063878 1.081083 1.129534 0.979717 0.865564 0.911929 0.886707 0.901991 1.011340 0.758038 0.611843 1.157694 1.205604 1.147804 1.135800 1.103955 1.072153 1.171975 1.144953 0.951004 1.032788 1.007397 1.020171 1.084908 1.028217 1.061841 1.101867 1.095670 1.085982 1.064648 1.074644 1.042375 1.083333 1.008860 1.039566 1.066267 1.070317 1.075597 0.871812 0.820410 0.959702 1.101522 1.172509 1.129616 1.099360 1.094204 1.126324 0.685674 1.081057 1.292982 1.307484 1.314598 0.963649 1.284191 1.294765 1.180496 1.238511 1.243042 0.892477 0.916357 1.107059 1.197462 1.087169 1.071181 1.109863 1.153736 1.129833 1.081459 1.053821 1.048787 1.110301 1.154059 1.072318 1.135620 1.150591 1.058699 1.038001 1.041258 1.205218 1.213548 1.131596 1.167896 1.195714 1.255553 1.219681 1.289871 1.225667 0.857653 0.609304 0.715972 1.054574 1.207543 1.245170 1.259942 1.188765 1.150532 1.124887 1.131265 1.064950 1.119345 1.201605 1.173061 1.186813 1.083238 1.036027 1.093896 1.246366 1.079772 0.976355 0.936705 0.621183 1.048840 1.327150 1.277191 1.259665 1.172055 1.096117 1.063430 0.974383 1.187803 1.241246 1.175716 1.243218 1.146413 0.786101 1.085477 1.228660 1.074772 0.922246 1.070649 0.858779 0.919798 1.119815 1.220423 1.084706 1.005203 1.260540 1.295892 1.164020 0.973397 0.991809 1.046456 1.092729 1.104406 1.090629 1.105503 1.044069 1.063801 1.118962 1.135010 1.134085 1.121179 1.054976 1.055713 1.042781 1.075861 1.090336 1.100556 1.031979 0.911993 0.935194 1.047082 1.078326 1.068717 1.045506 1.148712 1.098056 1.154341 1.193566 1.202155 1.131332 1.133524 1.111055 1.069489 1.043415 1.070124 1.083296 1.117452 1.179149 1.001741 0.978078 1.029906 1.131006 1.155084 1.028295 0.728172 1.298583 1.267713 0.946800 0.772900 0.764439 0.863110 1.273542 0.903024 1.211556 1.138485 0.990204 1.078148 1.221582 1.171745 1.198147 1.216184 1.201751 1.103842 1.080660 1.149680 1.109455 1.149242 1.148530 1.124512 1.239383 1.163745 0.782714 1.188758 1.188345 1.259921 1.191431 0.957659 1.272207 1.156133 1.092980 1.022551 0.728665 1.060949 1.036620 1.066558 1.097453 1.082963 1.153584 1.124991 1.023295 0.898060 1.111688 1.139693 1.062267 1.100450 1.105133 1.072228 1.071476 1.057364 1.053381 1.062870 1.068358 1.101410 1.091883 1.030885 1.045391 1.007184 1.020137 1.085066 1.082085 1.058289 1.070205 1.090536 1.006531 0.868231 0.842543 0.964781 1.059852 0.966149 1.007586 0.867144 0.768169 0.933416 1.066417 1.120799 1.164391 1.174177 1.135672 1.066576 1.039954 0.906087 0.993090 1.055700 1.077028 1.055686 1.076832 1.040988 1.012476 1.060187 1.051483 1.001983 0.991823 1.050595 1.019158 1.015823 1.010892 1.043180 1.014668 1.033695 1.006525 0.981289 0.999433 1.022722 1.025471 1.046803 1.068183 1.034266 0.842973 1.035094 1.053061 0.839780 1.071984 1.071734 1.116506 1.080328
1.164229 1.148870 1.104817 1.137260 1.107578 1.031628 1.032591 0.983534 1.137050 1.202219 1.168457 1.208633 1.228704 1.217651 1.139349 0.959383 0.909618 1.186024 1.126638 1.096680 1.243515 1.066340 0.835908 1.169641 1.210659 1.118021 0.995371 0.784679 0.929216 1.158871 1.195701 1.070378 1.061848 1.154916 1.129836 0.884427 0.689915 0.889210 1.188477 1.131313 1.158313 1.209998 1.089053 1.062290 1.058442 0.905638 1.110344 1.250084 0.942004 0.792582 0.827018 1.264540 1.180477 0.830508 1.148298 1.064917 0.926660 0.948276 0.831852 0.748555 0.936083 1.208594 1.185919 1.164750 0.991068 0.968911 1.087421 1.064895 1.027657 0.967203 1.053009 1.077673 1.070538 1.022775 0.867698 1.044949 1.026905 0.847105 0.962179 0.863736 0.935075 0.978427 0.698433 0.621113 0.949902 1.163513 1.140593 1.028679 1.017884 1.100042 1.188123 1.119736 0.939806 0.918559 1.038315 1.019072 1.052785 1.104436 1.078090 1.057168 1.100386 1.113047 1.069814 1.067418 1.045664 1.068865 1.039078 1.082665 1.114812 1.152975 1.055251 1.048617 1.173517 1.072599 0.889408 1.122990 1.272195 1.121547 0.979344 0.978327 0.748084 0.924122 1.081153 1.191401 1.025184 0.621412 0.998185 1.310606 1.270946 1.223431 1.243154 1.208643 1.129020 1.067949 1.127610 1.098156 1.147856 1.229107 1.222458 1.219351 1.214060 1.154109 1.083778 1.145915 1.135448 1.069478 1.160620 1.127189 1.092980 1.068540 0.861121 1.171146 1.259799 1.232862 1.183029 1.228707 1.225509 1.239375 1.234199 1.332700 0.748167 1.190459 0.970075 1.141334 0.976105 1.133880 1.064593 1.088971 1.269170 1.212222 1.073276 1.074996 1.160961 1.200591 1.143255 1.145391 1.023112 1.068197 0.831990 1.030585 1.123953 0.706623 0.837017 0.954555 1.203719 1.152243 1.129691 1.131021 1.146798 1.142120 1.227888 1.139771 1.238505 1.197428 1.229897 1.295055 1.040068 0.709339 1.072260 1.320649 0.602069 0.675899 0.721526 0.767001 1.085226 1.219790 1.258432 1.302729 1.150768 1.027258 1.225570 1.268064 1.076964 1.070600 1.010348 1.117885 1.058107 1.043530 1.063740 1.078665 1.114465 1.134263 1.107615 1.090819 1.028483 1.022119 1.086471 1.060033 1.095587 1.089598 1.113118 0.939743 0.852537 0.969099 1.049668 1.092635 0.990905 1.040024 1.147708 1.071528 0.987246 1.060663 1.202789 1.201359 1.204512 1.213286 1.156333 1.098113 1.100469 1.047994 1.042391 1.075626 0.996098 1.174329 1.143374 1.173815 1.170163 1.074296 0.765796 1.251165 1.239986 0.817491 0.910240 1.100360 1.103482 1.260269 0.966548 1.128281 1.058618 1.075891 1.161963 1.158122 1.115408 1.145154 1.200639 1.135280 1.146385 1.138047 1.208451 1.207574 1.190232 1.136188 1.104390 1.218742 1.087754 0.621937 1.189786 1.259894 1.242768 1.106562 1.014529 1.273687 1.163840 1.036897 0.867079 1.096775 1.095721 1.010019 1.067548 1.081221 1.147680 1.154382 1.050954 0.911163 1.004748 1.148390 1.020421 0.995553 1.069579 1.046443 1.046865 1.049277 1.070951 1.064899 1.051931 1.047615 1.054313 1.068361 1.057706 1.027428 1.055207 1.093295 1.088450 1.050500 1.076821 1.154223 1.122418 1.058074 1.005259 0.906697 0.956708 1.051705 1.124614 1.018290 1.149793 1.058382 0.961295 0.888954 0.824120 0.918897 0.899610 0.818398 0.800893 0.981081 1.090116 1.120782 1.059063 1.038388 1.058246 1.060594 1.047193 1.026930 1.038207 1.062416 1.050298 0.982650 1.017228 1.017897 1.030508 1.049815 1.043959 1.028864 1.027502 1.007960 1.019733 1.063298 1.055484 1.049928 1.015907 0.936525 0.877613 0.720196 0.953764 1.119946 0.884330 1.014661 1.038194 0.924852 1.057422
1.155088 1.134485 1.086856 1.097345 1.052112 1.059731 0.903851 0.871619 1.044592 1.172041 1.148422 1.174654 1.195895 1.160297 1.158597 1.064539 0.554163 1.205485 1.153240 0.973087 1.258118 1.087038 0.947856 1.227490 1.219546 1.088925 1.026232 0.773136 1.085482 1.151042 1.200717 1.094141 1.046898 1.086622 0.943948 1.114659 0.716183 0.807810 1.033020 1.115284 1.181864 1.211947 1.119160 1.084834 1.047107 0.829992 1.164640 1.253634 0.974639 1.000420 0.758065 1.191599 0.987334 0.698646 1.036510 0.826905 0.455499 0.577832 0.831415 0.726428 0.794994 0.984680 1.111088 1.159400 1.133008 1.090429 1.057204 1.027202 1.056989 1.064598 1.079340 1.059271 1.083408 1.129039 1.074389 0.752077 0.794540 0.915091 1.021004 1.075184 1.121701 1.041253 0.877966 0.844311 0.903635 0.934024 0.972932 1.023561 1.066918 1.163703 1.196807 1.029615 0.855013 1.015209 1.106646 1.064384 1.142866 1.088269 1.075522 1.057688 1.084303 1.067017 1.118498 1.077759 1.050849 1.046741 1.037991 1.060485 1.092015 1.074819 1.091681 1.189768 1.159799 1.026553 0.798800 0.698358 0.906988 0.824256 0.800217 0.988654 1.201418 1.292102 0.987967 0.723922 1.064278 1.020403 0.622552 0.691938 1.005685 1.137084 1.199800 1.201588 1.101376 1.140743 1.186244 1.234542 1.230868 1.206719 1.160733 1.146083 1.163491 1.044453 1.047653 1.125653 1.138468 1.084852 1.162106 1.106536 1.033778 1.006084 0.834735 0.968613 1.159399 1.262306 1.228294 1.212371 1.171401 1.181775 1.098734 1.175640 1.033040 1.282506 1.255076 1.316930 1.226692 1.142978 1.247879 1.191295 1.035453 1.138023 1.119456 1.154036 1.203732 1.179139 1.170871 1.087543 1.114014 1.139840 0.979162 0.573490 0.819853 1.015354 1.222168 1.273226 1.134300 1.082766 1.140929 1.200727 1.169395 1.211736 1.193046 1.253649 1.153521 1.129539 1.259718 1.027951 0.797079 0.518736 1.017538 1.196387 0.806537 1.170718 1.116501 1.206438 1.260011 1.296585 1.190696 1.144486 1.197410 1.092013 1.097505 1.166196 1.118224 1.214859 1.155229 1.083033 1.071927 1.070264 1.043849 1.100021 1.137218 1.128192 1.086774 1.069699 1.097998 0.925177 0.990903 1.085060 1.102078 1.056105 1.099117 0.905579 0.905135 0.957488 1.046509 1.107296 1.091059 1.098878 1.148813 1.070499 1.029289 0.936838 0.993729 1.087774 1.205094 1.211262 1.211592 1.216205 1.188279 1.113311 1.102831 1.136544 1.204531 1.215341 1.185539 1.245468 1.259478 1.141763 0.801221 1.184232 1.206885 1.208456 1.218690 1.040712 1.142648 1.231057 1.100334 1.092970 1.094343 1.125717 1.168987 1.179839 1.188963 1.080659 1.094272 1.113457 1.136998 1.197667 1.188540 1.128205 1.186331 1.243121 1.016651 1.149290 1.216973 0.820753 1.199776 1.270476 1.291508 1.112992 1.102004 1.072520 1.011932 0.747890 0.872081 1.139034 1.106485 1.026219 1.069505 1.139746 1.158049 1.106720 0.953727 0.902486 1.154398 1.098278 0.941970 1.039620 1.053656 1.060532 1.053371 1.028012 1.027926 1.042037 1.056499 1.045520 1.042454 1.052163 1.054253 1.082210 1.066992 1.040620 1.057181 1.022304 1.058758 1.095073 0.992569 1.029541 1.047860 0.973018 0.975296 0.865456 1.021441 1.004485 1.094658 1.155225 1.046579 0.999888 1.007697 1.097293 1.013201 0.831054 0.822691 0.964376 1.022187 1.058819 1.068292 1.052604 1.044817 1.044289 1.013079 1.019390 0.989425 1.020957 1.046510 1.031494 1.015262 1.019524 1.048625 1.010815 1.023958 1.026364 1.037870 1.030063 1.043678 0.963242 0.951953 0.918076 0.928198 0.935468 0.885824 0.793714 0.903905 1.145983 1.052601 0.993119 1.066137 1.020211 1.076314
1.167948 1.109486 1.116114 1.141626 1.108162 1.138973 1.107083 1.050321 0.835057 1.059681 1.230426 1.203715 1.173483 1.111739 1.172528 1.212164 0.623454 1.249959 1.228590 0.992547 1.270506 1.011513 0.956777 1.229520 1.191507 1.059152 0.882747 0.706162 1.076001 1.083979 1.207162 1.083587 1.028988 1.084090 0.824129 0.744619 0.721937 0.817463 1.040488 1.108700 1.172436 1.215610 1.157802 1.085598 1.016720 0.782703 1.174211 1.265633 1.083497 1.048261 0.884460 0.684319 0.540434 0.629579 0.853069 0.875956 0.825835 0.699376 1.027277 1.103221 0.986121 0.942587 0.910584 0.973125 1.040070 1.050944 1.046993 1.017059 1.059242 1.067405 1.056147 1.056435 1.010450 0.929836 1.124307 0.683927 0.781267 0.930820 1.049951 1.091164 1.161376 1.075795 0.958565 1.052675 1.068807 1.130281 1.131543 1.121902 1.130258 1.203251 1.193305 0.943989 0.869573 1.088870 1.146875 1.066107 1.046989 1.064708 1.083981 1.079392 1.088451 1.055652 1.083548 1.122659 1.079992 1.074839 1.055361 1.118046 1.075545 1.019059 1.129790 1.141486 1.095688 1.004525 0.888231 1.051968 1.079704 1.100616 1.137236 1.177854 1.298581 1.290292 0.955160 1.066931 1.288044 1.108551 1.073118 0.852114 1.206158 0.970605 0.886991 0.989471 1.151545 1.201099 1.235686 1.223455 1.147596 1.164391 1.151815 1.095055 0.998989 0.929282 0.993201 1.104501 1.148597 1.109537 1.144846 1.073664 1.085160 1.050077 0.903536 0.741352 0.918848 1.130580 1.081355 1.057329 0.902217 0.899260 0.827849 0.725903 1.286658 1.173413 1.159496 1.315503 1.201450 1.132606 1.112837 1.085664 1.057216 1.093164 1.101741 1.175533 1.203339 1.207918 1.114945 1.141068 1.216709 1.150507 0.892448 0.664334 0.453735 0.776446 1.232186 1.306813 1.164240 1.102439 1.139060 1.209692 1.180820 1.173352 1.160708 1.184102 1.118040 1.140911 1.291658 1.117711 0.725043 0.659973 1.041949 0.992834 0.716729 1.243477 1.154493 1.156359 1.179865 1.169102 1.063865 1.077727 1.124519 0.980220 1.064654 1.140060 1.106287 1.149553 1.150398 1.124665 1.093318 1.078254 1.107407 1.140974 1.137354 1.120305 1.083525 1.074721 1.106627 1.148197 1.002473 1.048591 1.114887 0.888412 0.900939 0.854057 0.999525 1.021682 1.073507 1.088731 1.100807 1.141970 1.152447 1.079514 1.081919 0.978572 0.920753 0.928270 1.034088 1.137635 1.162128 1.222581 1.217587 1.225229 1.127544 1.154845 1.132480 1.141915 1.109758 1.056872 0.950701 0.693866 0.757511 1.280849 1.264176 1.252547 1.245737 1.199261 1.230160 1.143725 1.000424 1.095048 1.183544 1.115839 1.120206 1.167020 1.180054 1.164005 1.106090 1.107615 1.102347 1.103031 1.112218 1.101881 1.161174 1.237137 1.029285 0.933282 0.997112 0.790059 0.837162 1.004171 1.093390 0.920156 1.085886 1.090951 1.166344 0.599897 0.991355 1.106401 1.119949 1.082963 1.108941 1.163190 1.163418 1.020553 0.851790 1.163907 1.157075 1.034710 0.932814 1.082826 1.030753 1.076983 1.063955 1.048571 1.048040 0.969882 1.032821 1.058301 1.031896 1.040272 1.051421 1.058427 1.048378 1.065705 1.070834 1.056025 1.090939 1.029024 1.034307 1.096053 0.972970 1.036448 1.024309 1.055712 0.939017 1.068672 1.084184 1.114319 1.101650 1.091342 1.032786 1.049823 1.054368 1.051071 0.955934 0.974902 1.009253 1.028340 1.090587 1.064320 1.041807 1.055423 1.067330 1.043601 1.030149 1.023909 1.015232 1.028279 1.003786 1.041663 1.024153 0.980788 0.990489 0.989105 0.950609 0.923672 0.968151 0.965210 1.018269 0.999497 1.049802 0.983287 1.037095 1.010678 0.842996 0.933913 1.060737 1.057172 1.074213 1.072735 1.016981
1.176829 1.077245 1.087594 1.115947 1.134875 1.138601 1.070003 1.123282 0.996296 1.044083 1.275580 1.119326 0.880157 0.824583 0.696325 0.750234 0.514473 1.206482 1.253444 1.008554 1.282870 0.984805 1.071252 1.234273 1.168592 1.008845 0.845538 0.651806 1.032082 1.094353 1.210010 1.137994 1.109841 1.094955 1.015645 0.829730 0.587226 0.909182 1.104978 1.138779 1.218036 1.177386 1.131243 1.129963 1.067081 0.810921 1.160428 1.254662 0.982545 0.943391 0.665108 0.533371 1.059054 1.140221 1.052725 1.114377 1.122951 0.706414 0.970119 1.038568 1.042201 1.025418 1.064349 1.058077 1.025372 1.022929 1.029315 1.008942 1.059142 0.990739 0.883965 0.919512 0.959744 0.794765 0.796715 0.906192 1.016087 1.049735 1.071069 1.121311 1.176981 1.103541 1.130166 1.069665 0.903284 1.150227 1.126768 1.117257 1.169294 1.188165 1.109510 0.900550 1.077819 1.153427 1.136056 1.094024 0.983615 1.063179 1.073001 1.100812 1.088769 1.043663 1.101202 1.108126 1.128277 1.099652 1.082589 1.093858 1.079572 1.080622 1.168912 1.101741 1.045384 0.999051 0.921480 1.135582 1.175203 1.205394 1.270532 1.219023 1.274656 1.235485 0.663420 1.165609 1.270077 1.153397 1.145214 0.982922 1.144952 1.163092 1.063170 1.061243 1.245321 1.243215 1.174836 1.183748 1.128590 1.128670 1.003450 0.840049 0.984265 1.050855 1.072254 1.098597 1.151537 1.131504 1.116060 1.048130 1.081239 1.003542 0.930893 0.796566 0.640348 0.985034 1.207852 1.066634 0.840119 0.906228 1.019305 0.512030 1.048774 0.769275 1.069389 1.321068 1.307247 1.283879 1.192363 1.099932 0.999568 0.939392 1.064073 1.191620 1.205960 1.215666 1.009772 0.931477 0.974334 1.025137 1.012676 1.125435 0.791946 0.596787 1.216741 1.249713 1.055354 1.206222 1.320467 1.269108 1.226404 1.205599 1.216336 1.219024 1.168993 1.137334 1.152070 1.259722 1.091631 1.010843 1.205243 1.122021 0.775303 1.179505 1.186136 1.129956 1.165129 1.129050 1.098658 1.114059 1.145547 1.111264 1.120836 1.132549 0.933569 0.949251 1.018356 1.071998 1.105617 1.098151 1.129596 1.138374 1.130066 1.068075 1.090580 1.050040 1.084900 1.156616 1.126586 0.994537 1.170118 0.862301 0.636314 0.957754 1.044876 1.031158 1.069344 1.090681 1.064332 1.152098 1.158393 1.125886 1.092727 0.976061 0.998314 0.945811 0.827863 1.061410 1.036000 1.038134 1.201448 1.224020 1.225843 1.160444 1.113151 1.024077 1.005301 0.777556 0.906532 0.821162 0.742103 1.106071 1.126697 1.230702 1.142572 1.202386 1.205803 1.119984 1.020664 1.142343 1.206189 1.068385 1.069558 1.128084 1.069308 1.062801 1.165324 1.041887 1.088928 1.113806 1.188528 1.193618 1.181656 1.144325 0.952732 1.117513 1.274461 1.128775 0.638047 0.942976 1.082419 1.038131 1.262597 1.169765 0.986318 0.675804 1.075097 1.103290 1.097342 1.081523 1.170673 1.164679 1.090967 0.870679 0.989746 1.161504 1.097089 0.978791 0.914932 1.029760 1.072171 1.092159 1.055561 0.971336 0.921093 1.056137 1.097975 1.093224 1.074320 1.045073 1.043391 1.060276 1.052910 1.023979 1.097910 1.097277 1.041920 1.017366 1.061169 1.036202 0.948327 1.094750 0.949051 1.122682 0.894751 1.043641 1.058041 1.078714 1.068767 1.086182 1.057863 1.072889 1.105373 1.032659 0.925093 0.951857 0.988252 1.034611 1.074347 1.105029 1.044349 1.000096 1.008170 1.010008 1.025572 0.997960 1.015920 1.020043 1.044415 1.035253 0.986095 0.969118 0.973455 0.973049 0.964384 0.977556 0.995283 1.029191 1.028515 1.007333 1.050031 0.996463 1.062298 1.019118 0.978384 0.937687 1.009616 1.069851 1.052607 1.002206 1.010216
1.165493 1.107354 1.077133 1.059052 1.132393 1.155243 1.035837 0.920929 0.839712 1.061976 1.215308 0.921502 1.041098 1.054810 0.961204 0.870407 0.541410 0.728415 0.733346 0.868611 1.295251 1.013855 1.138630 1.241028 1.239259 1.096452 0.806029 0.798802 1.158895 1.205626 1.213044 1.120578 1.146922 1.112373 1.037019 0.855001 0.752547 1.117049 1.120960 1.144258 1.227484 1.128292 1.067596 1.204514 1.098687 0.939919 1.141933 1.285371 0.800947 0.766753 0.568256 0.991547 1.194243 1.216229 1.184952 0.980013 1.226274 0.978710 0.932098 1.034333 1.046825 1.009883 0.935349 1.000227 1.030817 1.019468 0.999823 1.022213 1.059611 1.032057 1.017622 1.067790 0.944620 0.712768 0.898390 0.991795 1.048607 1.078250 1.097540 1.163608 1.166289 1.149506 1.089950 0.967762 0.868412 0.838531 0.986467 1.124003 1.220835 1.162262 0.973994 0.912265 1.099764 1.107967 1.159121 1.146937 1.000791 1.025681 1.079633 1.091248 1.123624 1.016847 1.074405 1.109430 1.120699 1.133742 1.116268 1.090071 1.078557 1.117633 1.063370 1.061461 1.097717 0.967265 1.023906 1.172951 1.240049 1.225214 1.115353 1.000747 1.041372 0.892128 0.601817 1.125993 1.239190 1.180940 1.203469 1.145360 1.167868 1.090359 1.143619 1.238855 1.246659 1.212068 1.145897 1.143411 1.042961 0.973910 0.800051 1.078597 1.170080 1.142702 1.094618 1.085546 1.147132 1.146629 1.130887 1.064424 1.111144 1.146004 1.111197 1.074616 1.042652 1.290435 1.294112 1.279584 1.274520 1.167322 0.963961 0.467477 1.045614 1.122677 0.702770 1.028247 1.219517 0.929554 1.090003 1.231147 1.113055 1.013566 1.181684 1.166656 1.209977 1.170902 1.146244 1.211835 1.232762 1.305895 1.269068 1.150744 0.889884 0.610718 1.177661 1.093048 1.010666 1.237348 1.189569 1.232772 1.129107 1.147530 1.196539 1.192418 1.281968 1.185750 1.165428 1.222118 1.302704 1.322304 1.225783 1.152360 0.523054 0.928971 1.136069 1.157550 1.203774 1.250093 1.217801 1.152253 1.094967 1.070680 1.151587 1.146174 1.090383 0.916699 1.020646 1.046329 1.080280 1.110755 1.144830 1.142847 1.072693 1.030695 1.037979 1.035824 1.034239 1.060383 1.054074 0.962034 1.164835 0.813952 0.824657 1.091617 1.103743 1.064588 1.041683 1.057522 1.067225 1.156200 1.082499 1.075553 1.072572 1.093279 1.045302 0.996727 0.885609 0.987176 0.903840 1.018266 1.141016 1.152565 1.224969 1.232949 1.110200 1.030615 1.068376 1.171424 1.170662 1.064654 1.121125 1.209394 0.736548 0.951070 0.757758 0.929270 1.147547 1.197848 1.199491 1.199742 1.156504 1.119696 1.078017 1.191500 1.096658 1.104405 1.205075 1.232872 1.054385 0.900009 1.018575 1.106395 0.895798 0.878708 1.091980 1.258662 1.252610 1.151019 0.823548 1.288921 1.275081 1.188336 1.177089 0.979147 1.024325 0.738323 1.095990 1.106883 1.135455 1.176126 1.167038 1.114336 1.033815 0.927544 1.169335 1.164875 1.075899 0.933813 0.948063 1.072005 1.119091 1.096336 0.966488 0.929736 1.134423 1.130760 1.004910 1.026149 1.063944 1.029465 1.025657 1.034546 1.054671 0.949670 0.979821 1.091793 1.074469 1.056465 1.051995 0.970777 1.055657 1.101743 1.015539 1.073615 1.002391 1.036326 1.014250 1.096704 1.040982 1.054372 1.060463 1.072138 1.108812 1.036794 0.922088 0.958333 0.927489 0.988246 1.033957 1.044667 1.067936 1.091187 1.028869 1.019440 1.007462 0.994029 1.000925 1.026574 1.025538 1.000932 0.936506 0.928105 0.927361 0.981461 1.012898 1.029800 1.047930 1.053724 1.054371 1.057478 1.056083 1.029444 1.038081 1.014971 0.976072 0.964257 1.065646 1.063734 1.006561 1.016888 1.043057
1.153196 1.102304 1.121015 1.069491 1.131597 1.092829 1.153317 0.959967 0.895223 1.077027 0.908211 0.978363 1.258606 1.248285 1.082563 1.009168 0.786440 0.895112 0.867008 0.584251 1.041353 1.025031 1.112995 1.254807 1.248115 1.060450 0.707588 1.070932 1.150997 1.168634 1.219427 1.108109 1.107760 1.087806 0.986853 0.847564 0.892063 1.153533 1.116326 1.203306 1.219083 1.101212 1.006739 1.225435 1.102089 0.968749 0.920577 1.282748 0.797610 0.505305 0.871142 0.942374 1.206112 1.205986 1.218889 0.972998 1.205591 1.220802 1.061007 1.016809 1.040075 1.060854 1.099227 1.086617 1.055425 1.026136 1.003681 1.042058 1.061149 1.025305 0.990131 0.895324 0.718080 0.807920 0.957551 1.004586 1.099158 1.153789 1.177905 1.161695 1.162130 1.146746 1.154899 1.196335 1.150838 0.903892 0.930266 1.109338 1.224540 1.178895 0.855713 0.855943 1.081118 1.154734 1.177522 1.088686 0.908523 1.036329 1.106258 1.108958 1.142246 1.070310 1.025971 1.080154 1.102579 1.126578 1.130365 1.141333 1.099176 1.101463 1.091826 1.116880 1.071581 0.998215 1.163706 1.238738 1.245289 1.254076 1.264831 1.276318 1.293049 1.142130 0.964972 1.249900 1.230277 1.152768 1.146349 1.117139 1.178857 1.175628 1.255821 1.253819 1.258156 1.193991 1.091100 0.840185 0.667851 0.587407 0.896761 1.165900 1.153181 1.175024 1.143364 1.139776 1.138616 1.155918 1.105408 1.054229 1.116747 1.165404 1.187927 1.153267 1.146675 1.286114 1.283811 1.251578 1.220445 1.108855 1.010093 0.737288 0.840338 1.287335 1.248803 0.925745 0.752281 0.781816 1.017884 1.123081 1.091900 1.145727 1.210385 1.162840 1.218598 1.137816 1.050709 0.993105 1.112593 1.300245 1.187807 0.790903 0.938115 0.636351 0.620756 0.897235 1.085764 1.237485 1.136246 1.118658 1.112954 1.163218 1.184528 1.054031 1.292719 1.247736 1.159464 1.152132 1.195216 1.290982 1.013907 1.022092 0.854413 1.219655 1.125921 0.856081 1.051032 1.224148 1.202098 1.204677 1.233107 1.088660 1.129507 1.114089 1.157889 1.064212 0.960895 1.060072 1.085461 1.097861 1.143731 1.133802 1.059230 1.094908 1.048765 0.964478 0.903424 0.799233 0.876086 0.666583 0.940994 0.798959 0.935203 1.055582 1.124649 1.154371 1.085158 1.053452 1.087748 1.157351 1.135145 1.044171 1.044772 1.103928 1.162835 1.078669 1.010965 1.021284 0.827590 0.882652 1.112448 1.132142 1.206307 1.233434 1.183862 0.935902 1.105626 1.245119 1.148874 1.110057 1.165063 1.178651 0.928265 1.179622 0.717165 0.989981 1.143781 1.196989 1.193892 1.155071 1.124508 1.196924 1.221493 1.231432 1.100661 1.035110 1.175252 1.128578 1.071389 1.180417 0.757480 0.557821 0.732812 1.140929 1.126200 1.160420 1.184456 1.073253 0.945164 1.272751 1.241973 1.179176 1.152264 1.223515 1.235922 1.093464 0.938072 1.045750 1.175826 1.171271 1.119717 1.088173 0.870782 1.034353 1.166334 1.143397 1.031651 0.901688 0.901520 1.044015 1.134884 1.081907 0.878547 1.028217 1.135907 0.994067 0.989261 1.025320 1.050140 1.056169 1.024063 1.015729 1.055017 1.044214 0.966676 1.005908 1.081165 1.089544 1.006751 0.987613 1.047130 1.070788 1.022884 1.034884 1.070903 1.021914 1.059659 1.079926 1.042953 1.042173 1.040062 1.029000 1.059790 1.045068 1.009835 1.068260 0.939196 0.943480 1.020878 1.033528 1.027653 1.058930 1.077328 1.064813 1.050599 1.014824 1.001333 1.019876 1.017891 0.990328 0.925314 0.908854 0.961123 1.011067 1.042627 1.043160 1.024547 1.014008 1.013803 1.020485 1.036747 1.039585 1.045185 1.060399 1.042176 1.061183 1.051605 1.021484 1.029413 1.045027 1.035643
1.138567 1.097633 1.089792 1.115344 1.127987 0.983629 1.040443 1.094203 1.121041 1.063972 0.706827 1.113023 1.239715 1.264364 1.066913 0.780264 0.947439 1.141703 1.081017 0.943242 0.744111 0.697325 1.042362 1.189815 1.258293 0.946848 0.817423 1.135255 1.066003 1.196915 1.211621 1.105576 1.129152 1.163167 1.047993 0.763056 1.015308 1.152017 1.200529 1.231292 1.147121 1.092171 0.993658 1.231718 1.184841 0.983924 0.811871 0.977667 0.632884 0.562062 1.053713 1.015314 1.056745 1.220463 1.205921 0.906549 0.953390 1.173897 1.218514 1.149711 1.055278 1.010438 1.043102 1.128667 1.080642 0.996391 1.000801 1.036966 1.061396 1.022896 0.907146 0.845062 0.869032 0.996915 1.090312 1.082395 1.160484 1.167064 1.146892 1.105590 1.068208 1.139276 1.059370 1.114757 1.124894 1.077887 0.916995 1.143828 1.231233 1.196316 0.782590 1.135847 1.143335 1.182071 1.221697 1.017510 0.909213 1.031893 1.061746 1.058462 1.136583 1.118046 0.973802 1.042651 1.081597 1.101001 1.086323 1.118933 1.141832 1.122885 1.108815 1.078940 1.113386 1.209658 1.226973 1.202116 1.155232 1.072676 1.203649 1.200101 1.174418 0.918302 0.886193 1.223118 1.182539 1.144244 1.080568 1.091604 1.095765 1.228457 1.260729 1.226579 1.169776 0.848768 0.739820 1.160436 1.281701 1.008409 0.808771 0.911477 1.060220 1.061868 1.037315 1.098368 1.164145 1.161425 1.108338 1.024911 1.052318 1.104025 1.168435 1.232270 1.250365 1.229941 1.255567 1.203609 0.858927 0.731063 1.256083 1.134714 0.710687 1.102764 1.297068 1.288375 1.146114 1.150473 1.139321 1.201080 1.247000 1.224217 1.079232 1.186962 1.216836 1.170683 1.147912 1.057199 0.763127 1.123849 0.934625 1.044234 1.249277 1.117436 0.638448 1.009975 1.226196 1.248279 1.168765 1.185662 1.188845 1.282461 0.948971 0.831292 1.049396 1.258216 1.135513 1.130327 1.207475 1.205130 0.674106 1.206134 1.182980 1.197396 1.252301 1.173123 0.694176 0.919141 1.092605 1.240312 1.265551 1.189038 1.107793 1.103155 1.142849 1.141134 1.040834 1.051836 1.059184 1.134338 1.149917 1.054134 1.080555 1.135975 1.132800 1.013316 0.990777 0.855307 0.593339 0.385593 0.952495 1.289507 1.240631 1.195809 1.014132 1.071561 1.116677 1.097553 1.119773 1.160776 1.138789 1.043997 1.061352 1.084681 1.127400 1.143593 1.030246 1.132611 0.866800 0.607150 0.813136 0.996233 1.143086 1.241426 1.242469 0.957372 1.081411 1.235128 1.227351 1.216420 1.161321 1.037888 0.986169 1.035520 0.693899 1.073354 1.120656 1.192430 1.044380 1.004408 0.952305 1.052085 1.062162 1.127949 0.999035 0.695748 0.830238 0.688617 1.224616 1.248802 0.847583 0.854619 1.061901 1.170790 1.248564 1.258821 1.266999 0.992274 0.643010 1.033971 1.174109 1.150689 1.241109 1.122884 1.136242 1.137523 1.061257 1.158408 1.177693 1.134819 1.089836 0.977158 0.885893 1.179771 1.175083 1.023279 1.036960 0.991755 0.964045 1.138303 1.142267 0.893598 0.924116 1.099750 1.138125 0.976668 0.954842 1.058802 1.025218 1.074166 1.050262 1.022886 1.037634 1.039942 0.994636 0.997458 0.968814 1.081369 1.000455 1.003549 1.016835 1.069145 1.028959 1.020750 1.035890 0.982805 1.081097 1.070737 1.029739 1.027780 1.008829 1.024975 1.042672 1.047216 1.047608 1.067375 1.025355 0.897920 1.003616 1.030855 1.024449 0.993500 0.989718 0.991079 0.989660 1.011836 1.032600 1.009706 1.016386 1.010344 0.985271 0.978102 1.021421 1.027212 1.027732 1.002558 0.997743 1.010391 1.029650 1.036443 1.041502 1.042343 1.038466 1.039235 1.046081 1.051227 1.054048 1.047626 1.053126 1.050727 1.033909
1.118226 1.141605 1.107549 1.062771 1.118417 1.044734 1.002128 1.169772 1.123018 0.864450 0.716599 1.137700 1.180994 1.247003 1.132234 0.985893 1.071913 1.224266 1.182438 1.162476 1.088088 0.837676 0.959329 1.200919 1.270365 1.024786 0.926995 1.122763 1.101876 1.229037 1.179426 1.093395 1.091917 1.094862 1.098694 0.772787 1.069972 1.153465 1.227514 1.213444 1.103601 1.038352 0.918038 1.214062 1.263413 1.076518 0.926652 0.710948 0.947756 1.009133 1.220376 1.192909 0.843871 1.168469 1.224422 1.071322 0.716511 1.002032 1.131549 1.196130 1.177765 1.142978 0.995614 0.960925 1.034891 1.028077 1.015434 1.056341 1.059490 1.075123 1.095686 0.888479 1.084445 1.127918 1.137409 1.150534 1.088170 1.052848 1.092110 1.165060 1.094035 1.081874 1.119704 1.121821 1.229388 1.191492 1.021139 1.220764 1.239022 1.190936 0.842380 1.190213 1.135897 1.232781 1.217232 0.919136 1.057397 1.160706 1.113312 1.106581 1.158738 1.141539 0.975980 0.911640 0.999977 1.067158 1.103649 1.094771 1.128059 1.157331 1.145377 1.131639 1.138160 1.083594 1.100178 1.056573 0.970756 0.966565 1.210487 1.203081 1.225964 0.726624 0.907639 1.203042 1.178299 1.289488 1.181369 1.255018 1.254347 1.226901 1.208572 1.152250 1.081186 0.937619 0.788427 1.135714 1.279843 1.217613 1.134693 1.090859 1.133726 1.056354 1.074288 1.091468 1.166343 1.163544 1.135909 1.094487 0.993077 0.799227 0.740058 1.083262 1.255313 1.176841 1.081143 0.843175 0.596726 1.169075 1.327925 1.286029 1.106622 0.893696 1.198255 1.217354 1.072120 1.046439 1.140842 1.256246 1.248247 1.005016 1.091766 1.231140 1.200366 1.143143 1.017131 1.012727 0.820513 0.608096 0.642661 1.249829 1.222188 1.279707 0.684763 1.100161 1.180313 1.213350 1.191666 1.234094 1.274702 1.266418 0.729425 1.064270 1.225293 1.244443 1.140536 1.164679 1.195966 1.280244 0.924710 1.230163 1.298452 1.160706 1.251003 1.195138 1.028257 0.921206 1.082878 1.069455 1.078959 1.091544 1.122113 1.047928 1.103091 1.129948 1.059935 1.056298 1.092432 1.151200 1.102922 1.032867 1.116618 1.128629 1.093682 1.090666 1.186126 1.139427 0.917605 0.350190 0.878993 1.196690 1.248620 1.217957 1.073815 1.050582 1.073389 1.062945 1.161076 1.163722 1.024669 1.048939 1.053065 1.012147 1.109435 1.130795 1.036692 1.161018 1.076210 0.996357 0.795062 0.824531 1.098984 1.210020 1.244726 1.044565 0.939839 1.119654 1.152133 1.212655 1.207628 1.143527 1.131180 1.008027 0.801447 1.079770 1.132837 1.187552 1.076990 1.108348 1.026387 0.964706 1.115808 1.222199 1.209102 1.070535 0.935365 0.648598 1.264215 1.204501 0.949343 1.047368 1.206379 1.207765 1.224355 1.199753 1.171589 0.992294 0.574424 0.844818 0.973592 1.013166 1.117272 0.969903 1.057448 1.147111 1.176808 1.186692 1.158520 1.109257 1.104707 0.885788 1.032778 1.176985 1.180420 0.938498 0.992249 0.910214 0.890306 0.973324 1.014754 1.085414 1.141873 1.147616 1.147962 0.932488 0.885902 0.988730 0.981494 1.048010 1.093307 1.054632 1.045683 1.035673 1.039162 1.018679 1.013949 1.075941 1.053182 1.027267 1.020404 1.048449 1.014060 1.034503 0.998379 0.985146 1.069097 1.042869 1.031194 1.027991 1.020930 1.029424 1.035774 1.062410 1.042909 1.050257 1.041271 0.935603 0.987811 1.020669 1.015250 1.012021 1.022464 0.992672 0.986952 1.006295 1.022091 1.007187 1.003656 1.018388 1.004975 0.994165 1.001982 1.004708 1.002404 0.993845 1.015057 1.031565 0.999833 1.003302 1.008442 1.046604 1.046940 1.060640 1.059222 1.048350 1.060451 1.048973 1.031941 1.050296 1.058517
1.130533 1.086530 1.056828 1.024875 1.012918 0.956061 1.168854 1.216991 1.128699 0.786507 0.661598 1.067900 1.127691 1.240013 1.236204 1.159588 1.214018 1.254396 1.063363 1.047217 1.114747 1.089598 0.898801 1.230582 1.258818 0.901241 1.059818 1.176236 1.199732 1.196195 1.179104 1.123454 1.028683 0.944210 0.894519 0.851030 1.207432 1.250886 1.237875 1.224091 1.142140 1.134505 0.985859 1.109509 1.274866 1.153693 0.894819 0.763521 1.286916 1.243319 1.233998 1.236213 0.864797 1.060209 1.184314 1.166081 0.993835 0.902786 0.984532 1.016600 0.999409 1.032788 1.093557 1.023269 1.027494 1.074711 1.061686 1.063010 1.073066 0.999005 1.095694 1.098977 1.110111 1.017647 0.978590 1.034764 1.033395 0.990358 0.970621 1.058109 1.192275 1.071221 0.969317 0.851191 0.860754 0.822587 0.851447 1.227781 1.251421 1.158715 0.946089 1.107357 1.173530 1.204583 0.940580 0.768962 1.060411 1.052181 1.005329 1.115089 1.173173 1.144795 0.994756 0.890303 1.002550 1.111631 1.146275 1.083261 1.077244 1.127972 1.165397 1.172225 1.182453 1.036556 0.915513 0.895984 0.851179 0.816484 1.272112 1.162826 1.300312 0.718042 0.975584 1.270662 1.169456 1.227672 1.180926 1.242959 1.212714 1.160744 1.177632 1.212890 0.957385 0.669055 0.766777 0.811956 1.053779 1.218063 1.211310 1.167392 1.118306 1.030510 1.064220 1.103642 1.168959 1.164982 1.130160 1.137128 1.058582 1.066607 0.946479 0.735566 0.980134 0.928510 0.814633 0.450806 1.012605 1.350868 1.231462 1.243199 1.278063 0.895089 1.238796 1.236108 1.110643 1.084262 1.155008 1.254873 1.180885 1.006745 1.216886 1.238912 1.182910 1.137170 1.026189 1.031290 1.037475 0.971463 0.952628 1.245111 1.190483 1.309034 0.955781 0.753277 1.153480 1.244664 1.238391 1.246294 1.300826 1.011096 0.759777 1.118480 1.283673 1.231984 1.209356 1.159297 1.179722 1.172464 0.623060 0.862783 1.100208 1.098498 1.190997 1.168962 1.130700 0.961775 1.158015 1.022371 1.058985 1.120299 1.104988 1.113669 1.097025 1.088875 1.149903 1.154186 1.153396 1.123385 1.080957 1.067161 1.101060 1.100647 1.057758 1.032244 1.168947 1.139776 0.944318 0.529917 0.992844 0.994886 1.167408 1.052884 1.105951 1.065539 1.058942 1.071052 1.159511 1.165257 1.051487 1.078190 1.117087 1.122543 1.146402 1.085888 1.026657 1.118459 1.112341 1.223601 1.067057 0.748178 1.113670 1.212153 1.251077 1.171407 0.976861 0.915003 1.081925 1.214112 1.185247 1.197680 1.195275 1.005208 0.983424 1.039283 1.181962 1.161103 1.058723 1.090252 1.022590 0.923091 0.844474 0.980510 1.217097 1.232955 0.942999 0.748597 1.198119 1.240176 1.157657 1.187005 1.241646 1.214068 1.173541 1.171723 1.159337 1.096726 0.593095 1.152298 1.262891 1.115410 1.063247 1.151363 1.208892 1.143605 1.170102 1.158096 1.103088 1.089530 1.021287 0.963152 1.110770 1.180703 1.069823 0.967212 0.913179 0.756581 0.883487 1.076973 1.041238 1.037087 1.151907 1.116037 1.053065 0.991874 0.856339 0.989395 1.058216 1.047149 1.076200 1.053526 1.017420 1.023044 1.025146 1.004797 1.005875 1.018266 1.021070 1.064788 1.063415 1.052140 1.034515 1.011530 1.006202 0.997637 1.042259 1.015280 0.999324 1.029757 1.011220 1.017259 1.030955 1.044563 1.009869 1.046200 1.063462 1.010869 0.978040 0.964351 1.016315 0.972678 0.995200 1.022411 1.014676 1.013045 1.011536 0.997503 0.993890 1.000394 1.008471 0.995157 0.978063 0.999450 0.999889 1.008105 1.041450 1.001768 0.992968 0.983482 0.991277 1.014601 1.017371 1.046239 0.957564 0.928284 0.991657 1.062393 1.057592 1.044170 1.055810
1.157156 1.107290 1.105439 1.067193 1.028215 0.782488 0.843992 1.164034 1.192332 1.027575 0.855592 0.943354 1.093134 1.098199 1.225740 1.231677 1.239576 1.248813 1.208126 1.147548 1.186611 1.101039 0.827958 1.035683 0.984215 1.047466 1.251834 1.238986 1.174677 1.170559 1.167381 1.186442 1.199448 1.083245 0.918625 0.866307 1.202535 1.148476 1.244225 1.216707 1.135260 1.223001 1.241448 1.054603 1.147281 1.125474 0.758696 0.839481 1.140410 1.222700 1.096769 1.194062 1.049730 0.969961 1.199987 1.226125 1.147594 0.897030 0.967215 1.068425 1.090386 1.025456 1.011545 0.978462 1.051450 1.067901 1.064002 0.976339 0.912914 0.857366 0.943721 1.089073 1.047081 0.923561 0.987018 1.051092 1.100032 1.110454 1.002116 0.878764 0.979643 1.018950 0.905098 0.931071 0.942295 0.914785 0.685366 1.011304 1.152467 1.068618 1.034243 1.174594 0.911219 1.012093 0.742131 0.960827 1.102024 1.081215 1.063051 1.154808 1.154623 1.129064 0.994073 0.867773 1.026971 1.182566 1.065428 1.074652 1.068004 1.077705 1.097663 1.175193 1.178689 1.175758 1.054370 1.204151 1.092945 0.831884 0.878686 1.037945 0.888261 0.845942 1.043725 0.860960 0.928836 1.288876 1.233174 1.123137 1.090279 1.230820 1.115273 0.909099 1.127972 1.276249 1.254255 1.182148 1.034153 0.857898 0.781758 0.773698 0.953068 0.988992 1.015835 1.069599 1.172138 1.151949 1.154351 1.130595 1.120784 1.093860 0.918728 1.149948 1.286788 1.185217 0.850388 0.742179 0.494679 1.134246 1.294112 1.200058 1.263693 1.029640 1.104554 1.204796 1.130178 1.183419 1.262633 1.261587 1.130699 0.963625 1.235474 1.252167 1.142728 1.112735 1.051895 1.018648 1.215286 1.264447 1.159562 1.216553 1.194554 1.267076 1.337945 1.283940 1.238487 0.921182 0.991397 1.166429 0.996830 1.136656 1.092880 1.011719 1.244781 1.222722 1.147459 1.155559 1.207701 1.097263 1.121717 1.247729 1.202296 1.259263 1.174077 1.117983 1.111171 1.040957 0.974698 1.087169 1.117528 1.113100 1.108798 1.094931 1.073922 1.162447 1.156889 1.048223 1.111501 1.106568 1.107295 1.098626 1.123494 1.111092 0.977706 0.908682 1.046676 0.941593 0.608051 0.649682 0.952145 0.985694 1.122756 0.963913 1.059055 0.978184 1.005440 1.068314 1.171716 1.167821 1.073928 1.029631 1.028252 1.104079 1.134384 1.018332 1.006281 1.086557 0.884486 0.944650 0.936892 0.661970 1.029092 1.189413 1.258468 1.215354 0.981611 0.941594 1.121131 1.219011 1.076040 1.177059 1.195720 1.192412 1.189608 1.057544 1.170709 1.091891 0.989867 1.079972 1.024474 0.938460 0.865958 0.734711 0.687307 0.949586 0.763039 1.139745 1.239195 1.223419 1.112538 1.099720 1.112526 1.127571 1.149641 1.138940 1.192718 1.237489 0.928735 1.261976 1.256208 1.148226 1.102288 1.217326 1.155683 1.013274 1.166275 1.131752 1.079081 1.014536 0.883852 1.042320 1.116371 1.185124 1.071008 0.944456 1.028865 0.814143 0.865892 0.987390 1.092645 1.100689 1.159470 1.137300 0.988407 0.985232 0.851354 1.099301 1.084404 1.091435 1.039159 1.090570 1.065995 1.042778 1.061045 1.074111 1.059106 1.041400 1.016705 1.004895 0.974762 0.992835 1.045730 1.041564 1.052560 1.033213 1.028151 0.999948 1.002656 1.009254 1.036916 1.014276 1.022315 1.051268 0.997638 1.020122 1.032640 1.017671 1.010309 0.965109 1.013634 1.017245 0.992264 1.011906 1.021094 1.010095 1.005489 0.996055 0.993434 0.993355 0.995540 0.998784 0.999090 0.998911 1.001062 1.024927 1.006541 1.001188 0.943149 0.903233 0.975816 1.024312 1.039797 1.066821 1.071634 1.006307 0.929864 1.050298 1.116625 0.963399 1.064156
1.130009 1.118077 1.132695 1.156041 1.128690 0.855489 1.061512 1.225802 1.180699 1.148027 0.946466 0.917655 1.094225 1.226129 1.216161 1.057777 1.062677 1.151983 1.219142 1.218318 1.148585 0.911710 0.824669 0.892415 0.780786 1.161095 1.225747 1.195713 1.199491 1.211279 1.185742 1.175938 1.218621 1.187837 1.142451 0.789539 1.074894 1.071200 1.237952 1.161270 1.138719 1.119757 1.210528 1.097076 0.848030 1.019353 1.142691 1.167933 0.881622 1.014206 1.186534 1.176170 1.147203 1.018556 1.041332 1.215769 1.183641 1.070950 0.991333 0.981096 1.073833 1.100229 1.054761 0.992813 0.967435 1.068830 1.070599 0.848241 0.808614 0.966419 0.989272 1.089219 1.047336 0.934244 1.053242 1.091480 1.059391 1.037281 1.101730 0.945359 0.982326 1.068820 1.074980 1.135313 1.140849 1.122681 1.040797 0.916359 0.934959 0.883657 0.770998 0.900416 0.867097 1.018547 0.954797 1.131715 1.157059 1.125369 1.112825 1.161069 1.129811 1.115451 1.072254 0.910154 0.972002 1.117774 1.062476 0.949176 1.105946 1.032396 1.018942 1.168751 1.183433 1.196825 1.153270 1.120706 1.001308 0.847639 0.602069 1.102946 1.209341 1.278338 1.279369 1.190834 0.893120 1.188695 1.143248 1.112419 1.249147 1.308786 1.016890 0.707694 1.276230 1.291495 1.285794 1.288456 1.122745 1.041483 0.984420 0.993132 1.082083 1.020532 1.032131 1.082298 1.146709 1.173424 1.162412 1.084494 0.941942 0.985189 1.080775 1.262094 1.236201 1.142067 1.249051 1.183781 0.562465 0.918958 1.193984 1.177484 1.254656 1.124554 1.236510 1.184622 1.220939 1.266489 1.223930 1.193817 1.030374 0.843134 1.137396 1.150273 1.130508 1.221936 1.201401 1.144463 1.182223 1.215075 1.202489 1.189730 1.196397 1.235810 1.221847 1.184663 1.306777 1.238693 0.618073 0.980771 1.073762 1.242592 1.166610 1.094257 1.165580 1.186989 1.146054 1.168895 1.223527 1.034598 1.261021 1.319022 1.240670 1.265191 1.254898 1.182525 1.232766 1.136485 0.982004 1.108014 1.086820 1.103656 1.123299 1.078434 1.112278 1.155826 0.980337 1.010849 1.126634 1.107980 1.153962 1.094100 1.107985 1.142518 1.189257 1.083446 0.842483 0.570440 0.959136 0.994305 1.204462 1.291743 1.264260 1.214003 1.083077 1.029317 1.085720 1.084796 1.169782 1.141601 1.081955 1.053421 1.105370 1.132403 1.089686 1.015889 1.025515 1.049030 0.773099 0.756902 0.737879 0.494786 0.620835 1.037763 1.266584 1.242007 0.954316 1.006291 1.074306 1.166957 1.081872 1.143879 1.152187 1.113619 1.187935 1.151746 1.166062 1.097133 1.124602 1.177102 1.112586 1.062886 1.097207 1.064477 0.990624 1.220401 0.798318 0.998819 1.232847 1.203826 1.064909 1.123009 0.981973 1.001034 1.104950 1.191289 1.195452 1.161670 0.904251 1.083318 1.066491 1.146477 1.147878 1.218098 1.068327 1.078399 1.185758 1.189077 1.014754 0.768549 1.041995 1.122084 1.117393 1.185609 1.058922 1.030414 0.898146 0.813594 0.851715 1.115762 1.072026 1.131314 1.161336 1.080992 0.979923 0.987112 0.905138 1.110446 1.108788 1.016358 0.967226 1.108259 1.066023 1.083009 1.044155 1.056590 1.062100 1.056676 1.043254 1.027452 1.020600 1.010084 1.010269 1.009798 1.022590 1.020122 1.020083 1.007509 1.001999 1.010910 1.017238 0.989969 1.026924 1.023236 1.013533 1.007633 1.009821 1.023762 1.017329 1.008583 1.021623 1.027447 1.030974 1.024474 1.000611 0.999989 1.009533 0.998986 0.996737 0.991973 0.993304 0.993590 0.992462 0.992804 1.013754 1.029384 1.019029 1.024920 0.940942 0.943834 0.886924 0.862526 0.931620 0.993111 1.033803 1.023620 0.866024 0.923944 1.119292 0.927342 0.990116
1.160510 1.101485 1.118035 1.170207 1.136070 1.099074 1.213919 1.169787 1.248632 1.242034 1.011767 1.036146 1.108719 1.219444 1.137168 1.080066 1.081472 1.002337 1.005485 0.871807 0.999026 1.166945 1.232440 1.190593 0.778855 1.158813 1.186177 1.191172 1.131813 1.208820 1.210447 1.212543 1.175458 1.084356 0.990321 0.791087 1.232160 1.098075 1.266594 1.152942 1.144573 1.023864 1.155159 0.984019 0.516000 0.989722 1.250004 1.281575 1.269187 1.266750 1.251290 1.203528 1.169682 1.164318 1.032971 1.006667 1.116479 1.104134 1.113867 1.004699 1.001326 1.078480 1.097983 1.052810 1.022754 1.066247 1.080606 0.814085 0.879221 1.052694 1.075091 1.092393 0.996377 0.990930 1.081642 1.100074 1.063886 1.029049 0.876566 0.955284 1.076376 1.129462 1.130849 1.220488 1.227274 1.236038 1.232370 1.067968 1.075633 0.926834 0.785062 1.132236 1.271679 1.259684 1.209046 1.196581 1.141585 1.045528 1.076322 1.157828 1.185308 1.081245 1.068959 1.048723 1.006696 1.120669 1.174483 1.046167 1.134798 1.116737 0.985505 1.086786 1.194995 1.199788 1.060273 0.820395 0.790700 0.742726 0.761812 1.147569 1.246768 1.286497 1.235505 1.132030 1.028746 0.805648 1.241791 1.318735 1.270228 1.134860 1.082045 0.642610 0.970491 1.005085 1.124367 1.174391 1.246830 1.145136 1.118103 1.161437 1.180970 1.167403 1.140255 1.154530 1.109274 1.135639 1.095160 1.000670 0.984141 1.109379 1.208430 1.202008 1.089568 1.103259 1.007234 0.813852 0.836164 1.192998 1.143649 1.023343 1.281953 1.198689 1.112883 1.182296 1.253342 1.243736 1.215829 1.094703 0.842309 0.948402 1.109236 1.118887 1.165137 1.136431 1.166301 1.206090 1.157219 1.309945 1.278586 1.267841 1.308382 1.272053 1.099740 1.192321 1.270045 1.297179 0.715144 1.046728 1.240643 1.235786 1.166023 1.102149 1.202782 1.180122 1.170507 1.180508 1.259542 0.814290 0.980864 0.991579 1.064929 1.197722 1.132641 1.131670 1.189282 1.217116 1.178770 1.125776 1.042321 1.028005 1.066314 1.129587 1.157107 1.144011 0.977557 1.061263 1.136765 1.119061 1.175830 1.080320 0.970703 0.965072 1.201913 1.177058 0.830057 0.791970 1.311830 1.300684 1.145308 1.032119 1.086094 1.202412 1.064806 1.122540 1.162816 1.121690 1.150229 1.167669 1.104773 1.030225 1.095897 1.152486 1.106591 1.096291 1.099640 1.144384 1.091869 1.154014 1.099066 1.078763 0.790144 1.125800 1.268750 1.264572 1.050703 1.033519 0.955013 1.194023 1.159693 1.059642 1.168367 1.002065 0.939489 0.967338 1.165157 1.107672 1.107728 1.091391 1.128466 1.086267 1.047728 0.968894 1.020221 1.175734 0.812177 0.771562 1.190122 1.216249 1.177363 1.222795 1.029588 1.101087 0.884520 0.867933 0.866264 0.840700 0.920227 1.196184 1.054820 1.083750 1.197766 1.212570 1.043947 1.003337 1.071229 1.123621 1.075133 0.862216 1.111936 1.040089 1.129795 1.189517 1.091758 1.007519 0.972548 0.682982 0.936018 1.083344 1.075702 1.158944 1.167903 1.000004 0.837330 0.905352 1.094381 1.103578 1.001716 1.032758 1.081674 1.136771 1.003963 0.989468 1.011786 1.026353 1.012891 1.029092 1.062586 1.058347 1.072999 1.059026 1.050231 1.061145 1.043168 1.036033 1.024176 1.030123 1.027000 1.017802 1.000494 0.998934 1.016883 0.984825 1.001761 1.001859 0.998582 1.016194 1.003531 1.008654 1.015690 1.004663 0.987181 0.972869 0.960275 0.973158 0.991995 0.994807 0.995088 0.992436 0.992001 0.991743 0.991821 0.992235 1.024006 0.995952 0.936925 0.889294 0.927481 0.911267 0.913440 0.868543 0.849544 0.954852 0.837530 0.888532 0.834729 0.737435 0.902040 0.826244 0.729432
1.204438 1.076045 1.079612 1.147392 1.119046 1.086824 1.089322 0.900221 1.090074 1.231862 1.166507 1.138240 1.015311 1.216654 1.040236 1.045063 0.991154 0.866456 0.987395 0.944443 1.197781 1.085763 1.125484 1.068007 0.730202 1.223533 1.273575 1.166610 1.115541 1.201397 1.227955 1.206740 1.228473 1.046667 0.985141 0.760961 1.211759 1.199246 1.278278 1.218234 1.082599 0.898016 1.112959 0.905311 0.623331 0.916862 0.867572 0.913717 1.097460 1.092059 0.843299 1.054295 1.154001 1.145350 1.113439 1.050561 1.067502 1.103293 1.156332 1.126179 1.038716 1.038543 1.094325 0.995115 1.047305 1.063264 1.067516 0.753867 0.935093 1.075085 1.093472 1.069175 0.993473 1.052779 1.084864 1.051643 0.975803 0.850359 0.900618 1.075737 1.102711 1.178309 1.206172 1.200073 1.149034 1.161038 1.175730 1.220189 1.090897 0.948815 0.932540 0.909160 1.234390 1.254074 1.222986 1.151303 1.134917 1.078048 1.101165 1.158585 1.189702 1.105095 0.953007 0.860063 1.060343 1.088421 1.036444 1.114691 1.145419 1.159134 0.971624 1.073630 1.167482 1.170556 1.144234 1.106048 0.944158 0.985716 1.050318 1.176603 1.220814 1.213096 1.201895 1.095847 1.056997 0.679758 0.976375 1.016700 0.726661 0.652335 0.981053 1.260860 1.119538 0.624551 0.832833 1.037169 1.154606 1.210595 1.170789 1.181668 1.114942 1.072467 1.103395 1.124623 1.120523 1.130128 1.146085 1.083793 1.092008 1.138727 1.241393 1.216318 1.066384 0.890712 0.871742 0.836348 0.868085 1.299081 1.278052 1.096614 1.196700 1.159613 1.177126 1.236599 1.210745 1.217661 1.249439 0.978195 1.239159 1.292874 1.275940 1.229131 1.250754 1.240462 1.291785 1.303575 1.061041 1.078439 1.143177 1.246192 1.248505 1.138582 1.177256 1.279881 1.217377 1.365163 0.957346 0.957063 1.324923 1.149071 1.209768 1.199145 1.202007 1.175006 1.181261 1.212036 1.184299 0.713722 1.166610 1.301421 1.199394 1.231720 1.099928 1.244800 1.194825 1.174525 1.209484 1.233283 1.155680 1.110416 1.105621 1.161849 1.157718 1.101276 1.068660 1.122084 1.128541 1.102866 1.091543 1.163223 1.090149 1.033319 1.139076 0.937491 0.544181 0.614398 0.875069 1.035833 0.867814 1.002642 1.090217 1.106329 1.017560 1.042097 1.084073 1.115876 1.155066 1.168256 1.087753 1.079043 1.085514 1.131593 1.094670 1.124164 1.129861 1.175654 1.126002 1.245877 1.115869 0.957636 0.748476 0.796318 1.228772 1.244328 1.115092 1.075290 0.985449 1.200867 1.134499 0.755955 1.058611 0.950306 1.041378 1.059526 1.161300 1.031898 1.081152 1.026870 1.048472 1.038572 1.014027 0.953568 1.088529 1.165403 0.918492 0.744346 1.129411 1.138458 1.047105 1.090905 1.092295 1.103443 1.013545 1.058376 1.081029 1.032898 0.745709 1.067005 1.098102 1.104070 1.190026 1.188111 1.082488 1.043908 1.072841 1.119329 1.034341 0.920346 1.025075 1.124109 1.200552 1.197014 1.036023 1.020375 1.023574 0.781211 0.936053 1.051858 1.111334 1.172364 1.175548 1.030771 0.889951 0.857179 1.098194 1.061501 0.975381 1.091970 1.085514 1.092405 0.924306 0.989681 1.036981 1.062408 1.000595 1.028017 1.042460 1.020766 1.029127 1.041011 0.997441 1.022498 1.033150 1.037951 1.050466 1.049040 1.029292 1.024942 1.024019 1.023680 1.025541 1.009536 1.006732 1.010162 1.014849 1.033150 1.013733 1.015134 1.014073 1.024933 1.017245 1.022013 1.016329 1.004630 0.994923 0.990166 0.995167 0.992130 0.991578 0.991487 0.991952 0.992176 1.026276 0.997391 0.953554 0.895334 0.855128 0.845826 0.824045 0.824224 1.010796 1.110821 1.030044 0.948708 0.893733 0.875774 0.918313 0.979199 0.918176
1.195184 1.117054 1.135797 1.059398 0.980965 0.853467 0.849346 0.999562 1.072859 1.228303 1.220269 1.215731 1.135888 1.211616 1.051707 1.008337 1.016951 1.065577 1.252595 1.259580 1.272800 1.063705 0.770898 0.636613 0.434221 0.575120 0.755838 0.741190 0.750789 0.841624 1.000193 0.877605 1.207664 0.969564 0.755773 0.575942 1.136772 1.168925 1.291320 1.281447 0.934034 0.606081 0.918312 0.763764 1.062252 1.173198 1.099452 0.975992 0.859867 1.074436 0.957626 1.036570 1.108438 1.133006 1.122972 1.045421 1.099025 1.060728 1.070039 1.143250 1.140501 1.119512 1.078645 0.972951 1.037005 1.063887 0.913724 0.776476 0.961505 1.065921 1.093706 1.044620 1.043464 1.053772 1.034638 0.977661 0.903044 0.873677 1.008505 1.113117 1.184653 1.192972 1.104955 0.949931 0.846959 1.050539 1.142838 1.203280 1.223988 1.208423 1.087561 0.651409 0.866393 0.938521 0.942426 1.103318 1.153328 1.024753 1.100980 1.148967 1.192914 1.113656 0.989819 0.859054 1.022446 1.044403 1.027563 1.114952 1.186761 1.086228 0.847119 1.125776 1.173548 1.199721 1.219292 1.229380 1.046255 1.170325 1.158795 1.121116 1.192713 1.292808 1.254869 0.775357 0.806814 0.998058 1.196666 1.139322 1.128182 1.029095 0.991045 1.199257 1.267568 1.100175 0.842715 1.246197 1.248530 1.206437 1.159429 1.101377 1.075932 1.095289 1.145694 1.152454 1.150963 1.160118 1.139958 1.116653 1.075594 1.051282 0.997563 1.032877 0.928180 1.128621 1.225431 1.135031 0.891929 1.139301 1.258662 1.174718 1.153141 1.180156 1.250527 1.267851 1.137771 0.877435 0.769522 0.881909 1.282824 1.275433 1.270952 1.245611 1.201795 1.160460 1.272633 1.307317 1.090287 0.999249 0.845221 1.150545 1.099712 1.112731 1.175268 1.296989 1.208257 1.263875 0.640788 1.006798 1.244185 1.147743 1.193826 1.230282 1.212454 1.205849 1.208102 1.274501 0.901195 1.254598 1.332683 1.318196 1.306848 1.288861 1.062443 1.176547 1.196018 1.143615 1.080276 1.051115 1.070228 1.092911 1.123691 1.160329 1.165154 1.103785 1.080664 1.096652 1.159709 1.108416 1.039214 1.161827 1.200270 1.233251 1.174504 1.076512 0.948192 1.217046 1.134323 0.997111 0.779211 0.994769 1.061596 1.071430 1.072542 1.077757 1.060271 1.102964 1.168145 1.154452 1.072566 1.069174 1.086984 1.094314 1.128534 1.132987 1.108314 1.136234 1.143901 1.041392 0.919474 1.101015 0.932893 0.913317 1.268442 1.238359 1.188490 0.979197 0.670768 1.010265 0.882771 0.771454 0.936507 1.070952 1.097726 1.077662 1.157490 1.007464 1.110313 1.083325 1.022401 1.027704 1.091208 1.018348 1.059409 1.081849 0.913874 0.924720 1.117424 1.101687 1.145036 1.157751 1.056764 1.052995 1.163239 1.125590 1.077524 0.780336 0.564115 1.029499 1.203028 1.147639 1.232570 1.197594 1.142054 1.100151 1.041452 1.068080 0.719846 0.813928 1.094642 1.116636 1.160190 1.204568 1.055723 0.808728 0.777204 0.921137 1.088416 1.109148 1.187251 1.179671 1.143207 0.998914 0.899246 0.808447 0.963168 1.020502 1.102083 1.087505 1.083219 0.999802 0.976561 1.023797 1.086573 1.085510 0.981368 1.011782 1.037889 1.007118 1.009783 1.014429 0.970827 1.010656 1.017268 0.994953 0.990675 1.002903 1.025945 1.021749 1.012253 1.002517 1.010444 1.019794 1.022344 1.014449 1.018505 1.018215 1.015865 1.015650 1.012086 1.007314 1.006482 1.009554 1.012904 1.013968 1.010611 1.002100 0.997429 0.993289 0.993194 0.992743 0.991918 0.991840 1.017712 1.000378 0.995180 0.970729 0.961581 0.897809 0.818191 0.906214 1.052989 1.063858 0.976968 0.923985 0.918357 0.979868 1.030619 1.029334 1.048486
1.211949 1.143005 1.120041 1.028475 0.914168 0.715000 1.046945 1.162147 1.244982 1.220468 1.137794 1.145451 1.200464 1.206698 1.144991 1.093356 1.098182 1.233642 1.243708 1.093702 1.045354 0.825984 0.617802 0.524629 0.858755 1.067308 1.011771 1.010410 0.845418 1.163514 1.166257 1.004451 1.082965 1.117014 0.751553 0.395927 0.777502 0.903976 1.221891 1.298912 1.043541 1.014109 1.128043 0.862351 1.023690 1.210707 1.193455 1.162484 1.013655 1.125074 1.084886 1.027376 1.033038 1.101040 1.146335 1.139798 1.113056 1.083214 1.042402 1.033914 1.012231 0.991319 0.950172 0.999744 1.074282 1.067644 0.867111 0.895044 0.979690 0.990632 1.058402 1.061795 1.031031 1.029966 1.028967 1.035156 1.009816 0.990220 1.079654 1.171280 1.183439 1.086811 1.157073 1.222126 1.160537 1.035933 0.934951 1.073759 1.092195 0.936482 1.042577 0.989381 0.798781 1.071732 1.157264 1.154671 1.091485 1.048832 1.121630 1.151098 1.194606 1.108041 0.983911 0.939117 0.712684 0.850992 1.137769 1.189732 1.254035 1.076333 0.765657 1.014141 1.114173 1.077742 1.140973 1.220187 1.189457 1.240008 1.157484 1.162238 1.270504 1.218408 1.312258 1.018345 0.749836 1.053107 1.302352 1.252463 1.224098 1.106567 0.976566 1.041589 1.144996 1.279476 0.763580 0.765729 1.016954 1.061402 1.089666 1.118818 1.161662 1.127644 1.171436 1.159885 1.140394 1.150447 1.109593 1.104392 1.014826 1.074520 1.129340 1.162777 1.144942 1.305380 1.311173 1.312103 1.021364 0.929785 1.168183 1.300289 1.283472 1.277183 1.286404 1.234815 1.115832 0.978413 0.753855 0.711449 1.227389 1.226301 1.239847 1.248358 1.227966 1.067078 1.213449 1.259953 1.162550 0.964800 0.883028 1.148644 1.174470 1.160651 1.304854 1.139622 0.974847 1.208787 0.813667 1.070335 1.201132 1.149406 1.232980 1.189506 1.196213 1.277787 1.271403 1.236466 0.524691 1.081124 1.259267 1.146090 1.290992 1.296313 1.203412 0.695144 0.860174 0.969162 0.984890 1.000296 1.029609 1.085119 1.166566 1.141313 1.129802 1.043714 0.968545 0.987998 1.153812 1.109272 1.092399 1.155069 1.080047 1.250336 1.028734 0.863469 0.986686 1.248704 1.305181 1.297514 1.206705 1.093898 1.047624 1.069906 1.050312 1.080400 1.107310 1.128742 1.166989 1.131176 1.064294 1.058531 1.091321 1.095376 1.069542 1.101117 1.132132 1.209184 1.189298 1.207729 0.948140 0.791815 0.830513 0.949544 1.273334 1.280842 1.151244 0.795788 0.751961 0.697198 1.138397 1.201107 1.118424 1.029605 1.013110 0.983590 1.120052 1.135615 1.114052 1.057870 1.020333 1.090144 1.143608 1.121701 1.069969 1.004076 0.951830 1.076744 1.116582 1.088316 1.164588 1.120916 1.045784 1.130240 1.063615 0.941315 0.947001 0.987101 0.787399 1.024096 1.252555 1.059306 1.241724 1.119102 1.127173 0.982135 0.818674 0.842925 0.789064 0.776680 1.043465 1.169031 1.163588 1.204283 1.133815 0.900673 0.618723 1.030427 1.003335 1.123639 1.185944 1.078144 1.099438 1.026266 0.967411 0.804267 0.965992 1.058196 1.155826 1.109078 1.011027 0.931691 1.020484 1.084792 1.093274 1.075105 0.968594 1.008697 1.039885 0.971198 0.975056 1.026762 0.997484 1.021279 1.009060 0.999563 0.966632 0.990687 1.011542 1.018684 1.024077 1.012778 1.001116 0.997246 0.998188 0.998055 0.996451 0.996845 0.997770 0.996908 0.993358 0.995460 1.009743 1.023785 1.011805 1.021950 1.038041 1.020891 1.022320 1.004927 0.984339 0.994279 0.992243 0.991941 1.004627 0.987748 1.042457 1.048256 0.968062 0.904855 0.905896 1.036790 1.050361 1.051656 1.038443 1.028639 1.022047 1.078695 1.093219 1.058282 1.060884
1.182870 1.149780 1.167566 1.149060 0.863379 0.913895 1.263515 1.222962 1.250522 1.115569 1.084599 1.071891 1.094751 1.145534 1.204961 1.129691 1.190109 1.197983 1.057060 0.874981 0.918496 0.980832 1.056250 0.907077 1.129441 1.072314 1.167151 1.192178 0.844705 1.290470 1.213143 0.853450 0.875609 0.777720 0.619258 0.905374 0.590781 0.644331 0.786680 1.004765 1.013104 1.237392 1.146811 0.977777 0.901382 1.129190 1.053893 1.131564 1.108091 1.115518 1.123915 1.113505 1.067906 1.009418 0.941260 1.016540 1.026947 1.003426 0.966641 1.004210 0.977393 0.942932 0.909215 0.971833 1.031179 1.072414 0.808573 0.995126 1.063213 1.035944 1.064988 1.054893 1.053150 1.053816 1.045597 1.074424 1.074178 0.998988 1.158640 1.146916 1.008828 0.966536 0.983311 1.084971 1.191777 1.194250 1.055674 0.871211 0.913694 0.714094 1.141044 1.181093 1.002575 1.020234 1.198080 1.161110 1.042526 1.078160 1.108518 1.143612 1.196768 1.157092 1.025660 0.936631 0.683583 1.042544 1.277697 1.270721 1.159279 0.987635 1.149843 1.106227 1.104708 0.999443 1.039922 1.226915 1.231503 1.132169 0.967007 1.097121 1.059175 1.264964 1.325871 0.534477 1.079143 1.158804 1.282309 1.209056 1.252374 1.137372 1.091495 1.108830 1.116209 1.273618 0.998507 0.775598 0.999040 1.039553 1.060838 1.048768 1.016083 1.003193 1.028264 0.992610 1.110952 1.148036 1.133947 1.102991 1.109343 1.260813 1.219560 1.226973 1.268054 1.120585 0.998175 1.335137 0.960591 1.077746 1.330981 1.264883 1.254032 1.078685 1.078004 1.208550 1.281623 1.327285 1.309858 1.110721 1.206109 1.167484 1.139530 1.169724 1.082881 0.821792 0.953331 1.051325 1.124366 0.842755 1.097360 1.178286 1.241958 1.295115 1.329358 1.131396 0.983251 1.095556 0.970523 0.961891 1.281591 1.239398 1.199675 1.192439 1.119938 1.085459 0.936467 0.927984 0.545009 0.818106 0.783038 0.655440 0.738517 0.753179 0.794795 0.811239 1.053754 1.049806 1.039443 1.126541 1.152067 1.158125 1.165028 1.147478 1.144778 1.143794 0.928626 0.825496 1.006854 1.194515 1.099127 1.230709 1.051117 1.219148 0.998967 0.805575 0.752838 1.115746 1.246188 1.205234 1.157258 1.152627 0.999406 1.051876 1.110387 1.094249 1.109903 1.140757 1.157694 1.125304 1.039240 1.032497 1.019953 1.113654 1.016629 1.113630 1.080235 1.157923 1.170858 1.187053 1.258710 0.948644 0.518264 0.927936 1.177791 1.268908 1.036417 0.721430 1.193963 0.788846 0.980927 1.130274 1.129302 1.096935 1.156681 1.131512 1.150006 1.141240 1.141616 1.030162 0.979816 1.044816 1.098376 1.141595 0.970539 0.963198 0.978004 1.051034 1.072028 1.100402 1.113312 1.129507 1.102297 1.108908 1.047996 1.132234 1.156072 1.176733 1.032748 0.870035 1.179036 1.045344 1.254094 1.138468 1.155817 0.996881 1.177313 1.166527 1.129817 1.112597 0.950497 1.019965 1.195092 1.189465 1.117749 0.922644 0.597881 1.141557 1.174351 1.213718 1.207861 1.094081 1.019652 1.020171 0.945741 1.096313 1.164221 1.182400 1.147811 1.040537 0.957279 1.073632 1.128838 1.121084 1.118752 1.089407 1.054366 1.064427 1.064843 1.016123 0.990994 1.015671 1.018728 1.038974 1.027610 1.006360 0.968288 1.004981 1.024355 0.991984 0.964267 0.976989 1.021299 1.016984 1.019582 1.017279 1.013527 1.017059 1.023433 1.016337 1.007718 1.018080 1.035891 0.993447 1.003607 0.982191 0.995183 0.975289 1.029532 1.033741 1.013612 0.996850 0.993720 0.994257 0.995921 0.999946 1.008070 1.032330 1.049379 0.991384 0.978946 1.024916 1.007792 1.021300 1.037280 1.039966 1.058806 1.041463 1.024480 1.005639 1.020718
1.096811 1.138532 1.118652 1.176007 1.032997 1.103614 1.267436 1.184011 1.153485 1.040822 1.014959 1.091276 1.051089 1.080227 1.196601 1.187404 1.095428 1.053391 1.024255 0.986686 1.142326 1.212052 0.875873 0.984134 1.231248 1.001737 1.264430 1.219857 0.839204 1.279949 1.038344 1.118178 1.075727 0.839566 0.751917 1.132799 0.947916 0.925148 0.948672 0.862549 1.047581 1.273674 1.201839 1.099591 1.066050 1.106556 1.068971 1.133910 1.138339 1.091373 1.102945 1.107903 1.086423 1.100672 1.028585 0.983769 0.979675 1.035367 1.050332 1.039029 1.011272 1.020019 0.966991 1.022671 1.071641 1.072892 0.935287 1.019021 1.023912 1.013308 1.051389 1.055763 1.031342 1.055962 1.083992 1.095096 1.133667 1.139641 1.153710 1.063655 0.936968 0.908244 0.957515 0.907637 0.978515 0.967455 0.835089 1.096080 1.094063 0.834273 1.158479 1.195094 1.074346 0.907264 0.722544 1.015983 1.170206 1.204846 1.114954 1.082654 1.204536 1.208087 1.103041 0.942398 0.708318 0.900014 1.051365 0.988866 0.796650 0.988203 1.163301 1.205803 1.135081 1.094972 1.090914 1.227707 1.218484 1.097881 0.982497 1.110197 0.797528 0.999740 0.916656 0.542963 1.028109 1.120649 1.264513 1.288166 1.265849 1.222242 1.133845 1.206052 1.285008 1.277223 1.196341 1.101446 1.084796 1.081286 1.139025 1.054896 1.029168 1.047892 1.072996 1.045157 1.188790 1.189431 1.119428 1.049219 0.974482 1.108435 1.062535 1.104808 1.307534 0.848096 0.590358 0.743116 0.625248 0.967429 1.175773 1.209157 1.195359 1.050918 1.244842 1.279587 1.223113 1.242909 1.061361 1.265345 1.286578 1.120145 0.970007 0.701030 0.639491 0.769256 0.996239 0.784794 0.711262 1.035228 1.216725 1.150772 1.138014 1.083776 1.005783 1.025625 0.948355 0.959356 0.525206 0.866793 1.071409 1.232846 1.216948 1.180211 1.045277 1.244597 1.242966 0.602374 1.022932 1.274283 1.301590 1.179676 0.781925 1.082154 1.133512 1.044133 1.106186 1.059463 1.086266 1.098830 1.084463 1.170786 1.170325 1.121364 1.035316 1.138407 1.241230 0.861216 0.651327 1.103517 0.976354 1.247095 1.054594 1.050213 0.861512 0.846091 0.793262 1.041917 0.917423 1.084030 1.156875 1.159301 1.043774 0.955916 1.078290 1.097692 1.114628 1.124643 1.137378 1.142018 1.129332 1.157878 1.060674 1.067678 0.932025 0.948994 0.811459 0.797936 0.890595 1.088734 1.277490 1.276650 1.060856 1.096528 1.259092 1.236866 0.910387 1.124892 1.261250 0.949516 1.044558 1.003535 1.036596 1.113413 1.157484 1.159153 0.987219 1.073894 1.140063 1.142164 1.071107 1.064815 1.049375 1.058599 0.992317 1.008864 1.077233 1.102649 1.166625 1.164635 1.167868 1.170681 1.175239 1.120965 1.093949 1.128042 1.098645 1.141384 1.132183 0.986926 1.139624 0.992703 1.160646 1.109050 1.029836 1.047808 1.097898 1.129653 1.172583 1.139387 1.172886 0.940368 0.870777 0.957506 0.923592 0.752087 0.641386 0.767980 0.918029 1.163891 1.136044 1.085485 0.940773 0.678431 0.804789 0.894687 1.118154 1.171958 1.154531 1.039984 1.081212 1.159421 1.166512 1.114283 1.143225 1.153068 1.113818 1.130265 1.133387 1.112985 1.090871 1.018473 0.982122 0.994256 0.968022 0.935541 0.957971 1.013052 1.006251 0.985228 1.056141 1.053130 1.025264 0.998071 1.014272 1.023924 1.029982 1.029086 1.007227 1.008131 1.032735 1.013720 1.028171 0.988709 1.000891 1.009413 1.005042 0.986748 0.960193 1.025423 1.041655 1.024106 0.987217 0.997885 0.996071 0.993406 0.991614 0.996610 1.014158 1.026682 1.034681 1.044194 1.009375 1.013292 1.015565 1.023940 1.023670 1.006124 0.959879 0.972231 1.070239
1.112146 1.145030 1.121098 1.153465 1.258841 1.132709 1.169838 1.176169 1.077912 0.873054 0.938643 1.043022 1.124609 1.131979 1.143955 1.199639 1.156864 1.076421 0.954801 1.019220 1.218976 1.216781 0.812400 1.084558 1.264419 0.935066 1.257303 1.074193 0.824426 1.234669 1.138329 1.152851 1.175418 1.077692 0.827676 1.236173 1.227658 1.061176 1.127599 1.134439 0.776562 1.221700 1.150022 1.134664 1.128706 1.108085 1.075062 1.091871 1.149833 1.080883 1.076806 1.108573 1.076850 1.090453 1.093878 1.074688 1.066098 1.047991 1.037768 1.081547 1.034582 1.046245 0.967886 1.023546 1.063403 1.031715 0.979946 1.018501 1.026935 0.969551 1.040605 1.067607 1.027696 1.036646 1.040382 0.982936 0.987546 1.044161 1.021254 1.000952 1.024531 1.122361 1.100354 1.021771 0.963826 0.777100 0.966586 1.169569 1.201997 0.893543 1.119526 1.211419 1.127884 1.049091 0.807506 1.135497 1.239180 1.186978 1.039502 1.042124 1.140203 1.209164 1.154106 1.042397 0.910767 0.907680 0.671568 0.530386 0.603657 0.700359 0.857230 0.977671 0.998995 1.046218 1.091521 1.228805 1.201058 1.119107 1.162295 1.091752 0.864488 0.872258 0.720833 1.140959 1.225841 1.039485 0.880534 0.881462 1.174662 1.282273 1.300896 1.245447 1.207058 1.270078 1.171093 1.095654 1.111972 1.085980 1.128155 1.150459 1.166640 1.178839 1.060642 1.041036 1.187725 1.150184 1.103619 1.060145 0.943286 0.887673 0.839048 0.729678 0.976066 0.803275 1.127617 0.775685 1.109848 1.057895 1.226661 0.909831 0.592705 0.887094 1.143337 1.206757 1.224999 0.941418 0.789593 0.872767 1.094733 1.032414 0.987332 1.049129 1.117466 1.043134 1.164848 1.149598 0.682109 0.999400 0.984014 0.762665 1.257861 1.174670 1.080810 0.807416 0.474709 0.884998 1.250818 1.176959 1.259905 1.095277 0.893760 0.921171 1.214992 1.344144 1.227494 0.720421 1.161651 1.080775 1.218574 1.229308 1.008505 1.172348 1.162766 1.080450 1.068180 1.040533 1.048232 1.073699 1.177554 1.170959 1.136449 1.081933 1.069907 1.007729 1.202652 1.265907 1.029090 0.799680 0.710185 0.903688 0.875492 0.782859 0.818881 1.116424 1.232502 1.241623 1.210012 1.193134 1.172129 1.081022 1.027565 1.038153 1.075276 1.091046 1.121766 1.152646 1.163112 1.083107 1.102397 1.135063 1.212813 1.231013 1.124364 0.985030 1.046992 1.188652 1.204969 1.050247 1.054143 1.171060 1.037515 0.939502 1.253183 0.865689 0.819446 1.123718 1.127855 1.048573 1.175499 1.126325 1.059419 1.158107 1.158229 1.006256 0.917881 1.037682 1.098037 1.140252 1.139184 1.135957 1.112301 1.043247 0.885021 0.943683 1.140295 1.157323 1.151723 1.108391 1.000450 1.038256 1.144424 1.178470 1.130988 1.130988 1.093373 1.044781 1.065919 1.005438 0.940609 0.981374 0.985534 1.024578 1.031855 1.058828 1.057431 1.032426 1.083720 1.114785 1.069019 0.912037 0.841016 0.834709 0.616856 0.887039 0.993643 1.061983 0.822338 0.924843 0.981675 0.953889 0.965404 0.832747 0.940017 0.695195 0.849132 0.909184 1.014508 0.987841 1.004914 0.951284 0.864337 0.827007 0.804640 0.752932 0.736222 0.738649 0.752674 0.825485 0.844612 0.832052 0.786651 0.815094 0.848209 0.920538 1.036392 1.061273 1.069602 1.066517 1.034516 0.983418 1.027851 0.997524 1.014683 1.006089 1.014218 1.028674 1.000496 0.952740 1.051079 1.015266 0.972854 0.995227 1.054020 1.061942 0.999910 0.978253 1.031350 1.025941 1.005280 1.036294 1.033365 0.987344 0.981823 0.990813 0.990623 0.991667 0.993004 0.994674 0.997265 0.999708 1.003506 1.011778 0.998457 0.996924 1.009890 1.008453 0.994256 1.016249 1.081616
1.168968 1.060836 0.951310 0.900579 1.152623 1.115265 1.188403 1.065196 1.195210 0.842421 0.703212 0.867105 1.031318 1.013530 1.105151 1.189326 1.194911 1.199260 1.007886 1.068185 1.221924 1.056674 0.668923 1.024402 1.246556 0.933387 1.191942 1.153044 1.166985 1.254614 1.212823 1.228892 1.230168 1.118623 0.687441 1.214097 1.213846 1.202628 1.210878 1.137372 0.770075 1.212340 1.136385 1.109944 1.134075 1.115123 1.092695 1.049618 1.111118 1.099227 1.093718 1.101684 1.045003 1.074332 1.077785 1.078014 1.063040 1.029018 1.009723 1.064772 1.058129 1.049857 1.008477 1.061815 1.062583 1.039997 1.022429 1.006789 1.027236 1.025915 1.036709 1.081078 1.052753 1.047771 1.064851 0.991972 1.030465 0.997986 0.976507 1.034499 1.115104 1.164094 1.155553 1.104782 0.991416 0.803020 1.094285 1.151435 1.214437 0.978640 1.135705 1.243387 1.134572 0.958868 0.798056 1.247844 1.186941 1.000903 1.064499 1.100162 1.100203 1.215891 1.204487 1.117654 1.043918 1.188236 1.000208 0.984471 1.189784 1.181732 1.185439 1.183105 1.150152 1.104255 1.097364 1.229050 1.197663 1.034723 0.889663 0.984931 1.185178 1.169247 0.837749 1.182158 1.203753 1.233940 1.185658 0.917303 0.973635 1.225245 1.300374 1.078870 0.984587 1.238562 1.251966 1.217156 1.247280 1.184968 1.188664 1.218567 1.210326 1.141425 1.079714 1.118317 1.190875 1.169280 1.098448 0.992515 1.053506 1.168630 1.109191 1.027450 0.816832 1.031166 1.322046 1.067760 0.897240 1.195154 1.122499 1.341226 0.986928 0.788910 1.005752 1.250348 1.128884 0.670241 0.868405 1.008391 0.795029 0.645148 1.151683 1.184042 1.185983 1.115717 1.163377 1.015123 0.991661 1.177871 0.804933 0.627499 0.894334 1.035828 0.728393 0.421095 0.576792 0.933712 1.166804 1.277418 1.278648 1.307099 0.925815 0.947095 1.250305 1.330138 1.034107 0.743226 1.265762 1.281176 1.162204 1.178786 1.201939 1.175412 1.109679 1.130698 1.062935 1.059153 1.081440 1.182220 1.175516 1.158045 1.124003 1.103365 1.103849 1.023752 1.099604 1.163736 1.235385 1.247046 1.071651 0.826131 0.706111 0.508824 0.641848 0.749229 1.022830 1.282530 1.226822 1.237246 1.201811 1.028581 1.053816 1.095798 1.098447 1.111478 1.111493 1.142462 1.157696 1.078380 1.059479 1.017133 1.072350 1.179123 1.237349 1.248854 1.054140 1.036615 1.036933 1.029995 0.751676 0.788241 0.737764 0.624071 1.011733 1.019187 1.138525 1.202430 1.097956 1.078380 1.089885 1.079355 1.133107 1.160130 1.113836 1.051434 0.879011 1.070250 1.084387 1.034847 1.016901 1.067276 1.130936 1.029835 0.921259 1.006193 1.149038 1.102065 1.053863 1.084725 1.047873 1.053279 1.061521 1.178272 1.170203 1.067517 1.139705 1.130211 1.048949 1.082365 0.841730 0.751456 1.119981 1.043002 1.048907 1.085169 1.090302 1.024456 1.006562 1.200229 1.181863 0.996274 1.101533 0.997403 0.833576 1.174362 1.071196 1.144076 1.005965 0.804394 0.916620 1.142128 1.120880 0.977846 1.067124 0.896229 1.055638 0.752657 0.902403 0.785053 0.882202 0.810360 0.686742 0.723058 0.850740 0.913299 0.916082 1.005277 0.922484 0.979495 0.984246 0.974428 1.011677 1.039683 1.062774 1.083105 1.078886 1.064343 1.011616 1.003405 0.990213 1.012258 1.044654 1.011231 0.999564 1.007876 1.026697 1.015479 0.942343 0.926125 1.065190 1.032209 0.900453 0.886825 0.951197 1.062574 1.018875 1.022002 1.023789 1.006756 0.981738 0.983903 1.051828 1.018768 1.023240 1.008780 0.997879 0.993389 0.992903 0.992182 0.994838 0.994590 0.993129 0.998424 0.994823 0.993247 1.004673 1.035726 1.038708 1.038297 1.013850
1.210856 1.130362 0.920617 0.671019 0.972697 0.979312 0.822703 0.652901 0.605273 0.842069 1.163924 1.102989 1.170192 1.223813 1.196530 1.006146 1.116221 1.190477 1.130812 1.180454 1.110703 1.009833 0.852655 0.941823 1.231084 1.135979 1.230601 1.237649 1.230129 1.164402 1.149806 1.181314 1.146211 1.047115 0.617708 0.991981 1.194655 1.159106 1.197701 0.939513 0.766183 1.149109 1.171897 1.125341 1.121998 1.145461 1.116893 1.079037 1.080215 1.139831 1.102431 1.092518 1.045017 1.063926 1.067892 1.061411 1.056516 1.058408 1.032863 1.050443 1.040320 1.034996 1.050676 1.056144 1.031607 1.050806 1.020874 1.030550 1.053081 1.033779 1.051727 1.083373 1.098750 1.070717 1.077492 1.054615 1.079667 1.032028 1.053635 1.120014 1.131388 1.094425 1.096733 1.094468 0.981673 0.766916 1.115800 1.184066 1.181333 1.022093 1.204378 1.223094 1.079751 0.912033 1.015634 0.929246 0.901444 1.162623 1.152511 1.132425 1.113730 1.188143 1.223297 1.153152 0.999171 0.945209 0.807576 1.282461 1.228479 1.190598 1.170826 1.148859 1.152193 1.158689 1.123080 1.230309 1.234935 1.022190 1.045216 1.258560 1.134541 1.079817 0.673949 1.209828 1.185062 1.256853 1.185266 1.239319 1.017304 0.680432 0.973579 0.795004 0.930955 1.010851 1.154489 1.220829 1.158086 1.139616 1.145775 1.198532 1.143460 1.128073 1.080944 1.084062 1.174767 1.170991 1.205162 1.135228 1.032217 1.157565 1.172910 1.126524 0.961661 1.123232 1.294091 1.155426 0.782129 1.225354 1.197859 1.268345 1.315274 1.025599 0.689783 1.044363 1.081818 1.230448 1.222014 1.149893 1.091511 1.124309 1.216393 1.130207 1.160218 1.157838 1.185647 0.787755 1.128819 1.225907 1.030146 0.955114 1.378019 1.312238 1.054584 0.685609 1.065652 0.781425 0.748180 1.302560 1.268234 1.231756 1.101193 0.865136 1.102223 1.283986 1.125426 1.122509 0.866363 1.045811 1.106221 1.093057 1.166091 1.088764 1.069045 1.130633 1.025292 1.083654 1.183485 1.174035 1.082862 1.058166 1.165076 1.020347 1.027842 0.845152 0.998815 1.178981 1.266289 1.291329 1.203777 1.200428 1.026213 0.533174 0.944457 1.067238 1.092498 0.900351 1.071387 1.188732 1.146026 1.071345 1.142709 1.142817 1.093249 1.140387 1.163396 1.093401 1.153218 1.092054 1.058306 1.097217 1.094485 1.025083 1.149625 1.247256 1.253754 1.103000 1.046796 0.827541 1.042679 1.213492 1.142234 0.952501 0.679703 1.109896 1.250798 1.229410 1.135544 1.092151 1.085539 1.084635 1.164712 1.154778 1.046760 1.065681 0.929007 1.082416 1.060638 0.954913 0.924448 0.993690 1.127954 1.102818 1.037976 1.078551 1.144508 1.001550 0.931307 0.947368 0.922850 1.028787 1.073355 1.147679 1.182501 1.070832 1.036664 1.133906 1.170007 1.040032 0.875444 0.583520 1.038939 1.008369 1.189524 1.235441 1.220287 1.192539 1.145217 1.156064 1.128560 1.063391 1.098697 0.941329 0.805052 1.185692 1.042597 1.132558 1.086066 1.017008 1.015419 1.089309 1.078449 1.011981 1.089477 1.035095 1.041085 0.907006 1.015627 1.080612 1.165241 0.997088 0.811047 0.993093 1.013122 1.049695 1.008758 1.057757 1.030657 1.059077 1.058827 1.066719 1.071881 1.083542 1.078474 1.078851 1.063850 1.035199 1.001667 1.005376 1.003412 1.022856 1.000377 1.025511 1.002650 1.059660 0.995392 0.907217 0.902670 0.972317 1.066508 1.065163 0.998952 0.925344 0.839575 0.894611 0.973072 1.041258 0.976407 0.937498 0.922805 0.965528 1.057392 1.026684 1.018667 1.034394 1.027475 1.003902 0.996203 0.993920 0.993759 0.994949 0.997849 1.000057 1.000724 0.998669 1.000090 1.004390 0.999014 1.015139 1.028470
1.257215 1.213019 1.181727 1.047765 0.696560 0.877378 1.261462 0.879965 0.883728 0.912835 0.939408 1.107765 1.260294 1.188656 1.118741 0.987667 1.138948 1.157714 1.185021 1.153293 1.122561 0.937685 1.013646 0.996902 1.215915 1.205650 1.121392 1.106874 1.082357 1.124653 1.170639 1.213579 1.079218 0.755131 0.713180 1.049255 1.194967 1.161377 1.238178 0.991094 0.836325 1.103136 1.120562 1.138813 1.162902 1.126693 1.115636 1.076388 1.022532 1.050280 1.101848 1.095979 1.046077 1.071251 1.073373 1.065358 1.057052 1.050727 1.053502 1.021554 1.022220 1.035344 1.060067 1.056758 1.064661 1.046568 1.015668 1.056070 1.004999 0.952979 1.034565 1.007204 1.035991 1.099175 1.065486 1.047659 1.074427 1.079862 1.106661 1.098059 1.069675 1.073027 1.040453 1.012073 0.898155 0.830054 1.005795 1.177853 1.143538 1.170500 1.221926 1.081282 0.977429 1.122766 1.162324 0.802978 0.711801 1.018532 1.107418 1.113588 1.080812 1.144728 1.226449 1.137175 1.038632 0.864412 0.521528 1.039491 1.291258 1.249455 1.256387 1.262072 1.199728 1.163159 1.158316 1.236226 1.238533 1.177950 1.180401 1.287284 1.270189 1.201723 0.742130 1.233690 1.225428 1.204360 1.183286 1.290738 1.269125 0.846084 0.865287 1.157567 1.260048 0.960149 0.986767 1.083098 1.064464 1.076316 1.112240 1.163851 1.094776 1.131462 1.070075 1.133109 1.138904 1.136389 1.183776 1.164185 1.076767 1.028431 1.129268 1.137758 0.986822 1.018400 1.210218 1.134947 0.955095 1.221642 1.231024 1.255329 1.324708 1.032861 0.548180 0.735127 1.149237 1.319856 1.239706 1.148111 1.147014 1.216029 1.191567 1.205940 1.134530 1.159574 1.167748 1.086430 1.165572 1.166868 1.217177 0.991220 1.373971 1.366854 1.224537 1.093272 1.184399 0.996194 0.637830 0.659622 1.133408 1.231761 1.264637 1.148145 1.099114 1.277446 1.103799 1.226103 1.184454 1.075835 1.083994 1.129722 1.169505 1.133579 1.065469 1.041268 1.116668 1.185362 1.176125 1.184302 1.105188 1.037120 1.164976 1.203377 0.988514 0.795796 0.876590 1.218629 1.020787 1.238941 1.289628 1.311630 1.265082 0.836460 1.335003 1.321448 1.236986 1.086781 0.985095 1.052346 1.148036 0.983394 1.090195 1.113460 1.139136 1.141412 1.103060 1.111612 1.133270 1.077897 1.023138 1.130988 1.007872 0.905773 0.984029 1.158232 1.255332 1.259567 1.132811 1.132890 1.238516 1.135754 1.020412 0.843931 0.978612 1.207262 1.216127 1.144929 1.088308 1.083679 1.074133 1.129126 1.163653 1.089532 1.054108 1.063664 0.904945 1.019999 1.019157 1.018633 0.966198 1.011482 1.094186 1.115314 1.080268 1.080826 1.083827 1.100595 1.095230 1.060416 0.919949 0.865755 1.094657 1.087897 1.188118 1.177117 1.089117 1.040868 1.151306 1.235537 1.215313 0.879889 1.155102 1.094542 0.885425 0.903777 0.967590 1.085736 1.165781 1.071419 1.118432 1.155390 1.108565 1.051738 1.032511 1.131699 0.988718 1.080013 1.057802 1.039532 1.072978 1.082472 1.095188 1.090496 1.094310 1.079441 1.088539 1.048067 1.039700 1.139206 1.083478 0.988366 0.967336 1.091198 1.052614 1.030493 1.033994 1.072785 1.075087 1.086250 1.086957 1.082464 1.082527 1.055860 1.055903 1.029820 0.998742 1.005071 1.016160 1.025570 1.009891 1.048647 1.052518 1.067498 1.023952 1.108029 0.999744 0.931904 0.990312 1.020743 1.065347 1.062267 1.015861 1.012923 0.948863 0.832740 0.863512 0.932980 1.017102 1.049620 1.068881 1.064533 1.074680 0.993507 0.975274 0.979084 1.039793 1.028912 1.018364 1.010796 1.005607 1.002334 1.000524 0.986559 0.996708 0.995645 0.997103 0.993802 1.000026 1.008788 1.007987
1.203692 1.191708 1.200866 1.239832 0.999005 0.847230 1.282411 1.226816 0.930551 1.109759 1.040396 0.845884 0.805830 0.820149 0.907841 1.065750 1.089751 1.131324 1.137377 1.179179 1.158295 1.070715 1.116186 1.144665 1.204547 1.109850 1.043617 1.063030 1.086146 1.107409 1.056428 1.005327 0.931280 0.811646 1.120094 1.132524 1.177787 1.245038 1.246051 1.000138 0.927097 1.065097 1.166417 1.107219 1.095728 1.122783 1.105669 1.095111 1.112101 1.045398 1.065894 1.086857 1.039218 1.042024 1.060593 1.052246 1.071572 1.070916 1.057288 1.013618 1.026451 1.061028 1.041146 1.019089 1.046421 1.040379 1.043666 1.052867 0.904663 0.832379 0.923187 0.952164 0.944528 1.027637 1.084485 1.035082 1.042701 1.073389 1.036071 1.048481 1.098391 1.089991 0.990078 0.971052 1.028210 0.932253 1.028345 1.117102 1.200740 1.159272 1.011760 0.966095 1.114673 1.191033 1.094573 0.907954 0.872405 0.757674 0.916224 0.987281 1.058440 1.154119 1.226975 1.154970 1.022436 0.823954 0.657635 0.774534 1.145854 1.210854 1.128600 1.131045 1.041137 1.020257 1.211221 1.177918 1.234491 1.159264 1.031489 0.922509 0.927099 0.869993 0.776605 1.114500 1.230019 1.158818 1.133322 1.139287 1.297371 1.206859 1.077217 0.965174 1.107360 1.042321 1.047770 1.178802 1.178128 1.131626 1.206161 1.190291 1.025329 0.950555 1.010799 1.102444 1.118671 1.134955 1.187106 1.210712 1.053000 1.019185 1.072597 1.123961 1.066190 1.148425 1.190130 1.220718 1.270441 1.300576 1.252445 1.331994 1.319550 0.828006 0.665816 0.973599 1.009405 1.254469 1.255165 1.170632 1.175510 1.192084 1.180427 1.181681 1.190268 1.190623 1.204546 1.094634 1.200449 1.135500 1.005228 0.745983 1.324711 1.333542 1.247990 1.349900 1.301527 1.193271 1.034070 0.859782 0.792877 1.192480 1.214610 1.261085 0.946256 1.182298 1.143285 1.138464 1.159663 1.157083 1.180351 1.187970 1.146246 1.112101 1.097268 1.087862 1.181448 1.176151 1.095978 1.109307 1.119642 1.067067 1.052608 1.269254 1.085755 0.966093 0.905816 1.163078 1.073489 1.313498 1.165766 1.133428 1.157788 0.712795 1.211469 1.192886 1.171232 1.105836 1.073543 1.101581 1.101663 1.079011 1.123511 1.073816 1.149429 1.173024 1.074827 1.148790 1.091525 1.066711 1.035411 1.082265 0.979047 0.886664 0.677167 1.087354 1.176780 1.259701 1.233235 1.150795 1.123847 1.068069 1.104037 0.667516 0.957116 1.158271 1.120082 1.105459 1.082728 1.082147 1.074467 1.169004 1.169308 1.079337 1.092947 1.048937 0.950718 0.786091 1.040621 1.150345 1.106687 1.099901 1.088323 1.109833 1.104599 1.049767 1.090289 1.077999 1.072901 1.026812 0.942442 0.726728 1.074209 1.112872 1.196622 1.063804 1.146186 1.181577 1.025433 0.911562 0.694045 1.002657 1.261335 1.248762 1.235788 1.220733 1.167539 1.116494 1.111974 0.921768 1.119409 1.143167 1.140761 1.138690 1.120344 1.102437 1.069443 1.068701 0.985296 0.962728 0.969788 1.087292 1.110509 1.105442 1.091278 1.076864 1.108263 1.094104 1.082895 1.081773 1.083972 0.992696 1.005945 1.043408 1.039315 1.065915 1.088133 1.089971 1.085833 1.080689 1.076661 1.060546 1.041745 1.038275 1.029518 1.000857 0.986690 1.018024 1.056878 1.067797 0.975403 1.012525 1.068068 1.008290 0.998773 1.048321 0.832401 0.890679 0.982883 1.023030 1.064378 1.052948 1.027023 1.056675 0.982859 0.858551 0.729724 0.871288 1.051435 1.111545 1.070803 1.054952 1.044887 0.996979 0.974917 1.007554 1.020141 1.005426 1.022264 1.031345 1.018432 1.002540 1.005860 0.995046 0.994365 0.993082 0.999309 0.992617 0.995541 0.992781 0.987172
1.089147 1.087440 1.194202 1.233903 0.942188 0.768664 1.155453 1.256307 1.136034 1.185995 1.175284 1.050296 0.976893 0.920072 0.636626 0.766989 1.029912 1.091928 1.056265 1.126578 1.173951 1.093601 1.176868 1.175570 1.097403 1.061039 1.081560 1.055823 1.010508 1.038694 0.949270 0.850385 1.003963 0.832702 1.073201 1.209322 1.179099 1.219232 1.196968 1.013146 1.035070 1.046304 1.078502 1.137927 1.118680 1.108200 1.092784 1.095116 1.121966 1.002825 1.057707 1.089288 1.068967 1.071469 1.048323 1.009244 1.013283 1.009121 1.035570 1.038864 1.062397 1.043438 0.922865 0.937409 0.988060 1.051967 1.059744 1.010752 0.936865 0.881481 0.917148 0.947860 0.988395 1.061187 1.096395 1.041938 1.048588 1.059776 1.044654 1.032192 1.002085 0.987569 0.944914 1.075317 1.109369 1.027596 1.073746 1.141253 1.128668 1.024325 1.059058 1.110425 1.166368 1.119418 1.118636 1.103182 1.069606 0.835164 0.934515 1.177145 1.157096 1.163879 1.227599 1.187127 0.941118 0.998744 1.159904 1.117643 0.813157 0.843324 1.013194 1.081788 1.007843 1.124639 1.082484 0.998955 1.183036 1.255090 1.252874 1.102180 1.132763 1.152469 1.270864 0.916742 1.211545 1.176775 1.182764 1.061144 1.221331 1.276401 1.236630 1.193865 1.128105 1.135848 1.072460 1.035605 1.141031 1.117526 1.219024 1.222265 1.004920 0.662754 0.879607 1.057314 1.013986 1.110929 1.144401 1.210164 1.140504 1.121893 1.180981 1.240655 1.230662 1.249409 1.228083 1.155262 1.051439 1.065647 1.086727 0.958554 0.769128 0.930932 0.760392 0.890522 0.974493 1.065247 1.241245 1.199316 1.184139 1.210245 1.169794 1.150326 1.197261 1.228272 1.211358 1.151170 1.258189 0.906919 1.242833 0.520271 1.050341 1.330047 1.295526 1.282252 1.200971 1.283353 1.256095 0.968733 1.143046 1.200215 1.265772 1.315312 0.960939 0.914918 1.166387 1.110508 1.079838 1.113112 1.124471 1.156263 1.104494 1.079157 1.141730 1.149033 1.176831 1.149956 1.033000 1.077344 1.103803 1.115000 1.038844 1.164428 1.096421 1.183333 0.988984 0.968537 0.967919 1.331133 0.990485 0.618101 0.852085 0.766539 0.931321 1.274690 1.278263 1.158536 1.230619 1.097995 1.068916 1.103037 1.084804 1.078682 1.169051 1.135811 1.113983 1.155430 1.132511 1.122449 1.084129 1.083556 0.894554 0.969059 0.712853 0.856850 1.107932 1.217596 1.250252 1.198110 1.206360 1.099401 0.880671 0.879190 1.244984 1.239463 1.025644 1.059958 1.140767 1.087517 1.064411 1.169822 1.118884 1.050903 0.904668 0.985833 0.934967 1.054738 1.166462 1.110522 1.072505 1.064539 1.075767 1.091842 1.009712 1.051683 1.073718 1.096187 1.090396 0.989088 0.921052 0.676618 1.008807 1.115394 1.205675 1.141443 1.018293 1.193743 1.186613 1.018130 0.628081 1.013260 1.052438 0.991081 1.088844 1.061914 1.165703 1.142262 1.084006 1.142886 1.157208 1.111853 1.100862 1.127810 1.125108 1.092993 1.115219 1.120822 1.119963 1.118364 1.117181 1.111442 1.108546 1.106753 1.106025 1.105115 1.104375 1.095236 1.054812 1.019100 1.053771 1.070799 1.034169 1.057670 1.086505 1.090424 1.087603 1.087392 1.078624 1.046031 1.039430 1.053519 1.004232 1.048862 1.051195 0.994101 1.021953 1.056100 1.051897 1.092790 1.026060 0.951323 1.064403 0.917243 0.840274 0.823815 0.885913 1.002069 1.003180 1.072535 1.063483 1.023182 0.928870 0.967656 0.979469 0.960495 0.832219 0.891131 1.124839 1.043168 1.066412 1.020863 1.061400 1.014045 0.959177 1.070686 0.995753 1.032847 1.032330 0.988114 1.015397 1.018364 1.048028 1.038252 1.036507 1.029874 1.030925 1.023278 1.011492 1.007986 0.994967
1.185014 0.992193 1.196168 1.278616 0.839575 0.980511 1.124065 1.160125 1.235703 1.121334 1.192506 1.139653 1.065593 0.964012 0.855672 0.847717 0.811504 0.898108 1.059530 1.077906 1.156941 1.141170 1.068812 1.080280 1.056689 1.075806 1.095577 1.072372 1.065322 1.145731 1.100599 1.079645 1.117744 0.791189 0.865869 1.047097 1.151048 1.201931 1.211898 1.082719 1.077194 1.061881 0.979579 0.957875 1.108961 1.149703 1.081595 1.073641 1.158302 1.028412 1.031620 1.055148 1.029417 1.025513 0.992162 0.974432 0.977688 0.959079 1.001647 1.051393 1.063131 0.980157 1.000744 1.023652 1.043899 1.046394 0.992585 0.953480 0.983940 1.075710 1.089379 1.067391 1.047045 1.030805 1.082715 1.053701 1.065453 1.058564 1.061030 0.986055 1.001806 0.983919 1.026280 1.120155 1.118941 1.063706 1.133010 1.183271 1.132845 1.157196 1.142212 1.139110 1.120915 1.145133 1.176887 1.181028 1.093896 0.830783 1.116871 1.267775 1.084104 1.126835 1.232260 1.204639 1.059234 1.170733 1.258970 1.260785 1.167264 0.701896 0.921759 1.131484 1.197362 1.152058 1.090656 1.046568 1.198049 1.265642 1.135377 1.122254 1.284113 1.045870 1.238895 0.900183 0.911348 1.159231 1.213379 1.186206 1.105529 1.183307 1.210031 1.276399 1.244217 1.268191 1.263920 1.259497 1.240538 1.109792 1.155513 1.185786 0.952542 0.864396 1.241107 1.161296 1.099360 1.124775 1.134777 1.215601 1.186551 1.196568 1.186095 1.216637 1.214677 1.196635 1.264261 1.201739 0.971365 1.166130 1.335797 0.891122 0.562386 1.237327 1.232548 1.179828 1.094219 1.070081 1.176726 1.202229 1.168227 1.208904 1.200759 1.146467 1.169829 1.193226 1.163655 1.187979 1.273748 1.168281 1.334486 0.603145 0.811312 1.105023 1.172534 1.306139 1.193154 1.246987 1.299287 0.772177 1.139394 1.199240 1.305916 1.216895 0.717890 0.949763 1.120474 1.169428 1.117951 1.143666 1.138392 1.119636 1.082216 1.029955 1.052666 1.169022 1.183198 1.089316 1.110970 1.080362 1.111991 1.089536 1.090064 0.991917 1.042002 1.253987 1.049081 1.034654 0.852941 1.346383 1.035684 0.718575 1.317081 1.327111 0.936442 0.861381 1.080274 1.115168 1.146380 1.099228 1.058838 1.083165 1.069026 1.121420 1.180414 1.100647 1.141982 1.129874 1.081080 1.122847 1.188216 1.187916 1.047515 0.967358 0.938030 0.597530 1.059914 1.197918 1.200990 1.212098 1.150054 1.053008 0.695815 1.230196 1.264103 1.132308 1.021540 1.101881 1.049806 1.098671 1.134498 1.166948 1.101873 1.110056 0.947668 1.007980 0.885776 1.100925 1.065744 1.003419 1.028509 1.023792 1.094627 1.103992 1.056055 1.049517 0.982999 1.077724 1.103717 1.164925 1.086762 0.775573 0.903999 1.042972 1.150871 1.213057 1.038886 0.953556 1.147272 1.117275 0.959652 0.901752 1.002669 0.898432 0.981099 1.061804 1.187316 1.052353 1.035411 1.174453 1.089205 1.020838 0.986360 1.095965 1.112647 1.126497 1.123188 1.103699 1.061085 1.095802 1.107036 1.102641 1.069752 1.062487 1.062635 1.048632 1.070284 1.093146 1.089414 1.063993 1.078518 1.086828 1.094299 1.092036 1.087799 1.071907 1.064016 1.041123 1.004690 1.047405 1.007936 1.060706 0.979032 1.068385 1.056610 1.038745 1.036467 1.071138 1.047335 1.067257 1.094864 0.926860 0.892428 0.823077 0.834555 0.944732 1.003698 1.011487 1.057261 1.068237 1.048620 1.039064 1.063422 1.104673 1.090968 1.062531 1.015713 0.954784 1.042437 1.045833 1.126258 1.030072 1.068785 0.982156 1.029300 1.086694 0.933018 1.039893 1.034150 0.973045 1.072266 0.997338 0.988966 1.015502 1.047464 1.019540 0.992757 0.988924 1.029556 1.026474 1.016281
0.809880 0.669794 0.841001 0.935612 0.904817 0.945882 0.980742 1.076194 1.215674 1.135669 1.215430 1.130963 1.087038 1.005435 1.047970 0.972601 0.951721 0.938366 1.054942 1.072055 1.153184 1.121578 1.058542 1.076824 1.058628 1.032549 1.017971 1.033597 1.107500 1.169167 1.127551 1.139561 1.082651 0.862951 1.084001 1.066029 1.046774 1.125462 1.198798 1.122632 1.105822 1.106832 1.037958 0.933437 1.027793 1.057439 1.094627 1.094404 1.131039 1.141911 1.025457 1.028281 1.016738 1.034304 1.023776 0.998057 1.009034 0.994634 1.008634 1.060858 1.054203 1.028040 1.009532 0.963683 1.072294 1.036469 0.994785 1.060043 1.065629 1.075868 1.078083 1.059707 1.026524 1.018568 1.069189 1.044040 1.047126 1.076860 1.061337 1.044425 1.053397 1.035617 1.133667 1.157552 1.164724 1.171774 1.161552 1.140632 1.106564 1.115896 1.160063 1.192053 1.186040 1.132936 1.028288 0.978235 1.103822 1.058442 0.865799 1.205526 0.943755 1.086885 1.228477 1.237852 1.156012 1.045967 0.820483 0.979178 0.915276 0.739237 1.210499 1.149060 1.152061 1.102588 1.164358 1.137558 1.270171 1.134614 0.916893 1.042163 1.240548 1.195210 0.915521 0.930542 0.910446 1.291101 1.216590 1.274295 1.230814 1.207803 1.172706 1.280490 1.266983 1.238309 1.148304 1.112528 1.071621 1.069571 1.180577 1.247826 0.979347 0.781559 1.184875 1.121117 1.127846 1.103053 1.093393 1.179362 1.198491 1.219932 1.209252 1.192047 1.117585 1.113345 1.254277 1.275814 1.240784 1.179860 0.974877 0.750780 1.028803 0.895611 1.283492 1.291240 1.160176 1.177010 1.115376 1.102785 1.089171 1.176967 1.224681 1.130325 1.167405 1.216378 1.180055 1.194843 1.184066 1.125319 0.962803 0.975507 0.776128 1.140568 1.162497 1.193385 1.174610 1.206103 1.203498 0.893156 1.026818 1.230789 1.294900 1.125799 0.887648 1.124624 1.184662 1.101933 1.079770 1.131186 1.135820 1.119347 1.100736 1.087999 1.181336 1.182748 1.162888 1.075286 1.106221 1.116314 1.114254 0.930910 0.852374 0.918518 0.696521 0.764661 1.053362 1.190421 1.018227 1.165729 0.853002 0.735823 1.250107 1.197002 1.206342 1.149707 1.140580 1.008292 1.076375 1.056591 1.116913 1.087568 1.091145 1.171175 1.158213 1.160587 1.119640 1.048238 1.029159 1.030181 1.129542 1.246285 1.239047 1.023840 0.958389 0.796795 0.915823 1.224421 1.197790 1.183039 1.132353 1.116214 0.842257 1.247754 0.975047 0.962484 1.170799 1.127592 1.037552 1.147910 1.177647 1.111953 1.101489 1.101591 1.026230 0.990024 0.822153 1.132221 1.112708 1.083450 1.100682 1.090192 1.080662 1.104219 1.103791 1.097231 0.985274 0.873200 0.914200 1.003349 1.058342 0.849453 0.866107 0.941708 1.080144 1.217892 1.223866 1.029646 0.974021 0.971237 0.766604 1.081330 1.251893 1.178209 1.222277 1.153570 1.187575 1.083320 1.062968 1.122465 1.023674 1.015269 1.063478 1.083414 0.985583 1.041478 1.017537 1.067395 1.011415 1.054625 1.038003 1.054579 1.030081 1.013113 1.015787 1.012247 0.993033 1.002690 1.059502 1.059106 1.049655 1.078313 1.064442 1.044315 1.073015 1.048294 1.054020 0.978099 0.946328 1.078695 1.000835 1.017088 0.995664 1.084934 1.052104 1.057080 1.057690 1.077369 0.970285 0.939266 0.912249 0.812154 0.839430 1.019158 1.008839 0.988060 1.022636 1.063605 1.070963 1.055484 1.013176 1.013136 1.011515 1.020242 1.115809 1.041760 0.876333 0.848726 0.893262 1.096807 1.090523 0.942035 0.998692 1.039955 1.054957 1.094623 0.986163 1.041016 1.008033 1.030738 1.089319 0.926206 0.925360 1.000032 1.045378 0.993726 1.008645 0.995777 1.007123 1.016096 1.010331
1.122244 0.810055 0.738174 1.052419 1.047501 1.137821 1.128257 1.062617 1.083055 1.102608 1.141277 1.125462 1.109095 1.110032 1.128288 1.130832 1.054937 1.064039 1.068342 1.034747 1.105440 1.149659 1.065562 1.083834 1.063234 1.077828 1.117390 1.086734 1.112003 1.119846 1.176005 1.089562 0.998752 0.929722 1.107567 1.159859 1.103741 1.073385 1.131847 1.121733 1.099850 1.104233 1.091948 0.995583 1.066176 1.057707 1.020387 0.970692 1.020989 1.085061 1.129881 1.044553 1.032806 0.976463 0.968027 1.014811 1.022836 1.016826 1.028396 1.044825 1.065565 1.057709 1.014645 0.996286 1.017713 0.976107 0.988934 1.050269 1.043566 1.078363 1.054344 1.057874 1.056208 1.074572 1.096376 1.048730 1.032804 1.057580 1.090812 1.038714 1.042968 1.085122 1.143870 1.040023 1.067906 1.056339 1.045046 1.071419 1.092383 1.110620 1.107247 1.074057 1.202388 1.215938 1.109502 0.948159 0.739551 0.769039 0.909409 0.832267 0.905754 1.131947 1.177700 1.240516 1.246592 1.142693 0.883420 1.193043 0.907609 0.567733 1.182633 1.142332 1.090153 1.127118 1.132241 1.129295 1.234896 1.163928 1.208033 1.236651 1.213231 0.763584 1.029898 1.313828 0.934346 0.955313 1.153938 0.986346 1.297669 1.302081 1.183733 1.185724 0.970337 1.002593 1.046130 1.056641 1.150639 1.264624 1.210012 1.215830 1.096058 0.592927 0.941336 0.832339 1.007082 1.039208 1.084921 1.116926 1.233232 1.158648 1.065381 1.191310 0.976350 0.984599 1.238324 1.254937 1.253621 1.278009 0.944821 0.800191 1.247474 0.845394 0.981061 1.196207 1.190844 1.159908 1.261115 1.271280 1.229535 1.163336 1.193756 1.090357 1.217706 1.199752 1.079105 1.168248 1.126628 1.027430 0.795939 1.368338 1.135315 1.144128 1.075228 1.171001 1.218531 1.181647 1.187997 1.073953 0.992834 1.138284 1.286985 1.202121 0.995431 1.166568 1.126220 1.109546 1.141725 1.128207 1.098749 1.108509 1.148270 1.179747 1.175251 1.092857 1.130118 0.985401 0.912544 0.916681 0.899325 0.761712 0.565484 0.582339 0.840861 1.128939 0.908110 0.968760 0.805242 0.696956 0.740437 0.755089 0.891993 1.030702 1.157402 1.258348 1.229360 1.096255 1.076544 1.121993 1.144404 1.115568 1.104272 1.184594 1.119414 1.137451 1.057943 1.078563 1.092589 1.018523 1.045208 1.148460 1.251820 1.257645 1.086974 1.014874 0.595165 1.086870 1.231045 1.155912 1.126426 1.035867 0.751702 1.099856 1.107697 1.130776 1.191920 1.074513 1.097725 1.182479 1.176797 1.107859 1.120059 1.003962 0.979717 0.710355 1.121775 1.141547 1.160707 1.120284 1.048420 1.030197 0.992786 1.032734 1.101599 1.080429 1.011536 0.839099 0.802507 0.863142 0.865813 0.888867 0.887862 0.868001 0.803913 1.158382 1.227678 1.186882 1.051480 0.971377 0.748011 1.095526 1.129013 1.171078 1.189019 1.124482 1.203300 1.087425 1.047140 0.990768 0.995215 1.014035 1.128131 1.073178 1.017978 1.044014 1.024366 0.999318 1.056030 1.054879 1.041211 1.059885 1.007838 1.024100 1.020280 1.015099 0.982296 1.046444 1.065701 1.027000 1.015542 1.049445 1.040016 1.032324 1.040284 0.985529 1.094813 1.070513 0.914920 1.053621 1.043904 0.956639 1.051640 1.059771 1.035575 1.042763 1.026157 1.041886 0.916149 0.894680 0.946729 0.921018 0.924092 1.039910 1.042907 1.041000 1.082008 1.073409 1.052326 1.048041 1.045276 0.992652 1.010160 0.996480 1.042695 1.129270 1.045275 0.790047 0.749756 1.018218 1.066719 0.963417 1.021353 1.045020 1.113609 1.084538 0.984042 1.004649 0.974112 1.102817 1.031580 0.906334 0.913012 1.031699 1.038686 1.011684 1.000753 1.007164 0.972629 0.916507 0.985679
1.086248 0.925353 1.006268 1.174801 1.134420 1.074660 1.166978 1.029284 1.044754 1.104895 1.108369 1.158760 1.152295 1.168029 1.125859 1.115558 1.100216 1.082102 1.083193 1.004508 1.041241 1.150343 1.038420 1.074925 1.068624 1.105076 1.093346 1.131094 1.146027 1.181122 1.061425 0.974519 0.873071 0.927230 1.158466 1.221581 1.208974 1.181074 1.117391 1.138735 1.163782 1.108567 1.103319 0.987253 1.053676 1.057275 1.048005 1.017020 1.031536 1.033755 1.045996 1.091017 1.093117 0.979635 1.003080 1.009951 1.028697 1.058410 1.043615 1.061143 1.073470 1.039304 0.983658 0.973055 0.971366 1.026403 1.017835 1.022735 1.042557 1.065537 1.102007 1.113211 1.070988 1.063246 1.086592 1.074583 1.046086 1.055006 1.049485 1.095084 1.135457 1.132125 1.130609 1.117973 1.086117 1.115290 1.062274 1.079927 1.092499 1.133585 1.070198 0.951489 1.095329 1.216865 1.203343 1.078667 1.032309 1.089362 1.184077 1.057641 0.759614 1.046066 1.147183 1.193216 1.251026 1.212884 1.093438 1.195775 0.964727 0.717931 1.098969 1.251275 1.204447 1.161808 1.184359 1.214329 1.277516 1.212385 1.183691 0.940075 0.687784 1.128222 1.180231 1.288456 1.121723 0.762676 0.902794 0.976990 0.820290 0.964721 1.135592 0.973843 0.998555 1.159384 1.099736 1.148129 1.229537 1.165603 1.075198 1.191758 1.284118 0.777729 1.254062 1.207228 1.213746 1.235927 1.130324 1.150598 1.208640 1.137056 1.053734 1.079299 1.029840 1.212375 1.176558 1.076458 1.153624 1.305079 1.097298 1.105223 1.294485 1.180898 0.889554 1.252905 1.223205 1.211461 1.266311 1.224210 1.220546 1.285759 1.257228 1.227826 1.106767 1.151661 0.990589 1.283088 1.222764 1.067359 0.522513 1.100445 1.296178 1.104010 1.236488 1.228945 1.251879 1.270349 1.208245 1.178538 1.005024 1.057179 1.195034 1.193793 1.056206 1.089053 1.090345 1.145820 1.079900 1.096701 1.078467 1.163630 1.181255 1.180936 1.062415 1.010014 1.225551 1.173125 1.157603 1.121308 1.025025 1.018638 1.037326 1.142841 1.263630 1.242577 1.126312 1.224818 0.885925 0.687706 1.324614 1.270185 1.061291 0.989967 1.144630 1.272058 1.161178 1.089910 1.067328 1.123469 1.158377 1.121978 1.125383 1.167227 1.059929 1.135679 1.049626 1.091424 1.085451 1.023134 0.906408 0.926394 1.185024 1.256320 1.259699 1.080667 0.921543 0.782763 1.217870 1.267468 1.186653 0.913787 1.006498 1.184084 1.145022 1.188438 1.108440 1.061954 1.144660 1.156720 1.084794 1.021840 1.075638 1.018586 0.999282 0.693135 1.172704 1.125719 0.999471 0.909651 0.938509 1.006016 1.059837 1.102294 1.103112 0.948186 0.861917 1.029752 1.104772 1.066697 1.064422 1.083290 0.993454 0.924620 0.815926 0.976179 1.144215 1.155332 1.109365 1.016604 0.940767 0.919370 1.053590 1.221655 1.138009 1.088243 1.190121 1.125935 1.046759 0.879585 1.038663 1.110968 1.168532 1.029793 1.053926 1.091524 1.065112 1.023125 1.062654 1.043938 1.044284 1.048214 1.041795 1.064790 1.013017 1.011982 1.027101 1.121498 1.026511 1.047049 1.056199 1.075989 1.045733 1.044117 1.047571 1.006357 1.006271 1.131447 1.011449 0.996512 1.112908 0.972483 1.059774 1.047089 0.958818 0.974788 0.987352 0.940811 0.958748 1.039632 1.057867 1.008989 0.960691 1.007175 1.064141 1.080078 1.076600 1.045664 1.021194 1.005525 1.092650 1.038554 0.969435 0.947556 0.904301 1.106830 1.142922 0.962172 0.781017 0.856461 0.905808 1.050400 1.093061 0.993771 1.143920 1.023866 0.938260 0.925748 1.065037 1.114373 1.019032 0.910133 0.937405 0.994171 1.040332 1.012685 1.006636 0.983500 0.949789 1.028466 1.033159
1.295747 1.169628 1.166621 1.134707 1.220670 1.211893 1.197810 1.159803 1.176410 1.175919 1.164266 1.141969 1.139347 1.134831 1.164279 1.162730 1.177564 1.165075 1.169576 1.146616 1.064101 1.139305 1.083206 1.064747 1.120447 1.146410 1.175943 1.198617 1.209141 1.191593 1.166026 1.106928 0.896290 0.959796 1.273108 1.173650 1.109239 1.105941 1.062818 1.091738 1.135944 1.165025 1.112840 0.994694 1.035579 1.084436 1.070052 1.054239 1.031585 1.024561 1.003961 0.981423 1.078196 1.066468 1.029222 1.049629 1.056164 1.046624 1.062861 1.063289 1.012981 0.995523 1.076601 1.045561 1.027900 1.076148 1.097669 1.054488 1.066831 1.042557 1.082107 1.075787 0.991491 0.967644 1.026924 1.098884 1.072032 1.026260 1.012550 1.066348 1.068542 1.066101 1.095215 1.070894 1.032037 1.125729 1.066878 1.067847 1.068270 1.131371 1.122490 0.903329 0.994906 1.195258 1.223023 1.188452 1.106512 1.007087 1.124647 1.107169 0.875051 1.163216 1.188004 1.207541 1.206588 0.974807 0.995554 0.923206 1.146193 1.141884 0.977328 1.178724 1.207980 1.236966 1.250659 1.222806 1.256880 1.177387 0.963733 1.059467 0.799887 1.071666 1.211515 1.302900 1.226854 1.230312 1.088617 1.188883 0.760853 0.982785 0.697392 1.009370 1.289920 1.275683 1.193309 1.283595 1.211636 1.075436 1.041681 1.224325 1.218108 0.682887 1.190363 1.265202 1.192636 1.125880 1.115996 1.239974 1.147262 1.122416 0.735227 0.848601 1.105033 1.069422 1.004660 1.094424 1.158388 1.307122 0.959421 1.100934 1.250545 1.218216 0.908482 1.267608 1.249963 1.179823 1.166728 1.151956 1.172314 1.148867 1.174583 1.278939 1.263753 1.108038 1.135643 1.242651 1.163966 0.944125 0.692255 1.183797 1.254439 1.073287 1.148290 1.049750 0.978929 1.181701 1.198557 1.215685 1.042652 1.055928 1.034681 1.166868 1.062761 1.061570 1.031215 1.067385 1.016106 1.072097 1.050376 1.116642 1.181014 1.124704 1.046251 0.934807 1.170093 1.149334 1.199003 1.267358 1.276063 1.224951 1.211952 1.269495 1.180253 1.183916 1.045781 0.962829 0.927965 0.837925 1.330344 1.313628 1.325394 1.298589 1.136571 1.078811 1.095738 1.075655 1.113219 1.094584 1.186351 1.192016 1.152162 1.148451 1.103113 1.134932 1.058024 1.080272 1.107334 1.035279 1.023868 0.796815 1.036731 1.228387 1.260249 1.247329 1.069579 0.916170 0.730437 1.113687 1.213880 0.861136 1.154215 1.195124 1.184227 1.143621 1.122161 1.175566 1.168468 1.158780 1.107475 1.091839 0.954836 1.040201 1.001434 0.794958 0.929330 1.074987 1.119159 1.155936 1.137350 1.079839 1.051738 1.100476 1.062624 0.991211 1.073368 1.110705 1.087899 1.035835 1.104636 1.104824 1.052018 1.124587 1.087572 0.854090 1.117733 1.194995 1.202942 1.117423 0.943007 0.940135 0.951509 1.181335 1.111937 1.132254 1.193848 1.149790 1.002940 0.983443 1.091698 1.131984 1.164045 1.063940 1.087654 1.061845 1.064238 1.075111 1.082807 1.010605 1.061267 1.057834 1.060321 1.058847 1.020948 1.054162 1.078416 1.097242 0.999282 1.080182 1.038241 1.081145 1.064020 1.033319 1.069106 0.961977 0.957662 1.139620 1.077037 0.980298 1.103545 1.019461 0.977830 0.964663 0.887857 0.872999 0.921490 0.913414 0.998106 1.069088 1.089250 1.064718 1.038784 1.069706 1.080682 1.079941 1.038507 1.007687 1.009720 0.981536 1.056842 1.102609 1.036386 0.902769 0.738321 0.919763 1.151670 1.098758 0.874013 0.762133 0.858749 1.169350 1.032812 1.016774 1.155267 0.910137 0.881257 1.114935 1.131774 1.074993 1.075553 0.952258 0.975293 0.982546 1.027630 1.021959 0.964879 0.983275 1.031827 1.058666 1.028515
1.262267 1.032681 1.068205 1.138645 1.233462 1.207204 1.166885 1.152467 1.141965 1.157021 1.121964 1.105633 1.109785 1.105991 1.115707 1.119295 1.092401 1.070891 1.062766 1.067917 1.106467 1.133175 1.108576 1.092330 1.101694 1.093744 1.112376 1.095333 1.091077 1.133847 1.201022 1.151844 0.951717 0.796894 0.996175 0.891493 1.116694 1.088515 1.111557 1.156985 1.149056 1.146899 1.133108 0.977127 1.028653 1.070179 1.049427 1.041231 1.024436 1.048106 0.995792 0.991665 1.014752 1.045486 1.015605 1.063393 1.054534 1.065748 1.010692 0.999641 0.992776 1.009021 1.034925 1.031500 1.043403 1.040190 1.030728 1.073507 1.122393 1.065036 0.997081 0.962398 1.026286 0.997296 1.013588 1.105718 1.087446 1.029888 1.037188 1.024895 1.019995 1.028692 1.063624 1.045723 1.021014 1.074729 1.145775 1.090469 1.076266 1.069288 1.179333 1.128418 0.942303 1.110629 1.232249 1.233111 1.121481 0.998697 1.059246 0.884314 0.711196 1.105813 1.208595 1.203504 1.147989 1.056055 1.005553 1.206048 1.200225 1.129807 0.857653 0.929621 0.954401 1.055340 0.869495 0.856962 0.819991 0.857564 0.738487 0.987447 1.224845 1.110782 0.843458 1.186603 1.124247 1.083270 1.243741 1.275833 1.072598 1.309723 0.985694 1.127080 1.050936 1.079859 1.060684 1.239844 1.114071 1.030668 1.118169 1.236592 1.257107 0.902573 1.194326 1.111595 1.123489 1.161461 1.174247 1.271631 1.205887 1.107452 0.791232 1.119523 1.166696 1.165858 1.173832 1.161777 1.159930 1.311402 1.003395 1.172839 1.313025 1.133045 1.006159 1.093245 1.275660 1.324224 1.335847 1.270484 1.193603 1.242371 1.123166 1.223125 1.283420 1.086324 1.115079 1.221844 1.250572 1.014096 0.713863 1.243979 1.239781 1.133313 1.119226 0.898130 1.030438 1.042737 1.076081 1.176541 1.082682 1.136298 1.103103 1.146056 1.078520 1.059518 1.028314 1.068682 1.024515 1.071090 1.091670 1.183252 1.184609 1.105564 1.083126 1.056306 1.123325 0.983630 1.003044 1.242158 1.237858 1.247148 1.215709 1.160871 1.117446 0.789793 1.071408 1.221453 1.096594 0.697130 1.155127 1.241368 1.254314 1.153777 1.166352 1.146343 1.146283 1.077033 1.131203 1.125156 1.177498 1.127861 1.072093 1.101784 1.141875 1.092581 1.065622 1.052957 1.022177 0.988311 1.057575 1.047536 0.720301 1.159221 1.215554 1.262973 1.227323 1.064910 0.799303 0.595854 0.947830 0.954525 1.145444 1.164844 1.044648 1.077645 1.111773 1.189243 1.181643 1.036595 1.079270 1.187158 0.985344 0.881757 1.028703 0.856340 0.993925 1.160487 1.050784 1.021567 0.987246 1.005602 1.064570 1.103202 1.098270 1.100731 1.083080 1.072986 0.986319 0.976392 1.075463 1.079798 1.077004 1.094779 1.089268 0.889437 0.818408 1.127073 1.189722 1.076852 0.739798 0.650770 0.578266 0.936747 1.062491 1.160051 1.136488 1.003816 0.998411 1.028368 1.134345 1.123476 1.182102 1.109071 1.068686 1.051569 1.121312 1.102473 1.040881 0.989720 1.097302 1.081270 1.075388 1.052903 1.062662 1.069769 1.104897 1.061735 1.028955 1.080913 1.005266 1.058220 1.059562 1.029714 0.961230 0.972518 1.029395 1.147699 1.074299 0.992652 1.070909 0.957493 0.933115 0.986410 1.104810 0.964735 1.041017 1.052845 1.063254 1.088741 1.094275 1.091781 1.090181 1.078542 1.080095 1.034807 0.994253 0.977512 1.047448 0.991166 0.978284 1.107171 1.113471 0.993356 0.840232 0.724600 1.141032 1.161078 0.917286 0.694361 0.958349 1.165577 0.946968 1.049361 1.168481 0.818439 1.129869 1.154779 1.046069 1.051008 1.051425 0.988605 0.900199 0.917286 0.948282 0.952612 0.986774 1.002430 1.061238 1.064713 0.931999
1.151637 1.190177 1.261032 1.256178 1.234411 1.139587 1.127587 1.181776 1.169504 1.127112 1.081163 1.077821 1.078344 1.070920 1.072909 1.116314 1.100996 1.128592 1.070182 1.050098 1.070493 1.149774 1.090648 1.034511 1.052468 1.041545 1.042069 1.155552 1.137947 1.071111 1.021267 0.996588 0.828754 0.598115 0.834254 0.851377 1.071093 1.061887 1.031000 1.018404 1.094663 1.161617 1.159256 0.956488 1.025172 1.067204 1.052624 1.042545 1.058233 1.037419 0.987956 1.000920 1.031285 1.023110 1.025896 1.065141 1.017382 1.034232 1.021634 1.026546 1.070351 1.063717 1.076945 0.977496 1.004252 0.977941 1.061980 1.048672 1.128568 0.989279 0.882506 0.905044 0.978345 0.950018 0.983590 1.106103 1.092122 1.086504 1.061998 1.011246 1.046904 1.003863 0.997070 0.993957 0.969183 1.030065 1.158652 1.118997 1.078087 0.914636 0.953702 1.118747 1.059203 1.147029 1.173821 1.195975 1.225865 1.083728 0.990141 0.940807 1.001341 0.787954 1.058398 1.277180 1.245020 1.196769 1.207636 1.138151 0.841940 0.899743 0.646272 0.766387 1.012107 1.158754 1.142031 1.192449 1.046876 1.145639 1.007969 1.088360 1.134099 1.238659 1.095948 1.206809 1.244681 1.002764 1.189399 1.246672 1.218989 1.296913 1.146613 1.312888 0.826692 0.719007 1.102167 1.087106 1.031186 1.187474 1.210067 1.184050 1.211580 0.919373 1.256028 1.208776 1.228989 1.185046 1.109499 1.260517 1.250076 1.187850 1.078977 1.119451 1.134979 1.148482 1.205282 1.190037 1.177366 1.259261 1.179270 1.231382 1.343058 1.048359 0.826530 0.982128 1.061676 0.839443 0.968353 1.016610 0.897407 1.200475 1.189529 1.221071 1.256456 1.172156 1.169750 1.124014 1.133939 0.840582 0.782598 1.251682 1.227955 1.235126 1.248512 1.125453 1.046692 1.126376 1.150741 1.160852 1.156494 1.131849 1.115560 1.104463 1.120902 1.131302 1.107755 1.054804 1.056983 1.077460 1.169304 1.181516 1.175859 1.073589 1.086832 1.037709 1.049886 0.946892 0.880430 1.019384 1.140492 1.210876 1.296974 1.243787 1.276082 1.206073 1.248338 1.331202 1.168664 0.745922 1.022308 0.971462 0.951379 1.158216 1.257705 1.158340 1.145537 1.104082 1.111366 1.134055 1.187170 1.136145 1.075105 1.095817 1.156822 1.112592 1.166888 1.053776 1.002166 0.917176 1.036487 1.020866 0.741675 1.053915 1.182110 1.267220 1.269357 1.101708 1.058522 0.898946 1.169098 1.269299 1.232595 1.128347 1.046864 1.181557 1.092744 1.153741 1.150123 0.965114 0.992205 1.179524 1.094292 0.985728 0.905821 0.655631 0.709984 1.031096 1.104334 1.126724 1.164241 1.146084 1.132588 1.039208 1.053033 1.099598 1.011804 0.979088 1.003542 1.070720 1.097820 1.086348 1.096958 1.104208 1.003954 1.049892 1.020632 0.745878 0.799453 1.015291 1.040868 1.087255 0.706778 0.821933 0.730998 0.773122 0.961695 1.026088 0.969484 1.042591 1.117450 1.079800 1.124517 0.984903 1.052626 1.080765 1.103697 1.094608 1.059118 1.023795 1.111953 1.099772 1.120186 1.016125 1.023000 1.046781 1.096477 1.050326 1.073481 1.062495 1.044503 1.075813 1.077013 1.060630 0.962972 1.060495 1.089522 1.156310 1.079199 0.917527 0.968564 0.991035 1.127385 1.061027 1.090837 1.104437 1.120477 1.113162 1.105955 1.096720 1.092938 1.071422 1.003712 0.975722 1.091057 1.070689 0.962434 0.917399 1.024835 0.971567 0.949163 1.079501 1.109531 1.091391 0.969359 0.806488 1.031400 1.165797 1.130939 0.835428 0.896419 1.055791 1.045099 1.143247 1.147810 0.993293 1.109148 1.051303 1.005674 1.096643 1.082374 0.938199 0.840161 0.931109 0.964033 0.962025 1.006309 0.963759 1.033656 1.068577 0.860035
1.115016 1.170611 1.040912 0.871974 0.963792 0.930221 1.088624 1.201516 1.167978 1.080534 0.997636 1.069350 1.067568 1.079056 1.157182 1.159988 1.102927 1.120280 1.111341 1.053703 1.042033 1.134372 1.137326 1.043883 1.092868 1.054987 0.901065 0.965277 1.060485 1.031890 0.882425 0.700099 0.737442 0.849108 0.975468 0.996030 1.044834 1.101654 1.082733 1.050560 1.037048 1.087174 1.150354 1.019556 1.022415 1.073893 1.062048 1.057675 1.053210 1.032293 1.016457 1.038817 1.045533 1.028593 1.064510 1.005107 0.987181 0.995431 1.014285 1.043947 1.032827 1.077361 1.072618 0.980388 0.990828 1.091224 1.124323 1.088135 1.110349 0.960289 0.894444 0.939035 0.886380 1.024437 1.060824 1.107816 1.100400 1.079849 1.026202 1.065690 1.091913 1.078735 1.114380 1.114590 1.048073 1.044867 1.116173 1.170160 1.090488 0.980348 0.909650 0.793216 0.781109 1.007456 1.135060 1.187833 1.219486 1.184278 1.139391 1.220585 1.227481 1.222755 0.938143 1.150621 1.283536 1.242334 1.263751 0.967245 0.682451 1.161552 1.122590 0.958554 1.039571 1.185108 1.184336 1.285936 1.184959 1.175085 0.907386 1.188912 1.153724 1.190691 1.157795 1.199861 1.156527 1.060557 1.117179 1.181990 1.200565 1.276120 1.143441 1.073727 0.986590 1.224721 1.179076 1.105246 1.189716 1.202957 1.163037 1.172014 1.195034 0.889651 1.283373 1.259333 1.165538 1.141640 1.045144 1.300307 1.117723 0.973437 1.071572 1.098673 1.107474 1.108871 1.116296 1.144928 1.250617 1.262686 1.268600 1.326169 1.323758 0.771318 0.675651 1.126168 1.360080 1.301637 0.893373 0.604219 0.874631 1.224272 1.213651 1.218217 1.229500 1.190186 1.163801 1.155547 1.010770 0.929411 0.726266 1.157906 1.163938 1.080555 1.160159 1.243291 1.102389 1.142388 1.166356 1.138615 1.125471 1.133881 1.131898 1.100550 1.153562 1.191035 1.187946 1.144545 1.151017 1.163909 1.184038 1.078292 1.113056 1.040085 1.081859 1.110478 1.069129 0.944350 1.022535 0.817002 0.719423 0.955402 1.167659 1.315908 1.315883 1.243975 1.212908 1.284499 0.889939 0.787824 1.081521 1.138410 1.107050 1.074128 1.150717 1.035892 1.067248 1.067766 1.109435 1.123409 1.188056 1.125695 1.137482 1.075481 1.082044 1.100772 1.234856 1.221324 1.121720 0.994212 0.984341 0.899480 0.807123 0.768828 1.159352 1.220434 1.270146 1.135871 0.832181 0.685716 1.200073 1.276493 1.238009 1.080296 1.110487 1.212717 1.118903 1.169218 1.080400 1.048757 0.938299 1.159788 1.203816 0.978731 1.014257 0.931592 0.700171 1.157511 1.204338 1.194721 1.150018 1.040391 0.997381 0.946843 0.986878 1.097413 1.064229 1.010558 1.001816 0.993102 1.023623 1.027778 1.079743 1.100795 0.930170 0.906087 0.766851 0.670348 0.936397 1.172587 1.236656 1.150894 0.878304 1.153290 1.090413 0.959231 0.852036 0.761572 0.761073 0.973430 1.147716 1.147460 1.008862 0.994656 1.086531 1.100777 1.083936 1.094705 1.019892 1.021360 1.146584 1.119592 0.992870 0.880884 1.047125 1.091183 1.083131 1.072008 1.081976 1.058465 1.065642 1.030914 1.039018 1.064321 0.920509 1.110359 1.074381 1.118299 1.059867 0.857998 0.902694 0.978812 1.029492 1.097873 1.106606 1.122076 1.121275 1.016394 0.998092 1.097141 1.065643 0.970754 0.941144 0.967246 1.101334 1.093970 1.044680 0.928375 0.857316 0.779811 0.925742 1.072491 1.116570 1.122864 0.997782 0.868140 0.755589 1.150511 1.176371 1.061400 0.754854 0.818129 1.146960 1.158525 1.111948 1.146905 0.911689 0.959904 0.991690 0.999098 0.924395 0.779306 0.875478 1.022658 1.051924 1.012100 0.989809 1.003101 1.072769 1.064216 0.902205
1.128576 1.279144 1.043976 0.743730 0.961923 0.964064 1.165550 1.214926 1.175491 1.138389 0.930253 0.960060 1.088432 1.170985 1.151722 1.164380 1.024358 1.053515 1.132370 1.024092 1.037686 1.108823 1.144564 1.056605 1.094322 1.002825 0.985007 0.959454 0.911400 0.885000 0.932842 0.867360 0.894936 1.019930 1.025095 1.034822 1.049994 1.103928 1.069293 1.075532 1.029918 1.036678 1.111791 1.130391 0.979585 1.026490 1.011706 1.006268 1.020013 1.025748 1.039542 1.050389 1.036053 1.063416 1.023882 1.014961 1.023768 1.030298 1.033025 1.018498 1.041401 1.063402 1.049390 1.043211 1.105162 1.104814 1.096826 1.083498 1.110371 0.983236 1.069460 1.013866 0.970899 1.015337 1.065421 1.099854 1.092620 1.009372 0.996330 1.064273 1.081475 1.070080 1.090008 1.081681 1.088610 1.041827 1.101624 1.142391 1.154280 1.098985 0.940842 0.740377 0.607620 0.958656 1.072261 1.099707 1.206210 1.200257 1.104069 1.126447 0.879945 0.888383 0.925777 1.165093 1.092260 0.990987 0.973323 0.891375 0.943672 1.151133 1.193418 1.186505 0.992835 1.191254 1.175920 1.158773 1.001911 1.024419 0.937145 1.050850 1.174074 0.911301 1.076503 1.198971 1.182606 1.093899 1.168561 1.273983 1.141095 1.057976 1.151883 0.644562 0.839157 1.141201 1.158363 1.232969 1.191697 1.179398 1.196843 1.178069 1.110493 0.977096 1.285426 1.128295 0.963585 1.001127 1.052431 1.154052 1.064308 1.062132 1.112153 1.111769 1.140621 1.163174 1.168346 1.217649 1.265840 0.977783 1.003180 1.164676 1.048714 0.593054 0.776243 1.156283 1.212119 1.322559 1.340406 1.268159 0.781791 0.801873 1.115179 1.141419 1.225468 1.260954 1.151232 1.220035 1.115324 1.037349 0.782505 0.973568 1.084907 1.054242 1.081959 1.164743 1.163895 1.105328 1.106886 1.074331 1.138002 1.187880 1.201352 1.199336 1.197833 1.196101 1.176397 1.193534 1.191635 1.184254 1.102647 1.174005 1.067062 1.084058 1.120074 1.103904 1.064571 0.997518 1.013394 1.031761 0.679358 0.629267 0.746613 1.160928 1.280036 1.189755 1.201968 1.264660 1.214954 0.999407 0.758734 1.109095 1.043229 1.055589 1.128426 1.108546 1.101434 1.195496 1.209245 1.205883 1.148202 0.993144 1.187874 1.116500 0.930400 0.974450 1.164034 1.239236 1.242314 1.065882 0.911483 0.894238 0.658628 0.747934 1.229342 1.196050 1.276253 1.207754 0.915438 0.711643 1.262917 1.225420 1.103120 0.834760 1.047405 1.209529 1.139904 1.179694 1.106224 1.161981 0.988266 0.940450 1.219435 1.242161 0.987848 0.862180 0.889373 1.236145 1.198288 1.053686 1.025278 0.938983 0.932211 0.950720 0.978031 1.095832 1.088974 1.013398 1.001252 1.033437 1.072756 1.087500 1.128469 1.099732 1.042563 0.989486 0.820583 0.739206 1.134200 1.138136 1.174024 0.985493 0.947892 1.165867 1.138719 1.042879 0.975360 0.791164 0.976159 0.846940 1.069200 1.185637 1.070538 1.019455 1.113055 1.131247 1.064358 1.104423 0.997250 0.952904 1.112268 1.076668 0.887107 0.964375 1.075781 1.086998 1.096388 1.080059 1.058275 1.079378 1.100984 1.062885 1.050548 1.076343 0.986268 1.107739 1.031390 1.029183 0.945630 0.967786 1.113106 1.132906 1.136803 1.130513 1.108875 1.073499 1.015174 0.984570 0.969392 1.106559 1.083971 0.875491 0.821977 0.964819 1.063385 1.099458 1.094604 1.004023 0.915768 0.733974 0.953240 1.036867 1.127145 1.122639 1.072521 0.943023 0.792987 1.000662 1.166189 1.190598 0.927873 0.631615 1.088965 1.073309 1.134530 1.094067 0.760176 0.822282 0.864575 0.830790 0.934545 1.001851 1.014344 0.978907 0.989091 1.029747 1.026944 1.079870 1.074033 1.058359 0.908718
1.222293 1.276805 1.143675 1.145555 1.188094 1.175106 1.236580 1.115806 1.093013 1.231295 0.995602 0.774005 1.063390 1.198207 1.103979 1.086877 0.881239 0.808891 0.924211 0.820214 1.066746 1.061224 1.141496 1.062590 1.061862 0.984159 0.988479 0.940720 0.919378 0.893926 0.942184 0.901929 0.889402 0.991476 1.013444 1.024426 1.037435 1.088159 1.056412 1.082994 1.060611 1.042682 1.004797 1.112934 1.057696 0.966041 0.984201 1.001490 1.023332 1.034848 1.057013 1.042636 1.063200 1.056203 1.043664 1.012501 1.011111 1.068082 1.051655 1.103076 1.103516 1.072039 1.029173 1.135779 1.084015 0.950064 0.929317 1.052758 1.115723 1.017460 1.107184 1.104777 1.125427 1.067947 1.092721 1.080337 1.077449 1.017219 0.999182 1.046052 1.096495 1.121104 1.113496 1.057155 1.003187 0.959687 1.094967 1.163344 1.150145 1.211319 1.120620 1.044638 0.949477 0.657631 1.006451 1.221374 1.224075 1.262940 1.158816 1.185784 1.030890 0.665125 0.644161 1.117244 0.976578 0.977694 1.120079 1.104952 1.122044 1.173823 1.105462 1.104299 1.066608 1.150179 1.169045 1.206033 1.147506 1.074694 0.944220 0.947495 1.274723 1.153283 1.106379 1.171008 1.153815 1.168766 1.263028 1.253051 1.140753 1.194327 1.121645 1.022930 0.855690 1.235851 1.232923 1.200006 1.183857 1.228215 1.242654 1.246111 1.305415 1.069203 0.992427 1.031208 1.120029 1.126870 1.140594 1.119366 1.096713 1.110194 1.139391 1.148220 1.169568 1.176388 1.181047 1.215059 1.213439 1.329345 1.109476 0.797141 1.110261 0.996791 1.040720 1.258218 1.188806 1.194982 1.205938 1.261426 1.161814 1.011241 1.055912 1.128394 1.127946 1.263645 1.181354 1.163685 1.150399 1.184408 0.996124 1.057980 1.135987 1.103028 1.184956 1.181430 1.154051 1.112383 1.101296 1.178538 1.204111 1.203418 1.170329 1.184786 1.182258 1.160563 1.129312 1.146176 1.154495 1.075895 1.037279 1.194596 1.125862 1.072647 1.086675 1.024883 0.976125 0.964319 0.995486 1.118104 1.193931 1.219637 1.079041 0.729290 1.200136 1.271520 1.272298 1.285249 1.115704 0.879333 1.172559 1.196730 1.070444 1.065468 1.100011 1.151764 1.163376 1.216913 1.173610 1.097146 1.091186 0.908609 1.133405 1.193166 0.915224 0.759032 0.878820 1.125835 1.241432 1.250949 1.011014 1.021162 0.933742 0.659364 1.267430 1.153299 1.226860 1.283336 1.190589 0.760470 1.053496 1.188560 0.960599 1.090322 1.183894 1.209346 1.138036 1.141604 1.083426 1.173658 1.027124 0.613030 0.901568 1.265331 1.109195 0.678910 0.778587 1.193958 0.865830 0.918588 0.987615 1.058347 1.077275 1.114931 1.112760 1.094349 1.083354 1.042627 1.035104 1.051501 1.082025 1.107196 1.136352 1.128737 1.044682 0.937413 0.779251 0.858701 1.102708 1.165465 1.127769 0.808612 0.994007 1.126770 1.141075 1.112816 1.037325 0.924208 1.048733 0.957732 0.891066 1.107342 1.098718 1.043748 1.044215 1.156979 1.077255 1.128142 0.954217 0.959195 1.173257 1.121820 0.862281 1.059267 1.042707 1.074337 1.047994 1.098216 1.051433 1.076296 1.071347 1.091856 1.014094 1.046459 1.022392 1.090726 1.039997 0.992376 0.933559 1.119888 1.155560 1.143569 1.138983 1.099370 1.083962 1.076846 0.992012 0.882380 1.032682 1.119101 1.115666 1.004873 0.796736 0.928587 1.074077 1.109527 1.107486 1.063033 0.958436 0.821398 0.683173 1.009927 1.076090 1.126632 1.125384 1.012818 0.955065 0.818740 1.091902 1.161010 1.150569 0.779920 0.697109 0.960907 1.055673 0.887127 0.996287 1.052544 1.039889 0.946293 0.946092 1.095342 1.113109 1.077753 1.028790 1.029991 1.084044 1.077039 1.007528 1.084850 0.923514
1.147837 1.204036 1.181209 1.226290 1.224667 1.205830 1.185794 1.173978 1.062143 1.221651 1.249870 0.851969 0.771297 1.121256 0.880013 1.040701 1.085251 0.829785 0.826001 0.875361 1.053226 1.058381 1.138386 1.068766 1.060103 0.987537 0.993783 0.938606 0.873546 0.979514 1.010714 0.992158 0.954131 1.024823 1.083271 1.059734 1.061431 1.097814 1.079990 1.080027 1.068448 1.072123 1.052895 1.106053 1.112918 1.003788 0.991518 1.008088 1.041339 1.064636 1.034613 1.048734 0.996656 0.947654 1.011790 0.999128 1.019763 1.077249 1.001012 1.057304 1.108110 1.045258 1.039474 1.057006 1.029233 0.936236 0.985644 1.100627 1.107595 1.017625 1.106214 1.075000 1.097843 1.077704 1.081613 1.078482 1.080121 1.089161 1.083825 1.042139 1.042307 1.043183 1.016682 1.023661 1.086722 0.954240 1.032773 1.171463 1.213896 1.207834 1.219764 1.209568 1.169312 0.986795 0.840788 1.170185 1.178327 1.134859 1.184625 1.271397 1.154225 0.851339 0.945758 1.255335 1.147867 1.190678 1.189494 1.180245 1.112298 1.112785 1.128183 1.169572 1.133687 1.100334 1.130712 1.145395 1.066964 0.967914 1.068546 0.848800 1.169128 1.166927 1.126368 1.196631 1.221498 1.211413 1.212802 1.126950 0.891783 0.986483 1.297944 0.630046 0.839696 1.329257 1.247376 1.231748 1.223045 1.260073 1.162127 1.245474 1.287027 1.112071 0.783788 1.149323 1.203829 1.200470 1.183161 1.137187 1.142790 1.150529 1.146687 1.171568 1.201643 1.193807 1.184474 1.292490 1.275470 1.241202 0.876514 1.064615 1.097461 1.022463 1.020387 1.280817 1.229231 1.133168 1.256185 1.228518 1.123206 1.106310 1.078519 1.157961 1.172136 1.232011 1.275599 1.225668 1.144858 1.164241 1.136464 0.960964 1.138407 1.161792 1.167555 1.132098 1.128147 1.171674 1.194500 1.206856 1.170362 1.105199 1.048128 1.123168 1.104565 1.083047 1.061443 1.110152 1.120041 0.951009 1.043925 1.198840 1.178895 1.086955 1.159204 1.196635 1.113096 1.010235 0.977242 1.109853 1.263020 1.141574 1.050457 0.757148 0.790704 1.254811 1.321083 1.186865 0.623030 0.755976 1.232454 1.276569 1.227120 1.237432 1.127652 1.141558 1.092365 1.214783 1.158622 1.061792 1.152273 1.042511 1.115648 1.203194 1.012113 0.828651 0.750240 0.862650 1.202903 1.244585 1.104407 0.869321 0.859369 0.555547 1.262682 1.107103 1.160218 1.288081 1.247575 0.816535 0.696380 0.930610 1.012949 1.153488 1.199298 1.155648 1.164122 1.140088 1.050707 1.123451 1.091924 0.901716 0.710206 0.973730 1.148008 0.627456 0.675622 0.733871 0.761504 0.913396 0.997801 1.026390 1.068251 1.133211 1.022477 0.975284 1.085172 1.074102 1.024253 1.049331 1.066494 1.049804 1.099922 1.055803 0.985102 0.880069 0.993023 1.045096 1.110476 1.201062 1.081627 0.882161 1.078143 1.131650 1.175031 1.158116 0.987326 1.012995 1.049005 0.997557 0.936581 0.979891 1.126425 0.909569 0.914893 1.108107 1.005480 1.060107 0.868128 0.962757 1.064485 1.087672 0.872444 1.039769 1.008884 1.039909 1.037546 0.998636 1.015797 1.041454 1.055958 1.012233 0.973455 1.011158 0.918349 1.076594 1.058854 1.068440 1.182034 1.166470 1.078236 1.050930 1.055129 1.033271 1.125038 1.063595 0.908930 0.898082 0.985458 1.100772 1.120268 1.000445 0.760884 0.982241 1.000404 1.101593 1.108218 1.056456 0.954731 0.812583 0.670643 1.116273 1.073722 1.135633 1.134023 1.077059 0.988604 0.920290 0.914479 1.157613 1.203302 0.979916 0.696940 0.949533 1.086616 1.074721 0.972251 1.078182 1.098162 1.053866 0.991607 1.028652 0.995868 1.045524 1.031029 1.066459 1.082230 1.075325 0.955247 1.088282 1.046027
1.214692 1.174944 1.110909 1.153014 1.193214 1.102430 1.093437 1.200500 1.158134 1.067571 1.260858 1.153206 0.615454 0.829856 0.961947 1.155834 1.222964 1.186578 1.001657 0.920085 1.021215 1.055038 1.134979 1.047540 1.069332 1.052714 1.013979 0.980474 0.962834 1.078859 1.094607 1.075538 0.952677 0.916364 1.125471 1.122993 1.104398 1.104173 1.060305 1.065453 1.056268 1.064905 1.042126 1.053974 1.109476 1.096183 1.047011 1.032890 1.026878 1.054693 1.017643 0.999009 1.001464 1.040000 1.092926 1.083679 1.092186 0.979379 0.922855 1.019854 1.019577 1.024712 1.002318 1.003128 1.024336 1.077276 1.000691 1.046937 1.108284 1.001560 1.032667 1.025674 1.076534 1.049182 1.078897 1.090532 1.024865 1.023852 1.107198 1.102550 1.076548 1.040379 0.986204 0.991329 1.037355 0.908542 0.946517 0.942549 1.146114 1.188946 1.213252 1.254048 1.263233 1.209015 0.923942 0.768807 0.937137 1.197122 1.225928 1.179729 0.856315 1.102122 1.092674 1.207706 1.164507 1.112430 1.122611 1.222273 1.168684 1.003073 1.077100 1.112484 1.175152 1.101410 1.083967 1.177045 1.219910 1.073643 1.158663 0.879347 0.953646 1.104839 1.075967 1.242158 1.243537 1.003012 0.858909 0.896010 1.187531 0.908268 1.174364 0.813426 0.712373 0.978133 1.026011 1.257849 1.255152 1.217279 1.098845 1.259603 1.140184 0.960281 0.909489 1.183932 1.212671 1.184745 1.191548 1.174480 1.173549 1.178091 1.168859 1.152472 1.163917 1.158039 1.248021 1.284883 0.850115 0.652194 1.134294 1.190188 1.177327 1.162531 1.030858 0.799978 0.935490 1.220137 1.263768 1.300890 1.271829 1.175402 1.184515 1.241103 1.211517 1.123625 1.169507 1.272309 1.255360 1.159797 1.168351 0.920634 1.069190 1.140696 1.125399 1.127023 1.114045 1.214740 1.211119 1.141044 1.106825 0.980323 1.031693 1.125228 1.130677 1.091666 1.084379 1.084254 0.986504 0.962404 1.097704 1.201570 1.203893 1.130436 1.018959 1.061686 1.222826 1.212757 1.093700 1.070075 1.122299 1.159211 0.872854 0.767601 0.486275 0.591483 0.739234 1.006802 0.813876 1.132036 0.865666 0.995565 1.113259 1.103646 1.091514 1.141170 1.054907 1.215180 1.127938 1.086615 1.016486 1.123943 1.211963 1.215647 1.170727 1.057011 1.007997 0.841231 0.992119 1.247457 1.251047 1.083463 1.004632 0.809068 0.891695 0.964130 1.166575 1.299093 1.299981 0.982713 0.943515 1.298080 1.278960 1.236068 1.208267 1.161912 1.213523 1.170194 1.060194 1.160276 1.228709 1.132203 1.077647 0.996042 0.815385 0.874514 1.010251 1.003986 1.048228 1.151497 1.179794 1.161615 1.150652 1.140806 0.943701 1.025500 1.024583 1.076281 1.046099 1.045112 1.085840 1.074787 1.093069 0.913578 0.931323 0.957709 1.032640 0.945919 0.980034 1.170815 1.185098 0.912433 1.084294 1.105075 1.147425 1.089413 0.971539 1.099246 1.101495 0.974924 0.960343 0.782327 0.737507 0.784421 0.946075 0.929838 0.860904 0.754055 0.786979 0.754892 0.791339 0.843118 0.756135 0.891567 0.903785 0.920682 0.961972 0.976899 0.962556 0.890147 0.904425 0.875159 0.895312 0.802421 0.880824 0.935178 1.004841 1.123559 1.074004 1.149421 1.125528 1.014208 0.839990 0.990640 1.145496 1.135380 0.915480 0.837386 1.041570 1.133709 1.128675 1.016099 0.856623 0.774910 1.040535 1.049247 1.111871 1.092926 0.966086 0.925798 0.762667 0.773988 0.991444 1.092107 1.138059 1.099236 1.080663 1.063912 0.822101 1.062645 1.141852 0.895656 0.933104 0.991214 1.053307 1.092949 1.095837 1.084843 1.089785 1.134026 1.129898 1.115832 1.016729 0.994154 1.032612 1.089560 1.012179 1.082398 0.971855 0.876100 1.057083
1.092986 1.192230 1.130423 1.184873 1.203606 1.064565 0.929772 1.091198 1.211797 0.970561 1.125106 1.141363 0.712775 1.092650 1.144152 1.086383 1.077289 1.198530 1.186371 1.118638 1.105257 1.086766 1.134196 1.115296 1.064652 1.074659 1.022093 0.986808 0.983649 1.133194 1.102737 1.055300 0.981668 0.892535 1.023708 1.111368 1.113077 1.120292 1.095769 1.080693 1.091189 1.058801 1.054163 0.978173 0.976206 1.009675 1.073058 1.054380 1.000955 1.042884 1.018066 1.009660 1.069082 1.035882 0.992372 1.072613 1.112030 1.117201 0.953985 0.862147 1.027264 1.045510 1.005678 0.973293 0.927399 1.119095 1.135592 1.049811 1.146374 1.091185 1.017524 1.020333 1.051812 1.061035 1.082034 1.094108 1.046330 1.056079 1.048766 1.100740 1.105843 1.135868 1.101885 1.108096 1.053358 1.020550 1.063414 0.923768 0.743570 0.962230 1.159017 1.188969 1.129251 1.085131 1.122941 1.240987 0.967477 1.155102 1.100585 1.043544 0.718112 1.105559 1.123813 1.156158 1.132643 1.112656 1.068975 1.159829 1.153786 1.038388 1.105958 1.085315 1.103353 1.080636 1.021362 1.166886 1.214681 1.109909 1.066975 0.926365 1.046374 1.016681 1.061579 1.236080 1.241327 0.964182 1.039530 1.219174 1.289768 1.242563 1.309342 0.962751 1.125455 1.331475 0.874260 1.034677 1.203494 1.026208 0.698293 0.941955 0.901257 0.882507 1.119856 1.237671 1.165551 1.163682 1.177757 1.216036 1.208903 1.181805 1.179960 1.156432 1.185646 1.127971 1.267409 1.202752 1.024487 0.820468 1.253485 1.169719 1.162902 1.203995 1.222490 0.916758 0.835148 1.050932 1.064274 1.245910 1.233749 1.254323 1.261413 1.213377 1.148867 1.075760 1.104910 1.151835 1.251270 1.263144 1.212194 0.986551 1.000722 1.098114 1.064481 1.027582 1.108993 1.212216 1.118635 0.990420 1.212152 1.000044 1.122621 1.175038 1.154257 1.081533 1.040451 0.902611 1.004328 1.040640 1.121536 1.204783 1.173980 1.131497 0.983769 0.909078 1.152797 1.276906 1.266909 1.274041 1.201043 1.166173 1.042082 0.828745 0.799000 0.952837 0.768186 1.280431 0.939725 1.247151 1.073730 1.148782 1.158376 1.111029 1.094710 1.098756 1.150870 1.213357 1.122903 1.185493 1.022724 0.914710 1.177204 1.237622 1.234666 1.237788 1.208862 1.050170 0.854632 1.094724 1.247191 1.257398 1.084990 0.949660 0.788623 0.605798 0.999982 1.275665 1.293108 1.186579 0.994600 1.139593 1.116480 1.164791 1.096433 1.133251 1.220797 1.160639 1.130723 1.103274 1.170041 1.181729 0.884581 0.956081 0.743906 1.185543 1.245115 1.201529 1.226326 1.186411 1.143733 1.124108 1.146372 0.970623 0.887913 0.910256 0.978806 1.068586 1.043995 0.864826 0.929651 0.991417 0.970210 0.948321 1.050349 1.066322 1.046010 0.923135 0.926314 1.024407 1.169561 0.977183 1.032779 1.072682 1.128455 1.021961 1.005638 1.110082 1.124102 1.021493 0.998704 0.842068 0.896817 1.017001 1.103642 1.132505 1.076107 0.809351 1.075468 1.026958 0.883318 0.965421 0.958866 1.049225 1.065583 1.008655 1.031627 0.954295 0.934542 0.961948 1.014256 1.112245 1.131935 1.030614 1.044649 0.869962 0.999118 0.817969 0.712716 1.124686 1.173792 1.023428 1.035642 0.965511 1.165367 1.132240 0.881624 1.026121 1.101524 1.137722 1.138940 1.071836 0.986113 0.764184 1.074161 1.099751 1.118295 1.100444 1.081304 1.074246 0.943054 0.710471 1.018595 1.092510 1.145414 1.102078 1.049362 1.027421 0.894937 0.751505 0.984353 1.005138 1.180296 1.103891 1.010293 1.057494 1.111088 1.080969 1.131732 1.133891 1.071609 1.076855 1.107121 1.099157 1.094729 1.096595 0.983252 1.047182 1.115071 0.992714 0.764373
1.132055 1.178582 1.103957 1.188025 1.233201 1.142164 0.992026 0.834460 0.830190 0.689502 0.674813 0.744045 0.710381 1.130225 1.154159 1.171373 1.211311 1.200278 1.178977 1.171406 1.161242 1.090428 1.099797 1.126603 1.050117 1.052633 1.071542 1.020209 1.047505 1.105531 1.098201 1.061167 0.972739 0.978239 1.062122 1.124227 1.112089 1.078218 1.054402 1.075363 1.065677 1.042127 1.030143 1.028021 1.003789 1.005863 1.020670 1.040764 1.002509 1.058217 1.019220 1.045743 1.028409 0.960590 1.011442 1.046149 1.058060 1.094298 1.164683 0.995125 1.067705 1.024083 0.918327 0.837488 0.620884 1.012920 1.110632 1.100930 1.083193 1.141694 1.086808 1.088578 1.045571 1.088682 1.089410 1.089859 1.068329 1.029790 1.063843 1.099798 0.999868 1.027465 1.122624 1.089200 1.073483 1.122082 1.213981 1.154135 1.017763 0.641549 0.798105 1.063429 1.229245 1.185379 1.151011 1.129473 0.970259 0.796879 0.994000 1.189731 1.189930 0.993023 1.138839 1.132081 1.138712 1.107622 1.070967 1.215844 1.171003 1.070196 1.093693 0.996673 1.171997 1.141104 0.978031 1.120166 1.160943 1.039978 1.019845 0.961071 1.162966 1.032181 1.030305 1.230965 1.184311 1.093027 1.244640 1.266776 1.262179 1.172750 1.121430 0.706488 0.992382 1.324332 1.021114 0.634584 0.803656 1.038368 0.650048 0.534844 1.022275 1.197023 1.254526 1.206264 1.112678 1.125706 1.163376 1.143563 1.187372 1.226386 1.170883 1.153661 1.160252 1.146760 1.322513 0.958900 0.854201 0.797292 1.255643 1.157031 1.164456 1.190472 1.231916 1.176513 0.885040 1.266520 1.186042 1.194353 1.202499 1.168730 1.157292 1.121762 1.136053 1.100914 1.114067 1.092938 1.089408 1.196761 1.256150 1.116546 0.918425 0.995243 1.006639 1.114441 1.215052 1.224569 1.022504 0.965941 1.270402 1.016540 1.046412 1.135859 1.043480 0.899453 0.817758 0.887484 1.084561 1.104417 1.134908 1.184770 1.208394 1.129278 1.051682 0.957622 1.014656 1.193721 1.189367 1.243938 1.256249 1.162385 1.255134 1.178956 1.246941 1.279159 0.988595 1.117590 1.077887 1.255727 1.182347 1.102962 1.176478 1.118807 1.110643 1.177940 1.217768 1.155540 1.131343 1.180203 1.083116 0.870530 1.036941 1.173436 1.243051 1.237704 1.236933 1.236719 1.028796 0.770278 1.170664 1.252690 1.209948 1.064150 1.037731 1.007800 0.594326 0.909546 0.878286 1.092169 1.124645 1.022512 1.044370 1.036325 1.023584 1.091922 1.188296 1.156384 1.170827 0.937395 1.114808 1.245432 1.086046 0.945613 0.544680 1.269223 1.260331 1.013636 1.102489 1.201628 1.162320 1.099743 1.012391 1.062035 1.061955 1.108939 1.086239 1.068898 1.074503 1.018086 0.954436 0.794330 0.916995 0.955403 1.078484 1.055954 1.042073 0.985172 0.948423 0.970699 1.159837 1.078719 1.057419 1.055158 1.115091 1.063456 1.024863 1.154685 1.013479 0.945228 0.857665 0.992311 1.074109 1.089205 1.099414 1.177736 1.019542 0.818863 1.099529 1.139829 1.029238 1.004086 0.995004 1.036986 1.092081 1.088226 1.013968 1.005084 1.049764 1.074852 1.156189 1.137762 1.062683 1.097937 0.920538 0.994239 1.172207 1.019754 0.840274 0.670428 1.173655 1.189967 1.032735 0.954404 1.177541 1.128296 0.890342 1.040760 1.121785 1.143195 1.029212 1.015402 0.870944 0.791950 1.058629 1.062870 1.124790 1.086556 1.068720 1.039118 0.893582 0.701188 1.070716 1.117660 1.152443 1.148541 1.094651 0.973507 0.942039 0.806855 0.694094 1.073647 1.154355 1.128475 1.046446 1.011581 1.085962 1.149410 1.145374 1.020094 0.957342 0.989173 1.107352 1.011657 0.984234 1.104461 1.007495 0.933752 1.128942 1.029810 0.796312
1.233669 1.237530 1.182425 1.227058 1.219168 1.227146 1.053337 0.929792 0.892984 0.763019 0.799549 0.832706 0.581933 0.978805 1.177416 1.237786 1.122013 1.123673 1.065749 1.139814 1.030972 1.023039 1.041719 1.131228 1.128048 1.027344 1.063146 1.027850 1.074208 1.054651 1.073914 1.085212 1.015830 1.036898 1.077032 1.082673 1.055028 1.015351 1.003732 1.073433 1.051911 1.037310 1.045723 1.043008 0.995036 1.001257 0.990042 1.030180 1.012122 1.055584 1.067673 1.037967 0.961289 0.932510 1.022997 1.057034 1.042908 1.042494 1.185592 1.158546 1.029329 0.946816 0.783802 0.478078 0.590543 0.759299 1.040657 1.094181 1.083265 1.098897 1.087481 1.081892 1.064174 1.106124 1.098467 1.081702 1.029748 1.003034 1.051788 1.072541 1.001272 1.069805 1.161831 1.053617 0.986652 1.031782 1.151603 1.218663 1.214133 0.991961 0.568129 1.118615 1.233362 1.257663 1.031514 0.696868 1.094384 1.038801 1.047761 1.166441 1.163815 1.077406 0.946389 1.202665 1.246526 1.184849 1.019899 1.109314 1.130051 1.048522 1.161458 1.001427 1.189065 1.155812 0.991537 1.136927 1.124481 1.119035 1.053238 1.039994 1.224932 1.063135 1.082332 1.223071 1.064929 1.117685 1.094677 0.942105 0.902817 0.718457 0.959641 1.020764 1.219318 1.312440 0.936218 1.101141 1.231861 1.274507 0.842468 0.682977 0.992106 1.090987 1.257160 1.291508 1.179542 1.254292 1.239037 1.210602 1.218230 1.189407 1.182207 1.234089 1.199386 1.171561 1.197043 1.195745 1.248240 1.234938 1.216306 1.185470 1.167929 1.155444 1.164333 1.220984 0.953543 1.166397 1.253343 1.224895 1.220496 1.202408 1.223610 1.229856 1.162344 0.937673 1.153244 1.159413 1.117685 1.093370 1.234958 1.248158 0.970198 0.986557 1.144472 1.218226 1.222752 1.174813 1.025046 0.968532 1.218016 1.112875 0.757274 1.139512 0.810045 0.994567 1.080431 1.055235 1.078121 1.113214 1.130527 1.194370 1.209538 1.102317 1.125506 1.014838 1.012179 0.927390 0.945139 1.176611 1.309642 1.300948 1.246993 1.233224 1.249865 0.900260 0.575685 1.118437 1.075345 1.256727 1.215227 1.077509 1.155341 1.085095 1.144376 1.225448 1.208372 1.132807 1.086129 1.176568 1.152339 0.997611 0.809539 1.019797 1.199153 1.118125 1.226795 1.238972 1.238419 1.022702 0.880581 1.170880 1.260189 1.264361 1.230982 1.079711 1.030622 0.794956 0.484750 0.537094 1.170395 0.917650 1.138254 1.160392 1.155828 1.149845 1.242857 1.183798 1.162343 0.981912 0.858871 1.245861 1.065855 1.152494 0.653855 0.884513 1.106541 0.772410 0.969649 1.221002 1.029756 0.921368 1.052680 1.046582 1.051787 1.055803 0.926071 1.068872 1.070674 1.070857 0.991811 0.934116 1.080375 1.013597 0.982065 0.902633 0.938372 0.886351 0.975945 1.002486 1.037218 1.131474 1.087816 1.053747 1.100109 1.081321 1.095513 1.020378 0.945241 1.037675 0.921307 1.097538 1.100304 1.111698 1.081767 1.164922 0.957342 0.854618 1.078555 1.127007 1.154554 1.075432 1.067737 1.046047 1.061508 0.999575 1.063220 1.070136 1.110101 1.078942 1.063352 1.031805 1.065242 1.040987 0.948026 1.140525 1.146630 1.021840 0.885353 0.615826 0.944505 1.206589 1.041992 0.925301 0.921780 1.076789 1.023694 1.083001 1.151777 1.146152 0.955108 0.921387 0.966123 0.762027 1.053467 1.086058 1.128028 1.101763 1.059496 1.024096 0.949880 0.683670 1.011087 1.058506 1.126106 1.154096 1.158488 1.108004 1.009231 0.958779 0.911988 1.064684 1.090248 1.117174 1.102273 1.166107 1.158325 1.130121 1.071617 0.932368 0.944085 1.033771 1.111940 0.926564 0.997467 1.119955 1.035546 0.907193 1.123307 1.041602 0.962369
1.199902 1.131587 1.163223 1.181314 1.187217 1.120591 0.990181 1.225542 1.237486 1.035385 1.023694 1.026487 0.818128 0.750351 1.117567 1.103677 1.056888 1.078130 1.171834 1.065773 0.960796 1.029312 1.061296 1.031805 1.123599 1.058239 1.035462 1.037575 1.076221 1.058934 1.063192 1.088494 1.053359 1.024651 1.034970 1.037758 1.003878 1.028084 1.049808 1.086129 1.035427 1.038203 1.024038 0.999242 1.013626 1.061246 1.049402 1.015670 1.013866 1.057490 1.039200 1.051038 1.047985 0.959354 1.011079 1.027573 0.969476 1.027135 1.187032 1.172183 1.049912 1.015910 0.704221 0.608892 1.085497 0.958302 0.937461 1.040500 1.069952 1.106771 1.078214 1.063180 1.073788 1.082146 1.094098 1.122301 0.970186 0.927573 1.003010 1.030011 1.042858 1.115231 1.161279 1.061550 0.839355 0.768080 0.851550 1.258260 1.260766 1.252728 1.012890 1.285265 1.288627 1.210880 0.955269 0.968790 1.235632 1.186542 1.081440 1.113836 1.176484 1.172373 0.956098 0.966997 1.149717 1.147574 1.128888 1.046149 1.116517 1.015785 1.196575 1.043236 1.108791 1.157777 1.040237 1.098810 1.081098 1.123013 1.091215 1.081644 1.159828 1.038171 1.164048 1.197200 1.127995 0.965729 1.008035 1.128130 0.813719 0.657113 1.304976 1.263705 1.293922 1.302814 1.058792 1.143505 1.081573 0.940660 0.740072 0.653532 0.850220 1.010911 1.087837 1.103357 1.078618 1.182201 1.193763 1.174401 1.124569 1.136077 1.190886 1.209830 1.137297 1.194961 1.189629 1.199964 1.203705 1.168438 1.126502 1.188966 1.216025 1.196238 1.210086 1.223104 1.219264 0.945384 0.981086 1.002948 1.130250 1.171729 1.101500 1.264184 0.949651 0.805953 1.137199 1.147889 1.122928 1.120362 1.075356 1.224508 1.209976 1.109301 1.218516 1.223590 1.171552 1.149190 1.025736 1.034838 1.217639 1.304101 0.849807 1.223278 0.751599 1.012401 1.100993 1.056625 1.057953 1.142310 1.144646 1.206464 1.213372 1.089489 1.111178 1.038934 1.002923 0.911357 0.745824 0.955998 1.284702 1.319339 1.243032 1.253673 1.282882 1.188411 0.827095 1.018951 0.981262 1.221766 1.179008 1.078653 1.125023 1.091579 1.233011 1.141008 1.226513 1.153475 1.044759 1.095714 1.155219 1.031487 0.730851 0.652296 1.238971 1.084343 1.029461 1.245244 1.241310 1.217898 0.964595 0.866545 1.156541 1.265974 1.265643 1.277615 1.097998 0.996931 0.838207 0.566506 0.608097 0.709603 1.280187 1.231227 1.167546 1.189744 1.192396 1.228132 1.142612 1.192506 0.936733 1.096344 1.193043 1.207519 0.896603 0.604418 0.958085 0.979584 0.837310 1.016526 0.650054 0.657191 0.798338 1.039092 1.062303 0.970360 1.034937 1.064672 1.041596 1.019296 0.895179 0.874171 1.028124 1.066638 1.053005 1.020315 1.077905 1.004105 0.927409 0.989027 0.977838 1.026827 1.089381 1.031765 1.092416 1.011438 0.945502 0.981807 1.087775 0.986700 0.881036 1.067181 1.120854 1.082156 1.108190 1.082666 0.938176 0.922411 1.025500 1.049237 1.133498 1.041883 1.030189 1.022539 1.058301 1.028478 1.077942 1.098751 1.057894 1.014241 1.019705 1.058534 1.073194 1.036872 1.064309 1.156376 1.076198 0.924676 0.714104 0.915472 0.818439 0.881183 1.006878 1.080257 0.647691 0.941355 1.052018 1.078568 1.153695 1.147148 0.964854 0.772910 0.731842 0.803034 1.077557 1.118354 1.133314 1.134489 1.073216 1.003353 0.850536 0.574587 0.950310 1.182756 1.070604 1.113219 1.163287 1.172197 1.013952 0.873810 0.976577 1.126523 1.088083 1.104873 1.171501 1.168815 1.054177 1.058030 1.023473 0.906531 1.000720 1.122397 1.119463 0.893508 1.062194 1.111390 1.047140 1.030096 0.995451 1.064630 0.857871
1.054861 0.885806 1.176353 1.175470 1.020878 0.899299 0.994192 1.164530 1.273660 1.205477 1.162477 1.127543 0.949498 0.792556 0.652340 0.753395 1.069333 1.218743 1.055112 0.837445 0.964366 1.019381 1.054950 1.014272 1.110513 1.117015 1.046917 1.028033 1.030427 1.046371 1.050386 1.077002 1.060346 1.044226 1.067742 1.082581 1.085680 1.076169 1.064552 1.050558 0.994769 1.011075 1.028541 1.048010 1.072242 1.028455 1.017493 1.028276 1.066324 1.045758 1.032480 1.066605 1.084063 0.983267 1.012815 0.985158 0.930200 0.841558 1.124617 1.224737 0.883496 0.810422 0.545423 0.945159 1.089067 1.098684 1.044025 1.122278 1.108195 1.065171 1.043672 1.023414 1.031356 1.034476 1.106688 1.113779 0.996315 0.882442 0.897396 0.980094 0.983855 1.094005 1.165552 1.047930 0.969961 1.064017 0.897307 1.005768 1.170110 1.117990 1.031853 0.969639 0.963916 0.784671 0.778436 1.171580 1.185872 1.151411 1.110425 0.979147 1.177079 1.253462 1.156539 0.823105 1.046933 1.126230 1.191436 1.023742 1.080680 1.043523 1.084376 1.104075 1.042416 1.136061 1.079981 1.122074 1.139749 1.133226 1.154609 1.129486 1.119361 1.078489 1.114889 1.043165 1.065451 1.062678 1.143360 1.105786 0.788672 0.697619 1.156844 1.209242 1.285965 1.222987 1.026059 1.143660 0.771352 1.320050 1.271312 0.941768 0.719159 0.921468 1.010132 1.060484 1.074847 1.154185 1.166173 1.160631 1.146992 1.184473 1.195732 1.126460 1.128485 1.206792 1.168556 1.196007 1.111984 1.063454 1.077317 1.062043 1.210136 1.236990 1.194620 1.189788 1.196835 1.218856 1.269876 1.032678 0.763460 0.902411 0.733806 1.057662 0.859150 1.081879 1.136685 0.980999 1.051726 1.156392 1.135499 1.084034 1.223963 1.218157 1.210912 1.169891 1.117045 1.133294 1.114808 1.033106 1.172426 1.298062 0.780905 0.728819 0.951503 0.895873 1.056512 1.149043 1.079897 1.134009 1.141523 1.210038 1.177644 1.075355 1.067149 1.032463 0.990929 1.131732 1.148635 1.018486 1.207048 1.124472 1.256138 1.186175 1.159110 1.272889 1.160192 1.037809 1.088226 1.257123 1.166171 1.151296 1.121223 1.209307 1.226893 0.985909 1.197880 1.176110 1.076367 1.108812 1.181346 1.128361 0.765153 0.584378 1.251671 1.103655 1.000207 1.162635 1.233215 1.244793 1.157562 0.981875 0.872929 1.093039 1.243551 1.272466 1.282330 1.211846 1.176574 1.201767 1.120819 0.587484 1.325855 1.160049 0.988405 1.235358 1.097685 1.210724 1.168997 1.202013 1.156979 0.729450 1.148438 1.233375 1.019829 0.926627 1.211214 1.167231 1.046372 1.035828 0.993337 0.940101 0.773747 0.745508 0.811482 1.055708 1.067369 1.060799 1.045649 1.052400 0.970716 0.918210 1.036592 0.992414 0.977455 1.045283 1.099653 1.089059 0.997527 1.012938 1.031620 1.019251 1.072680 1.026200 0.996070 0.954462 1.000667 1.035591 1.084778 0.957696 0.926469 1.030311 1.071654 1.056896 1.104807 1.040288 0.927727 0.959768 1.030255 1.035389 1.115364 1.022837 1.013852 0.993497 1.049128 1.066856 1.036343 1.082723 1.004569 1.035206 1.045079 1.062071 1.019350 1.042668 1.068842 1.111416 0.966709 0.836915 0.953266 1.204343 0.915202 1.029585 0.664010 0.667171 0.530149 0.987147 1.119702 1.066504 1.154780 1.149653 1.067471 0.912347 0.702415 0.837754 1.098937 1.118071 1.134257 1.139621 0.922597 0.849712 0.796598 0.561497 0.868540 1.209652 1.033865 1.103030 1.141720 1.174247 1.118223 0.995242 0.928444 1.114178 1.124223 1.100166 1.177158 1.067040 1.003221 1.000637 1.023719 1.026986 1.088585 1.128838 1.112293 0.913860 1.091805 1.117108 1.094797 1.070031 0.890795 0.896408 0.955045
1.167794 0.973686 0.982976 0.937477 1.018824 0.708796 0.630800 0.942670 1.279165 1.224206 1.256128 1.233312 1.137395 1.005552 0.881153 0.669226 0.869021 0.871996 0.730680 1.021591 1.087324 1.088738 1.131079 1.109621 1.062914 1.103312 1.112590 1.067402 1.040723 1.029602 1.026560 1.031865 1.045871 1.055095 1.024557 1.015353 1.019217 1.026544 1.032446 1.037391 1.022345 1.052946 1.041438 0.969486 0.935531 0.916193 0.930607 1.026869 1.054252 1.038775 1.046103 1.069095 1.053461 1.025984 1.029224 0.960524 0.819131 0.792871 1.194099 1.236446 0.992132 0.770258 0.597238 1.172789 1.156810 1.127613 1.059439 1.033809 1.032116 1.037967 1.023138 1.056324 1.030612 1.079911 1.122845 1.112359 1.079656 0.997526 0.880808 0.902483 0.942801 1.061509 1.139161 0.953247 0.863034 0.930020 0.850338 1.007318 0.709997 0.581565 0.686347 1.027570 1.058790 1.170386 1.108525 1.095626 1.148328 1.170939 1.159393 0.875142 1.061325 1.179139 1.212220 1.037364 1.060349 1.070186 1.211082 1.130293 1.013763 1.121152 1.082286 1.101513 1.064573 1.111462 1.148116 1.150471 1.141341 1.145758 1.132449 1.086713 1.092319 1.165723 1.152388 1.115253 1.089167 1.110578 1.102076 1.039765 0.836683 0.895127 1.115390 1.169854 1.250958 1.139098 1.185150 1.294354 0.912441 1.263678 1.338589 1.072566 0.634172 0.792646 1.057441 1.122276 1.123306 1.163374 1.154914 1.184872 1.186642 1.188725 1.193385 1.163579 1.170111 1.218800 1.161697 1.203046 1.148114 1.127253 1.144228 0.931597 1.204116 1.278036 1.225212 1.202608 1.173073 1.137738 1.155818 1.318318 1.269994 1.243494 0.790458 0.805566 0.903417 1.112060 1.050569 1.005476 1.043560 1.078416 1.148102 1.132496 1.222685 1.204929 1.091069 1.025480 1.108692 1.068305 1.050011 1.149825 1.201384 1.159753 0.646538 0.442921 1.038603 0.882992 1.027475 1.141789 1.042498 1.136667 1.199511 1.211566 1.104354 1.054554 1.084080 1.013559 0.920469 1.018941 0.808396 0.760882 0.733334 0.808071 1.232434 1.306964 1.310260 1.334835 0.937809 1.203759 1.146487 1.108363 1.098527 1.091815 1.079221 1.234031 1.229804 1.036483 1.156999 1.119020 1.055865 1.103285 1.186810 1.159428 1.233403 0.905384 1.179537 1.098852 1.081870 1.115787 1.208637 1.246678 1.235047 1.051627 0.871875 0.711430 1.166715 1.283747 1.284770 1.290676 1.165190 0.997943 0.940585 0.687627 1.071301 1.217086 0.890340 1.288937 1.135051 1.106663 1.135229 1.229848 1.282160 0.928313 0.821165 1.028710 0.854539 1.173848 1.158556 1.046635 1.131787 1.121585 1.110876 1.064187 1.071928 0.814503 0.850984 0.997174 1.053302 1.045763 1.045607 1.045369 0.971140 1.002737 1.031138 1.040874 1.003340 0.965475 1.040199 1.039833 1.032955 1.040649 1.037297 1.037330 1.034518 0.994681 0.992372 1.045630 1.069586 1.018205 1.058671 0.971107 1.058275 0.998754 1.051585 1.087435 1.069716 1.035900 0.927579 1.003719 1.039345 1.019776 1.097580 1.041348 1.027830 0.999130 1.028728 1.047731 1.040695 1.052846 1.035816 1.055192 1.079823 1.061769 1.049439 1.037620 1.051761 0.997865 0.971601 0.935458 1.040498 1.152149 0.965111 1.155318 0.915474 0.930038 0.654923 0.919245 1.050129 1.074686 1.146046 1.152703 1.089602 1.048105 0.877210 0.716695 1.070521 1.079078 1.144093 1.141039 1.084937 1.152835 1.123851 0.888016 0.660918 0.885967 0.938882 1.099089 1.123416 1.128646 1.108618 1.072449 0.940664 1.090568 1.133873 1.177323 1.153866 1.057027 1.018006 0.925356 1.008029 1.046114 1.059904 1.128425 1.078175 0.944097 1.135866 1.122062 1.046458 0.979422 0.794591 0.901322 1.093843
1.166348 1.087663 0.923866 0.706099 1.282446 1.084594 1.037499 0.660913 0.960634 1.067082 1.113762 1.221094 1.223454 1.068150 1.009823 0.803673 0.808949 0.916989 1.037123 1.147472 1.196072 1.174131 1.161877 1.094485 1.068260 1.020761 1.058655 1.109784 1.105878 1.106790 1.100523 1.037302 1.016154 1.043670 1.004509 1.008373 1.013008 1.011280 1.025021 1.039348 1.056644 1.050949 0.972878 0.954069 1.019272 1.039455 1.042278 1.067165 1.031531 1.036701 1.068636 1.075886 0.931090 0.806449 0.957743 0.939493 0.808895 0.745161 1.245124 1.250059 1.120742 1.123028 0.722015 1.015277 1.236172 1.147946 1.077252 1.048028 1.061894 1.122065 1.066937 1.055587 1.048941 1.054283 1.125461 1.088044 1.021922 1.092332 0.999143 0.953314 0.961211 1.073491 1.139720 0.949387 0.888430 0.849685 0.723983 0.534884 1.056258 1.087487 1.029794 1.211682 1.170159 1.181832 1.171716 0.933760 1.151982 1.218705 1.224390 0.962985 0.806274 1.062714 1.214122 1.133265 1.046803 1.037434 0.987611 1.169687 1.055170 1.103094 1.124393 1.111701 1.170319 1.174233 1.173668 1.168964 1.167775 1.146459 1.144159 1.183161 1.179393 1.173324 1.162559 1.093143 1.086874 1.110932 1.091846 1.105613 1.025122 1.097489 1.186737 1.213095 1.255986 1.219200 1.242275 1.089215 0.753676 1.020308 1.328764 1.327230 0.948073 0.685496 1.089949 1.169959 1.111801 1.139702 1.150587 1.157865 1.167451 1.173249 1.184939 1.179476 1.204790 1.203411 1.149739 1.261494 1.177072 1.158257 1.153395 0.879749 1.225047 1.225658 1.225602 1.211226 1.181693 1.202995 1.214232 1.295142 1.248459 1.305235 1.048556 1.022717 0.988872 0.936418 0.966028 1.065154 1.063453 1.045209 1.089205 1.184612 1.224490 1.157073 1.066184 0.968366 1.031609 0.855721 1.172241 1.201154 1.142561 1.037248 0.553379 0.403227 1.079581 1.123074 1.106348 1.094624 1.049033 1.154350 1.213784 1.159009 1.166660 1.240839 1.242378 1.136629 1.094473 1.007716 0.933684 0.924302 0.950749 0.720817 0.841834 0.996305 0.844680 0.864587 0.736369 1.075447 1.071352 1.177431 1.109324 1.101030 1.130900 1.230713 1.182959 1.094102 1.032932 1.043665 1.019557 0.870740 1.001326 1.198234 1.213176 1.009877 1.208566 1.134642 1.087712 1.090276 1.126461 1.255045 1.250604 1.211403 1.116723 1.018081 0.692260 0.900965 1.262276 1.297030 1.303046 1.094586 0.957064 0.836821 0.468735 1.118326 1.269967 1.300277 1.281458 1.157672 1.048706 0.869813 0.976351 0.829287 0.549300 0.860779 0.929187 1.070989 1.113309 1.124465 1.123822 1.147995 1.147644 1.097909 1.090046 0.979982 1.011693 1.038204 1.030058 1.009965 1.046766 1.046250 1.048236 1.051703 1.055493 1.058321 1.042838 0.973130 0.972087 0.966301 0.977776 1.010752 1.002326 1.015726 0.956101 1.016628 1.015067 1.034220 1.032592 1.005234 1.011264 0.990243 1.071047 0.981138 1.037924 1.062895 1.032582 0.958824 0.988597 1.039569 1.024892 0.998257 1.053197 1.053922 1.024959 1.015316 1.089409 1.089443 1.089742 1.093762 1.096466 1.094764 1.088924 1.080976 1.068847 1.070097 1.071218 1.041150 1.051040 0.997193 1.075770 1.092075 1.094021 1.111614 1.094295 1.052153 0.918537 0.637697 1.081866 1.118314 1.104891 1.155638 1.133475 1.001632 0.806450 0.595788 1.070881 1.058831 1.117411 1.144253 1.085002 1.118823 1.186709 1.170656 1.082627 0.920010 0.660418 1.118619 1.172342 1.111126 1.118605 1.130861 0.891700 1.115479 1.138561 1.068405 1.096945 1.129469 1.030965 0.955715 1.043663 1.054834 1.049584 1.133352 1.077758 0.966115 1.150512 1.126881 0.987924 0.863907 0.919220 0.937251 0.986300
1.116409 1.126186 0.872086 0.927349 1.194062 1.061368 1.130356 0.927273 0.726416 0.947608 1.080615 1.163856 1.229498 1.163888 1.081912 0.979008 0.903214 1.034184 1.003530 1.147946 1.159544 1.121520 1.068327 0.990732 1.090329 1.098963 1.064592 1.059970 1.048936 1.087284 1.101627 1.098802 1.028196 0.991558 1.038050 1.054534 1.058560 1.040565 1.045581 1.055156 1.046326 1.000868 0.913429 1.009026 1.042759 1.052059 1.047341 1.066554 1.063354 1.037769 1.110128 1.027519 1.025234 1.175693 1.154787 1.120481 0.925857 0.566987 1.089171 1.195924 0.766303 1.138944 1.005161 0.887434 0.915808 0.832797 0.927169 1.053357 1.158353 1.089126 1.019179 1.066360 1.057470 1.038190 1.069943 1.080265 1.067884 1.104957 1.099660 1.012512 1.017724 1.177298 1.175296 1.113778 1.111916 1.076529 0.827306 0.717817 1.150969 1.125417 0.907021 1.169675 1.182406 1.182259 1.174218 1.129716 0.911509 1.163218 1.231835 1.202649 0.901745 1.054606 1.092253 1.215153 1.094697 1.084479 1.024620 1.072489 1.143202 1.167946 1.170322 1.173622 1.177162 1.109401 1.078398 1.073953 1.074303 1.061511 1.067631 1.054871 1.130766 1.144454 1.182587 1.186187 1.125810 1.121701 1.082666 1.071926 1.108874 1.167768 1.196113 1.244784 1.152311 0.921472 0.890428 0.773477 1.097909 1.209180 1.196751 1.290030 1.308817 0.786065 0.806934 1.135880 1.091983 1.176081 1.174795 1.134155 1.153157 1.181143 1.178068 1.179462 1.249722 1.076633 1.207215 1.227955 1.054794 1.145901 1.116626 0.847529 1.027627 1.032810 1.002707 0.835432 1.087307 1.220208 1.181277 1.094376 1.195523 1.289594 1.150700 1.081494 1.068386 1.086867 1.021460 1.093014 1.050526 1.080724 1.142954 1.226966 1.224601 1.147914 1.138842 1.034923 0.919191 0.815662 1.229465 1.128615 1.159986 1.138723 0.923676 0.586829 1.042235 1.149489 1.169410 1.118333 1.125405 1.186936 1.214850 1.136075 1.005813 1.101838 1.259252 1.266048 1.219954 1.261191 1.219348 1.187326 1.292836 1.337965 1.323353 1.049946 0.679534 0.557032 1.194457 1.219369 1.093824 1.180564 1.159629 1.078845 1.103429 1.231140 1.119460 1.075921 1.044976 1.113779 1.103138 1.023431 0.950105 0.887615 0.730510 0.565103 1.162298 1.184507 1.177143 0.935013 1.063083 1.215521 1.255374 1.239333 1.176335 1.194781 1.095160 0.803280 0.839475 1.293220 1.310081 1.192748 0.902739 0.708650 0.364036 1.273394 1.300590 1.259657 1.292158 1.228629 0.560973 0.746175 0.686543 0.966739 0.808932 1.198566 1.085074 1.069375 1.055955 1.109969 1.091911 1.089539 1.077449 1.045155 1.013290 1.078172 1.086403 1.068531 1.065245 1.024371 0.999572 1.015535 1.025397 1.016584 1.024841 1.051481 1.046036 1.045511 1.046159 1.005663 0.974946 0.990255 0.979931 0.969533 0.992459 0.999836 1.025500 1.016899 1.009400 0.993684 0.978528 1.031228 1.039336 0.988876 0.997842 1.040243 0.982016 0.952974 1.021266 1.010515 1.024504 1.036081 1.065567 1.071023 1.069780 1.081949 1.084423 1.073514 1.078668 1.063697 1.071791 1.068016 1.078984 1.104965 1.103274 1.103907 1.107886 1.104154 1.076979 1.052720 1.113215 1.103871 1.122281 1.117091 1.116055 1.142714 1.097187 0.834748 0.816137 1.089490 1.044256 1.164180 1.160589 1.029845 0.869867 0.596502 1.074907 1.021561 1.162472 1.152254 1.083810 1.018492 0.992721 1.114582 1.118602 1.032081 0.721511 1.088597 1.188446 1.104420 1.076148 1.040880 0.788219 0.958848 1.050171 0.915571 0.940406 0.997019 0.883402 1.009592 1.092812 1.072715 1.146237 1.140275 1.076200 0.941887 1.146294 1.030910 0.867025 1.075740 1.140789 1.086916 1.107988
1.154302 1.054892 0.935181 1.144576 1.164894 1.058636 1.010306 1.214040 1.065382 1.035180 1.081773 1.046271 1.129624 1.169185 1.164593 1.034551 1.001497 0.976122 1.067335 0.855973 0.778119 0.934712 0.925767 1.005854 1.075145 1.147538 1.049108 1.063505 1.072140 0.997782 1.027727 1.100983 1.093296 1.005176 1.009104 1.020179 1.038966 1.045072 1.044948 1.046880 1.036680 0.987070 1.021564 1.054388 1.064888 1.055107 1.052499 1.075612 1.049913 1.019854 1.058817 1.115986 1.101292 1.067856 0.932894 0.835867 0.790558 0.752121 0.952196 1.274834 1.005986 0.769417 0.995607 1.102446 0.979416 1.000703 1.077841 0.955452 1.070447 1.121044 1.117616 1.073788 1.063699 1.068180 1.087539 1.065679 1.075253 1.079385 1.095345 1.095206 1.106522 1.079326 1.040750 1.033617 0.995066 0.888888 0.921954 1.018018 1.017552 1.096410 0.846510 1.082529 1.162055 1.160482 1.127454 1.233427 0.946878 0.887041 1.117302 1.176450 1.053359 1.071438 1.029527 1.017170 1.130425 1.103214 1.122031 1.149530 1.165906 1.150049 1.101744 1.053957 1.089882 1.068526 1.112183 1.032323 1.046080 1.117157 1.092574 1.002893 1.041199 1.011415 1.090615 1.180385 1.187986 1.067158 1.020697 1.043361 1.038575 1.112137 1.182926 1.179647 0.958142 0.990010 1.129405 1.135993 1.061260 1.067669 1.119392 1.182377 1.289424 0.865964 0.713177 1.032234 0.948163 1.150166 1.234205 1.246783 1.196176 1.197510 1.212487 1.223296 1.232889 1.116651 1.240779 1.096165 1.100767 1.130836 0.893511 1.199116 1.235641 1.131522 1.141097 1.006807 1.039698 0.913919 0.923767 1.044867 1.128406 1.214249 1.160200 1.037136 1.054369 1.114516 1.062141 1.114243 1.154406 1.175571 1.231335 1.233265 1.123960 1.093166 1.169796 1.043072 0.786862 0.760731 1.157959 1.165090 1.127513 0.840254 0.750207 0.885013 1.163221 1.148992 1.124904 1.134772 1.137512 1.202141 1.220290 1.191053 1.051601 0.951578 1.234761 1.213061 1.211333 1.219289 1.203650 1.169163 1.245333 1.258911 1.260090 1.346212 1.302114 0.919999 1.235062 1.103130 1.149145 1.218279 1.112804 1.124814 1.241635 1.235630 1.200241 1.110564 1.013491 1.008472 1.001654 1.048062 1.165213 1.158616 1.185436 0.892092 0.800928 1.171481 1.213967 1.055952 1.164495 1.096640 1.180253 1.261817 1.177722 1.200391 1.168515 0.803320 0.525813 0.563563 1.245336 1.248983 1.175274 1.140555 0.808723 1.193905 0.983245 0.944656 0.773484 1.171678 0.937713 1.101078 1.086970 1.062670 0.877946 1.148697 1.171464 1.133858 1.005254 0.980141 0.971224 1.025456 1.064606 1.072929 1.075701 1.045610 1.035185 1.074426 1.028599 1.020138 1.010421 1.026508 1.007584 0.993312 0.988883 1.020799 1.001207 0.983917 1.039054 1.036769 1.031504 1.017442 0.985137 1.019417 1.026637 1.020715 1.013189 1.008275 1.012160 0.989505 0.989001 0.999252 0.990047 1.005879 1.001264 0.993433 0.928165 0.970016 1.016471 1.024144 1.051684 1.057831 1.029623 1.043424 1.029086 1.027961 1.026003 1.021227 0.988173 0.981405 1.020278 1.022503 1.016727 1.024143 1.096388 1.112180 1.078584 1.104322 1.113158 1.121157 1.127642 1.132109 1.136972 1.124884 1.026834 1.066778 1.087605 0.894759 0.632538 1.112266 1.025507 1.137600 1.160331 1.144382 0.931939 0.794134 0.860379 1.070478 1.170756 1.163688 1.140424 1.102899 0.999545 0.941374 0.953571 0.993237 0.793470 0.882354 1.051488 0.931309 0.885477 1.052999 1.000708 0.870571 1.053964 1.111868 1.069702 0.933654 0.786784 1.119323 1.126888 1.099964 1.150341 1.089789 1.155429 1.109110 1.141446 0.889297 1.001227 1.144067 1.143761 1.134290 1.156945
1.163970 1.045515 1.051208 1.145690 1.135341 1.082229 0.925137 1.016804 1.148955 1.124812 1.120689 1.079194 1.087229 1.092790 1.153787 1.018128 1.064664 0.985231 1.131044 1.039104 0.937059 0.921007 0.843084 0.946075 1.076321 1.048809 0.871764 0.982044 1.035571 0.989591 0.990878 0.996243 1.079212 1.090266 1.085405 1.038527 1.019771 1.023343 1.021519 1.030154 1.036852 1.053952 1.065448 1.062268 1.048753 1.030815 1.022690 1.023503 0.987441 0.985406 0.990396 1.029144 1.046111 1.006228 0.946014 0.991499 1.029121 0.877514 0.805473 1.005364 0.895727 1.017836 1.063066 1.138044 1.154321 1.102841 1.182505 0.992222 0.916234 1.064556 1.095022 1.080391 1.048182 1.100905 1.065310 1.035918 1.057469 1.060065 1.051061 1.046817 1.064288 1.033814 1.052689 1.022086 0.961782 1.080031 1.175199 1.190816 1.033959 0.947736 0.860130 1.098666 1.071288 1.158734 1.150774 1.182194 1.121715 0.917438 1.054967 1.166721 1.107192 1.014677 1.078548 1.085782 1.099325 1.115790 1.132367 1.163003 1.156699 1.079385 1.063422 1.048381 1.089293 1.045481 1.050602 1.060952 1.048480 1.080245 1.058327 1.067010 1.079406 1.043481 1.075920 1.122760 1.188107 1.189063 1.167434 1.152942 1.116625 1.100157 1.040056 0.971407 1.013510 1.115269 1.061591 1.152597 1.079404 1.199284 1.127890 1.116494 1.173257 1.068967 1.139378 1.311365 0.938075 0.981163 1.183427 1.212082 1.209809 1.151964 1.255891 1.123629 0.986383 1.166469 1.102073 1.071077 1.081029 0.779832 1.127770 1.163970 1.022671 1.013484 1.225940 1.139971 1.201598 1.162607 1.087294 1.064220 1.068731 1.166675 1.169167 1.078178 1.051357 1.061071 1.082165 1.150715 1.192155 1.233260 1.235210 1.164583 1.211507 1.124675 1.094898 1.057737 0.833156 0.738464 1.222444 1.214947 1.046272 0.588503 0.664690 0.996369 1.118226 1.142409 1.120275 1.120679 1.186261 1.219023 1.146704 1.122249 1.179975 0.914182 1.092018 1.125542 1.143173 1.223387 1.144970 1.174127 1.211257 1.282484 1.291900 1.322566 1.213181 0.820147 1.181375 1.113122 1.142774 1.209728 1.091985 1.250113 1.212485 1.156996 1.228778 1.250354 1.147360 1.089046 0.980893 0.939419 1.013978 1.170521 1.223649 1.201721 0.893159 1.071885 1.191336 0.979629 1.039594 1.020243 1.218014 1.267080 1.126346 1.140373 1.214495 1.292486 1.259731 1.080755 0.808472 0.879774 0.930193 1.196077 0.964358 0.632539 0.550150 0.681317 0.811733 1.105305 1.067214 1.162540 1.161780 1.018946 0.944268 1.146698 1.195900 1.188695 1.084866 1.061058 1.052702 1.094908 1.073434 1.020988 1.005974 1.036805 1.081975 1.039852 1.012727 0.995719 1.005392 1.016725 1.019530 1.023028 1.011187 0.992537 0.984348 1.007959 0.976547 1.032141 1.028448 1.026118 1.024352 1.024444 1.022726 1.020128 1.017578 1.016633 0.996651 1.004859 1.004252 0.977321 0.989830 1.012219 1.014597 0.990939 0.975205 1.008221 1.015323 1.042261 1.025415 0.997303 1.009537 1.022841 1.020581 1.027571 1.035863 1.062378 1.013141 0.980178 1.037626 1.088484 1.069362 1.005384 1.015760 1.029034 1.059835 1.099907 1.107288 1.025347 1.023512 1.026097 1.084833 1.139289 1.117433 1.078942 1.127022 1.059809 0.704347 1.048901 1.020210 1.084817 1.169437 1.167216 1.023760 0.926941 0.612476 1.133094 1.186935 1.076064 1.102376 1.148761 1.181274 1.095628 0.824027 0.747940 1.028326 0.975981 1.068964 1.032425 0.954740 1.066967 1.075718 1.037171 1.149773 1.200343 1.049396 0.966884 0.821235 1.105272 1.088977 1.148102 1.158367 1.095315 1.110370 1.057415 1.115895 0.878330 1.017346 1.038804 1.072202 1.092618 1.040747
1.186688 1.105793 1.012962 1.126997 1.170188 1.106493 1.050843 0.999812 1.019545 1.035004 1.093413 1.130591 1.148537 1.113797 1.152521 1.041188 1.076854 1.036859 1.092239 1.139138 1.066405 1.051221 0.978933 0.922006 0.877999 0.856984 0.902240 0.977460 0.907636 0.906115 0.998131 1.012058 0.963406 0.948624 0.989902 1.035969 1.032736 1.003792 1.001215 1.014112 1.032658 1.045943 1.064034 1.041286 1.028155 1.069283 1.089163 1.043586 0.985643 0.989314 0.932038 0.949150 0.807069 0.795628 0.845075 0.817834 0.776990 0.863059 0.941208 0.725712 0.823943 1.240956 1.114686 1.158899 1.150345 1.180867 1.219084 1.208508 1.051959 0.992100 1.018198 1.030327 1.111626 1.073925 1.011660 1.011725 1.058371 1.063095 1.057096 1.071562 1.103050 1.072383 1.070961 1.037442 1.081079 1.200062 1.216281 1.134135 0.914504 0.941741 0.956897 1.080116 1.105499 1.004556 1.072661 1.143590 1.127986 1.027380 1.084172 1.086036 1.198035 1.042550 1.053657 1.106163 1.140088 1.163233 1.144692 1.129058 1.063209 1.079988 1.052186 1.067044 1.109693 1.080011 1.134580 1.154290 1.023424 1.099042 1.107050 1.131818 1.103123 1.074443 1.085795 1.077301 1.106128 1.172675 1.191957 1.194380 1.161911 1.170438 1.108459 1.072120 1.144792 1.154934 1.061658 1.139415 1.105127 1.231687 1.214201 1.271319 1.203696 1.105022 1.166685 1.301097 1.247458 0.882359 1.184843 1.162683 1.258647 1.128557 1.241664 1.065763 1.104394 1.111072 1.087687 0.999001 0.855044 0.766136 1.090179 1.216635 1.207522 1.191662 1.192105 1.157123 1.158732 1.093928 1.128187 1.175334 1.214584 1.216100 1.232856 1.217826 1.158831 1.132855 1.131944 1.192323 1.236624 1.191906 1.144483 1.082409 1.200611 1.243690 1.075289 1.109985 1.126157 0.694416 0.899433 0.939015 0.751204 0.815853 1.023968 1.002304 1.115673 1.141030 1.109048 1.145288 1.224086 1.226041 1.110916 1.066997 1.193057 0.994251 0.910682 1.094330 1.146946 1.271275 1.101516 0.980321 0.806263 0.745713 0.906662 1.306356 0.914566 0.967362 1.275641 1.140293 1.141637 1.207860 1.258642 1.188506 1.067230 0.980706 1.079419 1.251829 1.253366 1.178486 1.086556 1.036374 0.859327 0.610576 0.832919 0.841369 0.692038 0.689198 1.117540 0.766093 1.030161 1.260332 1.231238 1.274880 1.191707 1.109054 1.115965 1.082498 1.008437 0.825753 0.872795 0.631838 0.428183 0.509790 0.548894 0.852135 1.003549 1.192717 1.002884 0.948649 1.006755 1.136197 1.195621 1.053910 1.028487 0.872468 1.066022 1.131805 1.083019 1.117867 1.076715 1.090022 1.067315 1.063091 1.054205 1.079926 1.056718 1.017852 1.010534 1.026465 1.021468 1.026044 1.044581 1.046931 1.020817 0.983111 1.035709 1.031225 0.999382 1.009833 1.005111 0.977994 0.964612 0.954785 0.985950 0.998968 1.003588 1.005005 1.018891 1.014160 1.012608 1.012615 1.012076 1.012963 1.012212 0.999078 0.987593 1.002487 1.033267 1.036256 1.009217 0.998740 1.010766 1.032685 1.027782 1.057132 1.068244 1.113024 1.095642 1.038016 1.013514 1.110271 1.102563 0.942307 0.893921 1.095746 0.971665 1.080876 1.122621 1.001785 0.950670 0.991597 1.002679 1.100220 1.146435 1.126769 1.087663 1.085600 0.923391 0.720208 0.851237 1.067185 1.159195 1.169291 1.150587 0.956006 0.679796 0.979433 1.126512 1.144421 1.078158 1.136014 1.200422 1.107398 0.778249 1.087506 1.090015 1.132036 1.100164 1.084816 0.989030 1.056374 1.103864 1.190247 1.190825 1.095975 1.002453 0.962939 0.871502 1.129153 1.155224 1.155843 1.171996 1.077098 1.109187 1.037450 1.049319 1.024440 1.198696 1.163149 1.012425 0.958877 1.102391
1.148544 1.144586 1.003446 1.091286 1.181162 1.123866 1.127995 1.133823 1.110913 1.102592 1.088589 1.094072 1.124940 1.121946 1.161434 1.105368 1.091375 1.045063 1.004660 1.085658 1.063845 1.029078 1.048283 1.022036 0.985696 0.955683 1.002565 1.035212 1.043196 1.050752 1.039287 1.023299 0.992832 1.028305 1.035627 1.028271 1.019594 1.009899 1.014717 1.056240 1.065582 1.031633 1.045139 1.035351 1.057013 1.032277 1.031893 1.042627 0.939028 0.961116 1.092295 1.096810 1.125999 1.178215 1.168962 1.104639 1.044008 1.103588 1.010525 0.939869 0.801301 1.156785 1.218591 1.157079 1.110731 1.087068 1.080714 1.157195 1.191219 1.155639 1.079664 1.089830 1.079068 0.998482 1.047401 1.083087 1.072452 1.047369 1.054077 1.073468 1.084620 1.094942 1.097307 1.126250 1.175026 1.194345 1.094722 0.919465 0.792597 1.114148 1.020864 1.114141 1.095628 1.026057 1.045381 1.196035 1.108249 0.989452 1.021291 1.045177 1.104463 1.108476 1.103530 1.154494 1.159338 1.110899 1.056928 1.117201 1.041151 1.040852 1.088779 1.127160 1.048134 1.132190 1.101046 1.157125 1.020906 1.060704 1.143091 1.153780 1.135613 1.058821 1.099152 1.083203 1.087583 1.078079 1.107769 1.176365 1.197661 1.165051 1.051609 1.048104 1.081598 1.121273 1.103878 1.088618 1.106710 1.254641 1.224389 1.164095 1.223876 1.246407 1.260396 1.288659 1.270666 1.139405 1.082537 1.167548 1.273288 1.113700 1.247576 1.016796 1.135758 0.917502 0.784776 1.234722 1.363103 1.280571 1.278790 1.282240 1.247886 1.210001 1.133484 1.134266 1.120502 1.171585 1.236389 1.255675 1.252505 1.252164 1.249927 1.247896 1.245286 1.242815 1.239614 1.239771 1.187553 1.129653 1.086129 1.061901 1.076833 1.171462 1.140757 1.101191 0.900679 0.575833 1.221915 1.352607 1.272695 1.208936 1.244954 1.173553 1.051334 1.105353 1.151829 1.190727 1.224429 1.161307 1.112181 0.978833 1.006288 0.836144 1.096777 1.082634 1.208598 1.303917 1.169445 1.197635 1.183155 1.016939 0.751677 0.486079 0.980998 1.237965 1.214277 1.156319 1.171765 1.258316 1.261105 1.063712 1.067957 1.013160 0.817767 1.145248 1.252744 1.243294 1.160315 1.085584 1.043075 1.002607 1.047766 1.017280 0.896552 0.851731 0.804878 0.516624 1.162562 1.241134 1.138185 1.242559 1.284829 1.287181 1.286664 1.308170 1.291342 1.288271 1.231348 0.872381 0.844524 0.981433 0.844866 0.947884 1.128012 1.243451 1.253629 1.242770 0.928307 1.113892 1.159750 1.090977 1.124466 0.912934 0.968889 1.105386 1.137958 1.081316 1.066289 1.105697 1.042529 1.074612 1.096264 1.056436 1.035980 1.036602 0.993550 1.025648 1.033207 1.064137 1.058197 1.011984 0.968480 0.983810 1.027468 1.016693 1.005575 1.001663 1.013842 1.013308 1.003680 0.978986 0.985235 0.990416 0.979703 0.949147 0.998385 0.978077 0.990362 0.998544 0.982854 1.003738 0.993975 0.979132 0.985145 1.023319 1.024055 0.986409 0.988468 0.986073 1.013736 1.037440 1.034040 1.029422 1.028737 1.042817 1.080634 1.093499 1.062263 1.152577 1.152324 0.984539 0.876207 1.078300 0.951572 1.104589 1.128833 1.002923 0.975065 1.046962 1.029828 0.968437 1.160787 1.153328 1.096035 1.000625 0.950622 0.774916 0.604799 1.045289 1.105797 1.181637 1.178967 1.093053 0.910472 0.639270 1.066459 1.170855 1.133956 1.044473 1.189425 0.915484 0.973658 1.142178 1.070260 1.130829 1.121791 1.128354 1.075407 1.092775 1.175324 1.148927 1.070492 1.031623 1.001266 0.907507 0.767295 0.934523 1.077495 1.156594 1.190185 1.038572 1.056080 0.875379 0.834970 0.694525 0.940687 0.989892 1.106189 1.144961 1.141895
1.149523 1.162959 1.062846 1.090323 1.194569 1.082483 1.081980 1.107337 1.100937 1.082582 1.092020 1.057163 1.031833 1.085095 1.108469 1.137589 1.123886 1.067151 1.054994 1.076423 1.090860 1.057257 1.082866 1.057208 1.045248 1.009570 1.022519 1.054658 1.059523 1.038206 1.016993 1.013088 1.014821 1.026033 1.049186 1.030377 1.031260 1.058361 1.070937 1.069447 1.058067 1.041111 1.031635 1.017637 1.054870 0.999110 1.061731 1.120749 1.128266 1.142728 1.153440 1.164871 1.177097 1.189774 1.202406 1.213875 1.227605 1.191647 1.091249 1.031376 0.843085 0.832653 1.088192 1.156291 1.096988 1.097752 1.102201 1.101390 1.039685 1.037813 1.043204 1.098151 1.063462 0.945953 0.994441 1.078184 1.066260 1.039860 1.041399 1.057444 1.048372 1.046110 1.073913 1.103432 1.099685 1.012817 0.876692 0.803847 1.035475 1.210565 1.066480 1.059833 1.114775 1.078899 1.054975 1.143440 1.168341 1.006273 0.976381 1.050987 1.092653 1.098453 1.111860 1.158607 1.103825 1.031653 1.062850 1.094113 1.046495 1.071466 1.120108 1.125345 1.001688 0.987126 1.010196 1.068145 0.924767 0.993286 1.159710 1.192615 1.136039 0.950132 1.131367 1.065261 1.052115 1.111135 1.091247 1.114165 1.124321 1.203234 1.206306 1.211873 1.218480 1.225829 1.234305 1.241723 1.245023 1.252290 1.249341 1.160289 1.149854 1.140074 1.156790 1.253091 1.239120 1.232371 1.202961 1.048712 1.171332 1.118629 1.263858 1.028492 1.072957 0.947782 1.192815 1.199511 1.164154 1.211066 1.216939 1.112741 1.035016 1.061993 1.109524 1.157671 1.207142 1.261693 1.256369 1.259830 1.142696 1.132215 1.127285 1.139524 1.130606 1.122509 1.192598 1.140418 1.128325 1.121493 1.109066 1.100131 1.160209 1.153415 1.133203 1.236735 1.225127 0.681863 0.927877 1.252640 1.345000 1.282316 1.219278 1.239970 1.203153 1.096679 1.134514 1.231109 1.231919 1.104220 1.071831 1.045386 0.958059 0.645375 1.035686 1.044936 1.157423 1.301651 1.179129 1.204163 1.258089 1.186013 1.025529 0.425087 0.883582 1.236185 1.226586 1.163610 1.174774 1.273681 1.265334 1.174559 1.065901 0.995945 0.777738 1.112857 1.241806 1.254333 1.212304 1.110783 1.026546 1.096616 1.060338 1.028443 1.072350 1.144489 1.100913 0.848174 1.033187 1.206550 1.135820 1.146437 1.240457 1.250587 1.181640 1.171849 0.990948 0.732401 0.612460 0.978400 1.168693 1.216979 1.065102 0.833629 1.036161 1.159155 1.258199 1.251761 0.981786 1.098165 1.192534 1.117191 1.113188 0.974263 0.906281 1.094617 1.122805 1.063006 1.095707 1.026855 0.996013 1.055199 1.039665 1.019410 1.002768 1.093705 0.986945 1.011820 1.030303 1.076390 1.022034 0.960627 1.010583 1.015079 1.014453 0.979089 0.992487 1.043555 1.012014 1.010270 1.016777 1.013867 1.026470 1.023726 0.956135 0.969890 1.021481 0.993989 1.005876 0.967031 0.906155 0.970958 0.992514 0.989679 1.008078 1.013939 0.994621 1.028279 1.057056 0.974138 0.921839 0.912938 0.910861 0.851427 0.766638 0.739589 0.880355 0.904660 0.949372 1.161409 1.002214 1.119268 0.911457 0.850089 0.995779 1.144615 1.133481 1.053027 1.073382 1.077298 1.009461 0.918405 0.998423 1.167482 1.161946 1.159764 1.035112 0.934549 0.808705 0.712666 1.072080 1.165395 1.190724 1.194901 1.089004 0.988574 0.876800 1.113028 1.012384 0.814455 0.879131 0.869102 1.058313 1.199723 1.185605 1.164097 1.169250 1.168447 1.167217 1.138376 1.046379 0.950666 0.953424 0.936994 0.926347 0.812000 0.836211 0.950321 0.896877 1.047183 1.145083 0.959090 0.945056 0.880188 0.672442 0.644014 1.159628 1.053893 1.165468 1.117894 1.030794
1.155202 1.194715 1.174601 1.115608 1.187477 1.095721 1.023979 1.069250 1.062917 1.071331 1.113548 1.077908 1.017223 1.013357 1.048860 1.047157 1.138212 1.078291 1.047698 1.057422 1.099490 1.067039 1.067257 1.052192 1.073560 1.049597 1.064284 1.058945 1.032565 1.028552 1.029142 1.025678 1.029321 1.042064 1.032091 1.018345 1.037331 1.032300 0.995275 0.975564 1.001882 1.020369 1.049330 1.015220 1.062366 0.969488 1.037849 1.079556 1.132942 0.894616 0.882289 0.916497 0.933134 0.952650 1.002166 0.973708 1.041086 1.207080 1.179395 1.025883 0.901306 0.897355 0.839652 1.006258 1.073360 1.083485 1.092749 1.115382 1.123658 1.105154 1.114410 1.105726 1.115138 1.142382 1.103089 1.091168 1.082436 1.047180 1.039754 1.052278 1.052078 1.039971 1.077823 1.059134 1.072634 0.963289 0.868061 0.888015 1.055309 1.219440 1.119170 1.020663 1.060804 1.053289 1.095668 1.069473 1.196329 0.996861 1.047831 1.051098 1.072422 1.078299 1.116856 1.121935 1.011107 1.040264 1.073456 1.110780 1.047874 1.074890 1.132903 1.223529 1.171845 1.076016 0.957784 1.032503 0.949635 1.019057 1.177884 1.228075 1.049688 0.863219 1.169886 1.116334 1.075686 1.096468 1.059259 1.119563 1.104330 1.101514 1.205069 1.175810 1.146968 1.140335 1.078267 1.153869 1.159872 1.053936 1.124686 1.108697 1.089904 1.219429 1.260063 1.243019 1.216128 1.233094 1.310448 1.187602 0.995492 0.963568 1.255899 0.969901 0.764565 1.014243 1.239949 1.211774 1.137630 1.118378 1.110578 1.133787 1.096116 1.140255 1.163501 1.221392 1.260653 1.261243 1.179796 1.095732 1.103550 1.106431 1.058729 1.074541 0.966459 1.000998 1.252522 1.116387 1.077542 1.125137 1.164134 1.138428 1.093035 1.157776 1.196821 1.174885 1.314867 0.808175 0.500390 1.128089 1.026437 1.067046 1.161384 1.204715 1.123825 1.159726 1.198357 1.229702 1.184054 1.117357 0.999560 1.034636 0.856745 0.726457 1.295565 1.295826 1.284663 1.305998 1.213519 1.166258 1.194465 1.216041 1.242562 0.954960 0.545013 0.937062 1.147025 1.098692 1.196325 1.279633 1.140219 1.271228 1.175646 1.019573 0.726717 0.989404 1.182383 1.259684 1.258433 1.124960 1.059045 1.178846 1.100566 1.095572 1.099009 1.057426 1.033587 1.000039 0.910737 1.248564 1.127034 1.143541 1.107826 1.242626 1.200045 0.982963 0.735869 0.799267 1.046243 1.059194 1.218635 1.232004 1.116587 1.072966 0.962657 1.164989 1.178001 1.057054 1.045076 1.085323 1.169422 1.139291 1.131872 1.149119 1.028101 1.041176 1.099728 1.106198 1.046813 1.021629 1.065013 1.058512 1.033018 1.017687 0.998771 1.125839 0.970383 0.959800 1.044702 1.059691 0.995335 1.026084 1.028555 1.020199 1.021595 1.038233 1.091303 1.025530 1.019838 1.018501 1.012653 1.013051 1.014105 1.015796 0.992542 1.012231 1.019897 0.998986 0.961373 0.916562 0.963678 0.994170 0.989617 0.977235 0.968609 0.993391 0.990757 0.954549 1.062456 1.071954 1.018664 0.956489 0.894011 0.881697 0.923267 0.808040 0.787994 0.747866 0.621082 0.937939 0.730294 1.108710 0.997854 0.933563 1.101913 1.115547 1.139551 1.068630 1.092064 1.097735 1.014140 0.883559 0.958453 1.082742 1.157299 1.171322 1.138566 1.036042 0.920545 0.655815 0.854851 1.184388 1.095043 1.208048 1.173928 1.147378 0.907951 1.039806 1.181641 0.909518 0.718262 1.121984 1.130850 1.193380 1.181225 1.151803 1.125832 1.077938 1.146397 1.159476 1.111654 1.065145 0.997789 0.998427 0.956078 0.855467 1.107532 1.187912 1.006700 0.844604 0.943456 1.027715 1.192648 1.050380 0.941985 0.870832 1.038356 1.006085 1.019081 1.029353 1.120987
1.148899 1.178561 1.159871 1.112598 1.151987 1.163192 1.087918 1.061887 1.034060 1.080649 1.113135 1.086972 1.090028 1.069603 1.044642 1.001556 1.058815 1.103781 1.073707 1.067917 1.084424 1.060502 1.057976 1.049778 1.060171 1.048409 1.045344 1.034435 1.019635 1.019300 1.023273 1.016885 1.042625 1.036654 1.018601 1.036423 1.041550 1.020642 1.024683 1.029653 1.031905 1.006252 1.064315 1.026956 1.031306 1.000145 1.036741 1.078330 1.140046 1.150569 1.017853 0.867706 0.794314 0.813555 0.864939 1.023202 0.992911 0.982053 1.015769 0.939159 1.086062 1.225584 1.144148 1.167977 1.083454 1.063811 1.012533 1.019002 1.008857 1.084712 1.164038 1.025165 1.005619 1.062127 1.033929 1.069469 1.064628 1.075145 1.043748 1.043508 1.058176 1.056365 1.095848 1.071069 1.046774 0.915684 0.970680 0.902220 0.990992 1.204370 1.139082 0.966542 1.052296 0.998044 1.020948 1.121249 1.139966 1.017058 1.079279 1.082000 1.117674 1.105323 1.153406 1.128628 1.083241 1.110578 1.115856 1.122867 1.020842 1.039809 1.108379 1.161090 1.070639 1.062727 0.949383 0.990293 1.241378 1.198812 1.198209 1.258483 1.148367 0.684633 1.152707 1.219569 1.112777 1.121350 1.053005 1.092697 1.107193 1.072875 1.153877 1.198065 1.101499 1.141763 1.169088 1.167311 1.167615 1.051031 1.115363 1.176681 1.153972 1.010670 1.117029 1.169781 1.171398 1.214012 1.251164 1.323490 1.295904 0.707487 0.952541 0.804569 1.025447 1.028525 1.048113 1.221055 1.220394 1.215542 1.123691 1.117638 1.140961 1.234397 1.271338 1.266549 1.258937 1.126151 1.078941 1.116315 1.122123 1.051699 0.919314 0.942717 0.939990 1.154442 1.266922 1.062497 1.100955 1.075158 1.135798 1.144012 1.137921 1.171005 0.963708 0.960053 1.341016 0.870966 0.607889 0.860948 0.840085 1.041227 1.056527 1.050618 1.044054 1.154490 1.240210 1.235518 1.168240 1.198837 1.122296 1.029053 0.856629 0.729208 1.039355 1.028961 1.198497 1.229756 1.274497 1.245284 1.214566 1.260774 1.283568 1.298972 1.144316 0.826978 1.050824 1.156477 1.143132 1.238055 1.126747 1.270165 1.229719 1.066930 0.848251 0.861352 1.116328 1.156343 1.257531 1.201433 1.044806 1.001383 1.121640 1.144379 1.152602 1.180806 1.059148 1.068220 0.879780 1.164292 1.104223 1.157291 1.067172 1.218966 1.328868 0.938892 0.788133 1.245782 1.245135 1.018486 1.199985 1.157783 1.143510 1.128791 1.149166 1.100633 1.100134 1.035623 1.143335 1.118539 1.080678 1.034243 1.023788 1.088793 1.077248 0.993848 1.097931 1.106154 1.075710 1.095647 1.083930 1.013395 1.030947 1.001230 1.015197 1.130560 0.886668 0.919105 1.041475 1.027355 0.967310 1.012383 0.995380 0.998331 1.017653 1.049701 1.091130 0.990440 1.026880 1.024222 1.008694 1.023564 1.055321 0.994470 0.964392 1.021203 1.003566 0.944669 0.928693 0.957600 0.997201 0.996657 0.989617 0.986763 0.999883 1.011375 1.006800 0.862510 0.996261 1.072036 1.080293 1.044696 0.999978 1.073848 1.012978 0.965572 1.060421 0.964718 0.826793 0.708091 0.633950 0.620319 0.912309 1.080121 1.054784 1.132224 1.144705 1.102779 1.045506 1.000597 0.923132 0.803066 0.773960 1.114346 1.139265 1.176382 1.178571 1.066541 0.916355 0.814311 0.661624 0.933335 0.965699 1.147720 1.205420 1.223175 1.183720 0.910220 1.098950 0.859424 1.051643 1.110256 1.174370 1.142056 1.086801 1.061704 1.071318 0.982682 1.053479 1.162889 1.155715 1.153587 1.092557 1.052888 0.977112 0.901960 1.078972 1.192558 1.122885 0.925525 0.916388 1.136955 1.209866 1.169728 1.091184 1.099013 0.692213 1.040405 1.153910 1.100078 1.145813
1.107056 1.078393 1.037842 1.071521 1.080249 1.174562 1.102783 1.029678 1.063577 1.091056 1.072318 1.070035 1.086663 1.069184 1.047363 1.030874 1.055369 1.054925 1.067525 1.065230 1.083709 1.057418 1.047344 1.033561 1.041950 1.037207 1.037130 1.021018 1.026338 1.028128 1.028157 1.026027 1.049923 1.039876 1.023217 1.061168 1.027804 1.025152 1.053097 1.021435 1.072981 1.055176 1.020886 1.012031 0.890804 0.960896 0.991724 1.136012 1.065294 1.125227 1.155258 1.160941 1.183395 1.188199 1.192994 1.219648 1.202683 1.104267 1.118322 0.906727 0.879484 1.208858 1.116641 1.126227 1.131029 1.166839 1.151806 1.149775 1.068785 1.107949 1.167300 1.003903 1.082104 1.083472 1.051041 1.017742 1.014067 1.080132 1.060765 1.040659 1.044075 1.058941 1.105990 1.079904 1.072821 0.973898 0.906157 0.979024 1.067833 1.188037 1.049791 1.022850 1.076125 1.056335 0.990988 1.122184 1.051125 1.099467 1.098721 1.099391 1.121403 1.126692 1.112120 1.043734 1.065982 1.005241 1.048985 1.019478 0.973312 0.896234 0.929441 1.104319 1.049298 1.060625 0.973629 0.972394 1.022382 1.066859 1.210856 1.263105 1.107059 0.666300 1.219067 1.234966 1.048638 1.143139 1.086509 1.154596 1.091991 1.081676 1.107037 1.165953 1.041274 1.135599 1.181236 1.095781 1.017376 1.087397 1.138591 1.167546 1.206743 0.958694 1.191778 1.201824 1.185282 1.233039 1.089927 1.261002 1.340509 1.216970 0.841818 1.183703 1.266038 1.343300 1.030424 1.001057 1.028527 1.123232 1.167023 1.242169 1.250542 1.243941 1.232542 1.201913 1.139931 1.103200 1.115852 1.100059 1.003305 0.866769 1.030332 1.089050 1.204433 1.268339 1.217277 1.052974 1.073611 1.094515 1.137177 1.172968 1.222494 1.246307 1.141134 0.825686 1.129308 0.975366 1.071324 1.110173 0.974894 0.960299 1.031259 1.054545 1.063509 1.101081 1.237683 1.178692 1.098143 1.119117 1.248358 1.234852 1.025699 0.650733 0.502120 0.827676 1.240599 1.283172 1.096608 1.283849 1.208873 1.235435 1.227788 1.181233 1.163489 1.027890 0.959335 1.208142 1.078904 1.241740 1.152774 1.172840 1.269834 1.207708 0.923101 0.757198 1.112109 1.044054 1.261446 1.264504 1.111999 1.068027 1.130028 1.123027 1.180620 1.090465 0.980816 0.812778 0.520976 1.039656 1.066442 1.126705 0.866071 0.856937 1.257911 0.866422 1.136230 1.266527 1.270154 1.164831 1.219350 1.212647 1.161470 1.075105 1.001329 0.906215 1.074861 1.062487 1.095994 1.050063 1.032468 0.915502 0.996887 0.986694 1.050165 1.124840 1.119257 1.023661 1.017345 1.097203 1.087295 1.049996 1.033082 1.003280 1.105840 1.139844 0.864620 0.898979 1.048542 0.978537 0.946991 0.998842 1.000102 1.007558 1.025468 1.077881 1.091858 0.981524 1.012039 1.024969 1.017252 1.023600 1.034168 0.971318 0.891600 0.963327 0.930448 0.965694 0.990095 0.998332 1.001348 0.988461 0.984115 0.991846 1.000566 0.973338 0.922759 0.819777 0.833473 1.040012 1.080173 1.083813 1.090956 1.017306 0.963364 1.060137 1.007118 0.988338 0.990036 0.946441 0.930964 0.634681 0.640915 1.019548 1.124594 1.156398 1.152315 1.152983 1.043344 0.849460 0.733484 0.687645 0.603971 0.956994 1.071571 1.182676 1.184831 1.193164 1.106216 1.065612 0.825887 0.631161 0.726690 0.861809 0.868236 1.020020 1.103768 0.985793 0.559748 0.733906 1.113537 1.136521 1.192028 1.026053 1.109389 1.102370 1.090448 0.958565 1.057896 1.105992 1.127230 1.152542 1.135224 1.062119 0.955029 1.048197 1.092701 1.109993 0.894892 1.126570 1.106778 1.077327 1.033094 1.064320 1.026587 1.008598 0.903272 1.130395 1.222386 1.108220 1.188669
1.004389 1.048882 1.044634 1.050264 1.100807 1.179915 1.161305 1.070171 1.084019 1.087485 1.067168 1.059026 1.077530 1.072889 1.068977 1.059684 1.068334 1.037733 1.020371 1.012648 1.050758 1.048550 1.040342 1.038687 1.028097 1.023577 1.019222 1.021162 1.022153 0.997403 1.020521 1.050969 1.008615 1.003327 1.048029 1.046848 1.014818 1.039144 1.064822 1.073592 1.088437 1.095776 1.057361 0.865613 0.787442 0.950221 1.081860 1.186658 0.992721 1.007342 1.162817 1.168211 1.142618 1.192128 1.195149 1.146260 1.088634 0.997889 1.111218 1.091013 0.811258 1.165857 1.143785 1.097551 1.074272 1.052533 1.017910 1.017047 1.023873 1.072327 1.169732 0.969959 1.047148 1.059951 1.072406 1.081729 1.064924 1.049047 1.073504 1.043019 1.038957 1.041168 1.073545 1.086287 1.070053 0.989005 0.942301 1.049371 1.041279 1.137029 1.041804 1.063990 1.069368 1.085166 1.042137 1.074294 1.074506 1.075447 1.122487 1.148987 1.140204 1.149635 1.132947 1.076585 1.051631 1.010233 0.896756 0.891981 1.042522 0.934141 0.874320 0.861827 0.779439 0.814445 0.667701 0.710944 0.923626 1.143913 1.271205 1.268314 1.130676 0.603261 1.072955 1.147728 1.040733 1.237306 1.112565 1.191860 1.092863 1.143561 1.135967 1.233686 1.104609 1.094366 1.196969 1.145126 1.022970 1.214327 1.151622 1.151645 1.255483 1.027566 1.246669 1.228173 1.181524 1.227330 1.143953 1.292364 1.021435 1.129258 1.302372 1.340147 1.276856 1.269088 1.293286 1.232349 1.120943 1.119380 1.224800 1.235381 1.192548 1.242438 1.195704 1.121020 1.137994 1.102799 1.097130 0.940197 0.848725 0.969769 1.108175 1.193214 1.272885 1.270775 1.147012 1.168173 1.118119 1.030330 1.091444 1.206341 1.271543 1.233311 1.214350 0.817382 0.731058 1.135571 1.153654 1.201063 1.211160 1.115334 1.052851 1.090371 1.127837 1.135908 1.237548 1.212936 1.082979 1.059745 0.871376 0.964830 0.870641 0.652098 0.808661 0.743273 0.815121 1.019689 0.806162 1.127213 1.262315 1.199244 1.098282 1.079553 1.045439 0.934448 1.128176 1.174426 1.146941 1.298348 1.199148 1.104506 1.141848 1.171192 1.060464 0.710470 1.113214 1.090035 1.269236 1.262327 1.155363 1.017603 0.996044 0.991404 1.058788 0.979979 1.054912 1.121345 1.060766 0.868393 0.835852 0.915316 0.829559 0.970619 1.067896 0.686210 1.211219 1.274898 1.185184 1.126083 1.142580 1.170576 1.108087 1.059394 1.009744 1.007867 1.008993 1.065060 1.056830 1.035344 1.069172 1.026300 0.959425 1.113288 1.126413 1.129030 1.101868 1.034430 0.983455 1.073870 1.055245 1.073568 0.978726 0.957547 1.127019 1.148583 0.886476 0.843626 0.981736 0.913904 0.987178 1.075240 1.060891 1.050869 1.054084 1.117377 1.016674 0.958418 1.033714 1.023995 0.995220 0.981537 0.903362 0.855670 0.870874 0.933721 1.012829 1.008702 1.003123 0.991136 0.997570 0.980736 0.980493 0.989391 1.016403 1.050265 1.079126 1.043827 0.914783 0.953699 1.054598 1.092989 1.091234 1.096875 1.075957 1.013555 0.989981 1.018111 0.983616 1.056340 0.926881 0.728797 0.619222 0.991876 1.136785 1.083522 1.149945 1.141550 1.141359 1.064188 1.041437 0.947439 0.895433 0.760935 1.069810 1.151587 1.177810 1.204339 1.168852 0.997594 0.832208 1.043057 1.175400 1.092187 0.897259 0.975027 0.885201 0.832655 0.666375 0.815550 0.940378 1.178391 1.008202 1.074865 1.162850 1.113047 1.036082 0.860745 0.987005 1.001571 0.975460 1.052687 1.137811 1.076094 1.061228 1.113487 1.102910 0.982622 1.029494 1.178773 1.141056 1.124581 1.022172 0.863014 0.932973 0.915609 0.786916 1.062329 1.146667 1.044617 1.008602
1.005525 1.091293 1.100519 1.146741 1.159914 1.086182 1.172473 1.052427 1.060477 1.075279 1.051228 1.036928 1.041221 1.080123 1.073429 1.075506 1.053789 1.037035 1.041562 1.035295 1.036720 1.059641 1.033803 1.003097 1.001026 1.024121 1.030237 1.020032 1.003500 1.022369 1.051252 1.031307 1.024976 1.030784 1.061536 1.011636 1.038516 1.044671 1.039851 1.059845 0.998260 0.959767 1.089932 0.846420 0.601299 0.891901 1.089068 1.200537 1.010915 1.002448 1.174766 1.181196 0.923709 1.131265 1.127046 1.123630 1.207755 1.124234 1.121812 1.054770 0.861270 1.136304 1.159315 1.113356 1.023290 1.061772 1.020387 1.044470 1.113586 1.167317 1.160124 1.004438 1.035968 1.030804 1.056185 1.031831 1.027378 1.059881 1.098965 1.050712 1.038918 1.038975 1.048170 1.088383 1.101354 1.059142 1.039970 1.067296 1.090110 1.065651 1.073208 1.065971 1.072822 1.089940 1.117968 1.146358 1.142076 1.148192 1.119412 1.058581 1.120837 1.084288 1.061975 1.120850 1.097328 1.049303 1.078522 1.092154 1.100860 1.015694 1.071237 1.036992 0.898007 0.794045 0.756406 0.666404 0.717411 1.002046 1.249279 1.275686 1.253955 0.804933 0.768311 0.921997 1.256213 1.272529 1.062701 1.220314 1.062768 1.105541 1.164378 1.216613 1.187415 0.951429 1.195340 1.204419 0.814852 1.124856 1.146694 1.207088 1.321318 0.855546 1.171168 1.133660 1.165956 1.136780 1.144689 1.347524 0.687986 0.985147 1.300353 1.276100 1.239716 1.225585 1.209673 1.211963 1.239003 1.270412 1.201868 1.183027 1.231556 1.211492 1.083801 1.138478 1.194253 1.120823 0.992964 1.000773 1.152270 1.124522 1.147062 1.237669 1.273139 1.176614 1.104074 1.115932 1.135744 1.165185 1.084975 0.911891 1.134818 1.191903 1.239209 1.007705 1.018816 1.280522 1.243118 1.244824 1.166159 1.130505 1.058369 1.103803 1.122533 1.183348 1.238225 1.204245 1.086823 1.022314 0.957909 0.918774 0.982359 1.009797 1.159685 1.115059 1.093295 0.885881 0.741530 0.834041 1.048720 1.349751 1.291415 1.159353 1.002831 0.664642 1.158883 1.167613 1.164846 1.241277 1.239923 1.117329 1.138436 1.210905 1.020113 0.796895 0.818185 1.111502 1.237286 1.263761 1.204526 1.018944 1.051540 0.978204 1.086986 1.037508 1.048841 1.110855 0.922225 0.751295 0.537082 1.078542 1.357872 1.342709 1.266694 1.202513 1.279474 1.137521 1.109262 1.133590 1.154553 1.167147 1.195168 1.116008 1.017000 0.987040 1.075354 1.119075 1.134563 1.089739 1.126155 1.144336 1.098095 1.135080 1.076374 1.033789 1.073337 1.099738 1.032649 1.038965 0.976376 1.080187 0.949218 1.017638 1.153684 1.155226 0.839559 0.663275 0.925930 1.033412 1.017205 0.991826 1.068347 1.057651 1.047096 1.123976 0.987323 0.928481 1.028924 1.026779 0.875024 0.791116 0.885125 0.880873 0.948050 1.010688 1.023442 1.016170 0.970123 0.975801 0.999361 0.974954 0.994627 1.012469 0.994546 0.980214 0.918986 0.892124 0.804240 0.737835 0.974450 1.049080 1.103523 1.098096 1.103584 1.069599 1.073284 1.096937 1.116198 1.102768 1.010216 1.018167 0.830565 0.837243 1.129604 1.082453 1.152256 1.129927 1.168754 1.173966 1.146829 1.039134 1.121883 1.014205 0.794742 1.010704 0.997728 1.080292 1.024951 0.762532 0.929334 1.141470 1.115674 0.906219 1.109730 1.222827 1.194227 1.151047 1.123182 0.939917 0.961935 1.179450 0.783997 1.068751 1.025793 0.993888 0.901523 0.825437 0.937943 0.929072 0.980168 1.053395 1.119659 1.104318 1.091841 1.092060 1.126582 1.086218 1.098727 1.128736 1.116725 1.150210 1.071608 1.047626 1.204939 1.104829 0.800999 0.909232 0.963235 1.045266 1.133678
1.056180 1.043156 1.037572 1.059922 1.000378 1.040853 1.147577 1.159016 1.097484 1.070201 1.036356 1.035946 1.052363 1.057408 1.054946 1.053041 1.036769 1.038054 1.042999 1.030904 1.014585 1.012483 1.048420 1.024930 1.024365 1.022492 1.013844 1.012610 1.053768 1.058536 1.062241 1.039227 1.044426 1.041984 0.998046 1.027399 1.030018 1.003455 0.876086 0.834518 0.887481 0.892493 0.952258 0.910621 0.520538 0.965654 1.201503 1.199985 0.954123 1.086984 1.186473 1.134398 0.730057 1.144590 1.075892 1.087798 1.174640 1.194823 1.038227 0.795715 0.982746 1.053463 1.152093 1.135711 1.099238 1.106481 1.074048 1.127772 1.147493 1.174102 1.079989 1.015553 1.056569 1.074979 1.079421 1.052449 1.005144 1.047670 1.093515 1.068044 1.039371 1.038918 1.039381 1.050036 1.093824 1.088783 1.073401 1.039076 1.068075 1.058445 1.075545 1.076050 1.122073 1.141270 1.141459 1.102575 1.095541 1.122249 1.029064 1.027857 1.075824 1.052392 1.032758 1.159577 1.133714 1.199336 1.206153 1.211878 1.182553 1.126886 1.061936 1.028913 1.157408 1.147728 1.173205 0.948882 0.618609 1.164479 1.278473 1.285830 1.275666 0.962505 0.677480 1.016931 1.272262 1.201897 0.976984 1.273163 1.062906 1.049223 1.248958 1.172174 1.135096 0.868557 1.167403 1.177123 0.819354 1.190571 1.250637 1.325017 1.307395 0.727274 1.096358 1.044128 1.189477 1.216009 1.259190 1.306724 0.692118 1.197878 1.284890 1.134189 1.017662 0.979357 1.074601 1.194589 1.259712 1.167699 1.179760 1.246866 1.202529 1.185022 1.217767 1.160665 0.997298 0.903850 1.047621 0.985344 1.123973 1.158290 1.220367 1.274679 1.204747 1.153204 1.074529 1.103240 1.161969 1.220194 1.235915 1.116733 0.951200 0.687699 0.776841 1.194075 1.148939 1.171631 1.158209 1.157123 1.065929 1.086766 1.084326 1.092973 1.088459 1.245082 1.185502 1.080186 0.988740 1.017143 0.976640 0.967694 1.020540 1.089733 1.171474 1.122913 1.125792 1.158804 1.229841 1.157846 0.700453 0.870988 1.247877 1.130155 0.867777 0.671281 1.026008 1.057632 1.063530 1.169785 1.257477 1.139756 1.185539 1.230221 1.089356 0.911446 0.545134 1.166903 1.210828 1.269475 1.270539 1.125129 1.090552 1.057935 1.147753 1.244965 1.189428 1.200530 1.203605 1.173530 0.925082 0.526051 1.010178 0.973718 1.146242 1.011862 1.041349 0.967382 1.130749 1.122739 1.165914 1.183991 1.140878 1.133229 1.049055 1.049494 1.119959 1.132780 1.144575 1.140186 1.138460 1.138168 1.122548 1.119154 1.061016 1.008540 1.032779 1.114028 1.090669 1.098685 1.024131 0.921844 0.954771 1.096212 1.161817 1.159022 0.834023 0.641774 1.098740 1.160465 1.079811 1.041153 1.043948 1.022291 1.072593 1.129279 1.024673 0.895960 0.973918 0.898037 0.842887 0.973756 1.083943 0.998475 0.998011 0.970975 0.991636 1.004624 0.960230 0.987490 0.992641 0.969866 0.993129 1.012743 0.954393 0.925240 0.923698 0.993239 0.966510 0.774512 0.689383 1.056796 1.081567 1.109066 1.104081 1.109612 1.033597 1.088662 1.113898 1.158107 1.155562 1.099737 1.079322 0.858987 0.823934 1.156983 1.189292 1.154848 1.181302 1.137119 1.131755 1.029656 1.044038 1.077744 0.682807 0.789634 0.811339 0.939900 1.015282 0.889775 1.080508 1.185021 1.148228 1.122968 1.203028 1.123932 0.974711 0.935326 0.767826 0.816495 1.204438 1.191382 0.875586 0.847618 0.975577 0.872590 0.971642 1.077646 1.038933 1.051678 1.068979 1.097348 1.103122 1.101451 1.116336 1.126326 1.136639 1.143837 1.153465 1.147630 1.016915 0.952033 1.042023 1.063516 1.145994 1.208672 1.053345 0.717127 1.081639 1.180845 1.213065
1.028254 1.024507 1.045833 1.022225 0.934242 1.034852 1.061202 1.081147 1.146460 1.068064 1.025532 1.042308 1.068038 1.038745 1.035329 1.039641 1.027277 1.023743 1.021613 1.040828 1.036062 1.047901 1.037961 1.023775 0.996256 1.003451 1.045460 1.069386 1.057613 1.041779 1.044575 1.024465 1.013975 1.088052 1.004425 0.969987 0.946911 0.874817 0.786154 0.832199 0.873693 0.782098 0.723305 0.733825 0.463733 1.091988 1.243854 1.127643 1.047920 1.075990 1.201514 1.137368 0.783001 1.120455 1.108764 1.091538 1.112356 1.027979 0.881202 0.888143 1.088573 1.079584 1.130207 1.130772 1.160239 1.104492 1.027853 1.106407 1.177202 1.139280 1.051711 1.032315 1.048600 1.034337 1.050646 1.066940 1.030800 1.065050 1.066767 1.094613 1.043912 1.038918 1.038918 1.039790 1.045725 1.065015 1.084356 1.079752 1.131228 1.132446 1.134185 1.136388 1.128818 1.111132 1.111648 1.099881 1.082476 1.148757 1.046201 1.037908 1.115074 1.027767 0.986236 1.183057 1.131420 1.075549 1.094843 1.190677 1.214559 1.218527 1.219003 1.168672 1.249561 1.200346 1.171072 1.016645 0.777781 1.214455 1.230647 1.259507 1.215552 0.980911 0.694881 0.974201 1.277270 1.178527 1.088024 1.213781 1.065047 1.101122 1.276254 1.253123 1.134289 1.172561 1.063863 1.109347 0.911730 1.218300 1.208323 1.269939 1.186959 0.666711 1.264585 1.129745 1.193059 1.264651 1.300897 1.164346 0.491426 0.923210 1.108190 0.889197 1.126521 1.020142 1.074759 1.246158 1.198490 1.155427 1.230247 1.149729 1.179589 1.117411 1.156201 1.136750 0.917009 1.028824 1.125067 1.085371 1.102233 1.156503 1.217948 1.271232 1.159954 1.149184 1.164066 1.073156 1.133851 1.221321 1.186561 1.231821 1.254139 1.010330 0.617240 1.165933 1.229641 1.174591 1.110468 1.150639 1.109483 1.143392 1.143338 1.132082 1.149435 1.242245 1.138083 1.065925 1.022401 1.069467 1.049225 1.092912 1.208647 1.232248 1.199520 1.174416 1.143547 1.125154 1.080685 1.216034 1.066766 0.739695 0.744723 0.960572 0.993288 0.438651 0.978653 1.310830 1.169801 1.250751 1.274692 1.140036 1.174611 1.167082 1.285020 1.080053 0.679233 0.907905 1.123890 1.266688 1.270463 1.228434 1.080083 1.043650 1.137184 1.197494 0.945260 0.898905 1.055829 0.938999 0.770486 0.529817 0.830247 0.862038 1.172269 1.022040 1.138101 1.171780 1.159035 1.101480 1.025400 1.111641 1.133004 1.086472 1.108830 1.096787 1.121336 1.141465 1.128564 1.108716 1.055313 1.022063 1.037227 1.126576 1.024466 0.999284 1.015523 1.083679 1.086313 1.040831 1.003538 0.891253 0.880387 1.070195 1.174167 1.158781 0.730089 0.759761 1.155474 1.181358 1.091342 1.002820 1.005205 1.072973 1.134686 1.074896 1.002328 0.892583 0.963612 0.829963 1.031884 1.034202 1.024925 1.045742 1.030412 0.987135 0.983518 0.996085 0.976886 0.993261 0.976822 0.969506 0.986791 1.009110 0.955539 0.970391 1.017758 1.023863 0.981843 0.806283 0.577054 1.039508 1.050819 1.035617 1.113331 1.113546 1.052276 0.923982 0.942437 1.051954 1.134140 1.108158 0.958353 1.174876 0.702009 0.989138 1.219504 1.069266 1.127135 1.140050 1.188378 1.062102 0.812926 0.884533 0.832054 1.005853 0.978946 1.027300 1.114683 1.109629 1.179312 1.174515 1.178605 1.185710 1.195709 1.210727 0.929145 0.615094 0.797683 1.001907 1.140492 1.155257 1.067606 0.980325 1.171832 0.995569 1.006782 1.121947 1.054319 1.080023 1.094420 1.106983 1.098330 1.111030 1.044130 1.093824 1.130092 1.138546 1.104836 1.090798 1.073832 1.107452 1.172060 1.098239 1.046180 1.008118 1.109047 0.723494 0.776619 1.068113 1.079903
1.023703 1.065204 1.061436 1.015635 0.969622 1.022658 1.070252 1.026711 1.036943 1.133040 1.076028 1.010965 1.027295 1.048627 1.049758 1.043105 1.024956 1.015853 1.012038 1.035901 1.033342 1.019238 1.022324 1.021805 1.021030 1.051497 1.055248 0.997977 1.020937 1.059898 0.990591 1.013346 1.024561 1.051481 1.098660 1.011222 0.966876 1.081785 1.000749 1.138041 1.173386 1.160905 1.130048 1.061767 0.641017 0.973507 1.135116 1.010491 1.016933 1.035391 1.221960 0.954525 0.798829 1.161214 1.167850 1.101018 1.154513 1.015471 0.745333 0.847497 1.031677 1.148035 1.090869 1.128763 1.129818 1.144462 1.116033 1.165137 1.157460 1.095280 1.019204 1.062376 1.088249 1.069128 1.073668 1.091775 1.051709 1.039375 1.055722 1.097470 1.055231 1.038935 1.038918 1.039444 1.042949 1.061785 1.106331 1.119386 1.090057 0.999957 1.089723 1.092225 1.074256 1.093170 1.115650 1.042161 1.005338 1.161633 1.113258 1.054373 1.047850 0.983214 1.016959 1.203447 1.139062 0.917899 0.934963 1.057613 1.080257 1.205120 1.226020 1.081743 1.011904 0.955498 0.844953 1.018166 1.170603 0.864983 1.116116 1.253576 1.229127 0.863649 0.515912 0.756806 1.082592 0.858407 1.187258 1.310273 1.015751 1.122471 1.246856 1.223076 1.084086 1.144112 1.016433 0.954650 0.977263 1.254851 1.182239 1.172965 0.948165 0.648491 1.318499 0.980845 1.196735 1.329781 1.276305 0.801485 0.600287 0.966737 1.229952 1.230585 1.314455 1.251269 1.173978 1.275351 1.162751 1.224418 1.177930 1.147176 1.175981 0.977514 1.048650 0.927000 1.051295 1.153760 1.122904 1.073902 1.150978 1.215846 1.249333 1.211758 1.121167 1.076683 1.131322 1.170896 1.067741 1.004293 1.100089 1.213610 1.126133 0.899165 1.036157 1.174631 1.202591 1.221336 1.160283 1.176145 1.179460 1.182221 1.206327 1.210280 1.156233 1.245321 1.211828 1.227147 1.256759 1.260263 1.265767 1.266910 1.269458 1.269341 1.272746 1.281077 1.209211 1.168851 1.098001 1.172210 1.250719 1.272142 1.300710 1.258106 1.078860 0.635303 0.705791 1.293919 1.118734 1.247987 1.284800 1.151562 1.156408 1.095861 1.228729 1.224869 0.997586 0.547703 0.860027 1.226485 1.282081 1.277535 1.244812 1.112090 1.037150 1.072407 1.011339 1.232203 1.239377 1.102793 0.700495 1.044945 1.070330 1.012685 1.005864 0.785793 1.082342 1.176329 1.147437 1.138142 1.047174 1.069152 1.081629 1.090410 1.112205 1.127158 1.140433 1.077122 1.073920 1.063667 1.041363 0.989561 1.057457 1.151342 1.083093 0.966438 0.905327 0.960192 1.137468 1.041132 0.930118 0.867378 0.905355 1.164574 1.181238 1.086054 0.629585 1.027866 1.186627 1.150799 0.927373 0.853605 1.008260 1.102656 1.137461 1.049132 0.932611 0.824021 0.845969 1.003744 1.078551 1.051429 1.065903 1.022063 1.009019 0.995185 0.989609 1.000366 0.996177 0.985818 0.967579 0.978711 0.989826 1.005256 1.042583 1.076171 1.095019 1.069869 0.902732 0.858504 0.723228 0.658835 1.041048 1.002559 1.102776 1.114749 1.103592 1.001975 1.044186 0.965724 0.894102 0.874767 0.832484 0.930238 0.698096 0.687993 1.171378 0.996863 1.056015 0.963421 1.004660 0.934700 0.696574 0.903757 1.077516 1.079548 1.001986 1.142514 1.172169 1.170848 1.173106 1.152460 1.104162 1.103092 1.100136 1.039433 0.976236 0.896178 1.037791 1.077076 1.045932 1.078240 1.128984 0.956559 1.119354 1.096202 0.963576 1.019613 1.079686 1.098470 1.088420 1.094083 1.107176 1.091679 0.998315 0.983936 1.049701 1.162468 1.119923 1.060790 1.161896 1.187364 1.162254 1.172346 1.201988 1.096990 1.008412 0.865432 0.790169 1.093418 1.152501
1.042537 1.013081 1.084012 1.116670 1.078321 1.028056 1.069395 1.039912 0.996768 1.037059 1.109740 1.114630 1.053590 1.017163 1.040380 1.030187 1.008196 1.023388 1.030936 1.033736 1.020648 1.039446 1.029822 1.021618 1.027141 1.066072 1.035118 1.026650 1.053286 1.037033 1.016322 1.029025 1.029915 1.026966 1.106719 1.102504 1.113719 1.125825 1.057310 0.975305 0.891423 0.935683 1.028317 0.983858 0.818030 0.659661 0.746936 0.812957 1.154470 1.188698 1.236815 1.174981 0.955825 1.139718 1.198465 1.130146 1.108069 0.981220 0.914030 1.088139 1.091842 1.105991 1.080698 1.065722 1.043647 1.072769 1.137318 1.157250 1.076560 1.039520 1.033824 1.051167 1.065498 1.079286 1.090641 1.065593 1.046377 1.012768 1.029072 1.098044 1.080710 1.042544 1.038918 1.038946 1.043925 1.072645 1.011213 1.001465 1.002517 0.935740 1.139390 1.089428 1.011322 1.098475 1.080514 0.981290 0.964287 1.197591 1.114306 1.072884 1.028643 0.995745 1.061345 1.210795 1.194990 0.916342 0.804865 0.868349 1.056409 1.097936 1.237566 1.241316 1.175916 0.947747 0.988748 1.201398 1.035797 0.757917 0.828375 1.217247 1.092690 0.903815 0.930356 0.930419 1.041081 0.528722 1.088747 1.114741 1.035000 1.187107 1.298953 1.300345 1.170413 0.936912 0.988176 0.798490 0.998915 1.033886 1.005379 1.067420 0.670316 1.152056 1.201521 0.853656 1.242458 1.246186 0.862120 0.919874 1.007453 0.946414 0.960186 1.157679 1.181601 1.234014 1.282957 1.234005 1.163818 1.252231 1.154357 1.100830 1.118633 1.137671 0.917413 0.864488 0.999243 1.150052 1.187420 1.095086 1.121314 1.221451 1.219884 1.177749 1.173263 1.123538 1.127369 1.184076 1.221843 1.164486 0.978808 0.965011 0.818401 0.979936 1.237116 1.149881 1.117825 1.115606 1.183352 1.160907 1.188466 1.265149 1.273109 1.147308 1.071385 1.251205 1.168024 1.146180 1.152762 1.253666 1.259502 1.212057 1.141443 1.152509 1.262739 1.276600 1.279145 1.247835 1.123536 1.145388 1.187644 1.234005 1.267581 1.274004 1.279899 1.198545 0.833789 1.142165 0.989845 1.153820 1.314331 1.162084 1.151880 1.154675 1.122280 1.138893 1.159425 1.066657 0.704365 1.049705 1.192933 1.285537 1.275082 1.248971 1.097285 1.195776 1.242112 1.215854 1.011876 0.815000 0.980043 1.333616 1.238586 1.167447 1.188957 0.685069 1.166806 1.082663 0.970782 0.993580 1.065284 1.073352 1.100400 1.098916 1.097930 1.110889 1.104786 1.053792 1.060463 1.071068 1.035038 1.003376 1.045177 1.157331 1.163169 0.958362 0.905070 0.826696 1.070671 1.084997 0.884072 0.759109 1.056367 1.190516 1.187685 0.893918 0.689013 1.159157 1.178355 1.000158 0.734439 1.046592 1.084430 1.130350 1.141318 1.052064 0.906418 0.683210 0.908544 1.068144 1.068893 1.046738 1.010867 1.038876 1.025841 0.989153 0.967527 0.983452 0.988111 0.976654 0.973620 0.992404 0.993349 0.988783 0.975351 1.046055 0.988123 1.108608 1.111738 1.073876 0.920055 0.528052 0.880280 1.073536 1.086656 1.126538 1.127258 1.056839 1.110989 1.088857 1.052158 1.083811 1.023203 1.129325 0.969916 0.501276 0.866318 0.896408 0.825938 0.850147 0.993935 1.107895 0.988523 1.069295 1.147099 1.028561 1.124857 1.158119 1.163742 1.114855 1.073786 1.093482 1.078412 1.060534 1.087868 0.912767 0.866108 1.110808 0.994629 1.069589 1.114778 0.993592 1.173353 1.070176 1.034303 1.136697 1.018146 1.018639 1.047592 1.057300 1.061678 1.114300 1.107770 1.074500 1.012262 0.875386 1.024322 1.169123 1.077016 0.889107 1.151170 1.162800 1.140597 1.143950 1.205555 1.175788 1.143157 1.105373 1.081493 1.223746 1.211512
1.058546 1.055507 1.098446 1.079677 1.059696 1.040495 1.066194 1.056574 1.038993 1.009124 1.009197 1.019492 1.105609 0.988572 1.003759 0.993524 1.016549 1.042554 1.050687 1.047268 1.042084 1.031181 1.035941 1.062072 1.065114 1.069601 1.066934 1.046458 1.085832 0.998475 0.986280 0.983916 0.990955 1.034955 1.068649 1.102120 1.111073 1.031803 0.991295 1.059914 1.018827 1.069907 1.031222 1.066865 1.050657 0.914637 0.398501 0.947298 0.977235 1.222700 1.231142 1.213677 1.009238 1.091284 1.148741 1.149173 1.074088 0.800052 0.985262 1.170515 1.151968 1.107073 1.084849 1.071990 1.070528 1.128284 1.186635 1.118172 1.076150 1.055905 1.034303 1.037085 1.029857 1.075959 1.084769 1.049021 1.056774 1.059035 1.051679 1.069686 1.090173 1.056999 1.039052 1.038918 1.044010 1.076425 1.015381 1.057289 1.034935 0.965012 1.170664 1.104304 1.032043 0.997688 0.916998 1.012250 1.063142 1.210341 1.126698 1.053017 1.021870 0.910493 1.024858 1.185270 1.210169 1.097144 0.959336 0.822440 1.093319 1.014571 1.150365 1.235301 1.249474 1.147316 1.174142 1.209008 1.176475 1.109352 1.056340 0.801072 0.703067 1.238034 1.066135 1.192872 1.316133 0.816190 1.015405 0.743899 1.085174 1.294691 1.313521 1.306854 1.161715 0.945486 0.860152 0.731113 0.904328 1.137062 0.969398 0.697644 0.631466 0.877209 0.419393 0.934596 1.203503 1.059968 1.177458 1.297615 1.169306 1.095414 1.088610 0.981399 1.030617 1.035303 1.213678 1.164785 1.174460 1.243791 1.235646 1.000120 1.052776 1.030713 0.877387 1.233570 1.106580 1.075365 1.069462 1.035792 1.149936 1.237511 1.214959 1.148353 1.217499 1.165335 1.128235 1.086827 1.186882 1.208786 1.211904 1.200700 0.786295 0.945274 1.094525 1.205657 1.194554 1.136767 1.199954 1.230581 1.278819 1.258526 1.137163 0.864612 0.968648 1.257363 1.201087 1.114357 0.993423 1.075986 1.136596 1.183775 1.147941 1.007842 1.150116 1.176595 1.281560 1.285594 1.201131 1.096220 1.179305 1.193462 1.215982 1.195876 1.145819 0.957909 0.665108 0.704799 1.162503 1.251519 1.318763 1.183874 1.161742 1.198745 1.142995 1.169051 1.180751 1.211733 1.104558 0.632754 1.005296 1.279571 1.285863 1.260319 1.196570 1.116973 1.205768 1.263733 0.990203 0.490426 0.763886 1.121958 1.298314 1.277065 1.168325 0.782589 1.105102 1.116768 1.033199 1.063647 1.085618 1.097615 1.123833 1.127907 1.133269 1.102852 1.085733 1.072300 1.019350 1.051311 1.003937 1.036175 1.017518 1.096594 1.160457 1.051521 0.947115 0.748612 0.808275 1.125152 0.960992 0.838768 1.148559 1.194865 1.193929 0.946641 0.851031 1.114295 0.946657 0.724218 1.014934 1.099978 1.128377 1.143469 1.128533 1.017971 0.920104 0.840734 1.122306 1.119358 1.086722 1.081556 1.042281 0.989683 0.988341 1.012596 0.983861 0.982682 0.976899 0.976758 0.980994 0.994260 0.986492 0.995310 0.997474 1.018057 1.022359 0.936494 0.885897 0.855040 0.699798 0.742629 0.558592 1.055834 1.043221 1.121671 1.131573 1.120042 1.043148 1.071575 1.146927 1.143151 1.013304 0.956686 0.985947 0.686706 0.958578 1.000118 1.091094 1.159323 1.027867 1.117671 1.112056 1.138556 1.075596 1.132277 1.143337 1.067661 1.025782 1.026725 1.011288 1.014461 0.931369 0.914040 0.857940 0.907322 1.046589 1.175955 1.042071 1.042887 1.124348 1.007900 1.062666 1.120023 0.969729 1.102555 1.057028 1.079562 1.090280 1.059437 1.095923 1.119562 1.096598 1.062840 1.081769 0.838755 1.105424 1.195109 1.151566 0.824366 0.930148 0.922649 1.103257 1.201056 1.190240 1.197472 1.124682 1.084186 0.997433 1.172482 1.154147
1.068040 1.101571 1.101081 1.070985 1.044038 1.030734 1.056827 1.042389 1.053191 1.031790 1.044360 0.994371 1.050303 0.996760 1.004793 1.009752 1.046863 1.046935 1.040421 1.024678 1.026425 1.037848 1.033931 1.041673 1.036507 1.003739 1.013479 0.988386 1.117597 1.014454 0.797683 0.842030 0.862622 1.071187 1.067418 1.049000 1.114098 1.002715 1.013459 1.023934 0.860469 0.889053 0.881907 0.886248 0.896593 0.805426 0.391212 0.563561 1.095154 1.232211 1.156698 1.204833 1.018036 1.086529 1.144490 1.100283 1.081851 0.823282 1.108610 1.130532 1.094202 1.071902 1.114818 1.091529 1.093614 1.182796 1.155033 1.089875 1.066514 1.089052 1.033318 1.032643 1.019781 1.079097 1.091085 1.048538 1.062850 1.073782 1.066547 1.017833 1.043560 1.076392 1.040268 1.038918 1.041616 1.088576 1.060855 1.033731 1.016727 1.000260 1.134532 1.085885 0.996477 0.798215 0.839215 1.068432 1.109645 1.170241 1.162203 1.012216 0.938436 0.788768 1.035379 1.134465 1.215979 1.202844 1.078142 0.951381 0.983582 0.864889 1.069217 1.157135 1.241985 1.250002 1.197449 1.214713 1.138860 1.134285 1.011857 0.781569 0.975866 1.275840 1.123930 1.223831 1.305399 1.146308 0.874525 0.661053 0.925325 1.262228 1.259308 1.225220 1.221995 0.677924 0.478204 0.854741 1.067952 1.225400 1.271729 1.084090 0.925344 1.154354 0.324511 0.979390 1.279568 1.254972 1.230471 1.271540 1.244445 1.204657 1.243316 1.261479 1.182670 1.218855 1.195061 1.169432 1.239768 1.255740 1.226356 0.825927 0.720549 0.783939 0.828470 1.205377 1.161205 1.168332 1.160338 1.094318 1.214847 1.228823 1.221614 1.165942 1.146083 1.133193 1.193672 1.126358 1.179785 1.269884 1.133210 1.156749 0.869829 1.219586 1.146002 1.088997 1.129409 1.207785 1.266518 1.282348 1.234321 1.015036 0.855760 0.944027 1.163600 1.260244 1.228091 1.213231 1.128650 0.984372 0.802004 0.817209 1.037992 0.939741 1.083844 1.081639 1.218080 1.264127 1.244727 1.115801 1.087084 1.119141 1.068865 0.903860 0.874894 0.995797 1.215069 0.831640 0.814644 1.168891 1.277033 1.202386 1.163110 1.203911 1.185152 1.145080 1.151460 1.161636 1.219858 1.042208 0.643676 1.171142 1.264680 1.241584 1.273354 1.127794 1.167172 1.165136 0.742205 0.985772 0.995945 0.814427 1.104753 1.259234 1.238786 1.011919 1.023845 0.994549 1.088040 1.154522 1.090916 1.102097 1.132642 1.109542 1.055685 1.064692 1.062468 1.125015 1.096335 1.082540 0.864219 0.951493 1.004011 1.102944 1.161629 1.043765 0.943938 0.947691 0.821759 0.952287 0.974126 0.913992 1.194432 1.204312 1.181565 1.027131 0.912156 1.029411 1.052630 1.137478 1.130787 1.143041 1.152859 1.137074 1.074038 1.031014 0.790695 0.914782 0.990147 1.037050 1.013975 1.044666 1.030561 1.026830 0.988878 0.958871 0.971762 0.970745 0.967832 0.980690 0.985100 1.008537 1.006269 0.991033 0.914576 0.879072 0.870062 0.830473 0.977069 0.865772 0.914104 1.031650 0.563475 0.669013 1.045972 1.085928 1.153195 1.141056 1.148493 1.097970 1.013685 0.987104 0.823907 0.635655 0.572423 0.618985 1.028270 1.103612 1.113401 1.121158 1.108853 1.111787 1.140431 1.143347 1.133736 1.134020 1.133904 1.050743 1.028373 0.909990 0.870001 0.859502 0.820120 0.977603 0.988335 0.994819 1.079374 1.154532 1.134315 1.076394 1.058717 1.075410 1.030533 1.096513 1.072659 1.083555 1.080144 1.073658 1.087940 1.106844 1.113832 1.079672 1.022451 1.021039 1.008850 0.854221 0.907176 1.130568 1.214082 1.202196 0.897758 0.671375 1.083512 1.102000 1.040057 1.002571 1.076459 1.242617 1.093038 0.817450 1.000152
1.071138 1.119288 1.077695 1.040202 1.024696 1.031076 1.057924 1.043800 1.039264 1.042127 1.036071 1.043254 1.034950 1.034586 1.044553 1.043347 1.032733 1.034297 1.052758 1.025528 1.022789 1.048971 1.054909 1.010762 1.027313 0.985878 1.014733 0.998620 1.134207 1.065298 1.087874 1.106264 0.888273 0.911253 1.078467 1.080865 1.052465 1.114496 1.119467 1.085066 1.049455 1.087016 1.095142 1.072100 1.061989 0.907468 0.527074 0.966686 1.078321 1.042166 1.000045 1.251910 1.153124 1.151064 1.019526 0.938113 1.192061 1.168789 1.142316 1.144872 1.134077 1.049257 1.067885 1.114430 1.178499 1.177631 1.123857 1.131298 1.087275 1.017739 1.017186 1.037676 1.019372 1.078332 1.108797 1.111922 1.092254 1.065154 1.081234 1.045240 1.056799 1.085542 1.043859 1.038918 1.039094 1.072645 1.118718 1.076699 1.078141 1.066700 1.047202 0.990266 0.963098 0.737457 0.813633 1.059879 1.133079 1.160102 1.201039 1.007153 0.812373 0.789805 1.108471 1.121755 1.124603 1.219897 1.150601 1.044541 1.051445 0.908183 0.869853 1.065915 1.177040 1.260428 1.234263 1.096953 0.887275 0.995943 1.018298 0.789491 1.178225 1.232384 1.190241 1.235579 1.297793 1.071818 0.897498 1.025648 0.861599 0.821792 0.959882 1.084016 0.962659 0.554698 0.718488 1.291395 1.344529 1.200174 1.065133 0.907685 0.916628 1.050087 0.461668 0.815227 1.236376 1.150864 1.263067 1.244063 1.207401 1.181117 1.231225 1.238152 1.202323 1.193687 1.204015 1.284615 1.296191 1.200239 1.202356 0.747744 1.046851 1.109177 1.135945 1.139173 1.106265 1.086528 1.059312 1.187643 1.260112 1.209479 1.219665 1.100397 1.128620 1.219527 1.147801 1.152657 1.150096 1.310085 0.801810 0.981433 1.289893 1.248850 1.234618 1.218736 1.173799 1.246282 1.286261 1.240708 0.981944 0.839852 1.068563 1.255154 1.270916 1.255162 1.173790 1.124215 1.263018 1.240600 1.181138 0.991417 0.724127 0.696265 1.074664 1.151783 1.234872 1.184837 1.260707 1.196318 1.170147 1.201616 1.232557 1.214349 1.264179 1.261696 1.235169 1.132562 0.738021 1.042368 1.315110 1.218502 1.138474 1.199070 1.217484 1.206057 1.193662 1.193680 1.162747 1.205099 0.920192 0.945996 1.169475 1.291871 1.235672 1.193034 1.042235 1.073104 0.838741 0.955505 1.257076 1.092671 0.945791 1.129578 1.230872 1.089936 1.041937 1.035144 1.110202 1.097489 1.058035 1.117767 1.133928 1.069717 1.043283 1.051952 1.016086 1.133222 1.105260 1.140114 0.817939 0.766711 1.033532 1.123042 1.163822 1.029061 0.992931 0.995474 0.752890 0.813611 0.943193 1.033089 1.200415 1.214395 1.045937 1.002413 0.869087 1.031635 1.078197 1.106893 1.138328 1.125672 1.133877 1.127777 0.982965 0.996785 0.606305 0.637015 0.842092 0.980465 1.042766 1.065940 1.023334 0.984583 0.981948 0.999978 0.969438 0.981142 0.976680 0.990166 0.983455 0.992718 0.974309 1.047169 1.009746 0.987687 0.990148 1.039402 1.042756 0.912882 1.133723 0.947015 0.694831 0.620938 0.719970 1.019841 1.118388 1.123190 1.154661 1.163506 1.074092 1.070488 1.037083 0.987001 0.747865 0.817296 1.031268 1.104405 1.106922 1.122509 1.092947 1.114156 1.144894 1.141691 0.981803 1.125651 1.129743 1.065126 0.979884 0.911992 1.121560 1.072937 0.963746 1.138194 1.128919 1.045857 1.004755 1.038525 1.120783 1.094383 1.041155 1.097574 1.092790 1.057560 1.062133 1.072616 1.066009 1.089683 1.093778 1.083998 1.062773 1.075189 1.020267 0.949247 0.897783 0.884401 0.823327 0.787005 1.146269 1.212739 1.180106 1.090918 0.968623 0.975435 0.790197 1.119797 1.216599 1.242007 0.937344 0.619425 0.672080
1.050610 1.064127 1.033562 1.011506 0.992123 1.034173 1.038738 1.053831 1.055568 1.037912 1.016461 1.020562 1.023688 1.019700 1.010252 1.019793 1.050908 1.055180 1.037990 1.030469 1.020550 1.005555 1.022226 1.084380 1.018023 1.018971 1.018670 0.996441 1.040719 1.150106 1.147262 1.014651 0.851807 0.861973 1.050732 0.904728 0.997230 1.123569 1.123016 1.091131 1.139873 1.138095 1.112685 1.040506 0.926750 0.708992 0.583537 0.652849 0.671709 0.891890 1.262643 1.196408 1.152794 1.192952 0.950410 0.638427 1.093151 1.154827 1.118382 1.125061 1.170367 1.175340 1.105384 1.171799 1.190703 1.109954 1.062711 1.100409 1.152738 1.019188 1.020055 1.076819 1.074783 1.048966 1.099800 1.102314 1.098956 1.097457 1.053769 1.044317 1.062485 1.081840 1.050327 1.038918 1.038936 1.069907 1.116544 1.036534 1.073816 1.098019 1.083603 1.027653 0.976102 0.747600 0.780158 1.177117 1.034069 1.140732 1.214656 1.172287 0.889651 0.774429 1.062302 1.075878 1.081027 1.221350 1.199353 1.071903 1.053400 0.978821 0.750400 0.991842 1.101315 1.210273 1.251897 1.188923 1.014502 1.217114 0.888411 0.592721 1.227392 1.165296 1.201151 1.284066 1.285144 1.245195 1.241377 1.307906 1.243190 0.737704 0.734228 0.705268 0.852490 1.309628 1.016792 1.235415 1.330722 1.330975 1.116245 1.066069 0.977487 0.909419 0.869653 0.872779 1.339342 1.085770 1.220641 1.266254 1.198739 1.207993 1.204581 1.228114 1.238920 1.279259 1.299994 1.286578 1.123502 0.796963 0.988292 0.805823 0.996854 0.905713 1.102458 1.076979 1.009107 1.067424 1.163635 1.269430 1.186758 1.195484 1.194338 1.177239 1.219474 1.163312 1.151099 1.142244 1.169282 1.289673 0.811483 0.865994 1.177799 1.184272 1.213118 1.123840 1.177230 1.271415 1.292423 1.082837 0.712979 1.062488 1.223544 1.281492 1.252302 1.137760 1.142356 0.947211 1.259183 1.271824 1.266423 1.215189 0.985851 1.042306 1.164718 1.239142 1.233340 1.142785 1.182593 1.276773 1.194847 1.198671 1.216610 1.237024 1.198687 1.135565 1.148605 1.156014 0.887634 1.118716 1.331104 1.251500 1.148462 1.142093 1.129320 1.089134 1.094643 1.268927 1.188117 1.176437 1.115740 0.820748 1.038128 1.288975 1.221464 1.257752 1.083177 1.071024 0.708311 1.185366 1.281022 1.274001 1.185093 1.093221 1.210890 0.968801 1.120374 1.177110 1.147559 1.090319 1.106514 1.155349 1.120079 1.058004 1.064049 1.029598 0.967454 1.090451 1.116382 1.103693 0.968145 0.732407 1.046456 1.108164 1.166058 1.067994 0.993816 1.064545 1.001358 0.845085 0.698236 1.095439 1.204050 1.140134 0.829470 0.928224 0.856946 1.144156 1.149974 1.134475 1.147271 1.094820 1.074121 1.099527 0.819285 0.941806 1.069182 0.646789 0.945283 0.982999 0.947762 0.995186 0.993910 0.977545 0.992600 1.000466 0.972033 0.982087 0.987052 0.984233 0.981900 0.987644 0.978617 0.988012 1.070413 1.072519 1.086590 1.041600 0.986676 1.059157 1.062110 0.855034 0.913975 0.888440 0.623778 0.839526 1.090549 1.050946 1.148033 1.169440 1.155840 1.029511 1.054037 0.784008 0.824727 1.038038 1.074916 1.059420 1.073309 1.144387 1.150564 1.150193 1.102590 1.054506 0.871664 1.096618 1.126216 0.987236 0.896842 1.069549 1.098846 1.021472 0.910059 1.120949 1.124005 1.062070 1.011633 1.039900 1.070727 1.063074 1.072133 1.071596 1.067632 1.069029 1.081645 1.092699 1.103399 1.108268 1.060758 1.099711 1.021002 1.111413 1.169354 1.150440 0.996764 1.030694 1.087354 0.873363 0.868480 1.137424 1.079590 0.860666 0.726596 0.773962 1.019905 1.212162 1.164425 0.990697 0.851430 0.966548 1.089616
1.040056 1.024010 1.058582 1.015915 1.026168 1.043260 1.047620 1.048496 1.034499 1.034933 1.032075 1.038595 1.028718 1.014236 1.008984 1.045962 1.054048 1.024582 1.006068 0.979453 1.000352 1.020516 1.015942 1.048856 1.035642 1.087842 1.096914 1.057760 1.054088 1.112510 1.149940 1.039614 0.808922 0.679927 0.861308 1.006652 1.131320 1.110566 1.121668 1.061050 1.022416 1.041948 0.988380 0.913893 0.861370 0.869322 0.946295 0.734195 0.788799 1.202260 1.262731 1.013093 1.187375 1.194971 1.025157 0.927550 0.969996 1.100567 1.098276 1.073560 1.084399 1.122869 1.149341 1.188785 1.108105 1.087316 1.088614 1.056177 1.177816 1.090361 0.891275 1.033521 1.066627 1.029567 1.089879 1.110007 1.098405 1.051609 1.045187 1.063912 1.063787 1.074940 1.057524 1.038919 1.038918 1.074595 1.106498 0.975402 1.071490 1.093274 1.035204 0.976518 0.843099 0.557350 0.788408 1.057015 0.784152 1.159713 1.203784 1.194452 1.065281 0.668138 0.939240 1.050462 1.084598 1.227995 1.229698 1.105514 1.097927 0.980631 0.700865 0.968333 1.212704 1.247268 1.223194 1.134414 1.256379 1.303650 0.878785 0.811811 1.240265 1.124980 1.281842 1.282872 1.107899 1.019205 1.176762 1.337893 1.327820 1.182822 1.057669 0.983416 1.084396 1.310176 1.260505 0.960489 1.198241 1.318702 1.329335 1.298959 0.913006 0.921162 0.970233 0.951118 1.296746 1.193347 1.123480 1.193112 1.216987 1.282896 1.244896 1.261358 1.251505 1.229148 1.174542 1.052988 0.736229 1.003114 1.104176 1.013784 1.152203 0.807615 1.181995 1.166656 1.108657 1.168065 1.248124 1.223503 1.150069 1.205801 1.155021 1.230193 1.111380 1.082171 1.132444 1.149200 1.201239 1.267445 1.091736 0.572849 0.885033 1.270774 1.207509 1.165416 1.221110 1.294702 1.256454 1.023527 0.849745 1.191765 1.238659 1.286697 1.167048 0.985708 0.874325 0.711611 0.890349 1.160012 1.227428 0.938367 0.944962 1.284579 1.261734 1.208503 1.257184 1.171440 1.099951 1.196380 1.248950 1.255678 1.205823 1.207419 1.236200 1.195575 1.216853 1.158060 0.921629 1.280841 1.233064 1.278429 1.188901 1.165111 1.195342 1.126778 0.745671 0.990606 1.236861 1.178902 1.129345 1.014154 0.979672 1.248839 1.213226 1.239798 1.115919 0.999992 0.580906 1.084289 1.160610 1.084223 1.141752 1.123725 1.116116 1.143826 1.174537 1.142207 1.128568 1.111481 1.140951 1.116909 1.076535 1.061932 1.068319 0.934686 0.859436 1.029114 1.203733 1.131000 0.908120 0.905646 1.107174 1.102230 1.167571 1.101442 0.952851 1.007040 1.013061 0.795350 0.801911 1.250485 1.240397 1.200625 0.984933 0.701183 0.845761 1.090108 1.073085 1.124812 1.128577 1.163180 0.996136 0.890913 0.818359 1.076183 1.147355 0.895425 0.839764 1.058422 0.999028 0.945917 0.993086 1.005188 0.993747 0.976197 0.972721 0.973803 0.988287 0.965885 0.978104 1.001842 0.990276 0.889093 0.914806 1.061847 1.078693 1.082622 1.098044 1.085537 0.980483 1.019683 1.061476 0.952739 0.875091 0.692523 0.799487 1.081286 1.177743 1.163017 1.163801 1.185380 0.979678 0.620816 0.929147 1.065733 1.064325 1.081001 1.062350 1.153917 1.153188 1.048965 1.031827 0.949818 0.962828 1.129088 1.127840 1.062639 1.059853 1.102191 1.023998 0.982904 0.894310 1.063658 1.110111 1.016335 1.043603 1.082099 1.062240 1.038633 1.052141 1.093690 1.106000 1.104892 1.098372 1.087570 1.095659 1.024652 0.962753 1.120889 1.025811 0.950142 1.139381 1.121208 1.112549 0.994363 1.049521 0.886488 0.624524 0.713580 0.980033 1.059110 1.022990 1.181000 1.069181 0.710068 0.826441 1.051806 1.195014 1.117386 1.162576
1.043349 0.977496 1.009931 1.039207 1.027168 1.049534 1.045890 1.035841 1.027233 1.008117 1.017870 1.047582 1.038748 1.051675 1.075068 1.074794 1.049093 1.017870 1.005746 1.033970 1.042080 1.062339 1.061151 1.047590 1.047693 1.064381 1.076693 1.107983 1.001178 1.024356 1.147394 0.958914 0.846955 0.781271 0.819859 0.965938 1.099965 1.102366 1.122348 1.096923 1.028638 1.009787 0.991786 1.004532 1.084387 1.052988 1.045824 0.902198 0.804954 0.592682 1.094127 1.055772 1.157729 1.208413 1.172777 1.180763 1.159412 1.108668 1.139347 1.087071 1.062230 1.101117 1.193873 1.127355 1.057428 1.086976 1.098662 1.061688 1.193345 1.180085 0.717320 0.830399 1.086835 1.085534 1.068428 1.098819 1.101377 1.080005 1.068523 1.051245 1.037753 1.074978 1.062422 1.038919 1.038918 1.075316 1.123261 0.928692 1.073795 1.054041 0.981140 0.920707 0.860663 0.846563 0.967606 0.940360 0.741383 1.112828 1.089408 1.218096 1.173004 0.853916 1.183868 1.182740 1.121849 1.170571 1.230472 1.150499 0.990076 0.978297 0.793347 0.996466 1.240553 1.254085 1.277109 1.278398 1.010401 1.145352 0.994927 0.896440 1.128534 1.128657 1.277226 1.261625 0.989306 0.898982 0.967845 1.110021 1.094745 1.088343 1.065048 1.255466 1.144973 1.148859 1.219934 1.124533 1.075141 1.271007 1.303262 1.005377 0.628163 1.026687 1.153223 0.864996 0.787613 1.122945 1.011622 0.966803 0.956037 0.960217 1.073174 1.129497 1.068498 0.902756 0.861690 0.740435 1.014171 1.164345 1.250430 1.245644 1.289737 0.875818 1.054737 1.191185 1.196119 1.261793 1.215255 1.203528 1.177440 1.158476 1.193735 1.157323 0.902442 1.148009 1.123404 1.170536 1.224136 1.220706 0.811540 0.787679 0.936588 0.989771 1.021641 1.106457 1.250153 1.303667 1.129707 0.812365 1.075277 1.305249 1.193515 1.263572 1.114955 1.218819 1.327752 1.294006 0.963566 0.468015 0.912115 0.842586 1.180401 1.277843 1.180711 1.193207 1.290235 1.237374 1.150489 1.088323 1.144951 1.153880 1.183097 1.229213 1.240727 0.964315 0.895381 0.751401 0.560706 1.245785 1.218265 1.239283 1.244620 1.172791 1.168268 1.243149 1.235080 0.906380 1.169438 1.206991 1.095088 1.006482 0.968012 1.319316 1.219473 1.238117 1.136451 0.803318 0.836497 1.096431 1.181479 0.967667 1.047434 1.140560 1.150241 1.093862 1.092283 1.123697 1.127565 1.107818 1.077904 1.042187 1.064410 1.182322 1.127794 0.957895 0.754650 0.826588 1.232144 1.151960 0.758153 1.090749 1.105373 1.059260 1.174616 1.179614 1.102151 0.974869 0.996779 0.917751 0.801514 1.132618 1.206828 1.129583 1.084831 0.557959 0.975508 1.070816 1.130700 1.096043 1.130220 0.987832 0.797687 0.681531 1.070950 1.078031 1.133619 1.120497 0.916914 0.901798 1.060608 0.971390 0.970432 0.992509 1.003090 0.977288 0.969636 0.984718 0.988806 0.962518 0.970633 1.004747 1.011986 0.995416 0.905827 0.917171 0.981035 1.056692 1.090433 1.097844 1.089159 1.045569 0.924670 0.979070 1.091487 0.959063 0.634092 0.989297 1.185666 1.163523 1.148582 1.148737 1.155561 0.672832 1.118870 1.118933 1.104912 1.108491 1.161449 1.154427 1.078295 1.029252 1.024656 0.880947 1.082689 1.100893 1.040444 1.121719 1.116224 1.100850 1.075228 0.934858 1.005640 1.055132 1.109707 1.005517 1.020384 1.088838 1.077580 1.090969 1.116219 1.095833 1.069558 1.049647 1.036340 0.986431 1.126240 1.036015 0.960912 1.124899 1.082732 0.969844 1.004620 1.137542 1.116676 1.098800 0.932981 0.904965 1.034485 1.078424 1.224961 1.144895 1.014488 1.150466 1.069054 0.934353 0.805276 1.046519 1.211613 1.159561 1.164401
1.043447 1.015164 1.031096 1.045189 1.026661 1.032567 1.012104 1.012399 0.995274 1.013390 1.037641 1.031294 1.034817 1.075467 1.028025 1.003787 0.992077 1.028074 1.028318 1.037341 1.054876 1.067302 1.058519 1.013219 1.041284 1.051747 1.078207 1.116257 1.086043 0.894149 1.177675 0.946707 0.693883 1.092373 1.178937 0.836536 0.954126 1.077698 1.107685 1.129134 1.024521 1.001836 1.036011 1.100511 1.113721 1.079449 1.148517 1.186161 0.969454 0.545776 0.963593 1.125720 1.139583 1.160529 1.171883 1.096848 1.079995 1.074488 1.104556 1.079195 1.058305 1.119206 1.198730 1.104420 1.065289 1.081856 1.071985 1.000243 1.186566 1.198226 0.799517 0.734113 0.908929 1.025240 1.080826 1.078062 1.053141 1.080132 1.080664 1.063504 1.070578 1.084872 1.064975 1.038921 1.038918 1.067499 1.118851 0.965986 0.879397 0.930972 0.898571 1.052667 1.095461 1.080252 1.116379 1.068609 0.918510 0.818604 0.829662 1.257676 1.187485 1.001040 1.220026 1.149952 1.069629 1.130686 1.237550 1.109510 1.009370 0.991938 0.924500 0.743958 1.181507 1.146701 1.272054 1.297995 0.885782 0.689192 0.674394 1.074825 1.156284 1.186631 1.273842 1.208257 1.211802 1.115367 0.861924 0.893789 1.007792 0.974858 1.130719 1.256701 1.294133 1.241503 1.174248 1.134889 1.123904 1.231855 1.317821 1.232339 0.925824 1.029206 1.071776 1.083380 0.958889 1.284776 1.287404 1.228720 1.158748 1.000950 1.027323 0.808511 0.717542 0.974756 1.224244 1.064544 1.120728 1.137399 1.214762 1.213657 1.290165 1.037093 0.935812 1.134474 1.160173 1.236602 1.166632 1.194460 1.139350 1.114408 1.205731 1.116425 0.830378 1.139120 1.135904 1.175423 1.233434 1.085057 1.042665 1.306630 1.240971 1.178076 1.110334 1.128699 1.308190 1.205525 0.885053 0.769038 1.164894 1.304127 1.212194 1.283116 1.141952 1.010359 1.076756 0.914918 0.885459 0.448425 0.543561 0.597798 1.015087 1.165976 1.145550 1.192901 1.256485 1.238248 1.187231 1.116969 1.089507 1.098608 1.038992 1.050755 1.169676 1.143650 1.160778 1.159476 0.931090 0.855497 1.192231 1.149639 1.265681 1.202953 1.180846 1.212067 1.215043 1.121556 0.844491 1.159955 1.104542 0.978368 1.106831 1.322926 1.278257 1.249350 1.145483 0.733438 1.033684 1.136273 1.242408 1.035779 1.087047 1.124911 1.151984 1.092385 1.121465 1.106190 1.116482 1.079898 1.083992 1.047817 0.988060 1.160171 1.186564 1.081129 0.832631 0.582578 0.819753 1.035688 0.735321 1.181913 1.046322 1.086655 1.180736 1.170267 1.114883 1.003110 0.988183 1.025499 0.940253 0.793048 1.256599 0.959040 1.070141 0.577655 1.015398 1.153900 1.176684 1.072041 0.938965 0.804153 1.085423 0.793028 0.966639 1.090351 1.061909 1.100614 1.086784 0.842640 0.994591 1.032128 0.968768 0.961308 0.988772 0.984759 0.979869 0.979430 0.986299 0.975771 0.970217 0.999694 1.006888 1.020471 1.036528 1.025411 0.900501 0.992890 1.053715 1.100093 1.104768 1.088537 1.035548 1.070631 0.937731 0.815188 0.726289 0.794415 1.013694 1.181262 1.150488 0.792028 0.917473 0.864332 1.087159 1.075586 1.161513 1.167459 1.158219 1.100735 1.080674 1.077236 0.959640 0.987143 1.082417 1.026802 1.012247 1.037091 1.111976 1.104638 1.086942 1.026915 1.064896 1.069203 1.070632 1.085019 1.104685 1.109097 1.093494 1.058582 1.021222 1.037440 1.019661 1.031397 1.010965 0.965434 1.154426 1.072498 0.959979 1.117427 1.150364 1.046760 0.919103 0.924883 0.837659 0.849315 0.962666 1.102299 1.118740 1.086783 1.140674 1.084191 1.134187 1.161644 1.089505 1.014808 0.891898 1.040199 1.241920 1.234689 1.221512
1.023236 1.026735 1.040102 1.088420 1.084745 1.084122 1.077192 1.081240 1.081361 1.067603 1.054910 1.064329 1.016788 1.018259 0.977477 0.948189 1.020139 1.051951 1.062013 1.029614 1.074685 1.049321 1.142834 1.091241 1.021252 0.988681 1.039807 1.073839 1.182067 0.978508 1.109493 0.880033 0.830181 0.976596 1.115807 1.175984 1.052610 1.130677 1.076447 1.128190 1.130597 1.074280 1.069231 1.085533 1.085837 1.089558 1.150181 1.196157 1.054008 0.723157 0.618088 1.080747 1.102098 1.075555 1.183583 1.113355 1.099549 1.085793 1.104477 1.153840 1.162699 1.170009 1.201635 1.104548 1.039097 1.037097 1.018630 0.941788 1.211777 1.202395 1.091635 0.846428 0.950903 1.109946 1.217212 1.139823 1.067737 1.073193 1.085163 1.038899 1.067891 1.092068 1.069662 1.038936 1.038918 1.056626 1.120742 1.044234 0.867606 1.005913 1.109275 1.205548 1.213959 1.218713 1.226379 1.209942 1.110557 1.053223 0.787864 0.777667 0.816001 0.895536 1.050381 1.036278 1.057250 1.110491 1.241114 1.116792 1.030883 0.978111 0.950365 0.829925 0.751581 1.053866 1.213114 1.115353 1.004938 1.109474 0.978829 1.122984 1.075087 1.232723 1.275415 1.157594 1.002329 0.708883 0.537905 0.850831 0.745538 0.831337 1.102518 1.152632 1.235380 1.239162 1.264124 1.137095 1.118751 1.169562 1.199558 1.206224 1.266033 1.261423 1.151180 1.141348 1.005730 1.283708 1.266510 1.246691 1.317250 1.169615 1.257248 1.033232 0.994410 1.032324 1.050492 1.183655 1.203424 1.143550 1.079739 1.153311 1.290465 1.245377 1.104318 1.213386 1.204988 1.207707 1.172635 1.166448 1.191493 1.248293 1.256438 1.270065 0.918451 1.030262 0.999917 0.701632 0.966571 0.929731 1.278518 1.306836 1.272342 1.250790 1.176284 1.239577 1.308942 1.279983 1.009212 0.684693 1.198171 1.291737 1.205548 1.260367 1.165556 1.069878 1.134606 1.100858 0.888468 0.991063 1.170099 0.951502 0.703661 0.955847 1.096439 1.179142 1.297740 1.215408 1.206616 1.233790 1.230814 1.185018 1.128897 1.092807 1.104769 1.093554 1.100937 1.086708 1.084226 0.895684 0.757987 1.164840 1.255203 1.215960 1.213538 1.177611 1.177993 1.221273 1.005630 1.033725 1.027817 0.869402 1.239071 1.264601 1.238017 1.255680 1.061576 0.957277 1.158697 1.215916 1.205960 1.155320 1.194751 1.172523 1.143454 1.110816 1.133793 1.087040 1.074231 1.015917 1.081116 1.120866 1.017949 1.033003 1.191539 1.194642 1.037138 0.969378 0.921595 0.792345 0.666328 1.175056 1.026665 1.095069 1.183342 1.176490 1.109450 1.031428 0.948054 0.983742 1.053114 0.750991 1.222855 0.910133 0.924319 0.717498 1.069168 1.086901 0.899817 0.798342 0.922019 1.065405 1.168338 1.126020 0.852856 0.845442 0.959301 1.066313 1.066227 0.939083 0.989003 0.971918 0.995457 0.984371 0.985625 0.988732 0.963700 0.965948 0.983469 0.974435 0.970780 0.983026 1.019916 0.993869 0.985099 1.019189 0.890034 1.027721 0.992000 1.077423 1.103017 1.111017 1.126395 0.971952 0.878202 0.912480 1.045997 1.022688 0.701682 1.107636 1.238094 0.810188 0.909587 1.183272 1.179632 1.126887 1.154505 1.167578 1.113248 1.031789 1.052405 1.066311 0.865489 1.034174 1.021648 1.014701 1.017023 1.028072 1.076212 1.063370 1.072533 1.069603 1.063145 1.075841 1.100452 1.105635 1.085696 1.082716 1.045746 1.019854 1.062531 1.056007 1.058614 1.029112 0.982504 0.980643 1.162908 1.094764 0.990806 1.017335 1.164967 1.132721 1.121887 1.098203 0.872060 0.910798 1.120522 1.100798 1.095587 1.080109 1.140934 1.147727 1.109590 1.083622 1.071071 1.156061 1.124373 0.884595 1.111815 1.150326 0.975294
1.070564 1.086573 1.084565 1.080148 1.005500 0.992088 1.008507 1.030283 1.049202 1.036490 0.975217 1.083516 0.967834 1.010742 1.020887 1.037241 1.065488 1.044057 1.062929 1.076366 1.020864 0.995595 1.003459 1.165443 1.104308 0.926076 0.778137 0.856939 1.019728 1.057099 0.897569 0.906838 1.126120 1.051466 0.976120 1.096682 1.142848 1.128386 1.042616 1.108439 1.131964 1.105428 1.091150 1.085177 1.083578 1.124060 1.075434 1.187717 1.179362 0.958395 0.816177 0.848945 0.937616 1.158377 1.184423 1.173895 1.130021 1.104933 1.149092 1.221086 1.187344 1.107149 1.204623 1.183805 1.047916 0.950626 0.930251 0.898623 1.180746 1.174240 1.067964 0.813616 0.799618 0.966602 1.106718 1.090239 1.080607 1.086882 1.087419 1.031261 1.050332 1.077977 1.078544 1.039613 1.040323 1.054153 1.107355 1.110091 1.116385 1.174854 0.950533 1.033277 1.125311 1.162915 1.199677 1.229462 1.208015 1.107471 1.081853 1.006779 0.904578 0.780817 0.732644 0.993606 1.064413 1.077574 1.244069 1.178695 1.137630 1.155581 1.212423 1.225328 0.922934 0.712859 0.924798 1.044221 1.290445 1.262894 1.150128 1.138990 1.179736 1.268022 1.239987 1.085071 1.043426 0.857373 0.735278 1.073027 1.213228 0.924607 1.260339 1.125384 1.164824 1.187919 1.248800 1.175988 1.164398 1.211485 1.177094 1.177369 1.208021 1.309526 1.334612 1.137691 1.144586 1.246203 1.221250 1.177382 1.269057 1.285038 1.288156 1.241376 1.133146 1.044068 0.958938 1.031537 1.164177 1.136235 1.079344 1.041894 1.279865 1.125600 1.072240 1.254282 1.290586 1.170213 1.160329 1.141833 1.283312 1.080424 1.127689 1.318020 1.155539 0.937708 0.666269 0.856177 1.228026 0.930494 0.924851 0.986826 1.100277 1.245073 1.256254 1.305749 1.217378 1.179302 1.192568 0.956800 1.215328 1.296206 1.110992 1.160532 1.110119 1.101992 1.117534 1.121444 1.080641 1.076061 1.074545 1.100517 0.999534 0.919808 1.107267 1.108492 1.301920 1.235096 1.180902 1.078763 1.026133 1.243770 1.283013 1.199312 1.128108 1.074868 1.086262 1.065183 1.058342 0.984021 0.840968 1.319992 1.273006 1.169393 1.233364 1.215661 1.218013 1.216845 1.079520 1.062820 0.947453 0.711842 1.297577 1.215910 1.168983 1.129992 0.842217 1.061600 1.218065 1.146232 1.114986 1.205987 1.187855 1.147398 1.109254 1.124451 1.128183 1.076291 1.039489 0.941520 1.088248 1.110025 0.950189 0.958260 1.153766 1.191030 1.096864 1.026802 0.952415 0.763718 0.550238 0.972408 1.046519 1.124138 1.185870 1.171331 1.109433 1.070971 1.019202 0.927017 1.019325 0.792806 0.951525 0.663980 0.755425 0.922927 0.822372 0.854299 0.835284 0.865942 1.072507 1.124288 1.129757 1.149194 1.131316 1.063186 0.930568 0.941766 1.020365 1.043186 1.035605 1.003521 0.957268 0.963268 0.978603 0.979110 0.963571 0.970606 0.995311 1.012140 1.017495 1.044986 1.029470 1.009821 0.997798 0.964744 0.859445 0.879589 1.024976 1.079648 1.044298 1.118444 1.117352 1.132647 1.009739 1.131939 1.169780 1.187187 1.057484 0.843977 0.862772 0.976228 1.212938 1.129006 1.067042 1.048397 1.161345 1.169115 1.068704 1.031162 1.040283 1.017436 0.744679 1.056368 1.097113 1.140622 1.061835 1.111098 1.070297 1.069347 1.050279 1.038276 1.066973 1.082466 1.040033 1.023802 1.006649 1.034964 1.097580 1.048781 1.084690 1.071305 1.018092 0.985918 0.929352 0.987909 1.169922 1.130302 0.998032 0.930046 1.009204 1.079786 0.945459 0.845550 0.997093 1.072917 1.106428 1.075468 1.125307 1.185763 1.187766 1.195587 1.157678 1.138366 1.164125 1.208876 1.157739 0.827662 1.084803 1.152558 1.030574
1.089395 1.027991 0.977906 0.984396 1.009778 1.035043 1.032520 1.052866 1.032887 1.008197 0.961364 1.095719 0.986144 1.025776 1.050790 1.069883 1.080958 1.014831 1.028678 1.138587 1.086765 1.043125 0.943298 1.088288 1.179210 1.177706 1.084273 0.894884 0.810885 0.601401 0.620536 1.005118 1.110673 1.079622 1.059047 1.126607 1.109371 1.141780 0.959512 1.053985 1.129828 1.138246 1.140522 1.132574 1.095145 1.025736 1.061140 1.168465 1.122889 1.097790 1.073394 0.913659 0.836062 1.105864 1.154777 1.166652 1.187863 1.179814 1.231266 1.138622 0.959285 1.026749 1.185850 1.212091 1.054094 0.928367 0.787787 0.633542 1.064848 1.263918 1.197287 1.044117 0.978043 0.833606 0.912929 0.998087 1.057387 1.087535 1.068389 1.033067 1.054103 1.071514 1.082839 1.041306 1.046225 1.053795 1.065616 1.124430 1.125541 1.106111 0.990858 0.847878 0.877431 0.864391 0.940621 1.210338 1.215504 1.148730 1.181101 1.208456 1.221846 1.210103 0.891609 0.934535 1.121687 1.124864 1.247574 1.224886 1.161863 1.245367 1.280074 1.143075 1.041081 1.098502 0.619071 0.955082 1.161770 1.244171 1.177547 1.098741 1.202631 1.265480 1.215095 1.207024 1.156596 1.294679 1.125574 1.186435 1.313776 0.887437 0.979057 1.154364 1.152692 1.273237 1.270544 1.265824 1.163523 1.147345 1.269677 1.282511 0.951584 0.979580 0.973121 0.626387 1.089854 1.281491 1.229161 1.184206 1.209160 1.256405 1.277249 1.291751 1.291070 1.240356 0.976468 0.939020 1.200327 1.136305 1.182294 1.128855 1.271028 1.169686 1.250149 1.222464 1.174048 1.076935 1.110658 1.178753 1.331935 0.818319 1.037446 1.102035 1.104147 1.059871 0.708729 1.188489 1.350791 1.256161 0.931923 0.785688 0.846620 1.115694 1.238961 1.258552 1.174577 1.071469 1.111627 0.841955 1.051082 1.326905 1.204764 1.203759 1.201903 1.146326 1.151988 1.178120 1.152240 1.168041 1.182263 1.231422 1.003104 0.687956 0.975464 0.854129 1.332251 1.102154 1.167283 0.974208 0.741083 0.550469 0.785844 1.055322 0.991365 0.999460 1.069725 1.115752 1.096736 0.950593 0.824971 1.271269 1.291586 1.196208 1.085460 1.257083 1.225133 1.183263 1.132775 1.034156 1.128544 0.823199 1.045248 1.220409 1.066423 1.010922 0.852185 1.228206 1.156235 1.075443 1.136622 1.190213 1.194571 1.117679 1.068403 1.170756 1.120049 0.990037 0.957759 0.879864 1.124823 1.145286 1.034896 0.915991 1.120883 1.194057 1.184783 0.963194 0.968814 0.920065 0.480567 1.059219 1.185920 1.142692 1.190914 1.127175 1.073933 1.013988 0.999961 1.019045 0.686659 0.705690 0.806625 0.684661 0.749319 1.027640 1.031375 1.095522 1.092149 1.096335 0.781100 0.933092 0.970774 1.017478 1.072463 1.075802 1.046195 1.031878 1.046025 1.036798 1.019457 1.015650 1.008564 0.994147 0.970955 0.975001 0.970952 0.981498 0.985002 0.972129 1.014804 0.997559 1.062825 1.099885 1.029712 0.927402 0.832345 0.671177 0.882411 1.058656 0.988474 1.085745 1.126413 1.126774 1.103066 0.969218 0.961024 1.000891 1.017488 1.156644 1.086828 0.668680 0.963183 0.921021 1.020015 1.028975 1.158926 1.178186 1.091164 1.085906 1.009130 1.008333 0.814669 1.109039 1.140100 1.142299 1.041601 1.003392 0.997374 1.063816 1.063623 1.039420 1.072876 1.017855 1.009051 1.001827 1.022149 1.019749 1.120153 1.027602 1.026725 1.031336 1.023563 0.995752 0.899723 1.019421 1.151492 1.174900 1.008688 0.981079 0.984085 1.134336 1.061621 0.885214 1.035814 1.113506 1.130268 1.124210 1.181668 1.171761 1.128237 1.165185 1.162139 1.188943 1.229043 1.209123 1.234164 1.036047 0.911187 1.074672 1.005362
1.001041 1.011346 1.016043 1.021290 1.054637 1.055288 1.047587 1.017461 0.976276 0.975836 0.953038 1.101017 0.995538 1.036585 1.043800 1.056817 1.058046 1.000940 1.057763 1.147715 1.039592 1.000368 1.014853 1.064621 1.172873 1.196401 1.209082 1.215653 0.917892 0.475965 0.820017 1.172807 1.222105 1.200254 1.181734 1.125939 1.125820 1.154719 0.957706 1.047347 1.111148 1.105388 1.100453 1.139878 1.119633 1.095806 1.136213 1.070793 1.025754 1.188425 0.974937 0.872066 1.001360 0.897487 1.127309 1.151835 1.135139 1.118942 1.239141 1.082536 0.902705 1.022697 1.190916 1.215093 1.144882 1.093070 1.032035 0.781586 0.867054 1.080100 1.123523 0.993786 0.955421 1.005954 1.017462 1.059964 1.083765 1.103804 1.055087 1.055716 1.050750 1.042984 1.081967 1.043443 1.053502 1.041602 1.048678 1.076276 1.000681 1.028196 0.943900 0.892894 0.722006 0.990434 0.837318 1.132533 1.200566 1.077191 1.143312 1.199432 1.085766 0.958160 1.147272 1.144236 1.083329 1.068985 1.216306 1.222164 1.116186 1.186778 1.248133 1.091077 0.943053 0.770460 0.860051 0.989227 1.003122 1.099824 1.226122 1.095306 1.256056 1.263297 1.115096 0.988489 1.078130 1.155052 1.172436 1.096280 1.331761 1.287508 1.067630 0.990560 1.189083 1.262900 1.217769 1.081707 1.197285 1.140876 1.095831 0.985025 0.849991 1.078385 1.128057 1.178306 0.990469 1.143253 1.162151 1.112438 1.166623 1.104174 1.061016 1.205406 1.253508 1.279155 1.279364 0.928452 1.201678 1.215991 1.177132 1.166104 1.266178 1.146801 0.837436 0.959184 0.916778 1.140680 1.158292 1.215410 1.273294 0.857779 0.768599 0.659502 0.747701 0.784450 0.760533 1.132427 1.272367 1.245818 1.252601 1.172723 0.866969 0.788617 1.211444 1.250325 1.251865 0.951729 1.130365 1.019627 1.112428 1.321109 1.184740 1.251698 1.206254 1.071443 1.299809 1.349784 1.274380 1.140609 0.935166 0.691299 0.498282 0.942561 1.291624 0.555989 0.561963 0.789793 0.882735 0.831029 1.007956 0.891535 1.107016 1.341648 1.072126 0.831737 0.797677 0.958705 1.071647 0.816699 0.495622 0.909615 1.268201 1.227519 1.114684 1.175055 1.280192 1.202195 1.147488 1.048261 1.053619 1.040980 0.873219 1.141006 1.158436 0.903451 1.076048 1.316235 1.174008 1.104764 1.211077 1.100558 1.201712 1.084096 1.022955 1.183120 1.182249 0.955618 0.874522 0.669037 0.932481 1.243444 1.132288 0.862356 1.082928 1.199283 1.203095 0.958888 0.942759 0.980450 0.796984 1.249697 1.111117 1.207598 1.200869 1.131623 1.113971 1.001134 1.026227 1.129335 0.718361 1.101881 0.989707 0.880044 0.741371 1.018715 1.241581 1.214677 1.163703 1.194879 0.966374 0.923482 1.030801 0.937063 0.989154 1.003778 1.060701 1.048751 1.034432 1.014632 0.926107 0.926997 0.956354 0.970124 0.975164 0.972876 0.981073 0.986715 0.969876 0.960205 0.938775 0.865922 0.863825 0.917136 0.916908 0.897145 0.810388 0.821629 0.701337 0.821816 1.082339 1.066824 1.091637 1.132997 1.136591 1.106559 1.113058 1.139982 1.119505 0.996620 0.918046 0.735669 1.042906 1.076299 1.120527 1.046106 1.179804 1.148884 1.068280 1.078390 1.048063 0.993359 0.803346 1.001347 1.100215 1.098572 0.983761 0.930310 1.003897 1.067711 1.068221 1.055752 1.074271 1.015920 1.030394 0.995738 1.037057 0.992172 1.126517 1.090243 1.040403 1.003583 0.999704 0.942570 0.938354 1.115384 1.095956 1.180367 1.084411 0.986437 0.867150 0.869791 0.901484 1.085458 1.046056 1.119641 1.172094 1.173269 1.074862 1.045497 1.034997 1.086171 1.091591 1.112545 1.197953 1.079092 0.993464 0.808825 0.634384 0.831277 0.902301
0.985444 0.979664 0.990467 1.034758 1.081406 1.013090 0.989098 0.944451 0.982961 1.045667 1.012168 1.101616 1.041137 1.049659 1.063460 1.084912 1.054401 1.003626 1.107439 1.155744 1.072574 0.900926 0.850949 0.931364 1.087221 1.186528 1.221979 1.227456 1.181231 0.888739 0.817272 1.185591 1.202056 1.032347 1.013530 1.109296 1.158911 1.154844 0.959385 1.047256 1.095352 1.081605 1.084098 1.099564 1.151506 1.133586 1.125046 1.059723 1.097108 1.140702 1.028816 0.967170 1.029993 0.839127 1.013106 1.129503 1.096228 1.139942 1.203829 1.104299 0.835814 1.050186 1.221883 1.219253 1.135889 1.063348 1.127825 1.140139 0.885503 0.714947 0.749250 0.959691 1.018618 1.081158 1.085087 1.090944 1.056610 1.065961 1.043109 1.086107 1.055933 1.057294 1.083011 1.045986 1.054038 1.040750 1.038649 1.072774 1.091825 1.092600 1.040380 1.061668 1.073278 1.219839 1.030726 1.043675 1.241841 1.112812 0.818266 0.821865 0.808567 1.058525 1.205141 1.162657 1.126505 1.088411 1.230844 1.229203 1.086582 1.082191 1.121119 0.974923 0.762583 0.793742 1.059976 1.177281 1.083766 0.863696 1.106827 1.076495 1.259487 1.263838 1.137468 0.847459 0.769285 0.511897 0.594029 0.904236 1.183131 1.229246 1.193005 1.070791 1.162279 1.256280 1.260408 0.925242 0.906228 0.913697 0.795781 1.017185 1.157109 1.189167 1.339148 1.255657 0.509112 0.775094 1.129121 1.160924 1.080866 0.988812 0.970194 0.891471 0.943310 1.147029 1.269523 1.014885 0.800707 1.160968 1.134199 1.219778 1.260272 1.190439 0.763432 0.506162 0.993441 1.255977 1.219766 1.243988 1.201085 0.889066 0.763697 0.938546 0.679064 0.830668 1.270241 1.318298 1.299912 1.204776 1.255597 1.309778 1.206223 0.917110 1.127352 1.254701 1.189309 0.840048 0.948291 1.008485 1.041619 1.318936 1.218231 1.293366 1.233635 1.118519 0.898871 1.312900 1.338700 1.090344 0.754093 0.612576 0.901241 1.263647 1.357261 1.115368 0.724424 1.228450 1.288745 1.295852 1.249592 1.056073 1.125783 1.321084 1.246206 1.042156 0.680175 0.691802 1.252157 0.967268 0.908519 0.621976 0.957506 1.003462 0.873693 1.003809 1.264519 1.262703 1.194325 1.098247 1.076101 0.850231 0.803398 0.530700 0.992355 0.934571 0.887960 1.111400 1.093036 1.192713 1.189744 1.122233 1.164414 1.090031 1.050168 1.117550 1.182203 1.189689 1.000714 0.681886 0.528582 1.108080 1.036716 0.961949 1.150266 1.203129 1.191912 0.938199 0.972947 0.875172 1.031691 1.226489 1.005861 1.198385 1.200814 1.150926 1.178178 1.139021 1.113362 0.888085 0.931713 1.251639 0.968641 0.936604 1.018818 0.717467 1.019107 1.084604 1.117007 1.150270 1.165180 0.994132 1.053570 1.061130 1.080497 1.065564 1.057040 1.031325 0.994463 0.935429 0.921852 0.983482 0.983666 0.970352 0.974604 0.987312 0.976450 0.946522 1.026790 1.029745 1.027293 1.015763 0.977958 0.948898 0.934087 1.058423 1.054204 1.090172 1.009946 0.820471 0.850927 0.997586 1.091894 1.141977 1.138989 1.124388 1.083551 1.025494 1.056777 0.988340 0.526129 1.000426 1.154101 1.145638 1.146898 1.183324 1.189280 1.078533 1.053851 1.077402 1.055563 0.917695 0.740096 0.925121 0.935245 0.910179 0.865663 0.964719 1.037499 1.056318 1.074950 1.073840 1.066147 1.029564 1.033696 1.028044 1.029552 0.939929 1.081513 1.157022 1.022185 0.949355 0.955827 0.919687 0.992904 1.122417 1.027281 1.190096 1.176521 1.064324 0.944642 0.718487 1.053062 1.109813 1.091229 1.117544 1.162604 1.115300 1.013673 1.025448 0.990302 0.965752 0.839740 0.784013 1.003498 0.856120 0.884735 0.856387 1.030171 0.988855 1.159052
1.009221 1.053882 1.067069 1.052289 1.025871 0.972862 1.043856 1.038948 1.055259 1.048134 1.007369 1.106037 1.002002 1.048128 1.044167 1.021867 1.006184 0.961051 1.094217 1.163833 1.138480 0.990886 0.909172 0.798851 0.998646 1.229029 1.171502 1.225327 1.195529 1.050541 0.541564 1.063136 1.121291 1.076905 1.030799 1.157775 1.164472 1.107452 0.791443 0.828552 1.076176 1.099660 1.119793 1.075965 1.111630 1.139163 1.119691 1.097558 1.148422 1.200941 1.223129 1.080868 0.990173 0.926474 0.834109 0.963630 1.153232 1.188907 1.205932 1.102222 0.744154 1.071127 1.224095 1.201397 1.054825 1.033041 1.069321 1.075905 0.818245 0.573025 0.805521 0.946678 1.033475 1.124421 1.055587 1.141840 1.090866 1.101868 1.079656 1.114142 1.091731 1.080926 1.064595 1.044838 1.048082 1.033305 1.043224 1.056758 1.098982 1.142274 1.162314 1.179898 1.193452 1.211182 1.076106 0.950102 1.203003 1.220494 1.009839 0.827074 0.586378 1.184641 1.146355 1.134041 1.127721 1.147066 1.251899 1.088473 1.126151 1.052092 0.902030 1.069008 1.128447 0.943701 1.058751 1.163053 1.147797 1.081532 1.116599 1.070586 1.258974 1.216350 1.128752 1.192584 1.160831 0.704900 1.069815 1.036378 1.276736 1.274249 1.296242 1.208459 1.120602 1.256968 1.256432 1.130534 0.873533 0.780031 1.090184 1.099188 1.246206 1.257945 1.284748 0.952685 0.624416 0.789233 1.197821 1.326427 1.278904 1.182189 1.265454 1.195908 1.090043 1.085779 1.256904 1.148805 0.686890 1.058885 1.063344 1.103511 1.255133 1.200606 0.932073 0.655392 0.740135 1.051497 1.102333 0.998468 1.039165 0.970985 0.980326 1.224980 0.978036 0.745430 1.154019 1.267180 1.134795 1.092279 1.095758 1.213691 1.280239 1.170304 0.861987 0.995173 1.156878 1.155606 1.130227 0.999043 0.933835 1.294865 1.294829 1.233968 1.107484 0.860518 0.541332 0.827329 1.100868 0.982028 0.871593 1.333773 1.031276 1.249374 1.343662 0.936374 1.028378 1.265999 1.233755 1.217353 0.917067 0.642883 1.098243 1.305758 1.237189 1.047648 0.756517 1.159267 1.294962 1.162553 1.179326 0.779531 1.164046 0.934685 0.513493 0.991969 0.672174 1.078509 0.931704 0.890952 1.295523 1.042800 1.106812 0.918136 0.471229 0.736925 0.832671 1.086198 1.234268 1.170848 1.186078 1.092914 1.021485 0.997361 1.064475 1.082291 1.169261 1.184285 1.197870 0.907696 0.755847 0.579618 0.744833 1.110724 1.159072 1.206873 1.146112 0.872550 0.974244 0.745460 1.190648 1.168366 1.037846 1.090406 1.182785 1.128142 1.171386 1.095047 0.884899 0.999049 1.156430 1.230204 0.833404 1.073058 1.150857 0.978114 1.011421 0.898356 0.970513 0.928101 1.020449 1.035598 1.098010 1.084585 1.067279 1.046225 1.008870 0.994955 0.931042 0.935687 0.983855 0.983523 0.988106 0.976035 0.981175 0.980594 0.971988 0.965892 0.934989 1.002994 1.046032 1.054510 1.070476 1.080301 1.089973 1.103467 1.088278 1.092685 1.050990 0.929057 0.743745 1.157733 1.067007 1.105787 1.151629 1.157132 1.102281 0.909304 0.708207 0.690517 0.463810 0.982560 1.120613 1.174506 1.162326 1.170304 1.150583 1.093509 1.090675 1.084740 1.032510 0.757490 1.012255 1.061773 1.133830 1.027164 0.941000 1.099872 1.073243 1.077826 1.079379 1.059327 1.040637 1.039424 1.012157 1.018017 1.013722 0.921499 1.071471 1.162029 1.092580 0.981745 0.940993 0.880889 0.862857 0.959162 0.954567 1.148263 1.194913 1.131739 0.990017 0.819720 1.102438 1.081869 1.096808 1.160925 1.158458 1.085883 1.025319 1.019305 0.918601 0.813286 1.043872 0.965062 1.058287 1.056957 1.099585 0.951950 0.956484 1.220956 1.244437
1.060915 1.079103 1.038754 1.019426 1.037134 1.074357 1.082048 1.045540 1.041560 1.018860 1.003485 1.110195 1.009041 1.057722 1.047744 0.949742 0.926189 0.947606 1.069099 1.181853 1.182012 1.201093 1.054626 0.762477 0.559881 0.745918 0.733474 1.148655 1.200034 1.206441 0.762156 1.147016 1.177943 1.134320 1.095457 1.158760 1.171270 1.086033 0.837391 0.730705 1.015995 1.104049 1.145303 1.089032 1.148748 1.126343 1.142576 1.131693 1.160635 1.045539 1.208936 1.240773 1.243070 1.117756 1.035345 0.857372 1.128875 1.253815 1.261327 0.970988 0.937042 1.132843 1.226511 1.158603 1.024112 1.040426 0.954679 0.927568 1.037385 1.101563 1.004811 1.261948 1.125469 1.172058 1.165363 1.135386 1.098568 1.123564 1.091422 1.058789 1.062494 1.062675 1.071634 1.065462 1.050391 1.043729 1.044196 1.060499 1.014977 0.921957 1.018361 1.026125 1.011676 0.928464 0.848843 0.843277 1.116454 1.239390 1.124850 0.862533 0.622435 0.856046 1.204205 1.168926 1.125818 1.169017 1.268906 1.151583 1.150808 1.190294 0.846516 1.214278 1.251678 1.062772 0.985761 1.189846 1.124970 1.132920 1.127756 1.158977 1.255657 1.128070 1.171471 1.275156 1.224326 0.770626 1.119649 1.288769 1.308645 1.194510 1.181962 1.163619 1.127300 1.170358 1.248966 1.251626 1.071864 0.853236 1.175874 1.257867 1.170250 1.258692 1.226743 0.685686 1.104448 1.030101 1.040902 1.062870 1.207506 1.206687 1.201998 1.209876 1.173358 1.198123 1.184438 1.212194 0.825973 1.123622 1.178666 1.114108 1.218106 1.243446 0.966924 0.828238 0.716979 0.612118 0.838621 0.879280 1.192019 1.260293 1.140738 0.978209 1.050824 0.635624 0.818343 1.215204 1.258911 1.247189 1.223430 1.217865 1.285424 1.270986 1.163915 0.875366 0.941036 0.941440 0.962829 0.917233 0.846844 1.222738 1.356392 1.314936 0.842105 0.965134 1.004243 0.971275 0.769562 0.615914 0.916590 1.322280 1.149806 1.291987 1.295660 0.760655 1.162549 1.241975 1.217195 1.283125 1.074914 0.736177 1.176571 1.290678 1.227220 1.056689 0.774504 1.224391 1.274537 1.309956 1.133540 0.879082 1.331479 1.115405 0.777366 1.293429 0.742007 1.225574 1.020338 1.144812 1.281074 1.286246 1.072725 1.061585 0.868638 0.370733 1.074110 1.188697 1.257156 1.198131 1.207263 1.077455 0.730111 1.047783 1.136875 1.131754 1.090965 1.132276 1.187361 1.173495 0.878061 0.651340 0.572532 1.096234 1.128262 1.213684 1.155162 0.895157 0.785669 0.819710 1.265857 1.132308 1.063255 1.157625 1.187822 1.142390 1.055562 0.790720 0.788793 1.089919 1.200779 1.151031 0.858618 1.058477 1.043581 1.011325 1.147158 0.889893 0.998471 1.045436 1.092336 1.080289 1.090800 1.035349 1.032003 1.048017 0.992434 0.936451 0.940905 0.991495 0.991877 0.979449 0.985047 0.972078 0.982127 0.972828 0.985938 0.996090 0.968560 0.951251 1.013437 1.011591 1.055865 1.078623 1.085916 1.003653 0.922711 0.919691 0.871362 0.781828 0.657348 0.931791 1.063418 1.120251 1.160520 1.128010 1.137309 1.079912 1.031708 0.968896 0.528839 1.048616 1.173760 1.218993 1.192560 1.092110 1.081989 1.101740 1.080103 1.076877 0.967683 0.816810 1.126092 1.169378 1.068755 1.091815 1.041752 1.016965 1.061214 1.058145 1.089537 1.036985 1.024595 1.064196 1.037381 1.010114 1.018832 0.847198 1.010561 1.171270 1.170331 1.030586 1.014845 0.977735 0.959658 0.775648 1.052585 1.186323 1.117140 1.096804 0.907907 0.955356 1.109945 1.093827 1.149385 1.156242 1.062134 1.065070 1.087363 1.017734 0.942745 1.052569 1.186108 1.100969 1.104605 1.114511 1.096362 1.069118 0.703052 1.164317 1.228417
1.068557 1.060732 1.020189 1.051828 1.082846 1.084289 1.051950 0.983023 1.047250 1.015683 1.095530 1.086277 1.026911 1.026307 0.986904 1.050627 0.930757 0.776518 1.000142 1.078287 1.197474 1.202973 1.156516 0.840663 0.785231 0.526143 0.833557 1.196629 1.276465 1.183088 0.632070 0.908961 1.143122 1.063612 1.135957 1.177846 1.171485 1.162139 0.955173 0.799652 0.636888 1.079475 1.090709 1.100065 1.122026 1.143395 1.137528 1.168517 1.179043 0.885151 0.709769 0.924608 1.142749 1.185804 1.216623 0.946726 0.982677 1.218745 1.153564 1.063665 1.040048 1.069455 1.229101 1.190475 1.062542 1.141201 1.155495 1.143272 1.165406 1.064218 0.831022 1.153289 1.163906 1.176152 1.135513 1.049004 1.011872 1.098253 1.057035 1.074191 1.042847 1.033041 1.073668 1.061843 1.043411 1.044038 1.047874 1.073060 1.073058 1.091161 1.156095 1.140110 1.084018 1.048387 1.101645 1.018433 0.970574 1.144775 1.094675 1.048970 1.010369 0.836537 0.915065 1.211394 1.187604 1.240762 1.275174 1.126945 1.141034 1.180702 0.707831 0.942249 1.177219 1.198366 1.118530 1.170740 1.098530 1.081701 1.113994 1.245244 1.253730 1.217801 1.045131 1.281054 1.161684 0.507454 0.808633 1.241519 1.139876 1.029791 1.079563 1.010042 1.056668 1.113707 1.233407 1.248640 1.158488 1.043237 1.130571 1.238979 1.160926 1.301271 1.054546 0.615281 1.311649 1.289279 1.260097 1.051713 1.048143 1.139059 1.139388 1.125973 1.033923 1.150656 1.239949 1.180175 0.718813 1.100792 1.226612 1.137641 1.151813 1.213249 0.953533 0.790438 0.908622 0.881179 1.176242 1.113424 1.207728 1.300888 1.310576 1.105770 1.147743 0.729985 0.804339 1.135265 1.223291 1.221338 1.203768 1.184064 1.237068 1.208083 1.139833 0.962904 0.678353 0.685490 0.849134 0.719453 0.718510 0.448302 0.810053 1.194606 1.145383 1.086574 1.055094 0.996445 1.061360 1.078438 0.949660 1.150882 1.131842 1.244416 1.141304 1.070368 1.036804 1.197580 1.203451 1.278292 1.203417 0.803956 1.060729 1.277388 1.187919 1.084193 0.903506 1.153685 1.288676 1.261991 1.042203 0.926926 1.312575 1.154647 0.858422 1.233212 0.976863 1.206722 1.193693 1.298158 1.221456 1.265052 1.063550 0.823878 0.768284 0.543221 0.943329 1.213319 1.195572 1.226100 1.175898 0.999645 0.683634 1.172193 1.122824 1.179779 1.076321 1.053301 1.192326 1.194582 0.946268 0.869914 0.558503 1.033970 1.182557 1.217157 1.153505 1.083600 0.588755 0.834912 1.236158 1.099266 1.135109 1.195126 1.150178 0.998432 0.814357 1.040957 1.081630 1.006364 1.123522 1.068125 1.079892 1.157211 1.113983 1.110359 1.122869 1.022715 1.010811 1.061521 1.110978 1.105242 1.050633 1.049120 1.058801 1.016011 0.920785 0.920613 0.991524 0.999866 0.986662 0.980582 0.983937 0.974229 0.975945 0.982120 0.976073 0.980036 0.958347 0.929305 1.020952 1.023582 0.976740 1.046565 1.094867 1.081392 0.979257 0.968838 1.028738 1.077994 1.128400 0.792973 1.049483 1.107245 1.125437 1.129961 1.183660 1.189777 0.962460 1.018766 0.712259 0.962157 1.220220 1.226869 1.178751 1.166344 1.141429 1.174615 1.150792 0.967081 0.830961 0.952233 0.946858 1.034270 1.161626 1.141539 1.126492 1.074587 1.052822 1.073655 1.086730 1.027375 1.021635 1.040765 1.046219 1.026012 1.031971 0.899847 0.853621 1.136753 1.177969 1.180037 1.151417 1.049353 1.030790 0.889031 0.778752 1.159325 1.150272 1.013974 0.811515 0.992262 1.083261 1.081534 1.155414 1.120441 1.035737 1.074811 1.047358 1.027597 1.039477 1.079072 1.053739 1.056953 1.124121 1.168330 1.132640 0.985833 0.737797 0.882567 0.898379
1.039988 1.026306 1.039954 1.072446 1.073844 1.044096 0.994692 0.993624 1.052249 1.048366 1.111554 1.075199 1.093840 0.980022 0.879201 0.926275 0.855882 0.692285 0.890306 1.044441 1.221070 1.192844 1.187021 1.057364 0.976781 0.693165 0.558712 1.208808 1.290321 0.718152 0.489843 0.718233 1.106682 1.027525 1.143998 1.153156 1.157878 1.188651 1.068987 0.828761 0.784603 0.817834 1.047420 1.129078 1.040057 1.081875 1.098410 1.175324 1.178020 1.180634 0.903432 0.901004 1.022325 1.101096 1.110873 0.891405 0.905824 1.129465 0.938609 1.020155 1.100847 1.092327 1.231035 1.186364 1.085102 1.118679 1.195602 1.223095 1.027285 0.822548 0.870359 0.914090 0.954778 1.110720 1.072804 1.032305 1.061197 1.121813 1.052745 1.086343 1.084645 1.067354 1.086604 1.073217 1.043153 1.041099 1.044837 1.055761 1.089520 1.111232 1.118532 1.111204 1.148394 1.193590 1.211915 1.100508 0.811382 1.149555 1.215052 1.204512 1.155728 1.155413 0.830080 1.133858 1.182221 1.217168 1.230359 1.144145 1.168456 0.986394 0.843661 1.144660 1.132308 1.181892 1.147115 1.128580 1.095715 1.116817 1.237376 1.242894 1.212107 1.153883 0.825432 0.779008 0.961905 0.848406 0.902614 0.838949 0.781906 0.887162 1.036527 1.151227 1.078404 1.087955 1.124639 1.240981 1.185590 1.095916 1.093371 1.170851 1.139506 1.247987 0.974759 0.745427 0.892448 1.215879 1.206510 1.149835 1.037795 1.129164 1.069112 1.066422 1.041850 1.158152 1.229851 1.147032 0.911359 1.028756 1.192376 1.203933 1.113730 1.183840 0.928108 0.944137 1.118844 0.777026 1.016510 1.139807 1.157194 1.205237 1.185415 1.277909 1.274891 0.990402 0.751243 0.792611 1.067121 1.130646 1.163279 1.215919 1.229313 1.148815 0.977104 0.845315 0.822170 1.067962 1.297883 1.180507 1.118738 0.576022 0.555010 1.092176 1.122341 1.059929 0.891367 1.218638 1.356176 1.226480 1.226165 1.206786 1.122528 1.138835 1.203906 1.275377 0.921573 1.135805 1.206133 1.262981 1.133245 0.968885 1.027511 1.230850 1.117739 1.130214 1.059124 0.996505 1.232854 1.127394 0.941269 0.961321 1.253384 1.148402 1.127357 1.181065 1.103722 1.115516 1.249807 1.288557 1.225305 1.243066 1.045016 1.134042 1.185043 0.872333 1.097805 1.221491 1.234159 1.281761 1.209558 1.066386 0.682014 0.983898 1.079182 1.108256 1.085229 1.048630 1.127691 1.193443 1.092206 0.796517 0.605054 1.112784 1.216568 1.222103 1.123765 1.231105 1.062944 0.869894 1.105068 1.044667 1.152655 1.102003 0.946510 0.895520 0.876848 1.098656 1.169455 1.158542 1.149756 1.160193 1.161182 1.157455 1.155495 1.144568 1.138404 1.134762 1.128822 1.122268 1.113291 1.056582 0.991048 1.041204 1.023215 0.927183 0.910339 0.996023 1.002677 1.005119 0.986700 0.979616 0.975810 0.968729 0.985287 0.987616 0.969065 0.969384 0.944773 0.908754 0.936038 1.007978 0.992520 0.995205 1.108850 1.113708 1.098812 1.040913 0.927693 0.827965 0.729693 0.766651 0.682277 0.861570 1.025685 1.137024 1.210825 1.225699 1.060320 0.734766 0.648202 0.794110 1.035207 0.785609 1.138483 1.039530 0.859298 0.872453 0.997502 0.877480 1.073882 1.102736 1.128010 0.854644 0.996673 1.014792 1.014232 1.034936 1.047739 1.078112 1.065496 1.021355 1.024030 1.055754 1.019256 1.015889 1.032829 1.042068 0.870535 1.098234 0.978034 1.106045 1.168097 1.129956 1.069093 1.047018 0.746397 0.977232 1.009048 0.948966 0.910364 1.025030 1.091522 1.063398 1.148723 1.087276 1.022349 1.031677 1.038255 1.072846 1.053128 1.090281 1.050738 1.057319 1.178848 1.123846 0.975451 0.957445 1.017963 1.125623 1.013623
