ncols         160
nrows         150
xllcorner     630800
yllcorner     5180500
cellsize      100
NODATA_value  -9999
0,975228 0,948818 0,9430341 0,9520612 0,9487814 0,9555506 0,9460752 0,9298385 0,9100904 0,8794592 0,8873258 0,9176564 0,9275838 0,9278597 0,9178591 0,9236093 0,9215472 0,9104845 0,8962599 0,8868824 0,8666821 0,8589134 0,8744712 0,9205378 0,932514 0,9346653 0,9467301 0,9392503 0,9082289 0,8965973 0,9112483 0,906812 0,889858 0,9090146 0,901187 0,9381707 0,9350651 0,9099789 0,9133121 0,890204 0,9243599 0,9253312 0,9033446 0,9052135 0,9730014 0,8349502 0,8701177 0,9128466 0,9309142 0,9430672 0,9497034 0,9574664 0,959704 0,9209666 0,8854786 0,9275917 0,9388833 0,9243171 0,9203371 0,9091085 0,9129419 0,9008518 0,8891843 0,866955 0,8409742 0,8404957 0,8091508 0,7676879 0,7369679 0,7241291 0,787146 0,8899781 0,813546 0,8534727 0,853757 0,8655882 0,8730191 0,8867306 0,8803511 0,8807362 0,8812375 0,8798465 0,8772687 0,8680908 0,8561403 0,8725356 0,8633485 0,8628393 0,8604346 0,8528129 0,8438563 0,813597 0,7922001 0,8211373 0,830974 0,8500286 0,8855964 0,8528956 0,841212 0,8630964 0,852607 0,836562 0,8800183 0,8878619 0,8749604 0,9245631 0,950165 0,9355359 0,9267768 0,9287529 0,9309412 0,9320106 0,8864802 0,9239252 0,928618 0,9025917 0,8477162 0,8421862 0,8086575 0,7806804 0,9699316 0,8678063 0,8441861 0,9156306 0,9486741 0,9637777 0,9712479 0,9707319 0,9591247 0,9605772 0,9703335 0,9751378 0,9758906 0,9758776 0,9752126 0,9741088 0,9727015 0,9698846 0,9662895 0,9616249 0,9535676 0,944149 0,9251094 0,8740895 0,8357736 0,9424506 0,8107727 0,8246095 0,8344845 0,8526043 0,8788974 0,8902841 0,9046347 0,9190118 0,9206398 0,9200525 0,9232901 0,9309139 0,9277391 0,9409661 
0,9646903 0,9342728 0,9488016 0,9358811 0,9356058 0,9263904 0,8842379 0,8414595 0,8405037 0,8513085 0,876901 0,900937 0,9125142 0,9121693 0,9074212 0,9067981 0,902264 0,889174 0,8614332 0,8423957 0,8339514 0,8313767 0,8453747 0,9032949 0,9103118 0,9190675 0,9273778 0,9123008 0,8883154 0,8819917 0,8943076 0,9062886 0,8671937 0,8982613 0,9150357 0,9219008 0,86166 0,870015 0,8436511 0,8241031 0,8797896 0,879738 0,8561398 0,854411 0,9445134 0,8711822 0,8402319 0,8539813 0,8958523 0,9201431 0,9340277 0,9444083 0,9328911 0,9178365 0,9301522 0,9231553 0,9163094 0,913717 0,894604 0,9029018 0,9053029 0,8890773 0,8710229 0,8224089 0,7944735 0,7868359 0,741696 0,7698436 0,7888329 0,7762836 0,8950807 0,8288226 0,7826725 0,8094498 0,8223363 0,8376689 0,8598818 0,8720478 0,8647578 0,8661145 0,8676618 0,8650525 0,8610944 0,8439027 0,8374002 0,8655847 0,8425127 0,8455516 0,8402284 0,8268039 0,7991924 0,7744302 0,7865818 0,8205948 0,8421459 0,8613882 0,8140231 0,8745254 0,817889 0,861376 0,8446267 0,8266063 0,8843837 0,9138013 0,9362323 0,9501148 0,9436991 0,9493899 0,9547117 0,9457343 0,9323666 0,9245824 0,8967484 0,9269783 0,9120562 0,8810547 0,7893682 0,7731725 0,7051294 0,8514273 0,9481781 0,9173274 0,8850354 0,8913838 0,9348647 0,9580476 0,968034 0,9711932 0,9675986 0,9600736 0,9626324 0,9712708 0,973747 0,9735137 0,9718175 0,9705136 0,9684037 0,9655318 0,9609938 0,9532408 0,9398698 0,9254977 0,8938295 0,8086643 0,9187402 0,8271953 0,7904545 0,806562 0,8092759 0,8419967 0,858457 0,8586208 0,8666851 0,8888871 0,8747675 0,8938039 0,9096937 0,9085101 0,9027427 0,9045228 
0,9819254 0,9491881 0,9447484 0,9548613 0,9416945 0,8984998 0,8843488 0,8754818 0,8715073 0,8802184 0,8843439 0,894268 0,9028606 0,9065691 0,9037729 0,9001408 0,8721032 0,8768479 0,8892381 0,8745543 0,8437463 0,8515953 0,9038059 0,9296391 0,9206782 0,9155163 0,9256787 0,9301311 0,9259521 0,9482444 0,9495413 0,9353314 0,9275267 0,9389271 0,9043318 0,8557166 0,8726327 0,8532864 0,844524 0,8216296 0,8531506 0,8844925 0,8637831 0,907671 0,9206439 0,9229915 0,8940153 0,8381383 0,8546214 0,8878697 0,918686 0,8922346 0,8686756 0,8856459 0,8942001 0,9015267 0,9132798 0,9093812 0,8983564 0,8980501 0,8969219 0,8787735 0,8470436 0,7936152 0,7972485 0,8200089 0,7683322 0,8108659 0,7964398 0,8085175 0,9013534 0,768295 0,7650046 0,7709342 0,8052069 0,8213787 0,8534525 0,8605129 0,8414268 0,8512069 0,850595 0,8438151 0,846918 0,8365668 0,8277868 0,8487087 0,8234134 0,8244702 0,8140633 0,8015398 0,8013983 0,7914112 0,7792833 0,7870827 0,8718898 0,8416901 0,7706491 0,8717501 0,8092753 0,8887764 0,8540296 0,850266 0,9105899 0,948047 0,9583321 0,9556936 0,9452469 0,9457787 0,9483854 0,9416892 0,9256985 0,8954314 0,8678687 0,9076107 0,895009 0,8845773 0,8492312 0,8308403 0,867561 0,9758699 0,8832628 0,9001355 0,9265411 0,9346714 0,9431855 0,9533842 0,963769 0,9676611 0,9667812 0,9659613 0,9681568 0,9691061 0,9706625 0,9708809 0,9687555 0,9666551 0,9638073 0,9591109 0,9526715 0,9428784 0,9252806 0,9038091 0,8664668 0,7904955 0,9457216 0,778905 0,8390818 0,8565305 0,8199463 0,8361896 0,8625004 0,8676836 0,8251306 0,8481503 0,8691607 0,8787777 0,8864305 0,8829532 0,8748477 0,8891768 
0,9748713 0,9233612 0,920734 0,9347109 0,9254796 0,914477 0,8796086 0,8781213 0,8766627 0,8720403 0,8756428 0,8824832 0,8888729 0,8950851 0,8956891 0,8944206 0,8550668 0,8602099 0,9035581 0,8810439 0,8291969 0,8503063 0,8673829 0,9189118 0,9149446 0,9178823 0,9283131 0,9133478 0,8874178 0,8811794 0,8463729 0,8508494 0,9031791 0,8949824 0,9017804 0,896264 0,8885128 0,8489488 0,8377007 0,8460604 0,8391044 0,8339926 0,8084406 0,9034381 0,9217021 0,9438177 0,957779 0,8507241 0,8601959 0,8931756 0,8609343 0,8557678 0,8831559 0,8967367 0,8991367 0,9021331 0,8985419 0,897 0,8882855 0,885106 0,8863072 0,8606759 0,8280979 0,8007471 0,7838575 0,863106 0,9482099 0,9388537 0,909417 0,9013406 0,9372333 0,8159897 0,8313349 0,8313569 0,837549 0,8168154 0,8480496 0,8499847 0,8309761 0,8367452 0,8354486 0,8309017 0,8319632 0,8277932 0,7787559 0,8584101 0,8342179 0,829029 0,8158568 0,8259747 0,8119272 0,8237347 0,8031172 0,8340876 0,8721029 0,8119127 0,7301913 0,8707772 0,9791684 0,9751498 0,9625813 0,9458836 0,9607872 0,967528 0,9645382 0,9639022 0,9565852 0,9402323 0,9369997 0,9279551 0,9066514 0,8470907 0,834808 0,8972543 0,8752073 0,8797324 0,8606229 0,8459942 0,8773562 0,9733106 0,8289413 0,8766738 0,9200224 0,9380836 0,9480285 0,9535984 0,9605761 0,9628155 0,9607421 0,963013 0,9694093 0,9698107 0,9680017 0,9681398 0,9647627 0,9623721 0,9580444 0,9503126 0,9414018 0,93039 0,9147948 0,8876013 0,8396612 0,7838893 0,9298168 0,7723571 0,8135016 0,8463494 0,8348213 0,8228545 0,8465871 0,8564517 0,8125545 0,8314879 0,8568733 0,8630154 0,8577644 0,8639871 0,854787 0,8794429 
0,9555299 0,9227795 0,8885816 0,9117584 0,9160764 0,9284319 0,8794036 0,8673595 0,8795842 0,8618395 0,8562605 0,8583407 0,8666186 0,8857327 0,8726903 0,886588 0,8574614 0,8499268 0,8907275 0,8742987 0,8372157 0,8551883 0,876187 0,9184673 0,9291301 0,9235412 0,9187513 0,9146078 0,9062828 0,8799409 0,862431 0,8563125 0,8937424 0,914788 0,9113723 0,8881012 0,8828893 0,861576 0,8383369 0,8472583 0,8468767 0,8263775 0,7830867 0,8693939 0,9510754 0,8966594 0,9384865 0,9367436 0,8648267 0,8133267 0,8553214 0,8830096 0,8883799 0,891747 0,8911119 0,8871944 0,881698 0,8779938 0,8627882 0,8706827 0,8731091 0,8462777 0,859766 0,8495638 0,8309072 0,8334988 0,7696266 0,7170308 0,7692236 0,8542492 0,9478628 0,8667843 0,847542 0,8488055 0,8544708 0,8796602 0,86813 0,8529746 0,82859 0,8173289 0,8318529 0,8268616 0,827206 0,8176093 0,7513655 0,848709 0,8292242 0,8204572 0,8115816 0,8279004 0,8078685 0,7895817 0,8080542 0,8711908 0,8420651 0,7722213 0,7733805 0,9591854 0,9795452 0,9721491 0,9744982 0,9716142 0,9661334 0,964285 0,9654862 0,9661409 0,9606624 0,9457821 0,9353926 0,9155701 0,8767782 0,8129349 0,8904845 0,9139248 0,8368419 0,829429 0,8652734 0,8794008 0,8274667 0,8944173 0,8504427 0,8340698 0,9042044 0,9342762 0,9467819 0,9539059 0,9607516 0,9600011 0,9586681 0,9617297 0,9691705 0,9729074 0,9719961 0,9690501 0,959375 0,954418 0,9479541 0,9385625 0,9286972 0,9156693 0,9031799 0,8574879 0,8056316 0,8257368 0,901774 0,8523983 0,8317568 0,8103145 0,8111993 0,8036302 0,8263057 0,8619503 0,8029841 0,8137162 0,8274131 0,8336313 0,8421322 0,8655643 0,8763354 0,9053924 
0,9703325 0,8682154 0,87603 0,870766 0,9096104 0,9221494 0,8778235 0,8684976 0,8601369 0,8381317 0,8095706 0,8369331 0,8626429 0,9027624 0,8918773 0,8880703 0,8846312 0,8972523 0,8901109 0,8622191 0,8335599 0,8198283 0,871351 0,9088982 0,9146589 0,876266 0,8885216 0,9212523 0,917218 0,9052151 0,8870547 0,9015127 0,8893073 0,8950543 0,8706847 0,8491571 0,8425399 0,8378353 0,8260083 0,8357716 0,8388352 0,8189594 0,7702487 0,7884694 0,939414 0,9531627 0,9715531 0,8877552 0,8632177 0,8324209 0,8731839 0,8747255 0,8732849 0,8775631 0,8793549 0,8669609 0,8436264 0,8386362 0,8183594 0,8324071 0,8479901 0,8863289 0,9024009 0,896476 0,845463 0,8002858 0,7670619 0,7510118 0,7259225 0,716528 0,7744904 0,8968316 0,7803858 0,8397824 0,8653905 0,8714129 0,8494959 0,8170482 0,817162 0,8167368 0,8149223 0,8015422 0,8061898 0,7806014 0,7083861 0,8214245 0,8148932 0,7940624 0,8006663 0,8230824 0,8167713 0,7972276 0,7905609 0,8670192 0,8132032 0,7757154 0,8865369 0,9777122 0,9715585 0,9749892 0,9737761 0,9686227 0,9571095 0,9602253 0,9616015 0,9583316 0,9457517 0,932483 0,9200807 0,8941082 0,8912113 0,9290451 0,9395917 0,9435665 0,9504796 0,9233349 0,9051462 0,9093609 0,8739322 0,862103 0,9544371 0,7946578 0,8792639 0,9199669 0,9370497 0,9490855 0,9597143 0,9600416 0,959364 0,9622734 0,9686326 0,9729999 0,9744358 0,971745 0,9480134 0,9285876 0,9225752 0,9124403 0,8966408 0,8872005 0,8879395 0,833646 0,7534223 0,8538907 0,9796588 0,8390632 0,7735627 0,7556981 0,7711306 0,7371693 0,7852143 0,8389293 0,7826818 0,7936258 0,7894158 0,7972233 0,8186476 0,8372251 0,8445055 0,8878871 
0,9731327 0,9132554 0,9309205 0,9118978 0,9008576 0,903192 0,876151 0,8761001 0,8582669 0,8459684 0,8993288 0,8471374 0,8674589 0,9005485 0,8500342 0,8853237 0,8624529 0,8945197 0,8773504 0,8456485 0,8543409 0,8667378 0,8850545 0,8959926 0,9104661 0,8724617 0,8320115 0,8561993 0,8901259 0,9064413 0,9005277 0,899712 0,8811055 0,8728049 0,8528758 0,813659 0,7960337 0,814092 0,8116374 0,8594895 0,8260227 0,8078148 0,7738792 0,7404019 0,9136398 0,9432168 0,9548789 0,8625483 0,832073 0,8560507 0,8765868 0,8815124 0,860422 0,8609214 0,8614495 0,819291 0,8255889 0,8254682 0,8210187 0,8029007 0,8296051 0,8831722 0,8914893 0,8900616 0,8795503 0,8603796 0,8373387 0,8233478 0,8270191 0,822789 0,7830987 0,9064138 0,8592094 0,8891976 0,8759147 0,8512123 0,8052632 0,8511926 0,8606578 0,8301381 0,7896632 0,7655255 0,7741699 0,711556 0,7080647 0,8230829 0,8360461 0,7771156 0,805923 0,8458567 0,8337022 0,8394535 0,8893692 0,8794777 0,8102924 0,8439781 0,9754749 0,9813567 0,9683743 0,9730325 0,9728258 0,9667829 0,9546349 0,9566565 0,9498999 0,9371291 0,905024 0,8942385 0,8793075 0,8684214 0,8747998 0,9088079 0,8987495 0,9346851 0,9481745 0,9516782 0,9294375 0,9120265 0,8987823 0,8929516 0,9696424 0,8544895 0,8588859 0,9030216 0,9244986 0,9400246 0,9533473 0,9604935 0,9623463 0,9652973 0,9694177 0,972492 0,973911 0,9735449 0,9507916 0,8880635 0,8630352 0,8417314 0,8149769 0,8645238 0,8811563 0,8220366 0,7443036 0,9012918 0,9536183 0,9257556 0,946981 0,9598117 0,9705869 0,9223822 0,8993018 0,9244471 0,7958382 0,7489806 0,7801068 0,7757248 0,8260434 0,810657 0,8113496 0,8699551 
0,9532662 0,9373235 0,9697736 0,9561331 0,9482847 0,948642 0,896454 0,9095989 0,9173181 0,9194066 0,9223668 0,8418717 0,9089015 0,8608075 0,8342377 0,8782246 0,8769945 0,8817207 0,8721394 0,840678 0,8238685 0,8193235 0,8256501 0,8718761 0,9053031 0,8844785 0,8608881 0,8419343 0,8567084 0,8745195 0,8909479 0,8873961 0,8722857 0,8137766 0,8296989 0,8112952 0,7728868 0,8045142 0,8101292 0,871846 0,8243271 0,7906893 0,7613366 0,7270224 0,93064 0,8943081 0,9051418 0,8003922 0,8320636 0,8602099 0,8701026 0,8778402 0,8756198 0,860454 0,8374535 0,8154089 0,8616164 0,8741192 0,8978423 0,8979415 0,8725612 0,875597 0,8769459 0,8730974 0,8722282 0,8726943 0,8572615 0,8486341 0,8581455 0,8774263 0,8882333 0,9214544 0,9327835 0,9227116 0,9055441 0,8552628 0,8965547 0,893779 0,7985262 0,7774506 0,7718121 0,763737 0,7950946 0,7747704 0,7638764 0,7929008 0,8700183 0,7922364 0,8280775 0,8673767 0,8695206 0,8967621 0,8740412 0,8290744 0,8058156 0,9547784 0,9864161 0,9822681 0,9770913 0,9754031 0,9736502 0,9712893 0,9568526 0,9365019 0,927984 0,9170461 0,8763483 0,8558525 0,836394 0,8457745 0,9067375 0,9028265 0,8835998 0,9258388 0,9317492 0,9329491 0,9239335 0,8880417 0,8759344 0,9273275 0,9661354 0,8860441 0,8538783 0,8913248 0,9071605 0,9255953 0,9467412 0,959455 0,9653145 0,9652896 0,9687797 0,9723321 0,9735333 0,9731625 0,9404528 0,8937294 0,8948953 0,9332986 0,958021 0,9739571 0,9048594 0,8361878 0,8229055 0,9380259 0,9048968 0,8846755 0,858018 0,8624052 0,8648092 0,8764314 0,9396625 0,884258 0,9591587 0,9446836 0,9597083 0,9668533 0,9504716 0,9271203 0,9597207 0,9738272 
0,9620009 0,9666111 0,977242 0,96688 0,9721799 0,9585387 0,9269364 0,9343016 0,9418223 0,9545879 0,9143979 0,8769855 0,9149709 0,8241497 0,8137045 0,8684204 0,8705416 0,8470593 0,853231 0,8278623 0,8375387 0,8439752 0,8804969 0,8968395 0,8976719 0,8728696 0,8573651 0,8615265 0,8377849 0,8150622 0,8361724 0,8445364 0,821072 0,7860337 0,7903254 0,8696358 0,8469986 0,8020139 0,7715317 0,8814491 0,8140612 0,7642238 0,7218215 0,7676359 0,9332303 0,8827193 0,8779441 0,821131 0,8391191 0,8450902 0,8437088 0,8504224 0,8555964 0,8380087 0,7869836 0,8512306 0,8934162 0,933193 0,9014069 0,8956143 0,8997622 0,9013526 0,8893129 0,8653871 0,8700083 0,8681064 0,8394963 0,8203917 0,8327411 0,8623616 0,9122604 0,9273039 0,9266031 0,9280244 0,9284517 0,9242779 0,9291437 0,8888013 0,8540857 0,8943996 0,8537724 0,8297932 0,8518766 0,8659301 0,8749431 0,9210442 0,9687096 0,9730839 0,9738723 0,9823514 0,9590588 0,8692406 0,8159209 0,7904272 0,9238608 0,9826833 0,983059 0,9766793 0,9717501 0,9689146 0,9680181 0,965867 0,9612062 0,9464431 0,9538404 0,9592324 0,9451664 0,8860065 0,884775 0,9207773 0,9036319 0,8707101 0,8800868 0,9194269 0,8996047 0,8985188 0,8909162 0,8932699 0,9446289 0,9300721 0,9592179 0,9440008 0,9067726 0,8730395 0,8723512 0,911539 0,9390026 0,9555098 0,9627581 0,9642357 0,9660658 0,9699544 0,9717685 0,9732488 0,9619048 0,9461318 0,8806922 0,8284901 0,8103363 0,844698 0,9000489 0,9155775 0,9582646 0,8491597 0,7514923 0,7809199 0,7763971 0,8531038 0,8159233 0,7976762 0,8047315 0,7663064 0,7819263 0,880117 0,9110416 0,8403851 0,8465487 0,7923154 0,7751861 0,7831239 
0,9782114 0,9586511 0,9522849 0,9267957 0,9193701 0,9126943 0,9096043 0,8814437 0,913717 0,9294392 0,8725624 0,9150847 0,8646812 0,788366 0,8292418 0,8644493 0,8707625 0,8262724 0,8658078 0,8633084 0,8377398 0,8624548 0,8830408 0,9123353 0,895848 0,8298035 0,8132859 0,8175355 0,8038626 0,8382941 0,8192416 0,8227373 0,8023221 0,7925296 0,7681044 0,7496237 0,7818919 0,8956405 0,8872953 0,9395047 0,8583618 0,7976157 0,7513452 0,9455924 0,9829882 0,8822894 0,8121545 0,8109785 0,8193617 0,7948066 0,773599 0,8164276 0,8225799 0,7971474 0,7646638 0,918285 0,9165504 0,912078 0,872301 0,8546053 0,8696657 0,8740595 0,8637565 0,8638846 0,8788963 0,8457626 0,7985103 0,8201687 0,87418 0,8977952 0,9048187 0,9038037 0,8935973 0,9029589 0,909656 0,9190202 0,9310696 0,9278253 0,898789 0,8955271 0,9608037 0,9426405 0,9452049 0,9467635 0,9683976 0,9836422 0,9415993 0,8820088 0,9112861 0,8784099 0,9600531 0,9218761 0,8414543 0,8893211 0,9692333 0,9795685 0,9815813 0,974643 0,966296 0,9570174 0,9519787 0,9531959 0,9661299 0,9669439 0,9686926 0,9689294 0,9652466 0,9492241 0,9388672 0,8916214 0,8418311 0,8061043 0,8462672 0,9017255 0,858999 0,8423516 0,8297206 0,8541685 0,9516001 0,9383625 0,9454798 0,8851331 0,9377322 0,9320661 0,8475362 0,8970047 0,9328522 0,9494673 0,9558879 0,9590082 0,9614476 0,9646965 0,9665871 0,9689813 0,9544381 0,8298417 0,8483178 0,8523299 0,8368499 0,817183 0,8312039 0,9128519 0,933331 0,8095539 0,8309681 0,8128074 0,8010746 0,8103997 0,799912 0,8078896 0,7701454 0,7895297 0,8307606 0,9047876 0,8923088 0,7806566 0,7987503 0,8027605 0,8097526 0,8226671 
0,952236 0,9116994 0,8933607 0,8828598 0,8889742 0,8983116 0,9200898 0,9099772 0,9181989 0,9228627 0,8857343 0,8746694 0,8015561 0,7825425 0,8400784 0,8628304 0,8679872 0,8084649 0,8589611 0,8610975 0,8299617 0,8302636 0,8578562 0,8948763 0,867667 0,8938469 0,8528483 0,8138242 0,7835658 0,8456596 0,8755041 0,8697356 0,8044643 0,7660311 0,7402744 0,6979413 0,6977614 0,8754023 0,9007692 0,9081276 0,9380468 0,9863759 0,9408782 0,856366 0,8109353 0,9097742 0,9418016 0,9319491 0,921409 0,9266534 0,9015178 0,7795976 0,7633862 0,7398617 0,8383111 0,9036711 0,8829243 0,863929 0,8099207 0,7824432 0,8032432 0,8080185 0,7934307 0,8805993 0,8499553 0,8254206 0,8325176 0,8753332 0,9117875 0,8903257 0,8722382 0,8315094 0,844252 0,8602737 0,8767781 0,8904418 0,9044073 0,9031562 0,9084584 0,8666277 0,9260067 0,9798996 0,9877081 0,9815125 0,9438384 0,8401062 0,8705308 0,9107921 0,9288573 0,8887241 0,815545 0,8998538 0,9456803 0,99599 0,989803 0,9817493 0,9793655 0,970036 0,9534624 0,9355664 0,924061 0,9310421 0,9455697 0,9547234 0,9624959 0,9667673 0,9642661 0,9540226 0,9022297 0,9359508 0,8696191 0,804013 0,9038558 0,8900088 0,7955647 0,7888119 0,8569523 0,9676942 0,9584663 0,9279768 0,8821453 0,8822579 0,9135576 0,890056 0,9212023 0,9081936 0,9234021 0,9362866 0,9394921 0,9452221 0,9494035 0,9550635 0,9638628 0,9763598 0,8778961 0,8493405 0,8655519 0,8468407 0,8457415 0,839939 0,810661 0,9101275 0,9028755 0,8231915 0,8385793 0,8792088 0,8173593 0,8333664 0,8319364 0,8516651 0,8292587 0,8275057 0,8152687 0,9051535 0,8647473 0,7935238 0,8065343 0,8195773 0,8314536 0,8681359 
0,9213768 0,8759463 0,8870714 0,8978723 0,9062997 0,9091535 0,9018333 0,8973744 0,914929 0,9335499 0,9410794 0,8830199 0,7980997 0,7981352 0,8475595 0,8594646 0,8694798 0,8155853 0,8587587 0,8685186 0,846758 0,8493654 0,8460273 0,9035853 0,8770257 0,9014769 0,9431277 0,9429747 0,9329208 0,9239529 0,9504615 0,959074 0,801801 0,767101 0,7528096 0,750363 0,9008998 0,8687544 0,8080812 0,7824625 0,7577574 0,9215336 0,8284035 0,8566672 0,8526838 0,8424918 0,9379267 0,8865471 0,8472905 0,8304865 0,8979138 0,9494719 0,858128 0,8388593 0,8726069 0,8330943 0,8560218 0,8749968 0,8836424 0,8057168 0,7661556 0,8572595 0,9083831 0,9102771 0,8628682 0,8101714 0,8419942 0,8882188 0,8994673 0,8419734 0,8266107 0,8031985 0,7835975 0,7984657 0,8362196 0,8483065 0,8615885 0,8606047 0,8813195 0,9052364 0,9411639 0,8973292 0,8409382 0,8334931 0,8350155 0,9161042 0,9434655 0,9506459 0,9424422 0,919992 0,8685705 0,8064112 0,829215 0,9620214 0,9783275 0,9780502 0,9762908 0,9609639 0,92923 0,8882853 0,8418916 0,8943678 0,8800299 0,9316449 0,9507004 0,9612968 0,9606488 0,9516266 0,9229167 0,8968805 0,9434061 0,9586763 0,9420487 0,933691 0,8974981 0,9027105 0,9074993 0,7951416 0,7411289 0,745199 0,8269804 0,8888437 0,9050347 0,8804463 0,8580648 0,9242216 0,9650999 0,9389591 0,9009703 0,9019999 0,9176026 0,9354421 0,9686452 0,9017491 0,8170123 0,8587212 0,8602893 0,8495686 0,8542197 0,8514912 0,7962013 0,9247928 0,9091153 0,8624009 0,8750723 0,9144922 0,8292386 0,8395344 0,8521644 0,8682715 0,8615674 0,8525581 0,8293827 0,8273633 0,8337973 0,827831 0,830298 0,844075 0,8408774 0,8711689 
0,9210108 0,9008187 0,9173033 0,9043439 0,9016668 0,8989444 0,9008785 0,9160836 0,9433706 0,9355031 0,9380121 0,8859133 0,7867712 0,80811 0,8501244 0,8499674 0,8676537 0,836512 0,8511109 0,8618535 0,8302447 0,8349371 0,8676322 0,9217135 0,9086856 0,881017 0,8881924 0,8820989 0,8561315 0,8496321 0,8649938 0,9511834 0,92644 0,876811 0,850461 0,8747554 0,8916278 0,804567 0,8311731 0,8146557 0,7883412 0,8935456 0,8967935 0,9080558 0,9076422 0,8889918 0,9190222 0,9210631 0,8425739 0,8329109 0,8066775 0,837543 0,9034605 0,9212352 0,9667073 0,8604807 0,9073162 0,9225224 0,9288673 0,9258434 0,9156583 0,9141445 0,9082636 0,8900008 0,8418724 0,801562 0,8114178 0,8611262 0,8827903 0,8883983 0,9168679 0,8928455 0,8153497 0,7938095 0,8393005 0,8241974 0,7980502 0,8378501 0,8992596 0,9526119 0,9323955 0,8746637 0,877229 0,8958216 0,9249988 0,9536046 0,9602695 0,9611953 0,9504902 0,9301271 0,8945943 0,8330657 0,749614 0,9568381 0,9822841 0,9804711 0,9706612 0,9264188 0,858027 0,8081828 0,8086085 0,9167575 0,8396337 0,900017 0,9368601 0,9525824 0,9539263 0,9473853 0,9189138 0,8786065 0,9085761 0,9351867 0,9192486 0,8450835 0,9546405 0,8708367 0,7712927 0,7920822 0,8093203 0,8243912 0,8252894 0,861302 0,8897712 0,8851399 0,8734012 0,8249083 0,8429737 0,9302734 0,9580262 0,8970522 0,8934609 0,9486408 0,8949302 0,7991455 0,8298322 0,8609374 0,863079 0,8555982 0,862307 0,848403 0,784975 0,9686916 0,7755721 0,7728904 0,8503633 0,8829264 0,8660713 0,8339455 0,8727096 0,8806752 0,873266 0,8763497 0,8595574 0,8652085 0,8567896 0,8431576 0,8374643 0,863136 0,8585202 0,8903416 
0,9354725 0,909434 0,9162848 0,9069704 0,9150311 0,9191741 0,9231912 0,9432959 0,9379014 0,9261095 0,9202947 0,8585012 0,7980316 0,8192404 0,8518394 0,8495058 0,8571424 0,8835686 0,8519022 0,8524454 0,8232304 0,8208319 0,885954 0,9153036 0,9099166 0,8765509 0,8644264 0,8666354 0,8650038 0,8406099 0,8492098 0,8614484 0,8886701 0,8989742 0,9535344 0,9572063 0,8195639 0,8189248 0,8359802 0,8163132 0,7825259 0,8426319 0,9441365 0,9382992 0,9335371 0,9186794 0,8650436 0,9526215 0,8534015 0,8253469 0,8130401 0,7920802 0,8101432 0,8202262 0,8736392 0,9852137 0,9507445 0,8878297 0,9018014 0,8939576 0,8931551 0,8981389 0,8948893 0,8717175 0,8382205 0,8287549 0,882547 0,9318324 0,9749186 0,9465616 0,9198856 0,9112099 0,9293053 0,9671498 0,9501256 0,8717285 0,9454372 0,9698168 0,9483759 0,8616511 0,9237991 0,9388285 0,9384063 0,9413646 0,9400796 0,9501792 0,9627886 0,9609261 0,9504506 0,931144 0,8956231 0,8216524 0,8248646 0,9699698 0,8673801 0,8705387 0,9411613 0,9751862 0,9645308 0,9558435 0,9531442 0,9833064 0,8434309 0,8768905 0,9233559 0,9460158 0,9440547 0,9169673 0,868783 0,824989 0,8846434 0,9392895 0,9255996 0,8495297 0,961378 0,8449509 0,7779678 0,8056453 0,8524408 0,8682394 0,8879981 0,896902 0,9053146 0,8996708 0,8937932 0,8807347 0,8633118 0,8414792 0,8736323 0,9775767 0,9613835 0,886793 0,8610289 0,7979487 0,8532393 0,8689649 0,8778113 0,8646494 0,8559853 0,8408697 0,8967015 0,9601306 0,8013025 0,7728461 0,7967925 0,7744071 0,7887836 0,8283632 0,8830068 0,8980048 0,8845362 0,8597929 0,8496797 0,863614 0,8456715 0,8236579 0,8401588 0,8763446 0,8859725 0,9031371 
0,9450245 0,9074948 0,915943 0,9187596 0,9201509 0,9239064 0,9308758 0,9397269 0,9311277 0,9376616 0,9159979 0,8489493 0,8375107 0,8230144 0,8502249 0,8595066 0,8482663 0,8801021 0,8508762 0,8667626 0,882283 0,8678674 0,8872668 0,889956 0,8883755 0,8729679 0,868669 0,8627408 0,8755234 0,8614244 0,8363506 0,8495488 0,846669 0,8836563 0,8821374 0,9120551 0,8517952 0,8455904 0,8448607 0,830286 0,7853847 0,8037766 0,9247189 0,9640128 0,916643 0,90606 0,9041463 0,9044467 0,9335676 0,8075714 0,8241217 0,8306845 0,7923733 0,8022992 0,8214758 0,7921388 0,9379098 0,8761308 0,8577257 0,8775865 0,895752 0,8984683 0,9004527 0,8941296 0,8699439 0,9027318 0,9442908 0,9683943 0,8604757 0,9010762 0,9145586 0,8990237 0,9127051 0,8885452 0,8777388 0,9775312 0,8814641 0,7965736 0,8339818 0,8900094 0,9322308 0,9475418 0,9514422 0,9517852 0,9458575 0,9353171 0,9436343 0,9368607 0,9446945 0,9258821 0,8805905 0,8151761 0,9148289 0,866329 0,8475736 0,8328168 0,8223565 0,7904296 0,7855276 0,8862565 0,864818 0,8138333 0,954022 0,9159095 0,9439479 0,9593045 0,9684619 0,9480118 0,937561 0,9125114 0,9645248 0,9769995 0,9585989 0,9420816 0,9099606 0,8630034 0,8543745 0,8212439 0,8734618 0,8935601 0,8723015 0,8975822 0,9084382 0,9144674 0,9113631 0,9107161 0,8997407 0,8729581 0,8427582 0,9189606 0,9407604 0,8809128 0,8456358 0,8438583 0,8757681 0,8815653 0,8952459 0,8777421 0,8443065 0,9085581 0,9131373 0,8595432 0,8727547 0,780782 0,8152024 0,837642 0,8362284 0,856572 0,8860814 0,9030317 0,8743329 0,863492 0,8692926 0,8426697 0,8405597 0,853014 0,8633258 0,8902726 0,8909915 0,8939394 
0,9380941 0,9058674 0,9193394 0,9200125 0,9198857 0,9279521 0,9306722 0,9394137 0,9202226 0,9299726 0,8912112 0,85438 0,8476529 0,8293362 0,8505657 0,8517271 0,82594 0,8041307 0,7871823 0,8026843 0,8638383 0,8870331 0,8914212 0,9186608 0,9014773 0,8936889 0,8814095 0,8520817 0,8678021 0,8685807 0,8495589 0,8520321 0,8510236 0,8624768 0,899226 0,9182581 0,8800471 0,8762282 0,8595992 0,8378041 0,7978349 0,7631232 0,8231793 0,9193473 0,9500465 0,8881328 0,8918972 0,8537314 0,8896109 0,8814434 0,8373241 0,847356 0,8144678 0,7461107 0,7539637 0,7926676 0,8403286 0,9065719 0,9105349 0,8771923 0,8632463 0,8862609 0,8887668 0,8578614 0,9135477 0,9131175 0,8332607 0,8600399 0,868128 0,8972394 0,9181435 0,9250898 0,9355323 0,9277323 0,8642497 0,9061987 0,8899325 0,8291619 0,8880365 0,9207843 0,9426333 0,9523165 0,9568987 0,9560254 0,9529335 0,9218454 0,9418231 0,9505512 0,9445753 0,9166794 0,8490896 0,8226799 0,9676439 0,886676 0,9146798 0,9014397 0,8760954 0,8583914 0,8448122 0,9485019 0,8938431 0,8476694 0,8883239 0,8829728 0,8611129 0,7944481 0,7756581 0,8068115 0,7922852 0,7949352 0,853435 0,9453344 0,9622466 0,8136092 0,7397655 0,7960507 0,9151574 0,9094077 0,9176484 0,9277734 0,8705086 0,8601685 0,8849718 0,9125236 0,9234825 0,9245733 0,9175797 0,8980721 0,8462284 0,9009823 0,9594477 0,9491409 0,8890168 0,86549 0,8854834 0,8931147 0,9023898 0,902337 0,8723629 0,86195 0,9280936 0,9083461 0,9214768 0,8218455 0,7996179 0,8450248 0,8706329 0,8866029 0,8964293 0,9032663 0,901616 0,9056481 0,8789309 0,8358357 0,8684952 0,882798 0,8905907 0,9012147 0,9041129 0,8951926 
0,925499 0,9109813 0,9272928 0,9057149 0,8867642 0,9125998 0,9249925 0,9314566 0,9318894 0,9292079 0,9054545 0,8722173 0,8419568 0,8400233 0,8441377 0,8482952 0,8172578 0,8422512 0,7730117 0,7942119 0,7947754 0,8137736 0,8553982 0,9062235 0,9154337 0,9065666 0,8957218 0,8752722 0,8545004 0,8781054 0,8706259 0,8545762 0,8625396 0,9055922 0,8771517 0,9174371 0,8507059 0,8710805 0,8584177 0,8456038 0,8124933 0,7724192 0,8310676 0,9299656 0,9419342 0,9097359 0,8987264 0,8700587 0,7661996 0,8949906 0,8460402 0,8628187 0,8387132 0,8064893 0,7729357 0,7706161 0,7794755 0,8155718 0,9804742 0,9163378 0,9068138 0,8987702 0,8819227 0,9405309 0,9417045 0,919029 0,91063 0,8848408 0,9007398 0,9073096 0,927654 0,9402779 0,9454474 0,9390777 0,9100418 0,8432024 0,8814555 0,863283 0,9101478 0,936829 0,9501277 0,9569846 0,9601759 0,9599184 0,9573042 0,9531684 0,9467933 0,9512641 0,9390555 0,8939775 0,815899 0,9305367 0,9082493 0,8966165 0,9296254 0,9255438 0,911313 0,8849244 0,8538899 0,9447945 0,9162715 0,9184991 0,8799291 0,7902614 0,7593191 0,7692109 0,81468 0,8409826 0,8507745 0,8230661 0,8171389 0,8159835 0,8748087 0,7794907 0,7792797 0,7785541 0,9211809 0,9418995 0,9104849 0,8989975 0,8697709 0,8716968 0,8786199 0,9026691 0,9214257 0,9237859 0,9222592 0,9112404 0,867547 0,8976699 0,9417949 0,95996 0,9287661 0,8653278 0,8503395 0,8821297 0,9085455 0,922653 0,9095776 0,9110445 0,8494768 0,8875527 0,9155313 0,9564691 0,9067231 0,8537728 0,8477805 0,9040627 0,8960003 0,8909336 0,9066668 0,8740834 0,8520241 0,8596206 0,8900502 0,9005914 0,9077663 0,9112603 0,9067978 0,9012727 
0,9366307 0,9033134 0,9250624 0,9091762 0,9237774 0,922518 0,9163279 0,9121532 0,9083499 0,9151683 0,9055578 0,8766373 0,8561566 0,8488612 0,8521942 0,8479142 0,8479933 0,8873461 0,8313313 0,7847609 0,7919576 0,7895806 0,788344 0,8362314 0,9043465 0,9216264 0,9091728 0,8900558 0,8761154 0,8988824 0,8763415 0,8423735 0,8488843 0,8691972 0,862523 0,9198266 0,8429349 0,8697646 0,8748132 0,8581432 0,8266644 0,8003221 0,8099764 0,9567382 0,9272268 0,8994372 0,8881998 0,8744025 0,8397821 0,9006326 0,8567019 0,8708482 0,8461866 0,820452 0,80126 0,7834923 0,7868749 0,7996078 0,9577911 0,9164881 0,88104 0,850914 0,9223464 0,8622351 0,9011385 0,9193909 0,9230926 0,9191448 0,92257 0,93103 0,9403607 0,9470049 0,9509956 0,9491043 0,9358889 0,8928878 0,8675578 0,8878036 0,9282434 0,9476866 0,9568089 0,9608116 0,963833 0,9632264 0,9605353 0,9589273 0,9561988 0,9506013 0,9308214 0,8681831 0,8583053 0,9308863 0,8408582 0,9094136 0,9312595 0,9319454 0,9239382 0,8979846 0,8570209 0,9535694 0,9480308 0,9543391 0,8349606 0,7644377 0,7790123 0,8100712 0,8389734 0,8707647 0,8386472 0,7714784 0,7544278 0,7972776 0,8941456 0,7963293 0,7834634 0,784979 0,8851734 0,9612138 0,9606507 0,8424719 0,7982321 0,848133 0,8716455 0,8940068 0,9121984 0,9213432 0,9268297 0,9210646 0,8846685 0,8456432 0,8251233 0,898933 0,9719177 0,8894294 0,8391193 0,8818091 0,9105948 0,9350799 0,9376855 0,9364178 0,8808452 0,8281575 0,8331997 0,8560742 0,8811952 0,9085574 0,8781562 0,885717 0,8810301 0,8951271 0,9034647 0,8782941 0,863472 0,8698292 0,8792658 0,8929787 0,9034906 0,8982958 0,8930713 0,8958331 
0,949628 0,9085501 0,934571 0,9281163 0,9143646 0,9121817 0,9060619 0,8982824 0,9099489 0,9045454 0,892209 0,8787798 0,8761558 0,8623831 0,8538174 0,8548451 0,8735661 0,890236 0,8572633 0,8079138 0,81232 0,8314183 0,8061744 0,8179598 0,8424715 0,9104652 0,9200416 0,9074556 0,8982624 0,8935476 0,8668061 0,853506 0,8575978 0,8771353 0,8658928 0,9387117 0,8643848 0,8800806 0,8747413 0,8673787 0,8309952 0,852484 0,8554187 0,9163671 0,9324962 0,8719931 0,886345 0,8912452 0,8786063 0,872967 0,8777751 0,8692556 0,8427753 0,819836 0,7993259 0,7766227 0,7746882 0,7771717 0,9053717 0,8314519 0,7774166 0,8307216 0,9235798 0,8046021 0,8760782 0,9092706 0,912246 0,9207531 0,9336246 0,941202 0,9475916 0,9521092 0,9558392 0,9549239 0,9480668 0,9329777 0,9281875 0,9358283 0,9474941 0,9547955 0,9594125 0,9606584 0,9623643 0,9640685 0,9630323 0,9607304 0,9585888 0,950256 0,9197439 0,8599151 0,9128219 0,8824099 0,8897557 0,9293538 0,9383922 0,9388484 0,9342718 0,9198827 0,8701597 0,9322334 0,9542858 0,9622695 0,8149403 0,781339 0,8123032 0,8292021 0,8419628 0,7708148 0,7870104 0,810377 0,8072884 0,837063 0,8463371 0,8006827 0,7830474 0,7869637 0,8249688 0,8336461 0,8785698 0,9455769 0,8035727 0,7826444 0,8238765 0,8713724 0,9010198 0,9156428 0,9269389 0,9206123 0,8901824 0,7955019 0,7437718 0,8056744 0,9190951 0,8597181 0,8480201 0,8818561 0,9144058 0,9396719 0,9414008 0,9483812 0,9234328 0,8863404 0,8549117 0,8328254 0,8428238 0,8528331 0,8681913 0,8953984 0,9100203 0,9031376 0,8943932 0,8558475 0,8631127 0,8616068 0,8703414 0,8805268 0,8643563 0,8759865 0,8810626 0,8898102 
0,9341879 0,9258329 0,9288595 0,9252418 0,9112006 0,8817589 0,8914741 0,8856059 0,9044229 0,8947603 0,8567759 0,8697851 0,8663602 0,8702846 0,8615791 0,867906 0,8714896 0,8896338 0,8595885 0,8010648 0,8180097 0,8226748 0,8531654 0,8173454 0,87907 0,906533 0,9245608 0,9205465 0,9073854 0,8952119 0,8807822 0,8602161 0,8838727 0,8865923 0,8478354 0,8992739 0,8785675 0,8882389 0,8816748 0,8768325 0,858844 0,8249949 0,7818156 0,7630615 0,9050881 0,8770164 0,8965136 0,8905522 0,8866735 0,8839644 0,8753033 0,8593909 0,8360658 0,8099433 0,7852025 0,7717792 0,7836304 0,7587677 0,8831127 0,9795671 0,9877694 0,9960932 0,8661135 0,762516 0,7949462 0,8719932 0,8985578 0,9165664 0,9348351 0,9441399 0,9502711 0,9552723 0,9590548 0,9591289 0,9562448 0,9507577 0,9508291 0,951996 0,9555316 0,9572685 0,9512705 0,944907 0,9555944 0,9635059 0,9645936 0,9615943 0,9578969 0,9497805 0,9160128 0,8511987 0,9303307 0,8605141 0,9171451 0,9416332 0,944672 0,9444093 0,9411821 0,9329632 0,9128906 0,8786987 0,9078957 0,9484303 0,8470278 0,7978175 0,8212372 0,83268 0,8316202 0,8162788 0,8274413 0,8597947 0,8378618 0,8087893 0,7591451 0,7811397 0,7860209 0,8056216 0,8323722 0,8035683 0,7939594 0,8810721 0,9451131 0,8672917 0,8200652 0,8090777 0,8592061 0,8880773 0,9081146 0,8963753 0,8977506 0,8823969 0,8412801 0,8031027 0,9257295 0,8175612 0,8268372 0,87666 0,9154599 0,9371556 0,944863 0,955398 0,9203181 0,8663133 0,8588763 0,8814086 0,8889444 0,8875184 0,8825165 0,8725425 0,8787112 0,8580135 0,8138125 0,8478196 0,8458841 0,8514824 0,8715721 0,8798273 0,8789601 0,8905592 0,8922865 0,9069984 
0,9307521 0,9347115 0,9270824 0,8924923 0,8902511 0,8520182 0,8552414 0,8665931 0,8906357 0,8768257 0,8264671 0,8267469 0,840925 0,8537905 0,8610713 0,8618354 0,8558161 0,8755549 0,8713629 0,8054417 0,8247035 0,8445331 0,8777305 0,8583586 0,8590854 0,9139631 0,9066639 0,909906 0,9102873 0,9106133 0,9058592 0,8818303 0,8742067 0,8984582 0,8819274 0,8688666 0,888219 0,8910141 0,8856706 0,8794863 0,8391719 0,8232066 0,8201709 0,7882317 0,8265734 0,8575214 0,8857001 0,890963 0,8890933 0,8794687 0,8675229 0,8482957 0,8258839 0,7943174 0,7553415 0,7732739 0,7844082 0,7759522 0,9232941 0,9631526 0,8972 0,8813112 0,9498011 0,9421356 0,8358369 0,818886 0,887778 0,9163516 0,9329771 0,9444571 0,9526298 0,9575559 0,9613841 0,9620676 0,9612399 0,9581833 0,9583751 0,9593129 0,9609098 0,9606011 0,9594683 0,9596104 0,962477 0,9649678 0,9648131 0,9639231 0,9594259 0,9526472 0,9292792 0,9089335 0,9308926 0,9268064 0,9448734 0,9503742 0,9474946 0,9449461 0,9429596 0,9376332 0,929268 0,9110155 0,8876197 0,9415746 0,7710859 0,8084367 0,8337211 0,8440508 0,8426417 0,8442565 0,838834 0,8544928 0,7557777 0,7213309 0,7192937 0,7560216 0,8072574 0,829661 0,8333514 0,8139619 0,809413 0,8133609 0,8501422 0,889667 0,928112 0,8707675 0,8456306 0,8619971 0,8910187 0,889625 0,901906 0,908838 0,8983258 0,8568203 0,8722368 0,9119362 0,8208386 0,8734969 0,9181184 0,9402831 0,9534273 0,9572853 0,8862276 0,8713422 0,8710365 0,8700386 0,8803781 0,8836061 0,8816379 0,8514192 0,851797 0,8404344 0,8435318 0,8515515 0,8462281 0,8723077 0,8853694 0,89227 0,898753 0,8962329 0,8922054 0,8851712 
0,9409461 0,9153295 0,917195 0,8752459 0,8629328 0,8724632 0,8381055 0,8509869 0,8684762 0,8331439 0,8184414 0,8256398 0,8403263 0,8495733 0,8533635 0,8471115 0,8661379 0,8772033 0,8781892 0,8146452 0,8273791 0,8200952 0,8213109 0,865456 0,8373806 0,8912199 0,896964 0,8898549 0,8912462 0,8852468 0,8703272 0,8376915 0,8185223 0,8656303 0,8577892 0,8173696 0,8128207 0,8636492 0,8825052 0,8679209 0,861462 0,8640196 0,857107 0,8320456 0,8352046 0,8803825 0,8791219 0,8801694 0,8732268 0,867768 0,8551568 0,8344236 0,8076015 0,7750937 0,7278153 0,7662272 0,7871453 0,8156089 0,9861028 0,9900134 0,9693215 0,9378742 0,9183593 0,9242899 0,9201468 0,8572457 0,882036 0,9159688 0,9301784 0,943803 0,9534997 0,9587377 0,9616032 0,9596795 0,9595149 0,9569911 0,9584996 0,9616585 0,9637105 0,9629864 0,9637873 0,9648105 0,96481 0,9638026 0,963438 0,9631246 0,9603502 0,9553132 0,9381289 0,9181762 0,9356747 0,9584025 0,9569069 0,9549103 0,9416972 0,9194099 0,9068278 0,8992708 0,8940275 0,8719905 0,8347054 0,933355 0,7732491 0,8103971 0,8318813 0,8453076 0,8511057 0,8555032 0,8600486 0,8641126 0,7808707 0,7704843 0,7875534 0,8199937 0,8295791 0,8208202 0,8388617 0,832889 0,8121098 0,8206582 0,8534197 0,7924299 0,8693139 0,9346164 0,8300152 0,8390892 0,8677212 0,8896159 0,9121785 0,9019587 0,9044474 0,866721 0,8281929 0,8880649 0,9193653 0,8679321 0,9190211 0,9415694 0,9470248 0,9488089 0,8986837 0,8859209 0,8862522 0,8913721 0,897537 0,8831586 0,8448265 0,8494172 0,8166902 0,8248109 0,8224304 0,836392 0,8665881 0,8903985 0,8916306 0,897987 0,900088 0,8926735 0,8738861 0,8806185 
0,929711 0,9056036 0,8858148 0,8596286 0,8297644 0,9044172 0,8513296 0,8583956 0,8688551 0,8233649 0,8454989 0,8474016 0,8263803 0,8110049 0,8333613 0,8031664 0,8430421 0,8795913 0,8714546 0,8463638 0,8387245 0,8301943 0,8033674 0,8551058 0,8840366 0,9060856 0,9131449 0,9077796 0,9001111 0,8919914 0,8790779 0,8582904 0,8315205 0,8280617 0,8413191 0,8134617 0,8298991 0,8483272 0,8575824 0,8827034 0,8809923 0,8729934 0,8761396 0,8712728 0,8699455 0,879509 0,8589512 0,8463763 0,8355871 0,8456472 0,8375952 0,8121469 0,7716305 0,7375498 0,7499659 0,754765 0,8080367 0,9433736 0,9947788 0,9938342 0,9890617 0,9722492 0,9355282 0,9277855 0,9120759 0,8874783 0,9019784 0,9151464 0,9239542 0,9418922 0,9523811 0,9585487 0,9584049 0,9580063 0,9601651 0,9602911 0,9618083 0,9630427 0,964181 0,9640432 0,9653286 0,9649356 0,9645852 0,9628588 0,9612368 0,9600524 0,9612485 0,957081 0,9509052 0,9493754 0,9464663 0,9624787 0,9560847 0,9534732 0,9388355 0,8903871 0,8384887 0,8652347 0,9089978 0,9024606 0,889395 0,9259446 0,7736413 0,7941551 0,8182916 0,8329933 0,8502578 0,8588946 0,8657639 0,8759799 0,8279282 0,8238045 0,842201 0,8537952 0,8500794 0,8310231 0,8493018 0,8441181 0,8113356 0,8268641 0,8710775 0,8388037 0,8247514 0,8953827 0,8736938 0,8084037 0,8418339 0,9071788 0,8977425 0,7764542 0,7861918 0,8731687 0,8416035 0,8227101 0,9352783 0,8932106 0,9023489 0,9253324 0,9255838 0,9261795 0,9374329 0,9246818 0,919785 0,9158492 0,9176267 0,8807884 0,8652443 0,8635377 0,841223 0,8468947 0,8531124 0,8713706 0,8882848 0,89079 0,8935695 0,903837 0,9060539 0,898756 0,8938725 0,8808969 
0,9210376 0,8833377 0,8899431 0,8478433 0,8082248 0,904274 0,8826945 0,8679377 0,9132532 0,8620468 0,823363 0,847028 0,8675059 0,8256524 0,863421 0,8216846 0,7991191 0,8609314 0,8706112 0,8294145 0,841319 0,8437082 0,8333806 0,8160316 0,8186867 0,8419085 0,8588645 0,8670011 0,873257 0,8634804 0,8326138 0,8550134 0,8301753 0,8234872 0,8368554 0,8450467 0,8529076 0,8679513 0,8756731 0,8775929 0,8796005 0,8865787 0,8897284 0,8770914 0,8519441 0,8252344 0,8059574 0,7938675 0,8121734 0,8277459 0,8139 0,794696 0,7540541 0,7715161 0,7690939 0,8309702 0,9270861 0,9313372 0,9886192 0,9902788 0,9903826 0,9840003 0,9792515 0,9691265 0,8727856 0,835538 0,8558522 0,8937052 0,9132161 0,9385432 0,9524419 0,9578989 0,9587896 0,9606577 0,961937 0,9590005 0,9587122 0,9615473 0,9648713 0,9653358 0,9659373 0,9664116 0,9653851 0,9632529 0,9618211 0,959776 0,9602336 0,9584377 0,9578145 0,9539749 0,9527951 0,9616996 0,9479718 0,9455826 0,9046018 0,8188828 0,8734532 0,9417325 0,8696383 0,8283065 0,8547474 0,9645595 0,8014851 0,7816443 0,8197395 0,8340275 0,8337372 0,8590813 0,8637612 0,8727351 0,834107 0,8480507 0,8649127 0,8715207 0,867151 0,8490219 0,8556451 0,8498244 0,8283452 0,8345022 0,8730119 0,8742411 0,875862 0,8381103 0,8443404 0,8605912 0,8445438 0,9074835 0,8936099 0,8076727 0,809434 0,8550301 0,8596353 0,8485812 0,8439508 0,9476888 0,8646367 0,9121515 0,9300987 0,9222222 0,9303629 0,930688 0,9375617 0,9173304 0,9259692 0,8805885 0,8835455 0,8823851 0,8720296 0,8580831 0,8643941 0,8802933 0,8877915 0,8922821 0,9016823 0,9096252 0,9137753 0,8890802 0,9070132 0,899314 
0,9116055 0,8774281 0,8803056 0,8176168 0,8224456 0,9149947 0,9429111 0,9654984 0,9739409 0,906885 0,8196813 0,8388519 0,8859694 0,8986008 0,8942065 0,857495 0,801841 0,8456384 0,8721279 0,862291 0,8293122 0,8496906 0,8607152 0,8629873 0,8317945 0,8310964 0,8400006 0,8168999 0,8091535 0,7817139 0,7670326 0,7809386 0,7943497 0,798476 0,8142164 0,8191162 0,8171313 0,8263451 0,835445 0,8571376 0,864958 0,8619516 0,8267144 0,8108533 0,8122262 0,8765141 0,9116671 0,9020181 0,8920484 0,8999462 0,8537014 0,7958449 0,7803348 0,8059728 0,8677335 0,9715328 0,9218535 0,8415742 0,9123132 0,9760942 0,9758191 0,9609044 0,9088294 0,8615288 0,9123453 0,9299629 0,8424226 0,8326824 0,8777473 0,9330671 0,9499577 0,9529827 0,9574974 0,9614324 0,9625643 0,9606534 0,9597684 0,9604104 0,9644288 0,9662292 0,9673995 0,9671628 0,9663745 0,9642599 0,9627538 0,961678 0,9590255 0,9566495 0,9496943 0,9407787 0,9517602 0,9597985 0,9493014 0,9339831 0,8662761 0,8916308 0,9616004 0,8652029 0,8587078 0,8105649 0,8163818 0,9258293 0,8981249 0,8278208 0,8443387 0,8182034 0,7940971 0,8370364 0,8540287 0,8675566 0,8692523 0,8701102 0,8776643 0,8835357 0,8816992 0,8759333 0,8656983 0,8493365 0,8282362 0,8229007 0,8819196 0,8976133 0,8824332 0,8643078 0,8521025 0,8375732 0,8222227 0,8454422 0,8622106 0,8452029 0,8531381 0,8359745 0,8382028 0,8584077 0,8244683 0,9735288 0,8929511 0,8796183 0,8953758 0,9080513 0,9021308 0,927986 0,9126534 0,8943548 0,8872278 0,8730386 0,8819092 0,882055 0,8822796 0,8602623 0,873673 0,891715 0,9008591 0,9062861 0,9042905 0,9148196 0,9111779 0,8417163 0,8515674 0,844541 
0,9087833 0,8793601 0,8602288 0,815106 0,8070362 0,9049519 0,9831043 0,9357947 0,9222357 0,9161537 0,8897088 0,8970662 0,9190225 0,9178272 0,8914036 0,8705894 0,8394619 0,8397924 0,862391 0,8609204 0,8352225 0,8405378 0,8575546 0,8652589 0,8514759 0,8377529 0,8551225 0,8367068 0,8265703 0,8303621 0,8283985 0,8269837 0,8360736 0,8482143 0,8567909 0,8610591 0,8528894 0,8378036 0,8193871 0,8163319 0,8135272 0,8139336 0,7694706 0,8884005 0,9310241 0,8864233 0,8362483 0,8050802 0,7416529 0,7284087 0,7821698 0,8576564 0,8084849 0,8072972 0,9701257 0,9426783 0,917623 0,8545618 0,822608 0,9440022 0,915963 0,9315083 0,907532 0,9167291 0,890511 0,9169561 0,9497567 0,9383854 0,8567474 0,9032939 0,9427862 0,9529362 0,9581093 0,9612318 0,9615817 0,9617887 0,9614361 0,9619937 0,9619792 0,9655588 0,9660921 0,9659932 0,9654675 0,9645585 0,9629151 0,9616566 0,9597739 0,9586546 0,9489777 0,9448965 0,9558635 0,9555218 0,9487976 0,9200208 0,8673162 0,8557872 0,859374 0,863978 0,8695195 0,8091995 0,8028595 0,8373361 0,9695703 0,8580115 0,8419872 0,7949253 0,7988546 0,8224874 0,8311762 0,8563068 0,8767139 0,8762515 0,8861756 0,8917537 0,8919045 0,8872707 0,8752226 0,8574679 0,8376914 0,8240837 0,8796164 0,9249965 0,8858885 0,8937021 0,8947105 0,8692475 0,8514618 0,8508626 0,8680668 0,8652177 0,8783142 0,8612707 0,8555687 0,839406 0,882826 0,9801012 0,915006 0,9103628 0,8842433 0,9032838 0,9143369 0,9024227 0,8898464 0,8782217 0,8785502 0,8932287 0,8646954 0,8707119 0,8838964 0,8798323 0,866751 0,8995676 0,9056921 0,9061215 0,9122704 0,9189681 0,8810005 0,8384504 0,8724315 0,8815326 
0,9197818 0,8697442 0,8674636 0,809308 0,8300598 0,9444253 0,9352434 0,8752852 0,8700366 0,8785239 0,8980333 0,9132151 0,9227598 0,920989 0,8905529 0,8733652 0,8676991 0,854932 0,8330973 0,8519779 0,8432983 0,8523166 0,8540562 0,8632545 0,86193 0,8498197 0,8353841 0,841271 0,8521727 0,8553321 0,8548089 0,8565563 0,8600661 0,8637516 0,8715431 0,8741201 0,8720311 0,8677331 0,8499143 0,8095179 0,8041795 0,8119787 0,8289118 0,8994245 0,9201987 0,8922043 0,8724551 0,8558578 0,815051 0,7616277 0,7023259 0,8393736 0,8887296 0,9339264 0,9389158 0,9147752 0,918616 0,8794712 0,7798213 0,8649462 0,8371549 0,8848568 0,901941 0,9349165 0,9427584 0,9247358 0,9011087 0,9037819 0,9037073 0,8830181 0,9360906 0,9558933 0,9612755 0,9625823 0,9622206 0,9617577 0,9608867 0,956282 0,9562405 0,9632472 0,9656081 0,9655688 0,9652035 0,9643584 0,9640781 0,9612557 0,9607528 0,9608333 0,9584593 0,9591916 0,9580414 0,9540515 0,9468 0,919912 0,8702776 0,9068772 0,9089787 0,9087527 0,8777907 0,7962556 0,8215839 0,8829039 0,9743788 0,8003274 0,7840471 0,7816024 0,778581 0,8116038 0,8274179 0,8276135 0,8608543 0,8777736 0,8907171 0,899296 0,8985891 0,8908758 0,8872253 0,8708286 0,8421698 0,8272491 0,8385266 0,9511208 0,8749994 0,8677163 0,8918049 0,8853587 0,8853321 0,8690853 0,8737846 0,8769847 0,88315 0,859171 0,8586925 0,8486492 0,9405245 0,9290314 0,8586614 0,9277267 0,8960786 0,8914457 0,8939153 0,8993524 0,8946638 0,9033336 0,9090344 0,894872 0,8594747 0,868099 0,8861105 0,8840852 0,8793638 0,9025094 0,9089958 0,9107238 0,9134024 0,9181448 0,8943105 0,8931426 0,8927164 0,9170357 
0,9282906 0,8856476 0,8603542 0,8384125 0,8360218 0,9719398 0,8884417 0,8782022 0,8742968 0,8765456 0,8978012 0,9043966 0,9105737 0,9112085 0,8837109 0,8731331 0,8745134 0,8886724 0,8439375 0,8397422 0,8412247 0,8437203 0,8482653 0,8541228 0,8547412 0,8553005 0,8526823 0,852405 0,8512319 0,8502635 0,8511159 0,846759 0,8455558 0,8463728 0,8498694 0,8595049 0,8710063 0,8738416 0,8677117 0,851715 0,8197041 0,757809 0,7785686 0,8409892 0,8909355 0,9114372 0,8925248 0,8563262 0,8106274 0,7621241 0,7193392 0,7324352 0,8314084 0,885535 0,9228888 0,8726313 0,8963732 0,8964537 0,8639801 0,8504272 0,8716059 0,8845035 0,9283633 0,9346058 0,9397444 0,9472744 0,9431925 0,9306771 0,9332187 0,9371244 0,9459345 0,9576616 0,9623309 0,9634727 0,9629812 0,9612274 0,95597 0,9376729 0,9355581 0,9541415 0,965044 0,9654212 0,9651269 0,9646476 0,9635125 0,9599537 0,9599131 0,9609191 0,9612585 0,9585842 0,9559447 0,9542907 0,9427619 0,9267719 0,902689 0,9286906 0,9256747 0,9109583 0,8754163 0,8064715 0,8020612 0,8337736 0,9830696 0,9102275 0,8663808 0,8755586 0,8852658 0,9136082 0,8179708 0,7887729 0,8386943 0,8741348 0,8899568 0,9040854 0,9034083 0,8965123 0,8968126 0,8885644 0,8625678 0,8252947 0,8282865 0,9418168 0,8718002 0,85144 0,8927867 0,8894943 0,8655543 0,8413244 0,860557 0,8623559 0,8557697 0,8252308 0,886463 0,8494195 0,954542 0,8612371 0,8698713 0,876473 0,8311783 0,8337135 0,8637043 0,9034394 0,9225066 0,9124712 0,9020809 0,864265 0,8698865 0,8772614 0,887776 0,8779866 0,8906171 0,9045728 0,9059747 0,8945792 0,9088392 0,9066944 0,9117742 0,9245436 0,9048315 0,9210591 
0,9103408 0,9099285 0,8633709 0,8665516 0,8390756 0,964372 0,8254877 0,8802769 0,8880676 0,8691118 0,8735166 0,8925527 0,8930115 0,9008617 0,905162 0,8809415 0,8633044 0,8763259 0,8658825 0,8323405 0,8332729 0,8313643 0,8428414 0,8515072 0,8584018 0,854893 0,8462381 0,8404417 0,8390623 0,8294865 0,8198634 0,7978127 0,791321 0,7923997 0,8068832 0,7824153 0,8159603 0,8581278 0,8654099 0,8650299 0,8452211 0,7824972 0,7215394 0,8152536 0,8524802 0,8693153 0,8891222 0,8333099 0,7568525 0,7827998 0,7504443 0,8442566 0,8623549 0,7346011 0,944278 0,8898867 0,880406 0,9106097 0,9101615 0,9013873 0,8985775 0,8994052 0,9178672 0,9489784 0,9473646 0,9421921 0,9445015 0,9483328 0,9595815 0,9588364 0,9575382 0,9618626 0,9633942 0,9642634 0,9617513 0,9549058 0,9552389 0,9541216 0,9465418 0,9497281 0,9633699 0,9646169 0,9645717 0,9640335 0,9628518 0,9611531 0,9586669 0,9573591 0,9616607 0,958288 0,9561576 0,9538299 0,9473473 0,9425682 0,9357653 0,9288979 0,9130102 0,8901946 0,8496463 0,8124193 0,8502902 0,9222314 0,9114255 0,9407238 0,8739346 0,8260611 0,7901142 0,8314781 0,8749043 0,8830122 0,866071 0,8537794 0,8840425 0,9045931 0,9106645 0,9045402 0,902834 0,8954427 0,8767802 0,8580112 0,8290842 0,912984 0,9525095 0,8911219 0,8892764 0,8851206 0,8489263 0,8391161 0,8669498 0,8666987 0,8467764 0,8309871 0,9068341 0,8937553 0,9106297 0,8532125 0,8418168 0,8612313 0,8542498 0,871345 0,9072912 0,9227829 0,9316089 0,9296416 0,8790173 0,8520509 0,8675827 0,8839657 0,8887877 0,8900352 0,9025362 0,908985 0,9059643 0,8943058 0,9080812 0,9105055 0,9160749 0,8793931 0,8798866 0,8587348 
0,9076805 0,8818005 0,884055 0,8709386 0,8367434 0,9389561 0,8382077 0,8175389 0,8469319 0,840718 0,8398197 0,8561969 0,8333898 0,8509012 0,8761868 0,8796329 0,8422073 0,8563914 0,8554128 0,8303694 0,8115526 0,8207918 0,8419665 0,8491045 0,8530101 0,8444147 0,8378096 0,8280859 0,8189413 0,8131612 0,8161433 0,814357 0,8077881 0,7585782 0,7929306 0,7773789 0,7677963 0,8172271 0,8453615 0,8576739 0,8571636 0,8397855 0,7801135 0,7600687 0,8413849 0,869508 0,8735009 0,8140162 0,7543076 0,8343015 0,8625529 0,9391699 0,8473584 0,7984239 0,8221328 0,9613988 0,8697462 0,9108229 0,9222704 0,923649 0,9270475 0,9329376 0,9339234 0,9293928 0,9463764 0,9490614 0,9387004 0,9445626 0,9547964 0,9544345 0,9549057 0,9623069 0,9663084 0,9655331 0,9583163 0,9496611 0,9508793 0,9566626 0,9548926 0,9456242 0,9577305 0,9633638 0,9634969 0,9624664 0,9605416 0,9592136 0,9554073 0,9504346 0,9588258 0,9567939 0,9560104 0,9519892 0,9408383 0,9174745 0,9373021 0,9248086 0,8847381 0,8506635 0,8262789 0,8945436 0,950316 0,8879818 0,8592902 0,9250276 0,884167 0,8184547 0,7967081 0,8136837 0,8129281 0,8539579 0,8989947 0,8862932 0,8916433 0,9094713 0,9172062 0,915379 0,9080962 0,8944167 0,9029279 0,8892965 0,8420311 0,854575 0,9191163 0,8589839 0,8591664 0,8816909 0,8536866 0,8355517 0,8666329 0,867373 0,871227 0,8871971 0,9183418 0,9272956 0,919635 0,892019 0,8770138 0,8835948 0,8815364 0,9036249 0,9157751 0,9311856 0,9346293 0,9012074 0,9024098 0,8843248 0,8886278 0,899389 0,8999834 0,8923055 0,9007786 0,9017774 0,8538365 0,889716 0,9106476 0,9099805 0,8959209 0,8672305 0,8360524 0,8479578 
0,9025713 0,8665646 0,857239 0,8592046 0,821 0,8617632 0,9271808 0,8193411 0,8294852 0,8154002 0,814406 0,8658664 0,8292776 0,8146407 0,8459411 0,8731057 0,8836589 0,8806886 0,8704365 0,8584198 0,8517947 0,8322793 0,836207 0,8310474 0,8374305 0,8342421 0,8236392 0,7795783 0,7469478 0,7952596 0,8314763 0,8356183 0,8038895 0,7943695 0,865005 0,8889311 0,8656459 0,7823363 0,7991111 0,846922 0,8634689 0,8532397 0,841065 0,7987066 0,7749832 0,8368187 0,8563001 0,8104219 0,7906827 0,8187724 0,88977 0,9112402 0,8834435 0,8549559 0,7872574 0,921543 0,9403882 0,9173464 0,9320996 0,9366817 0,9382349 0,9451837 0,9480027 0,9509476 0,9541904 0,9471577 0,9429013 0,9497772 0,9542182 0,9441437 0,9415647 0,926253 0,9481049 0,9290099 0,9322821 0,9479063 0,9539765 0,9562336 0,9555327 0,9316338 0,9436283 0,9617444 0,9623052 0,9583505 0,9569268 0,954588 0,9481503 0,9393051 0,9363683 0,9577728 0,9543955 0,9441146 0,9197811 0,9121168 0,92278 0,9150422 0,9140126 0,8802918 0,897042 0,9152093 0,8451854 0,8348007 0,8541231 0,8742814 0,9545885 0,8836662 0,8997073 0,9036447 0,8728659 0,863967 0,8537284 0,8929247 0,9086312 0,9155305 0,9219963 0,920217 0,9175798 0,906833 0,9134637 0,8806033 0,8838745 0,8690445 0,9157853 0,9037215 0,8748463 0,8817816 0,8428063 0,8284504 0,8662786 0,8817334 0,9002365 0,8612499 0,8910792 0,9362456 0,9312001 0,8931875 0,8893005 0,9025803 0,8957899 0,9188913 0,92832 0,9314297 0,9117175 0,8781037 0,8913295 0,8793176 0,8900484 0,8982637 0,8929621 0,8672172 0,894736 0,8939406 0,875064 0,8937269 0,8927886 0,8914152 0,8506155 0,8135458 0,818011 0,8647957 
0,8803006 0,8788913 0,8804755 0,8668779 0,8355728 0,8300179 0,9662323 0,9614273 0,9596115 0,9520001 0,9266375 0,9417832 0,9292272 0,9068118 0,8959072 0,9298695 0,9271629 0,9038081 0,893036 0,8726212 0,8738847 0,8514417 0,8394066 0,8153147 0,8255777 0,8153136 0,7875414 0,738539 0,8184029 0,8167911 0,8267596 0,8241854 0,7962264 0,8227194 0,8727733 0,9034523 0,9029381 0,8025855 0,75468 0,8277841 0,8517874 0,8415362 0,8472605 0,8599888 0,8267351 0,8030046 0,8073243 0,8137467 0,7701036 0,8308816 0,8792607 0,9357272 0,9124439 0,8852762 0,8172779 0,8149856 0,9419292 0,9553174 0,9312685 0,9410273 0,9461789 0,9517938 0,9532764 0,9547485 0,9533068 0,955285 0,9553168 0,9521893 0,9205064 0,901858 0,8757979 0,8360221 0,8778872 0,882815 0,8899469 0,9435408 0,9589103 0,956633 0,9552228 0,9188988 0,9152061 0,9617871 0,9591901 0,9533305 0,9484744 0,9352964 0,936219 0,9173486 0,9339021 0,9503745 0,9466001 0,948248 0,9417918 0,9329842 0,9323114 0,924017 0,9024576 0,839422 0,979351 0,8419965 0,881133 0,8789492 0,8478457 0,8259159 0,9000325 0,8395644 0,8770829 0,9035283 0,9236621 0,9319024 0,9218538 0,8481576 0,8896866 0,9134769 0,9154828 0,9211534 0,9225833 0,9179276 0,9177002 0,8996422 0,894939 0,8976876 0,9005768 0,9179319 0,9153673 0,9120006 0,8652279 0,8418608 0,8691949 0,8890334 0,8945249 0,8614807 0,8674005 0,9443907 0,9338268 0,8755275 0,8839887 0,9053665 0,9174218 0,9318025 0,9385185 0,92198 0,8871577 0,8806549 0,8987988 0,888455 0,898275 0,9014323 0,8969584 0,8949671 0,9035069 0,8993031 0,8861104 0,8864323 0,8894191 0,8492817 0,8197261 0,8256674 0,7902029 0,8454285 
0,8911421 0,9016352 0,8690358 0,8622392 0,8404796 0,8160563 0,9738518 0,8715333 0,849928 0,8644365 0,8652942 0,8918642 0,8537366 0,8611466 0,8890533 0,9120028 0,9132439 0,9178699 0,9143375 0,8881221 0,8804818 0,8713108 0,8423475 0,8238332 0,8140568 0,8117917 0,7755785 0,8268107 0,8513926 0,8362777 0,8113086 0,8046658 0,7864751 0,8229307 0,8935434 0,9187333 0,9271431 0,900951 0,8777019 0,8404398 0,8001975 0,8208998 0,8675291 0,8801149 0,863772 0,8204957 0,8102895 0,7669127 0,7723898 0,8406774 0,8916218 0,9149758 0,8909388 0,8922892 0,8638216 0,8359903 0,8139859 0,9657484 0,9069064 0,926789 0,9442441 0,9529908 0,9550915 0,9542586 0,9512362 0,9480352 0,9507307 0,9419743 0,8657669 0,8354529 0,8824639 0,9040604 0,9165215 0,923502 0,917112 0,8925894 0,8621507 0,8907854 0,9402418 0,9274155 0,8511176 0,9447104 0,9553073 0,9482077 0,9383906 0,895514 0,9061395 0,9290253 0,9590328 0,9634102 0,9582197 0,950178 0,9288651 0,9157997 0,9088444 0,8804251 0,8375208 0,8441557 0,9728562 0,8294352 0,8690217 0,8818375 0,8693483 0,84374 0,9030433 0,8765917 0,8728896 0,9046508 0,9288879 0,9250613 0,906276 0,8605155 0,8647225 0,9047006 0,9033762 0,9168683 0,9188756 0,9212117 0,9195111 0,9001647 0,8843478 0,9220146 0,9294063 0,923318 0,9271214 0,9142997 0,8940437 0,8611547 0,8669684 0,8880624 0,8962868 0,8692901 0,8513404 0,9358408 0,9118209 0,8859902 0,9081482 0,9201604 0,9277726 0,937245 0,9321525 0,8985097 0,8844489 0,9090294 0,9119745 0,8986173 0,9060769 0,9022442 0,9046174 0,9081498 0,903925 0,8606285 0,8737296 0,8833198 0,8731022 0,850176 0,8370316 0,8115995 0,7562279 0,82781 
0,9215882 0,8608783 0,8574091 0,8286243 0,801223 0,7911714 0,9320416 0,8493745 0,8683599 0,8858436 0,8931281 0,9021472 0,8974449 0,9012922 0,8966379 0,9008151 0,908662 0,8974813 0,902973 0,9033114 0,8979799 0,8768874 0,8458335 0,8318258 0,8210487 0,7830985 0,8056989 0,8328292 0,8359673 0,834638 0,8040301 0,784246 0,7708243 0,7864088 0,9541343 0,9087541 0,8730429 0,8808064 0,8678732 0,8574264 0,808648 0,821585 0,893653 0,8933653 0,8760145 0,8463389 0,8030793 0,7538192 0,7212021 0,858548 0,9116603 0,8601024 0,8523022 0,8906711 0,8926939 0,8649342 0,8171603 0,8195111 0,9286699 0,9072679 0,9348127 0,9466479 0,9507657 0,9487712 0,9368834 0,9350237 0,9438075 0,9174651 0,8809854 0,8826455 0,9171101 0,9276224 0,9302785 0,9302405 0,9270107 0,915103 0,8974724 0,8909621 0,9202473 0,9349061 0,8782433 0,8344307 0,9519208 0,9396772 0,9186752 0,8518509 0,8204565 0,923393 0,9449021 0,9009176 0,8810546 0,9233735 0,9223587 0,914368 0,9067943 0,8635468 0,8077732 0,7680821 0,8933846 0,8833777 0,8330963 0,8551764 0,8671891 0,8735546 0,8733221 0,937961 0,8731958 0,8975979 0,9279263 0,9291887 0,903541 0,904609 0,9103022 0,8627913 0,9003744 0,9085184 0,9156843 0,9219232 0,9141891 0,9055727 0,8811296 0,8867853 0,9416789 0,9487693 0,9482651 0,9405331 0,9129946 0,8516098 0,8705839 0,8905336 0,9042574 0,8934462 0,8586347 0,9264135 0,9251596 0,9225355 0,9400526 0,9386609 0,9421126 0,9400184 0,9040431 0,9028615 0,912063 0,9197069 0,9215152 0,9053635 0,9125243 0,904061 0,9129415 0,907631 0,834362 0,8280917 0,8770127 0,8714871 0,8660376 0,8502333 0,82938 0,8233662 0,759215 0,8267823 
0,9418377 0,8191057 0,8436046 0,8076813 0,7877355 0,8162559 0,9403222 0,8701504 0,8542095 0,8802677 0,8947061 0,9021078 0,8943092 0,875418 0,8698622 0,8802317 0,8840665 0,8965647 0,9097412 0,9086319 0,9084462 0,8408576 0,8531806 0,840673 0,8184698 0,7981364 0,8381642 0,818278 0,8226955 0,8095189 0,7683424 0,7738509 0,7678149 0,8696873 0,9381806 0,9072965 0,8611691 0,8483724 0,8344648 0,8518082 0,8807238 0,8426352 0,9022867 0,9006198 0,8906191 0,8690268 0,8250766 0,7618507 0,7412878 0,7814696 0,9138409 0,8675672 0,8768367 0,8960447 0,8970767 0,8862619 0,8589169 0,7828438 0,9585692 0,8764013 0,9176724 0,9331324 0,9411944 0,942732 0,9439147 0,9433253 0,9408764 0,9315785 0,9173554 0,9211994 0,9302808 0,9342799 0,9361851 0,9370289 0,9356046 0,9304624 0,9225121 0,92185 0,9212868 0,9267788 0,9062873 0,8292087 0,8316129 0,9543452 0,9187405 0,8546838 0,7671375 0,8879997 0,9455899 0,8924202 0,8936377 0,9094734 0,9163331 0,9176819 0,8944569 0,8342549 0,7921391 0,7776602 0,9196013 0,9576698 0,8694781 0,8758778 0,8218233 0,861886 0,8970516 0,9206433 0,9102963 0,8738922 0,900553 0,9269685 0,8992382 0,9251273 0,9144127 0,8887666 0,8780828 0,8900553 0,9034098 0,9156903 0,9142376 0,9089518 0,882264 0,8766426 0,9264101 0,9268661 0,9225696 0,926417 0,9206704 0,890272 0,8862675 0,9004167 0,9083557 0,9183525 0,9026163 0,9184426 0,9508303 0,9446366 0,9472294 0,9441309 0,943451 0,9431456 0,9166765 0,9174541 0,9189954 0,9266738 0,9385812 0,8910447 0,9003806 0,9041079 0,9137901 0,8631153 0,8010866 0,8341419 0,8571318 0,8612021 0,8581281 0,838545 0,8167009 0,8190071 0,7705101 0,8398 
0,932611 0,8074781 0,8550789 0,8327717 0,8335701 0,8254895 0,9585769 0,8540615 0,8189331 0,8448017 0,8686913 0,8617118 0,8580163 0,8851442 0,8944141 0,8975874 0,8893851 0,9020302 0,9090572 0,9111332 0,8866668 0,8611653 0,8705081 0,8575848 0,8418496 0,8293365 0,8376344 0,7894359 0,7945791 0,7934455 0,7754849 0,9050558 0,830161 0,8896277 0,9545956 0,9050995 0,8774015 0,8471292 0,8563153 0,8946956 0,9452602 0,9117585 0,928559 0,9156085 0,9006571 0,8790836 0,8356727 0,7589349 0,7212396 0,8252236 0,9410783 0,9162902 0,9128239 0,9089856 0,9010141 0,8989167 0,8759406 0,7978426 0,9428445 0,8581077 0,8908361 0,923739 0,9332515 0,9403598 0,9427406 0,9434814 0,9430428 0,9404173 0,9370446 0,9316672 0,9346008 0,9355348 0,9361308 0,936794 0,9369085 0,9321431 0,9269911 0,9245936 0,929753 0,9237809 0,9157283 0,8784353 0,8291648 0,8516537 0,9216015 0,853679 0,7825482 0,8816558 0,9353415 0,8465161 0,9027523 0,9131912 0,9174823 0,9007866 0,8678988 0,856277 0,8462319 0,8421338 0,9482256 0,9254088 0,9031057 0,915621 0,8428309 0,842269 0,9043609 0,9224153 0,9450082 0,8744282 0,9048055 0,9256725 0,9215219 0,9146309 0,8964616 0,8837073 0,8545489 0,8708347 0,8978291 0,907968 0,9156978 0,9143732 0,8941849 0,8632135 0,9107484 0,9393035 0,9231157 0,9264333 0,9210262 0,9268314 0,9186757 0,9094247 0,9109126 0,9203938 0,9113318 0,9260395 0,9383389 0,9389774 0,9487105 0,949522 0,9459016 0,9491166 0,931484 0,9265189 0,930038 0,9442655 0,9242483 0,8944767 0,894776 0,8920845 0,9021962 0,8694011 0,8576163 0,8654844 0,8574227 0,8596796 0,8468114 0,8290244 0,8051423 0,8057941 0,7686838 0,8295364 
0,9224455 0,8566797 0,892249 0,8920115 0,8644969 0,7958723 0,9694909 0,920751 0,8604201 0,8000168 0,8532223 0,8694267 0,8898683 0,8901093 0,8768212 0,8933942 0,8866502 0,8998662 0,8948535 0,9092622 0,885177 0,8722661 0,8719765 0,8554551 0,8668897 0,8566051 0,8438849 0,7956462 0,7793714 0,7814453 0,8454428 0,9512687 0,9250968 0,9520801 0,9522638 0,9151788 0,9261532 0,9087692 0,9119378 0,9439539 0,9392127 0,9354575 0,9397284 0,9250396 0,9076734 0,883638 0,8376096 0,7566168 0,6942475 0,844504 0,9448422 0,9330858 0,9221135 0,9132286 0,9016199 0,8983898 0,8730981 0,8088624 0,9251937 0,8894891 0,8943693 0,9223413 0,9256928 0,933799 0,9384137 0,9377974 0,9391912 0,9379761 0,9371878 0,9354681 0,9352962 0,9355528 0,9344631 0,9357866 0,9348328 0,9336509 0,9281555 0,9164044 0,916136 0,9266288 0,9168174 0,8987023 0,8706626 0,8515612 0,8935077 0,8586828 0,8086962 0,8737526 0,8899329 0,8443567 0,9010503 0,9169912 0,9260659 0,8775278 0,8693504 0,8685021 0,8373564 0,8207581 0,9617777 0,8097817 0,8404306 0,9035168 0,8343167 0,8605018 0,9202235 0,9272068 0,9474784 0,9180858 0,9139057 0,9085015 0,9149722 0,8928922 0,8934959 0,9264928 0,8815341 0,8521106 0,8933243 0,8998824 0,9126346 0,9122174 0,8974545 0,8757358 0,9045104 0,918892 0,9105933 0,9204674 0,9264758 0,9431427 0,9445432 0,9261756 0,9210691 0,9015548 0,8838832 0,9195141 0,9429098 0,9383179 0,9420938 0,9433604 0,9504259 0,9539015 0,9450936 0,9311774 0,940349 0,943376 0,9379629 0,9160618 0,8734174 0,8954639 0,9088275 0,900759 0,8838117 0,8815762 0,8627629 0,8578189 0,8405569 0,8318632 0,8100671 0,7865073 0,7730617 0,8323253 
0,93489 0,9096256 0,9103345 0,8875993 0,8524994 0,7938621 0,970293 0,8410083 0,8518283 0,8139124 0,8512666 0,8540334 0,8818398 0,8754763 0,9112963 0,9259743 0,9146048 0,9194144 0,9021419 0,9088818 0,8671591 0,8572261 0,8608384 0,8676503 0,8679112 0,8502177 0,8340991 0,7634134 0,8139418 0,8594946 0,9578792 0,9079404 0,9310615 0,949501 0,9489057 0,962436 0,9473553 0,9641671 0,9638819 0,9521264 0,9361139 0,9471443 0,9416386 0,927627 0,909568 0,8863592 0,8379831 0,7381423 0,689222 0,9553231 0,8919895 0,9254263 0,9211366 0,9146851 0,9043354 0,8987389 0,8812796 0,8236342 0,9179232 0,9036722 0,9160338 0,9157194 0,9054719 0,917159 0,92499 0,9283457 0,9296092 0,9297286 0,9283417 0,9287544 0,9304143 0,9305006 0,9294375 0,9287295 0,9287447 0,9353379 0,9374363 0,9338164 0,9102268 0,9147066 0,9218276 0,9058169 0,8880185 0,8695247 0,8467752 0,8389686 0,870855 0,9228717 0,8975055 0,8901452 0,9022087 0,9073781 0,9267234 0,9148821 0,9101815 0,8650243 0,8486761 0,852866 0,9767566 0,8296806 0,8363743 0,8706068 0,8439806 0,8947542 0,9291721 0,9422437 0,953964 0,9307039 0,9374869 0,9548104 0,9233592 0,9398909 0,9641114 0,9616788 0,883152 0,8596205 0,8962244 0,9102688 0,9027172 0,9116207 0,8997443 0,8825644 0,8897176 0,9358288 0,9357704 0,9307851 0,9218459 0,9094996 0,885727 0,8962998 0,9136298 0,8990452 0,8879857 0,8926301 0,9411461 0,9298227 0,9343261 0,9472767 0,9512635 0,9469408 0,9282151 0,9288301 0,9369848 0,9510099 0,9252489 0,9006398 0,8919938 0,9023249 0,912099 0,9058374 0,8664761 0,8747993 0,8593572 0,8541983 0,8320974 0,8178341 0,8297766 0,814456 0,8100872 0,8621286 
0,9438129 0,9302505 0,913379 0,880302 0,8444021 0,8433651 0,9612262 0,8749835 0,8737122 0,8882478 0,879338 0,9158511 0,904684 0,9170789 0,9279955 0,9232899 0,9186169 0,9197351 0,8915059 0,8963133 0,8406852 0,8498026 0,8455844 0,8579894 0,8650631 0,8465713 0,7963043 0,7236317 0,7800633 0,9681753 0,8730622 0,9215654 0,9534174 0,9582561 0,9713996 0,9725509 0,971423 0,9734167 0,9566462 0,9261632 0,9475763 0,9493443 0,9422207 0,9311908 0,9150735 0,889333 0,841785 0,7175155 0,7456154 0,9153266 0,8738003 0,9175145 0,9178961 0,9119951 0,9006991 0,8878914 0,9000599 0,8916398 0,8771373 0,9518182 0,916436 0,8928177 0,8596903 0,8862749 0,9032595 0,9104749 0,9122736 0,9134178 0,9126639 0,9151325 0,9181228 0,9165143 0,9139757 0,9063059 0,9071663 0,9185196 0,9303799 0,9389951 0,9397898 0,9153963 0,9150143 0,911717 0,8999901 0,8781626 0,8501535 0,8459985 0,9032425 0,9366671 0,9342492 0,9194323 0,910774 0,8841878 0,9148364 0,8852554 0,8854145 0,8497785 0,843942 0,8736725 0,9752068 0,8739829 0,8457827 0,8894244 0,8658195 0,9004017 0,9245765 0,9429935 0,9489373 0,9156916 0,9297167 0,9305327 0,9664075 0,968024 0,958798 0,9211577 0,8757945 0,8850735 0,904991 0,9201503 0,9033208 0,9210711 0,9025058 0,8856496 0,8871238 0,9029016 0,8885962 0,8817357 0,8524493 0,8505237 0,8738934 0,880508 0,9042554 0,8733671 0,8753115 0,8825617 0,9176541 0,9083863 0,9269565 0,9315571 0,9252799 0,9335026 0,8983986 0,9159646 0,9363256 0,9290644 0,8779101 0,9051664 0,8944921 0,877009 0,8958327 0,887257 0,8366618 0,8404302 0,8604358 0,8478596 0,8203388 0,8034772 0,8197454 0,8185925 0,8007392 0,8820382 
0,9475112 0,9289011 0,907586 0,8804002 0,8477216 0,8911768 0,9017406 0,8440006 0,9011146 0,9242836 0,9332428 0,9282394 0,9232813 0,9254109 0,9272069 0,9150816 0,9051885 0,9121542 0,9012473 0,8843756 0,8568159 0,8501869 0,8444241 0,8638032 0,8726397 0,8317134 0,8301689 0,8707937 0,9704086 0,9211571 0,9070133 0,9576023 0,969616 0,9694937 0,968847 0,9662607 0,9458988 0,9176552 0,9237148 0,9508908 0,9530439 0,950025 0,9439783 0,935676 0,9223021 0,9001778 0,8553048 0,7492048 0,8529407 0,872618 0,887 0,9150169 0,9100293 0,9012874 0,8788561 0,8140338 0,8768091 0,9102399 0,8793054 0,9053712 0,9286019 0,9163917 0,8930802 0,8777811 0,8713349 0,8785855 0,8760129 0,8814479 0,883012 0,8861161 0,8942302 0,890473 0,8724344 0,8467605 0,8369722 0,8652099 0,9057236 0,9227136 0,9228104 0,9109502 0,9072764 0,9126731 0,9018471 0,8890043 0,8628821 0,8951598 0,9090834 0,8865947 0,9443112 0,9334166 0,9215886 0,8769834 0,9230614 0,8893868 0,8834122 0,8520477 0,8376065 0,8576972 0,976935 0,9168355 0,872633 0,8914976 0,8886749 0,9120473 0,9247814 0,9315532 0,9156319 0,9356472 0,9457439 0,8975457 0,9012774 0,9477895 0,9215055 0,8990104 0,9125546 0,9260908 0,9214746 0,9147571 0,9040936 0,914056 0,8951845 0,8904451 0,8724629 0,8864517 0,8875637 0,8521762 0,8364659 0,8584273 0,8867303 0,8830538 0,8893698 0,8561826 0,8684241 0,8818929 0,9003231 0,8967934 0,899476 0,8946381 0,8950712 0,9294888 0,9013028 0,8887644 0,9176261 0,9102866 0,9120728 0,896442 0,8685036 0,87877 0,8900225 0,8603161 0,840317 0,8512716 0,8601274 0,846217 0,8252137 0,7861282 0,8124119 0,8265633 0,8163783 0,9069136 
0,952894 0,9314763 0,9099648 0,8828666 0,8235627 0,8912505 0,9244894 0,8703899 0,8984635 0,9160214 0,9244954 0,9246475 0,9237019 0,9237096 0,9238346 0,9150028 0,903143 0,906337 0,8950489 0,8757085 0,8389995 0,8333355 0,8229459 0,8331535 0,8651696 0,8339398 0,8131216 0,7940521 0,914261 0,9425921 0,9656137 0,9745859 0,9755807 0,9744453 0,9711518 0,965223 0,9580025 0,9494427 0,9493332 0,9528696 0,9517418 0,9473374 0,9443222 0,938382 0,9277538 0,9107277 0,8780347 0,8396673 0,8279667 0,8648632 0,9097372 0,9090714 0,8997436 0,8847251 0,8550985 0,8094494 0,8846475 0,9084873 0,874373 0,816263 0,92182 0,8518312 0,8639575 0,8625024 0,832095 0,8250234 0,8320169 0,8224717 0,8249543 0,8305243 0,8582563 0,8480412 0,8197299 0,883799 0,813327 0,7899455 0,8463565 0,8994298 0,9120097 0,913782 0,9116673 0,9101652 0,9007802 0,8985959 0,8856842 0,9123195 0,8956123 0,8864514 0,8904186 0,9359902 0,9316266 0,9021566 0,9298939 0,9022576 0,8925675 0,871726 0,848894 0,8718563 0,9813287 0,9244263 0,8674356 0,8792068 0,891448 0,9037393 0,9226131 0,9177824 0,9007871 0,8665559 0,8889029 0,889706 0,87625 0,9019636 0,9243009 0,8941871 0,8874661 0,8786857 0,9084772 0,8879344 0,8763072 0,8786404 0,878078 0,8703685 0,8429379 0,8844522 0,8756518 0,8747389 0,8702325 0,8771189 0,8855526 0,8895495 0,891211 0,875521 0,8827278 0,872611 0,86998 0,8522438 0,8623784 0,8691158 0,8540497 0,8755931 0,8584723 0,8926096 0,9197569 0,9074793 0,891255 0,8584695 0,861482 0,8794203 0,8747646 0,8540134 0,8583185 0,860359 0,8552059 0,8486561 0,8153571 0,7850173 0,8433273 0,8303347 0,8290877 0,9128939 
0,953273 0,9368794 0,9155463 0,8834271 0,7940384 0,9300536 0,9161329 0,8881373 0,9018128 0,9111845 0,9193918 0,9188148 0,9164238 0,9163489 0,9125889 0,9107993 0,8991849 0,8943614 0,8775644 0,8604753 0,8718911 0,8290067 0,8151156 0,8227292 0,8153829 0,8058191 0,7652012 0,7923278 0,9095643 0,9709811 0,9773215 0,9794383 0,9786245 0,9772656 0,9731913 0,9643301 0,9503193 0,9447489 0,9421332 0,9455382 0,9460738 0,9444442 0,9434939 0,9390167 0,9307013 0,9150352 0,8873519 0,8823773 0,9057467 0,9089442 0,9102938 0,9007833 0,8878821 0,8694026 0,835593 0,7796617 0,830689 0,8792071 0,8308942 0,7888575 0,9618827 0,8965178 0,9037597 0,9275792 0,9117646 0,7949821 0,7818248 0,7908041 0,7803541 0,7778493 0,8162214 0,8312216 0,8925037 0,9056764 0,898781 0,8547451 0,8381948 0,8808391 0,9012085 0,9110176 0,9011281 0,9075716 0,9024481 0,9012958 0,8979646 0,9116246 0,8788136 0,9214202 0,8943135 0,9159171 0,9353684 0,9334417 0,9240247 0,910224 0,8840339 0,8715912 0,8640395 0,9278348 0,9763602 0,8938112 0,901987 0,8672999 0,8984351 0,9140295 0,9293875 0,9244531 0,9068552 0,8895568 0,881539 0,8856853 0,8838003 0,8868409 0,9123108 0,8801739 0,8720641 0,900755 0,8628589 0,8364213 0,8358006 0,8602719 0,8738942 0,8772863 0,8570635 0,8439119 0,8545367 0,8675414 0,8673536 0,8743697 0,8792663 0,8855923 0,8880286 0,8895881 0,8686641 0,872084 0,8392994 0,8197328 0,8272909 0,822455 0,8050711 0,8516138 0,8734397 0,8998376 0,8924965 0,8606176 0,8763331 0,8734699 0,8805097 0,8794125 0,8656819 0,8643761 0,8669753 0,8595213 0,8558471 0,8429387 0,8078846 0,778669 0,8104047 0,8325262 0,8404783 0,9027529 
0,948265 0,9341757 0,9198627 0,8730021 0,8017362 0,9446869 0,8820776 0,8714557 0,8737305 0,9060259 0,9125078 0,9118263 0,9052891 0,8963175 0,8884594 0,9006178 0,889438 0,8796985 0,8594454 0,891898 0,8848968 0,8093953 0,8219246 0,8089408 0,8058026 0,8186809 0,8139507 0,8876977 0,9694101 0,9797356 0,9802464 0,9811799 0,9806753 0,979207 0,9765157 0,9719233 0,96036 0,9431857 0,9287059 0,9327661 0,9400309 0,9414234 0,9436699 0,938643 0,9298828 0,9147844 0,9025138 0,9136411 0,9103478 0,9032077 0,899304 0,8878374 0,8703971 0,8473298 0,799384 0,7723891 0,8207631 0,8376473 0,814818 0,9024563 0,9277617 0,8332636 0,8534516 0,835211 0,8602623 0,9507094 0,9461738 0,8976095 0,9056203 0,8717274 0,8583082 0,852247 0,8625685 0,8895439 0,8480129 0,8385797 0,8444592 0,8675542 0,8919993 0,8992136 0,8925006 0,9087351 0,9081323 0,9051873 0,9016414 0,9226831 0,9057637 0,9166719 0,9138707 0,8923046 0,9214556 0,9329872 0,9305254 0,9233015 0,8875911 0,8846986 0,900965 0,9492921 0,9561803 0,8941237 0,9127093 0,8806863 0,8980668 0,921371 0,9305673 0,931165 0,916321 0,8924101 0,9074985 0,8954697 0,886465 0,8473033 0,8893355 0,8815782 0,8895757 0,8496418 0,8275197 0,8451663 0,8550497 0,8663703 0,8673514 0,8687569 0,8831602 0,8632292 0,8675831 0,865531 0,8601295 0,8582421 0,8678419 0,8589075 0,8778365 0,8887942 0,8543519 0,8750203 0,8585006 0,8481368 0,8394433 0,8449083 0,841257 0,8430212 0,8767816 0,8946177 0,8696187 0,8706761 0,8960344 0,8935785 0,8790193 0,8710903 0,8563273 0,8615395 0,8725681 0,8559042 0,8538483 0,8319007 0,79807 0,8030102 0,8177402 0,8518739 0,9093581 0,9128888 
0,9483898 0,9384578 0,9162102 0,8651758 0,7776091 0,9313874 0,8688605 0,8242897 0,8578759 0,9010186 0,9000232 0,8976383 0,8883209 0,8428904 0,880003 0,8955525 0,8826091 0,8671814 0,8666948 0,9048051 0,8203089 0,8117109 0,8198378 0,8002218 0,8395604 0,89939 0,9607761 0,9662036 0,9800637 0,9804689 0,9807747 0,9826084 0,9824708 0,9808279 0,9796824 0,9775519 0,9752362 0,9672108 0,9550411 0,9470843 0,9452143 0,9437568 0,9424122 0,936697 0,9259134 0,9088228 0,907526 0,9027269 0,8946884 0,8899388 0,8858809 0,8720105 0,8528134 0,8267497 0,7802167 0,8013085 0,8309765 0,8626217 0,910882 0,9818642 0,8934632 0,8239605 0,8138052 0,8320222 0,8184714 0,7914704 0,7861242 0,8743024 0,9525899 0,8909998 0,8621256 0,8315793 0,9536042 0,9051533 0,8453747 0,8402639 0,8358738 0,8528593 0,887853 0,9027448 0,8938031 0,9005003 0,90885 0,9068341 0,8979819 0,9198619 0,9230118 0,9086012 0,9253988 0,8948444 0,9094335 0,9228544 0,9198915 0,9209229 0,9001059 0,9170952 0,8905155 0,9028364 0,9699411 0,9232649 0,9133562 0,8654714 0,9010543 0,9236469 0,9357448 0,9388372 0,8846177 0,8946421 0,9055747 0,8636227 0,8445045 0,8280981 0,8621538 0,9064578 0,8450589 0,8312567 0,8533721 0,8645204 0,8662231 0,8690335 0,8740088 0,8777896 0,8868045 0,8755774 0,8754761 0,8731954 0,8606755 0,8522726 0,8609755 0,8568906 0,8833119 0,8851185 0,8677545 0,8538585 0,8428774 0,8306144 0,8394535 0,8490475 0,8437366 0,8527824 0,8525766 0,8511388 0,8597944 0,8484822 0,8693099 0,851146 0,8495611 0,8704536 0,8593725 0,8765551 0,8654143 0,8444795 0,882934 0,8319435 0,8059879 0,8076854 0,827381 0,863548 0,9375468 0,9511306 
0,9502674 0,936772 0,9059681 0,8359085 0,7456913 0,9020071 0,8972084 0,8392162 0,8719591 0,8931806 0,8822334 0,8546047 0,8490781 0,8502018 0,881179 0,876616 0,8616183 0,868622 0,8873453 0,8660778 0,8134397 0,8163081 0,823963 0,8325828 0,8642585 0,9662861 0,9815831 0,9810905 0,9821444 0,9828935 0,9828897 0,9835006 0,9827436 0,9810908 0,9796136 0,9782329 0,9749426 0,9709202 0,9673789 0,961663 0,9567026 0,9504965 0,9420819 0,9319004 0,9152603 0,888657 0,8805686 0,874688 0,8749675 0,8743403 0,8641227 0,8509515 0,8324333 0,8077713 0,7746849 0,7781886 0,7920489 0,8549814 0,954933 0,9137038 0,9378676 0,9218368 0,8108051 0,8297631 0,853569 0,8382478 0,7870598 0,7563958 0,8197179 0,9057617 0,9770772 0,9227499 0,9564039 0,8372347 0,8015742 0,8033173 0,8243263 0,8562841 0,8696191 0,8878379 0,8870463 0,8963424 0,9080518 0,9123397 0,9070155 0,8984951 0,91957 0,9212686 0,9235349 0,9037951 0,8876044 0,8977187 0,89325 0,9153001 0,9136376 0,9078652 0,8970107 0,8790759 0,9666474 0,9349952 0,9119923 0,896466 0,8870128 0,9219735 0,9402809 0,9440845 0,9224143 0,91481 0,8974304 0,8261141 0,8034009 0,7808673 0,7868398 0,8614675 0,8311235 0,8524249 0,8721241 0,8723069 0,8658549 0,8694687 0,8792769 0,8849956 0,8874004 0,8876934 0,8844976 0,8831127 0,8751343 0,8702061 0,8730611 0,8717387 0,8843602 0,8740186 0,8671061 0,8525862 0,8527398 0,8364205 0,8422174 0,841244 0,8409069 0,845343 0,8517725 0,8661844 0,8623245 0,8537369 0,8582539 0,85606 0,8673188 0,8815123 0,8797851 0,8760629 0,8494543 0,8836823 0,8967652 0,8153874 0,8153744 0,8183507 0,7910474 0,9148463 0,9554175 0,963722 
0,9482623 0,9338484 0,8840543 0,7841273 0,7943091 0,9341052 0,8384768 0,7835513 0,8663234 0,873904 0,864316 0,86233 0,8674943 0,8731583 0,8808541 0,8554328 0,8547568 0,8974605 0,9289415 0,8437808 0,8032463 0,8411755 0,8644223 0,9009537 0,9441951 0,9740393 0,9832823 0,9840873 0,9850601 0,9853412 0,9841864 0,9832052 0,9822151 0,9803442 0,9783832 0,976156 0,9734502 0,9698171 0,965292 0,9605622 0,9542961 0,9470681 0,9382169 0,9253918 0,8930587 0,8400959 0,8555216 0,830331 0,839793 0,8521984 0,841814 0,8364044 0,81359 0,7918531 0,7650146 0,8060479 0,7984223 0,9235235 0,9415248 0,8311594 0,9235607 0,9437037 0,8620641 0,8064824 0,860428 0,8671869 0,8525296 0,8220103 0,7918214 0,8192253 0,8292285 0,7915906 0,8465345 0,9326575 0,8154661 0,7899422 0,8034797 0,823554 0,8490023 0,8668198 0,881552 0,8753658 0,8973076 0,9122987 0,9126593 0,9083343 0,9068836 0,9122014 0,9157442 0,9205446 0,8799801 0,8662944 0,8698996 0,9163029 0,9027944 0,8950258 0,9033417 0,8878536 0,9398628 0,9691378 0,8895442 0,9333587 0,9057943 0,9127957 0,9432247 0,9507586 0,9465855 0,9108891 0,9229544 0,9227102 0,9086967 0,8581016 0,7667338 0,8706771 0,866756 0,8734684 0,8823037 0,8780699 0,862219 0,884695 0,8882426 0,8868791 0,8851217 0,8797556 0,8765943 0,8642057 0,8771464 0,8738666 0,8629704 0,8645351 0,8634651 0,8431974 0,8479943 0,8475484 0,8511937 0,8493474 0,8396633 0,8370057 0,8004481 0,7722348 0,7721429 0,8311092 0,8341473 0,856014 0,8672075 0,8747883 0,8782184 0,8796484 0,8754517 0,8741464 0,8377564 0,9057692 0,8918646 0,8195708 0,8837932 0,8639549 0,8484892 0,8945282 0,9507594 0,9560139 
0,9423327 0,9301506 0,8782511 0,8142824 0,8454756 0,9682629 0,7895927 0,816056 0,8658774 0,8639263 0,8471012 0,8603529 0,8481188 0,8575876 0,8796665 0,8472847 0,8508925 0,9494461 0,9530116 0,9169207 0,8919342 0,8996145 0,9237531 0,9496708 0,970198 0,9822617 0,9857395 0,9859588 0,9861805 0,9851848 0,9839793 0,9826924 0,9815421 0,979443 0,9772772 0,9748287 0,9717836 0,9682361 0,9636948 0,9581325 0,9504429 0,9429383 0,9332558 0,915114 0,8661503 0,8100996 0,8847311 0,8589764 0,8474178 0,8440279 0,8243355 0,8197513 0,8093933 0,8039702 0,7942265 0,8139883 0,8949541 0,9847795 0,942723 0,8197508 0,9003428 0,929609 0,9247037 0,8559554 0,8547409 0,8862861 0,8823186 0,8688182 0,8457394 0,8276268 0,8250133 0,7952803 0,7498966 0,906137 0,9497325 0,8960997 0,8743056 0,8257576 0,8431122 0,8587891 0,8741251 0,8787171 0,8797723 0,8923097 0,8946888 0,9072683 0,9117956 0,9105335 0,9154114 0,9235923 0,9040187 0,8715961 0,836018 0,8924583 0,8864675 0,8703175 0,8873025 0,8904646 0,8778294 0,9574212 0,9291041 0,9354522 0,9341228 0,9228219 0,9465358 0,9405396 0,9407253 0,9131574 0,9127629 0,8711539 0,8631178 0,8652484 0,8281954 0,8383058 0,8929434 0,888538 0,8883213 0,8708019 0,8787294 0,8917786 0,8970225 0,8885096 0,8802743 0,8645673 0,8591706 0,8446553 0,8563577 0,8575652 0,8611416 0,8622494 0,8584329 0,8570533 0,8541538 0,8560165 0,8510669 0,8432984 0,8435624 0,8560898 0,8574959 0,860882 0,8576494 0,8556864 0,850565 0,8545916 0,853505 0,859699 0,869224 0,8696967 0,8800169 0,8949686 0,8014611 0,83312 0,9043697 0,8680712 0,8836313 0,8857267 0,8716235 0,8809957 0,9238232 0,9416815 
0,9370677 0,9275964 0,9022152 0,8672836 0,8495619 0,8537506 0,923762 0,8482088 0,8605473 0,8500147 0,8165106 0,8586274 0,8608404 0,9262275 0,9732609 0,9648047 0,9695641 0,9781134 0,9698045 0,9481663 0,9456092 0,9486246 0,959424 0,9707831 0,9810666 0,9858611 0,9865141 0,985953 0,9853705 0,9850996 0,984064 0,9821618 0,9807307 0,9787234 0,9764222 0,9741637 0,9706874 0,9670442 0,9627141 0,956224 0,94686 0,9359503 0,9221934 0,896561 0,8160142 0,8376035 0,9248433 0,9252262 0,9205534 0,8750938 0,8014024 0,8008787 0,7772373 0,8083917 0,8986561 0,9382897 0,9606741 0,9654768 0,9851504 0,808623 0,8722867 0,9260361 0,9412215 0,9273146 0,8772966 0,8982026 0,9002111 0,8943365 0,8847008 0,8700919 0,8603058 0,8483167 0,7923293 0,7979561 0,8567233 0,9651252 0,9274028 0,8438101 0,8481098 0,8796889 0,8904594 0,9134278 0,9073172 0,888287 0,8824174 0,8995398 0,9116004 0,9111648 0,9129499 0,9221711 0,9170082 0,8898051 0,8533838 0,8680651 0,8951411 0,8590118 0,8573173 0,8735942 0,8567871 0,8845909 0,8870329 0,8684385 0,8818634 0,9226903 0,9324021 0,9168764 0,9194266 0,9214399 0,8948811 0,8427753 0,8425828 0,8491986 0,8631852 0,8341948 0,8545669 0,8933169 0,8839342 0,8868115 0,893126 0,8904485 0,8860417 0,8772096 0,879207 0,8658732 0,8632995 0,8613479 0,8562656 0,8539761 0,8574675 0,8541113 0,851887 0,8499618 0,843423 0,845777 0,8503587 0,8492222 0,8571901 0,8577861 0,8597336 0,860702 0,8594894 0,8596722 0,8617012 0,8623506 0,8638614 0,860837 0,8487458 0,8578042 0,8901862 0,8959624 0,854841 0,7206424 0,8722895 0,8732982 0,8746605 0,899933 0,8896828 0,8859783 0,9313855 0,9488477 
0,9299668 0,9271766 0,9092705 0,8943604 0,8834445 0,8767992 0,8919014 0,8934209 0,8455663 0,8452058 0,839457 0,9463641 0,9762595 0,9815141 0,9838842 0,9852402 0,9788352 0,9795606 0,9783354 0,9762219 0,9730454 0,9761882 0,9790978 0,9827527 0,9864255 0,9867887 0,9863397 0,9852005 0,9847854 0,9844698 0,9836832 0,98196 0,9803781 0,9781828 0,9750069 0,9727903 0,9691933 0,9650709 0,9603181 0,9538201 0,9449314 0,9308575 0,9090111 0,8689273 0,8571397 0,8807973 0,8383237 0,8244045 0,8047111 0,8765051 0,9095294 0,9079514 0,9084959 0,9616965 0,9370664 0,9092388 0,9199175 0,9385649 0,9412463 0,8698146 0,8909141 0,924848 0,9426122 0,9476082 0,9369134 0,912226 0,9041159 0,9092388 0,9094892 0,9012592 0,8884338 0,8785397 0,8666485 0,829003 0,8608664 0,8371188 0,904768 0,9139727 0,9203566 0,9185767 0,9093728 0,9165275 0,9280747 0,8939602 0,8771785 0,8938522 0,90891 0,914483 0,9142317 0,9201889 0,9206979 0,9079067 0,8800818 0,8859042 0,8893604 0,8590127 0,8476181 0,8785601 0,8626283 0,8971425 0,8954556 0,8926415 0,9096408 0,933157 0,9134547 0,9123357 0,9272218 0,9028994 0,8310126 0,8372078 0,8499949 0,8646865 0,8709882 0,8745583 0,8278587 0,8461705 0,8894498 0,8936279 0,8933631 0,8854885 0,8631176 0,862861 0,8449593 0,8472934 0,8596051 0,8566747 0,8488249 0,8397121 0,8247428 0,8082262 0,8281062 0,8339679 0,8396734 0,8525094 0,8518668 0,8477629 0,8513311 0,850069 0,8494548 0,8527572 0,8458409 0,8423158 0,845486 0,8514032 0,8561483 0,8462463 0,8237388 0,8678509 0,8851104 0,8853066 0,8957798 0,7483946 0,7247396 0,8533219 0,8646223 0,8877993 0,8758876 0,8655254 0,9119108 0,9484991 
0,9235903 0,9067107 0,8949386 0,8662627 0,8424723 0,8849637 0,8349712 0,9010147 0,8525706 0,851418 0,9221301 0,9726192 0,9730953 0,9765576 0,9808787 0,9831595 0,9835163 0,9837241 0,9820903 0,9840246 0,9843469 0,9852587 0,9862959 0,9866894 0,9867371 0,9867144 0,9861742 0,9850423 0,9844848 0,9837781 0,982461 0,9811363 0,9792479 0,9770205 0,9742541 0,9711863 0,9673747 0,9629492 0,9570228 0,9502974 0,942355 0,9305118 0,9146475 0,9039211 0,8920836 0,8746711 0,8442759 0,8108627 0,7614469 0,7700111 0,8545344 0,9942542 0,986675 0,9609108 0,9609926 0,9461635 0,9379518 0,9548903 0,880909 0,8723192 0,9240193 0,9340345 0,9328894 0,9372351 0,9430374 0,9306645 0,9099938 0,9103469 0,9212085 0,9193413 0,9115838 0,899402 0,8932114 0,887863 0,8774748 0,8690314 0,9025967 0,9031858 0,8958751 0,9054625 0,8923591 0,9021672 0,9262435 0,9184148 0,8745102 0,8861778 0,904177 0,9135403 0,9154773 0,9173595 0,9197355 0,9147762 0,8953465 0,8854693 0,9049727 0,8736863 0,8535354 0,8649743 0,8769575 0,9094723 0,9203633 0,9058868 0,9138803 0,9188939 0,909355 0,9252589 0,9207187 0,8582167 0,8369619 0,8549826 0,8747461 0,877835 0,8836804 0,8744705 0,8603159 0,8389703 0,8932111 0,8947603 0,8901755 0,8526328 0,8480834 0,8557339 0,8557467 0,8431967 0,8356403 0,8270435 0,8126572 0,7867016 0,785301 0,8268349 0,8381515 0,8337868 0,8342136 0,838428 0,8233827 0,8215339 0,8301255 0,8308379 0,8128852 0,8236104 0,8062646 0,8306816 0,8294502 0,8338875 0,8428923 0,8379959 0,8395088 0,8850724 0,8644056 0,8792353 0,8932736 0,8339404 0,7033514 0,8037125 0,866649 0,8731532 0,8899563 0,8841983 0,9128639 0,9452127 
0,9093786 0,8840506 0,8729506 0,8253298 0,8306206 0,8930225 0,836346 0,8447603 0,9205849 0,9300728 0,9525295 0,9617313 0,9639566 0,972346 0,9768534 0,9800737 0,9828792 0,9835833 0,983057 0,9845248 0,9854106 0,9858235 0,9860435 0,9858423 0,9859542 0,9859223 0,9850153 0,9845223 0,9843613 0,9835014 0,9821115 0,9803486 0,9780602 0,9759619 0,9734085 0,9697664 0,9656039 0,9609945 0,9544268 0,9472311 0,9374815 0,9223335 0,9057729 0,8927391 0,8708093 0,841954 0,8140119 0,7750555 0,7649794 0,8304193 0,9828652 0,9925572 0,9905896 0,9870596 0,9812933 0,9741138 0,9630378 0,9693611 0,9202974 0,9053286 0,9231662 0,9229131 0,9278944 0,9342567 0,9434507 0,9471006 0,9428005 0,9230838 0,9250909 0,9246522 0,9222949 0,9144424 0,9099578 0,9139593 0,9174902 0,9024359 0,900753 0,9270414 0,9403534 0,9333774 0,9183897 0,8875164 0,9178923 0,9346106 0,9007124 0,8887056 0,9041096 0,9125525 0,915332 0,9143451 0,9114076 0,9143095 0,9133313 0,9026555 0,9045392 0,8907443 0,8787652 0,8508899 0,8788224 0,91254 0,9347193 0,9263998 0,927147 0,9225224 0,9319668 0,9233533 0,8800353 0,8321751 0,8515427 0,8685892 0,876404 0,8606683 0,8860357 0,8954813 0,8898817 0,8643013 0,8567195 0,8829569 0,8445558 0,8262513 0,8480478 0,8579547 0,8517967 0,8211463 0,8199663 0,8138363 0,7970852 0,7827183 0,8436525 0,8446589 0,8316853 0,8225935 0,8009299 0,8030887 0,8096514 0,8171177 0,8097404 0,8154506 0,821323 0,8359109 0,8334199 0,8470638 0,8284491 0,818693 0,8296546 0,8254038 0,8386137 0,8681477 0,8909995 0,8997328 0,8723481 0,8554433 0,7495101 0,8315589 0,8622828 0,8422702 0,8986322 0,8764024 0,9223304 0,9505295 
0,9050302 0,8713008 0,8487296 0,8178748 0,851608 0,8818755 0,831787 0,825385 0,9510207 0,9363049 0,9477391 0,9409485 0,9559804 0,9690256 0,9735184 0,9761255 0,980708 0,9815207 0,9823017 0,9837462 0,9848313 0,985423 0,9854933 0,9854629 0,9853718 0,9851237 0,9843996 0,9841348 0,9839675 0,983773 0,982034 0,979829 0,9772682 0,9748574 0,9718865 0,9678323 0,9635592 0,9582501 0,9516959 0,942812 0,9298885 0,9102205 0,8824329 0,8655065 0,8366293 0,795049 0,7769102 0,7562064 0,7808276 0,9573052 0,9809858 0,9861795 0,9887188 0,9888446 0,9868982 0,9831996 0,9795201 0,9647665 0,8956378 0,8974948 0,9137393 0,9281132 0,9353433 0,9376944 0,9409171 0,9437367 0,9383418 0,9096916 0,9193037 0,904976 0,9172582 0,921536 0,9173645 0,9261717 0,9348473 0,9422266 0,915983 0,9450842 0,9362396 0,9283358 0,9080998 0,8997394 0,9328632 0,9314555 0,9303038 0,9075468 0,8992413 0,9089289 0,9108045 0,9134421 0,908981 0,9047632 0,9028494 0,9140095 0,9105206 0,9013636 0,8927195 0,8720148 0,8504686 0,8988119 0,9377319 0,9541338 0,9362145 0,9252527 0,9239314 0,9059399 0,871083 0,8715681 0,8882167 0,884234 0,8871888 0,8823389 0,8872929 0,8888903 0,8717013 0,8678734 0,8420612 0,867425 0,8583094 0,8450018 0,8543795 0,8321595 0,8156939 0,7954305 0,7894297 0,7959661 0,7841583 0,7874205 0,8161789 0,8284668 0,8207108 0,8493674 0,8222315 0,8301408 0,8286806 0,8260441 0,8146493 0,8317258 0,8622009 0,8444897 0,8235449 0,8531413 0,819949 0,8059227 0,8022144 0,8210649 0,8587868 0,8604102 0,8923339 0,8762412 0,8663651 0,8522657 0,7512693 0,8121115 0,8375939 0,8172964 0,8681247 0,8544793 0,8684365 0,9405434 
0,8907021 0,8617929 0,8470641 0,8262834 0,843672 0,8756312 0,8365113 0,7796237 0,9460483 0,8765321 0,9136128 0,8980159 0,9458133 0,9652201 0,9730937 0,9739488 0,9756534 0,97916 0,9815488 0,983014 0,9843268 0,9850225 0,9850082 0,9850993 0,985136 0,9849393 0,9843135 0,9838689 0,9834358 0,9826772 0,9819548 0,9798735 0,9751714 0,9733515 0,9698958 0,9648864 0,9588777 0,9556827 0,9503993 0,9415529 0,92318 0,8889692 0,8327126 0,8219773 0,7817332 0,7566684 0,7642987 0,7496628 0,8879632 0,9732834 0,9759998 0,985022 0,9875067 0,9877219 0,9873642 0,9841748 0,9784673 0,9205433 0,9552024 0,8865944 0,9139237 0,9253179 0,9264838 0,9234028 0,9285524 0,9357324 0,9330535 0,8772869 0,8749192 0,8458574 0,899635 0,9174885 0,9138764 0,9124646 0,9159465 0,9164081 0,916811 0,9444298 0,9342193 0,9296017 0,913213 0,9214373 0,9209607 0,918553 0,9198666 0,9229727 0,9166266 0,8949524 0,8940063 0,902266 0,9065443 0,902495 0,8939512 0,9076115 0,9061117 0,9106333 0,9104996 0,8920077 0,8586059 0,8740616 0,9148601 0,9524774 0,9127842 0,9277674 0,9226447 0,9176499 0,9023405 0,896208 0,8964119 0,8949757 0,9008299 0,9014983 0,8927255 0,8824853 0,8604929 0,8581711 0,8349959 0,8492943 0,8445886 0,8465222 0,8381175 0,7861891 0,8016903 0,7869321 0,7942148 0,7897711 0,7605572 0,7769186 0,8434224 0,8446607 0,8154467 0,8466901 0,8520057 0,8525187 0,8601196 0,8447816 0,8625649 0,8735527 0,8501881 0,8572266 0,8337905 0,828279 0,8243871 0,7969835 0,7964502 0,8475628 0,89423 0,877765 0,8651914 0,8689337 0,8723705 0,8643752 0,7547365 0,836804 0,8392544 0,8275064 0,88225 0,887131 0,8497384 0,883072 
0,9061527 0,8578042 0,8535348 0,830619 0,8316241 0,8699297 0,8180602 0,8070384 0,9694053 0,9587402 0,9610668 0,8927251 0,9388523 0,9602655 0,9729301 0,9737448 0,9699332 0,9752805 0,9800333 0,9822157 0,9835013 0,9840755 0,9843149 0,9843825 0,9843625 0,9841517 0,9839749 0,9839955 0,9833429 0,9828295 0,9816674 0,9805959 0,975723 0,9728153 0,9685248 0,9666493 0,960523 0,9504705 0,9458237 0,936622 0,9156293 0,8553699 0,8404995 0,8630255 0,7843176 0,7779555 0,8106578 0,9296332 0,9494925 0,9442903 0,9769148 0,9846194 0,9871983 0,9870908 0,9842921 0,977703 0,9675503 0,9058114 0,9493983 0,9408982 0,9074646 0,8974391 0,8909457 0,8802544 0,8819674 0,8818877 0,8374441 0,8349788 0,867145 0,8555587 0,8889363 0,9100472 0,9084967 0,9095362 0,913887 0,9139975 0,9170892 0,9384728 0,9244021 0,9107932 0,9017841 0,9218314 0,9246684 0,9267911 0,9164753 0,9231449 0,9201968 0,8989824 0,8756382 0,8773618 0,8909278 0,8977916 0,8971671 0,9003889 0,9005945 0,898962 0,9142247 0,9092451 0,8928285 0,8789001 0,9160352 0,9506242 0,9493791 0,948355 0,9334646 0,9306486 0,909364 0,9086506 0,9096048 0,9088439 0,9051464 0,892971 0,8856758 0,8792531 0,8695774 0,8396746 0,8332899 0,8403763 0,8378642 0,8031407 0,7783465 0,7442163 0,7787784 0,7735462 0,7908471 0,8427586 0,8081875 0,8232692 0,8669975 0,8616698 0,8446919 0,8380665 0,8505209 0,8665094 0,8684635 0,8502669 0,8665058 0,8594629 0,8735265 0,8824822 0,8653106 0,8637323 0,8448256 0,8181869 0,8455955 0,9217787 0,8852924 0,8786134 0,8536087 0,86342 0,8615713 0,8626705 0,7723036 0,8044558 0,8105178 0,7869422 0,8400506 0,86994 0,9025272 0,9269121 
0,9023015 0,8562837 0,8329775 0,8470626 0,8546439 0,8674558 0,7963818 0,9434887 0,9044313 0,9501444 0,9440796 0,9304447 0,9402372 0,9609942 0,9730062 0,9748586 0,9712352 0,9750357 0,9763021 0,9809477 0,9827688 0,9830636 0,983578 0,9834957 0,983263 0,9832196 0,9830052 0,9830237 0,9834467 0,9827393 0,9823926 0,9812715 0,9792688 0,9768528 0,9729134 0,9658965 0,9590662 0,9422339 0,938455 0,927533 0,898683 0,8340628 0,8478048 0,8583646 0,843857 0,8123645 0,9103651 0,9175238 0,9253839 0,960382 0,9759999 0,983372 0,9848361 0,9840282 0,9798396 0,9748146 0,9687653 0,953819 0,911829 0,9514657 0,9796975 0,9452311 0,8978798 0,8759318 0,8242617 0,8070472 0,8112612 0,8372831 0,8569468 0,8714114 0,88118 0,8985425 0,9068068 0,9093649 0,913927 0,9266899 0,9336236 0,9380529 0,9287645 0,8958732 0,9080101 0,925974 0,9373616 0,9395146 0,9161576 0,9188045 0,9049459 0,8955748 0,8704317 0,8659081 0,8701457 0,8797805 0,8877882 0,8955709 0,9027499 0,9004571 0,9008395 0,9017745 0,8930259 0,8883188 0,903433 0,9469988 0,9650155 0,9453177 0,9145685 0,9202376 0,9208132 0,9149672 0,9168166 0,9159861 0,8922013 0,8866823 0,8788251 0,8833417 0,8820897 0,8579348 0,8032792 0,8138864 0,7790334 0,7571335 0,7507065 0,7639424 0,8042368 0,744827 0,8251185 0,8673667 0,8686833 0,8942894 0,9125434 0,8986938 0,887374 0,8765397 0,8457617 0,8654486 0,8553625 0,8662444 0,889393 0,8742512 0,8785847 0,8903151 0,8763869 0,8661777 0,8547189 0,8757341 0,9155753 0,9284692 0,8955441 0,8584503 0,8380936 0,8408404 0,8472904 0,8447483 0,7673615 0,8350842 0,8190391 0,7750898 0,7694398 0,8002118 0,8958311 0,9515141 
0,8599936 0,8310177 0,8317999 0,8495154 0,8434792 0,852505 0,8584551 0,9636675 0,923714 0,9565977 0,9425267 0,9381437 0,946051 0,966418 0,9733658 0,974129 0,9756472 0,9789573 0,9800805 0,9804751 0,9818337 0,9813135 0,9826773 0,982362 0,9821818 0,9828721 0,9825902 0,9826128 0,982662 0,9819608 0,9823792 0,9818534 0,9800582 0,9781418 0,9758002 0,9726719 0,9639472 0,9416094 0,9318593 0,9217647 0,878445 0,8050121 0,8272285 0,8695909 0,9097496 0,8946905 0,9633905 0,8596643 0,9405074 0,9623889 0,9760859 0,9816067 0,9834758 0,9837071 0,9812062 0,9780801 0,973667 0,9653002 0,9486009 0,9296418 0,9173079 0,9558824 0,9565914 0,9104736 0,8511536 0,8247596 0,8260556 0,8527026 0,8647313 0,8529989 0,8722175 0,9056633 0,9109959 0,9129498 0,9163234 0,9160156 0,9288377 0,9410999 0,9388794 0,9134896 0,9242361 0,9363734 0,9408398 0,939004 0,916043 0,901068 0,9290202 0,938428 0,9083825 0,9013849 0,8975999 0,8872848 0,8782059 0,8757446 0,8763358 0,8973382 0,8940638 0,8743028 0,8833814 0,882522 0,880748 0,9178395 0,9660069 0,9438963 0,9099155 0,9235789 0,9341432 0,9250633 0,9243096 0,9196059 0,9007252 0,8875296 0,867098 0,866643 0,8535768 0,7946396 0,7991098 0,7797539 0,7656186 0,7585605 0,7887948 0,8136546 0,8162469 0,7352029 0,7906616 0,8858787 0,89478 0,9068914 0,9031191 0,8981522 0,888469 0,8854318 0,8647152 0,8740828 0,8688789 0,8770282 0,8824576 0,8763638 0,8743546 0,8864717 0,8786356 0,8786132 0,8768952 0,9112806 0,9123962 0,927476 0,9187462 0,8717207 0,8206191 0,8373537 0,8513544 0,8274528 0,7711544 0,8494741 0,8299841 0,7919409 0,7916355 0,8089831 0,8542884 0,941752 
0,8245909 0,7882326 0,8215894 0,8437233 0,8969547 0,9662908 0,9810523 0,938217 0,9354835 0,9574616 0,9444907 0,9312873 0,951107 0,96863 0,9748132 0,9719142 0,9682833 0,9748629 0,9799826 0,9783855 0,9756001 0,9773164 0,9808491 0,9809851 0,9816927 0,9822875 0,9829087 0,9831004 0,9827746 0,9820016 0,9824434 0,9823452 0,980602 0,9784266 0,9729381 0,970667 0,9685175 0,9578504 0,9366123 0,9152784 0,8498502 0,81103 0,8622596 0,9146639 0,8590686 0,8210644 0,9694134 0,8752735 0,9371989 0,9635813 0,974566 0,9808984 0,9830916 0,9845958 0,9830322 0,9801991 0,9745762 0,9672462 0,9573733 0,9451983 0,9053755 0,8328657 0,930677 0,883279 0,8936443 0,9252873 0,9464657 0,8971957 0,8594862 0,8381946 0,8578439 0,9064823 0,9196557 0,9165438 0,9150347 0,9247384 0,9289585 0,9264823 0,923734 0,9309913 0,9342175 0,9346707 0,9332796 0,9213566 0,9061037 0,9422022 0,9514977 0,9392196 0,9061022 0,9073816 0,9093001 0,9118186 0,891293 0,8593887 0,8611768 0,8802156 0,8985863 0,8790281 0,8834466 0,881218 0,86678 0,8751546 0,9610791 0,9291715 0,9068942 0,9279686 0,9350852 0,9314147 0,9276528 0,919879 0,9184533 0,8877346 0,8728663 0,8580933 0,8393672 0,809926 0,7732458 0,7656769 0,7527308 0,7542212 0,8257021 0,8533476 0,8665532 0,7839532 0,7025282 0,8693395 0,9134309 0,9099116 0,9017788 0,8955942 0,8934695 0,8836687 0,8692445 0,8714037 0,8780693 0,8707449 0,8827457 0,8789454 0,8594837 0,8682661 0,8629272 0,8642241 0,8926845 0,9262553 0,8903556 0,9152801 0,9242629 0,8508715 0,8112818 0,8443642 0,8520852 0,8303484 0,7630812 0,8466734 0,8401705 0,7923566 0,7830129 0,795898 0,8654974 0,9454758 
0,8676687 0,815108 0,9114337 0,9677254 0,981303 0,9749405 0,9422973 0,932807 0,9414702 0,9483889 0,9537422 0,9496642 0,9578846 0,969689 0,9767098 0,9745936 0,9623824 0,9667726 0,9765894 0,97723 0,9587853 0,9681261 0,9757712 0,9778765 0,9802797 0,9820036 0,9828874 0,9832895 0,9827752 0,9819766 0,9831426 0,9834387 0,9806072 0,9779905 0,9645627 0,9656265 0,96957 0,9645097 0,9472751 0,912552 0,8486234 0,8753102 0,8961748 0,8915923 0,8461519 0,8090829 0,9271196 0,8803183 0,9374804 0,9604278 0,9750441 0,9818491 0,9849551 0,9863666 0,9840395 0,9798068 0,974668 0,9674963 0,955335 0,9419422 0,9266083 0,8634793 0,9366006 0,8540217 0,856102 0,8615245 0,8663436 0,9164903 0,937525 0,8812966 0,849065 0,8946209 0,921352 0,9301051 0,9226986 0,9228898 0,9317333 0,9334108 0,9310395 0,9278708 0,9248102 0,9160286 0,9235915 0,9298663 0,9440087 0,9389117 0,9287 0,9366107 0,9073941 0,8861775 0,8962128 0,8991606 0,8977953 0,8642973 0,849455 0,8430206 0,878296 0,8757803 0,8865833 0,8839843 0,8638774 0,8687829 0,9394888 0,9401586 0,9432546 0,9466693 0,9404706 0,932934 0,9291469 0,9225628 0,9148446 0,9047827 0,8868763 0,8452538 0,809113 0,7579781 0,7617801 0,7438921 0,7260675 0,729845 0,8540131 0,8651491 0,8689017 0,8119614 0,7309904 0,8418286 0,9188834 0,9140894 0,9005491 0,880936 0,8781376 0,875061 0,8642298 0,87441 0,8648446 0,8692559 0,8708355 0,8660576 0,8463737 0,8534586 0,8580109 0,9066773 0,9286553 0,9145142 0,8847162 0,8960848 0,8988813 0,856187 0,8320888 0,8527268 0,8577081 0,8490578 0,7722918 0,8434622 0,8256162 0,8152665 0,7808049 0,7628806 0,8167311 0,93349 
0,9650712 0,9414378 0,9227374 0,9521596 0,9605942 0,9581998 0,9374815 0,9290051 0,9383104 0,9528195 0,9611551 0,9632327 0,9679993 0,973586 0,9784839 0,9803676 0,9773529 0,976891 0,9749573 0,9831492 0,9731214 0,9648312 0,9690431 0,9703392 0,9763112 0,9803323 0,9814284 0,9820561 0,9822576 0,9827499 0,9843798 0,9840638 0,9821001 0,9791428 0,9744171 0,9740992 0,9728242 0,9626057 0,9414852 0,897985 0,843064 0,876049 0,9055138 0,8876158 0,843013 0,9500117 0,9670287 0,8586549 0,9198207 0,9558383 0,9750671 0,9819258 0,9842697 0,9826769 0,979793 0,9798151 0,9780516 0,9727287 0,9634824 0,947631 0,9174489 0,8566256 0,9235693 0,9005746 0,8735247 0,8773893 0,8997802 0,928951 0,9482855 0,8849533 0,8643477 0,8991687 0,9223959 0,9365386 0,935616 0,924078 0,9308571 0,9224705 0,8900881 0,8919266 0,9063823 0,9270355 0,9482932 0,9484115 0,9222934 0,9427796 0,9490533 0,9571047 0,9400358 0,9079207 0,9048977 0,9151198 0,9114474 0,916927 0,8909306 0,8518181 0,8352531 0,8615904 0,8774102 0,8863176 0,8579485 0,8459902 0,9220407 0,9440498 0,951379 0,9417521 0,9420943 0,9387146 0,9360244 0,9093304 0,8681881 0,8483462 0,8026544 0,8026001 0,7696005 0,7195067 0,7528284 0,7197904 0,7750394 0,7568262 0,8720564 0,8907097 0,8913538 0,8219429 0,7599797 0,8300433 0,9164666 0,9035967 0,8846339 0,8674901 0,8586185 0,8582233 0,8534653 0,8679982 0,8460712 0,8454348 0,8500438 0,873351 0,872955 0,8937246 0,9414841 0,9538324 0,9071406 0,8690333 0,8579059 0,8777951 0,889637 0,8525107 0,8332362 0,845485 0,8532865 0,8560308 0,7774077 0,7876413 0,8222056 0,8443395 0,8054299 0,7812435 0,808741 0,9217345 
0,9953889 0,9964722 0,9565738 0,9373093 0,9423423 0,9485359 0,929337 0,928845 0,9485855 0,9562746 0,959932 0,9645868 0,9694806 0,9745912 0,97844 0,9807112 0,980547 0,9804038 0,980086 0,9824643 0,9831139 0,9820142 0,9809791 0,9779418 0,9733402 0,9783845 0,9787405 0,9801513 0,980644 0,9842155 0,9850253 0,9851494 0,9837564 0,9814285 0,980961 0,9811233 0,9756179 0,9599599 0,9280686 0,8729081 0,7898937 0,8136007 0,889155 0,9485319 0,9433738 0,9254385 0,9557937 0,9259353 0,8857608 0,9552088 0,9754502 0,981403 0,9834999 0,9836417 0,9828937 0,9812298 0,9771622 0,9718887 0,9671078 0,956728 0,9356812 0,8823102 0,8683475 0,9517313 0,8771333 0,8933925 0,9083731 0,9339507 0,9333614 0,8983942 0,923274 0,9392879 0,9253618 0,9311135 0,9338832 0,9365007 0,9375108 0,9397271 0,9362897 0,9435425 0,9462529 0,9474592 0,9502321 0,9484883 0,9440234 0,9505149 0,9364744 0,9331933 0,9433756 0,9330768 0,9256007 0,9307566 0,9230733 0,9208369 0,9207485 0,914618 0,8692018 0,811537 0,8568253 0,8774067 0,8794503 0,8557522 0,9116201 0,945111 0,9452945 0,9513507 0,9464002 0,9422296 0,9214115 0,8800136 0,823683 0,8197173 0,7797928 0,7131822 0,6953043 0,7570932 0,7341292 0,7352831 0,8109995 0,8098485 0,8674964 0,9043036 0,8982692 0,8401377 0,7776123 0,8272607 0,8935523 0,8865364 0,8829361 0,8704639 0,8421909 0,8322462 0,8471404 0,8660681 0,8624448 0,8619956 0,9083264 0,958867 0,974145 0,9745767 0,9591938 0,9517069 0,9147415 0,8774764 0,8702058 0,8755542 0,8557708 0,8552927 0,8512338 0,8502371 0,8611809 0,8558257 0,825104 0,7419341 0,8160303 0,8168588 0,79589 0,7953995 0,8204846 0,897214 
0,9943887 0,9933418 0,9629582 0,9522572 0,9638081 0,96076 0,9482859 0,9227288 0,936319 0,9416584 0,9510148 0,9624184 0,9674532 0,9733769 0,9771195 0,9783832 0,9758632 0,9750217 0,9776441 0,9803805 0,9824085 0,9824831 0,9829128 0,9816613 0,9753518 0,9754142 0,9737129 0,9731384 0,9797248 0,9840994 0,9847221 0,9841857 0,9830326 0,980562 0,9802892 0,9818733 0,977092 0,9639354 0,9325817 0,8734282 0,8420733 0,9227152 0,961235 0,9101005 0,8936317 0,9035807 0,9385098 0,9484581 0,9004815 0,9634742 0,9781027 0,9824542 0,9849385 0,9858108 0,9853795 0,9830162 0,9790996 0,9752473 0,9709863 0,9642773 0,9480665 0,9109202 0,8290731 0,9477851 0,8727014 0,8919774 0,9041964 0,9026871 0,902576 0,9022914 0,9262133 0,9362371 0,9265332 0,9243104 0,9347984 0,9369574 0,9429266 0,9447196 0,945806 0,9458261 0,945897 0,939145 0,9452598 0,9370934 0,9278918 0,9239854 0,9118938 0,9208396 0,9089575 0,9011028 0,931859 0,9376566 0,9276517 0,925128 0,9227031 0,9090896 0,8950477 0,8515648 0,8161085 0,8631982 0,8801093 0,8688954 0,8913729 0,9418374 0,9511386 0,9513606 0,9380509 0,9013088 0,8590215 0,8063958 0,8054428 0,8099558 0,7621017 0,7155085 0,7575797 0,7523515 0,7400092 0,7549841 0,7914836 0,8268546 0,8896015 0,9164942 0,8811101 0,8586949 0,7903928 0,7765914 0,8885581 0,8951125 0,9039328 0,8769687 0,8589394 0,9012316 0,8798068 0,8361526 0,8779202 0,9179083 0,9565034 0,9645499 0,9654472 0,9651226 0,9325248 0,9333666 0,9232163 0,8963237 0,8852108 0,8854652 0,8700414 0,8695453 0,8589479 0,8445892 0,8554615 0,8549886 0,827717 0,7452452 0,7767531 0,8328112 0,8157121 0,7922449 0,8149164 0,9028785 
0,9795523 0,9775558 0,9607062 0,973488 0,975351 0,9688592 0,9627383 0,9484859 0,9142927 0,9169207 0,9429188 0,9562911 0,9630669 0,9690903 0,9751247 0,972967 0,9619166 0,9687468 0,9753987 0,9786788 0,9808553 0,9804302 0,9807921 0,9788349 0,9737364 0,9676124 0,9680295 0,9710967 0,9821253 0,9838026 0,9835528 0,9820794 0,9799042 0,9769258 0,9807487 0,9835213 0,9809469 0,9751368 0,9666722 0,9508878 0,9107957 0,8737916 0,8960952 0,9007134 0,9268817 0,9114849 0,884496 0,9187868 0,9496018 0,9756602 0,9819379 0,9844209 0,9853241 0,9855562 0,985018 0,9835365 0,9817606 0,9797197 0,9758924 0,9695054 0,9597636 0,9367318 0,8721091 0,8940019 0,9256765 0,8851452 0,9021078 0,9129597 0,9206015 0,923346 0,9280974 0,9374576 0,9410455 0,9335243 0,9362267 0,939727 0,9413286 0,9422051 0,9403867 0,9366713 0,9328145 0,9323268 0,9386616 0,9160559 0,8822148 0,9161281 0,9170015 0,9210382 0,9069948 0,876894 0,9173978 0,9384907 0,9250433 0,922654 0,924517 0,9249642 0,9138395 0,8988168 0,8343445 0,821037 0,8607589 0,8434068 0,831338 0,890822 0,9333428 0,9310237 0,9022998 0,8440882 0,7983949 0,7822774 0,7707374 0,7441716 0,7285253 0,7451944 0,7851951 0,767036 0,7599757 0,7508683 0,7620765 0,8089044 0,9037725 0,9158119 0,8926456 0,8610872 0,8201901 0,7768259 0,8539999 0,9181321 0,8971143 0,9084547 0,9240461 0,8939186 0,8420062 0,7940841 0,9224752 0,9386008 0,9416949 0,9456983 0,9473168 0,933606 0,9214349 0,9338518 0,9207767 0,9036796 0,8850028 0,8800632 0,8520319 0,8688135 0,8595852 0,8465973 0,8579651 0,8543417 0,8351595 0,7466557 0,7478033 0,8283954 0,8337413 0,8191972 0,8060317 0,9229103 
0,9933054 0,9887816 0,9852492 0,9853993 0,9780818 0,9654722 0,961652 0,9533555 0,94151 0,9334422 0,9236516 0,9426123 0,9541658 0,9590184 0,9698802 0,956662 0,9465452 0,9628291 0,9688437 0,9754677 0,9779165 0,9773279 0,9764975 0,9680598 0,9534852 0,96412 0,975714 0,9667916 0,9814926 0,9828509 0,9798086 0,9759071 0,9694645 0,9705298 0,9794057 0,9837357 0,9823216 0,9805088 0,9777763 0,9749758 0,9649137 0,9412363 0,9411216 0,9428462 0,9438211 0,9453982 0,9501623 0,9624697 0,9780998 0,9825556 0,9841876 0,9856061 0,9855828 0,985263 0,9849268 0,9835533 0,9827235 0,9812762 0,9773199 0,9731452 0,9665196 0,9520117 0,9179335 0,8366259 0,9690283 0,8981017 0,9000668 0,9113495 0,9189821 0,9217921 0,9292313 0,93319 0,9334013 0,9335883 0,9371732 0,9338753 0,9332213 0,9294675 0,9184217 0,9119441 0,9106685 0,9176379 0,920733 0,8847064 0,8444237 0,9341176 0,9033333 0,9202619 0,925917 0,8531992 0,909 0,9176317 0,9244931 0,9255445 0,9259943 0,923124 0,9056708 0,908483 0,8771147 0,8134106 0,8266994 0,8303664 0,8033077 0,8277373 0,8757696 0,8914704 0,8229039 0,7898717 0,7810346 0,8031314 0,7765536 0,7535062 0,7665803 0,7842913 0,78725 0,780435 0,7289048 0,7527021 0,8104287 0,8205024 0,9250752 0,9360331 0,9274876 0,9002153 0,8563047 0,8209764 0,8182434 0,8694992 0,9196452 0,9368929 0,9103018 0,8645397 0,8119342 0,8197089 0,9498755 0,9274152 0,9163811 0,8945487 0,9328622 0,9338881 0,9377946 0,9328132 0,9318445 0,9149672 0,8644315 0,8488715 0,8534635 0,8720114 0,8659377 0,861948 0,8551117 0,851377 0,8306446 0,7632228 0,777846 0,8013889 0,8129801 0,8392426 0,8029445 0,9106503 
0,9864249 0,9868025 0,9941043 0,9932533 0,9898497 0,9786373 0,9659739 0,9559597 0,9404945 0,9378221 0,933764 0,9395291 0,9342558 0,9444268 0,9631016 0,9480736 0,9554076 0,9664406 0,9642561 0,977235 0,9785759 0,9755299 0,972844 0,9731017 0,963989 0,9757159 0,9843196 0,9724658 0,9732551 0,9797378 0,9724401 0,9623089 0,9541353 0,9674065 0,9724848 0,9840518 0,98348 0,9833412 0,9807148 0,9786283 0,9770895 0,973303 0,9708574 0,9698657 0,9697154 0,9705525 0,9735713 0,9789191 0,9842933 0,9857826 0,9846848 0,9849266 0,9843969 0,9838651 0,9830567 0,9828267 0,9818396 0,9790964 0,9737086 0,9715259 0,9675905 0,958585 0,9413881 0,8851404 0,8467579 0,9780867 0,9161997 0,8921243 0,896594 0,9118105 0,9263663 0,931951 0,932614 0,9322175 0,9307311 0,9222007 0,9284083 0,9257932 0,9089307 0,8732271 0,8991576 0,9237964 0,9020563 0,8574124 0,8259677 0,9486407 0,9063499 0,8711863 0,8869009 0,8977253 0,9175052 0,9080243 0,908485 0,9180658 0,9314829 0,9163283 0,9013166 0,909597 0,9015926 0,8630654 0,8280156 0,8259423 0,8238314 0,7858862 0,8285289 0,8399565 0,8329198 0,799596 0,7685429 0,7610006 0,7464537 0,7653877 0,7943794 0,7819118 0,7830245 0,7911524 0,7772601 0,7962695 0,8271028 0,8874734 0,9387158 0,9315905 0,9218878 0,9091563 0,8730366 0,841782 0,7902327 0,7954844 0,8971168 0,8783618 0,8442454 0,8437004 0,8108244 0,8771826 0,9280518 0,9262495 0,874191 0,9021554 0,9144169 0,9245599 0,9378955 0,9264975 0,9302028 0,9275236 0,8618996 0,8369265 0,8480833 0,861514 0,8528749 0,8568739 0,8528214 0,847565 0,8308479 0,7458493 0,723295 0,7715311 0,8124503 0,8494827 0,8266422 0,8994573 
0,9002332 0,9825876 0,9937242 0,991363 0,9946718 0,9860013 0,9834931 0,9781131 0,9580436 0,9430941 0,951854 0,9619097 0,9532652 0,9629598 0,9665307 0,9551052 0,9672157 0,972846 0,9720685 0,9784784 0,9823379 0,9788739 0,9788426 0,9853634 0,9809908 0,9858759 0,9899462 0,9881271 0,9799743 0,981194 0,9682096 0,9459106 0,9623895 0,9813772 0,9825645 0,9848974 0,9848855 0,9848747 0,9835312 0,9832674 0,9803984 0,975906 0,9789437 0,9790436 0,9780069 0,9772035 0,9783964 0,9817891 0,9862037 0,9856378 0,9830062 0,9813868 0,9806745 0,9799655 0,9804314 0,9796019 0,9773122 0,973017 0,9684247 0,9691156 0,9672188 0,9631616 0,9560465 0,9342653 0,859257 0,8364847 0,9608033 0,9701951 0,9293519 0,9056627 0,9150359 0,914673 0,9174588 0,9241468 0,9293717 0,9221997 0,9397117 0,9226584 0,8691412 0,8932427 0,9246708 0,8987425 0,8861686 0,8360777 0,8411105 0,9757275 0,8959662 0,9006137 0,9144654 0,9128561 0,9160365 0,9044437 0,8987359 0,9117011 0,905876 0,8764886 0,8888737 0,9147153 0,9070609 0,88088 0,8448817 0,8188568 0,8080981 0,8040965 0,7933674 0,8393582 0,8323354 0,8002722 0,7612885 0,7471521 0,7598021 0,7886084 0,7924925 0,7892718 0,7908247 0,7997524 0,8068973 0,8289584 0,8632162 0,9065208 0,9423443 0,9133075 0,9091676 0,8929795 0,8747574 0,8535132 0,7768134 0,7584919 0,8623399 0,8457925 0,8086047 0,8020743 0,7770312 0,9117243 0,9068191 0,9384624 0,8919197 0,8932393 0,9135023 0,9049887 0,9308333 0,9222934 0,9321855 0,9079173 0,8718562 0,8298539 0,8423573 0,8446457 0,8494775 0,8599146 0,8567692 0,8502643 0,8198358 0,7678295 0,7516086 0,7555583 0,83381 0,8446588 0,856777 0,9122183 
0,8358046 0,9465572 0,9736099 0,987779 0,9945955 0,988453 0,9904447 0,9888948 0,9827045 0,9722304 0,9690672 0,9783996 0,9800079 0,9812273 0,9752769 0,9637985 0,9745988 0,9782258 0,9784977 0,9765595 0,9819515 0,9850053 0,9883618 0,9901539 0,9860715 0,9868385 0,9898551 0,9896661 0,9880606 0,9833658 0,9642369 0,9496716 0,9835101 0,9872381 0,9863555 0,9872535 0,9857317 0,9821068 0,9800587 0,9799517 0,9857856 0,9808698 0,9831074 0,9808165 0,9694117 0,9619293 0,974377 0,9845667 0,9892069 0,9876551 0,9819627 0,9768713 0,9717214 0,9714087 0,9726131 0,9731508 0,9713121 0,9708419 0,9706485 0,9717489 0,9711089 0,9683357 0,9631146 0,9548482 0,9297771 0,8784423 0,8121073 0,8199098 0,861342 0,9525711 0,9595945 0,9298171 0,8999832 0,9146059 0,9206155 0,929674 0,9326414 0,9167032 0,9244044 0,903841 0,8919501 0,8760905 0,8804118 0,8227003 0,9419258 0,9668896 0,9152651 0,9248286 0,9251537 0,9292291 0,918107 0,9166127 0,9061133 0,8909929 0,8461342 0,8785748 0,8994783 0,9164141 0,9124005 0,8857037 0,8845586 0,8781918 0,83798 0,7939937 0,7568191 0,7950559 0,7841374 0,7391275 0,742696 0,766605 0,7863272 0,7780455 0,7724273 0,7789111 0,7975857 0,7977703 0,8171542 0,7915589 0,7992749 0,8477426 0,9336069 0,9067965 0,9139286 0,8754404 0,8600724 0,846411 0,8011775 0,7419051 0,8193463 0,8528556 0,7914554 0,7746083 0,7845073 0,9474853 0,904021 0,9166178 0,9385176 0,8997196 0,8813159 0,8548518 0,8970841 0,9134221 0,9179385 0,8843054 0,8514774 0,8186311 0,8326972 0,8287882 0,8466953 0,8595892 0,8574206 0,8456924 0,8001844 0,8092698 0,7697129 0,7836149 0,8069813 0,8276247 0,8646523 0,9178795 
0,8043057 0,8609068 0,9114177 0,9824093 0,9948851 0,9956263 0,9931387 0,9896808 0,9904155 0,9868424 0,9834034 0,9862407 0,987161 0,9872873 0,9839767 0,9769813 0,9785526 0,9826633 0,9841842 0,9796417 0,9818439 0,9883422 0,991583 0,9921109 0,9890103 0,9876676 0,989745 0,9904961 0,9894066 0,9858406 0,9671544 0,9754308 0,9908058 0,9900113 0,9889557 0,9877223 0,985018 0,9777095 0,9799697 0,9879268 0,9869262 0,9806935 0,9814911 0,9804071 0,9720429 0,97846 0,9874415 0,9915149 0,9921366 0,9902536 0,9845287 0,9748467 0,9547806 0,952739 0,9614048 0,964847 0,9671512 0,9701386 0,9709556 0,9723074 0,9723229 0,9712235 0,9689831 0,9640999 0,9555839 0,9427879 0,9189072 0,8927101 0,8556569 0,8187844 0,8652892 0,866484 0,9623231 0,9682543 0,9525917 0,9324789 0,9109944 0,8693311 0,9553457 0,8749864 0,9132729 0,9210448 0,8910469 0,930935 0,9122435 0,8826462 0,9033917 0,9249228 0,9364564 0,9526085 0,9469274 0,9599937 0,9305912 0,915152 0,877234 0,8767257 0,8790669 0,8837107 0,8769277 0,8745954 0,8857987 0,8787578 0,8572353 0,8347871 0,8160498 0,7831495 0,7821018 0,7850658 0,7959781 0,8009647 0,785459 0,7424877 0,7677779 0,7899524 0,8016194 0,815097 0,8389848 0,8245585 0,8142962 0,7864295 0,8798058 0,939615 0,9119473 0,8886213 0,8551908 0,8423948 0,8148457 0,7812296 0,8047069 0,8801411 0,8107573 0,7860467 0,8862512 0,9342965 0,928678 0,9163915 0,9466711 0,9203017 0,865651 0,8599018 0,8750496 0,9014474 0,9226206 0,8894955 0,8459727 0,8519125 0,8464341 0,8356892 0,8577291 0,8661794 0,8620658 0,8417634 0,8108445 0,8128972 0,7799097 0,7957416 0,8164095 0,8312084 0,8596751 0,9344094 
0,8260651 0,797008 0,7956389 0,9401976 0,9969749 0,9985166 0,9952977 0,991377 0,9913462 0,9870646 0,9830778 0,9871509 0,9878336 0,9882684 0,9883751 0,9850129 0,9835205 0,9851401 0,9885764 0,9852377 0,9858063 0,98958 0,9917694 0,9921721 0,9910169 0,9899023 0,9901643 0,9909097 0,9903597 0,9880169 0,9803761 0,9892067 0,992627 0,9914462 0,9900284 0,9882733 0,9852515 0,9814514 0,9880342 0,9889712 0,9866077 0,9804209 0,9836283 0,9886879 0,9891955 0,9903512 0,991432 0,9919993 0,9910119 0,9893723 0,9853444 0,970964 0,9503355 0,9098986 0,9390733 0,9511567 0,9596758 0,9662054 0,9695126 0,9717453 0,9720694 0,9720985 0,9713594 0,9698306 0,9675254 0,9604197 0,9465271 0,9176427 0,8776339 0,8292358 0,8449957 0,7952725 0,7707672 0,8806143 0,9368587 0,9440694 0,9548577 0,9376047 0,9935844 0,9010922 0,874709 0,8862118 0,9205654 0,9559056 0,8747057 0,9013572 0,9351494 0,9290451 0,9428648 0,9597857 0,9688495 0,9617871 0,9422753 0,8978768 0,871625 0,8639555 0,8429906 0,8497286 0,8556554 0,8784916 0,8885943 0,8923526 0,865818 0,8252337 0,8229454 0,8158413 0,7999727 0,812718 0,8052607 0,8047032 0,7759137 0,724919 0,7907746 0,8211684 0,8182864 0,8413625 0,8444725 0,8481171 0,8472576 0,9013358 0,9222013 0,9400809 0,9333932 0,9137074 0,8920465 0,8562412 0,8173034 0,7545125 0,7485229 0,8491968 0,8692015 0,8249569 0,9099503 0,9054359 0,9401911 0,9320484 0,9422808 0,9236079 0,8639899 0,8311297 0,8399378 0,8891255 0,9158551 0,8872519 0,8392674 0,8550401 0,8253902 0,8193387 0,8517654 0,8606087 0,857601 0,8302199 0,8040013 0,7891758 0,795279 0,7905576 0,8376742 0,8530517 0,8818592 0,9269494 
0,7868934 0,8026417 0,763702 0,9666567 0,9967602 0,9986426 0,994074 0,9912305 0,9915544 0,9813894 0,9766386 0,9856721 0,9894946 0,9908127 0,9891248 0,9855336 0,987139 0,9876596 0,9907221 0,9911289 0,9902313 0,9911977 0,9919594 0,9920651 0,9919995 0,9910721 0,9908206 0,9910363 0,9909349 0,989861 0,989363 0,9917625 0,9925752 0,9917455 0,99075 0,9891772 0,9857928 0,9806398 0,9888822 0,9883293 0,9865162 0,9834692 0,9849442 0,9896296 0,9897281 0,9902592 0,9901928 0,9898608 0,9887258 0,9862884 0,9815527 0,9709187 0,9698856 0,9054879 0,9024346 0,9376339 0,9509073 0,9596338 0,9650587 0,9692421 0,9702432 0,9715546 0,9722723 0,9714414 0,9707365 0,9655942 0,957562 0,9424899 0,9163426 0,8883691 0,8628259 0,8306527 0,8217643 0,83299 0,8316235 0,7808933 0,8073959 0,8275068 0,9329112 0,9835215 0,9685312 0,9497769 0,9842268 0,9713258 0,9577605 0,9236382 0,9123027 0,9432186 0,9550039 0,9687291 0,9754634 0,9782456 0,9582801 0,9125243 0,8892146 0,8865437 0,8826812 0,8745108 0,8717288 0,8693123 0,8670087 0,8775364 0,8612033 0,8375061 0,8247598 0,8175295 0,7947559 0,8165107 0,8117765 0,7945722 0,7568545 0,7752283 0,8019302 0,8418446 0,842404 0,8379145 0,8544776 0,8632715 0,8797566 0,9428208 0,9480848 0,9408641 0,9384357 0,9240121 0,8952955 0,8468331 0,801834 0,7742346 0,7819911 0,79337 0,8893219 0,9162552 0,8820155 0,8613286 0,9095505 0,9285575 0,9445676 0,9194794 0,8773943 0,831651 0,8345568 0,8849961 0,9106725 0,8915463 0,8525494 0,8403728 0,8179729 0,824998 0,8463749 0,8525959 0,8518412 0,8147008 0,8083584 0,771465 0,7907766 0,8125694 0,8536366 0,8621572 0,8781714 0,9295599 
0,8057604 0,737313 0,7868571 0,879195 0,9417548 0,9945548 0,9848919 0,9845626 0,9844403 0,9782117 0,9810977 0,9876996 0,9904095 0,9915186 0,9867681 0,9857743 0,9893441 0,991524 0,9920086 0,9914055 0,9894109 0,9911256 0,9921402 0,9919854 0,9921142 0,9919295 0,9915795 0,9914026 0,9910175 0,9909781 0,9913014 0,9917046 0,9916225 0,9912401 0,9909797 0,9889331 0,9843671 0,9789509 0,989195 0,9873647 0,9873433 0,9872433 0,9858348 0,987173 0,9877039 0,9880294 0,9880657 0,9873152 0,9846064 0,9798328 0,966382 0,9358528 0,9611741 0,9183149 0,8905982 0,9282551 0,9453725 0,9548225 0,9605476 0,9648554 0,9672551 0,9692367 0,97079 0,9714136 0,9713781 0,9695425 0,964846 0,9587581 0,9501359 0,9285924 0,8764582 0,8293312 0,8027543 0,837715 0,8063608 0,7648221 0,7972281 0,833807 0,8681322 0,9281334 0,9298592 0,9569269 0,9299765 0,9080606 0,9095088 0,9110808 0,9227389 0,9602447 0,9682683 0,9654665 0,9680817 0,9546094 0,9152706 0,9126694 0,8856945 0,8947687 0,8823011 0,8612466 0,8494556 0,8490959 0,8605004 0,8711707 0,8615357 0,8409097 0,8237486 0,8265582 0,7761871 0,8245351 0,8158796 0,7661467 0,7632836 0,820356 0,8474716 0,8483062 0,8446156 0,8442186 0,8555721 0,8443663 0,9083211 0,9492904 0,9421624 0,9345143 0,9374188 0,9149535 0,8879893 0,8332687 0,7631845 0,7589468 0,7777665 0,8190534 0,8963286 0,8752322 0,8450839 0,8686811 0,9047707 0,9378288 0,9145878 0,8692212 0,8515705 0,8457217 0,8486295 0,8818827 0,899847 0,8888989 0,8879058 0,7933818 0,8062334 0,8270651 0,8409399 0,8379415 0,8192919 0,8197285 0,8149893 0,7795242 0,7956766 0,8571023 0,890974 0,8878648 0,8731099 0,9177482 
0,7875257 0,720602 0,815285 0,8164356 0,8184689 0,9783795 0,9753149 0,9802329 0,9747441 0,9779084 0,9834086 0,9853514 0,9887412 0,9919504 0,9893945 0,9906474 0,9916616 0,9922346 0,9918345 0,9896592 0,9900153 0,9920448 0,9916576 0,9918975 0,9921371 0,9921906 0,9918541 0,9916322 0,9913567 0,9911587 0,9910523 0,9911665 0,9908805 0,9901569 0,9893808 0,9847574 0,977024 0,9803939 0,9901929 0,9884564 0,9880048 0,9871191 0,9844598 0,984466 0,9852184 0,9852754 0,986665 0,9846254 0,979381 0,9674829 0,9103748 0,9589758 0,8895422 0,891573 0,9131039 0,927694 0,9412239 0,9509507 0,9565649 0,9606022 0,9636768 0,9660896 0,9673789 0,9696491 0,9706813 0,9695027 0,9672575 0,9582763 0,9470818 0,919229 0,8142897 0,8116716 0,811723 0,8227252 0,8202046 0,8054098 0,7944106 0,8317013 0,8739301 0,927983 0,9206991 0,8955882 0,9435712 0,932443 0,9203907 0,9464002 0,9469961 0,9695427 0,9579962 0,9496068 0,9390479 0,9367132 0,9388528 0,9305754 0,911084 0,9022539 0,8932068 0,8717347 0,863576 0,8607084 0,8602254 0,8620789 0,8609778 0,8503104 0,8223542 0,826715 0,7861024 0,7851722 0,8206931 0,7803993 0,8096287 0,8571391 0,8668353 0,8604601 0,8570502 0,8480647 0,808866 0,8873776 0,9197928 0,941384 0,933702 0,9245657 0,9341998 0,9229558 0,9059344 0,8435552 0,7936789 0,8605668 0,8029022 0,7810526 0,9070932 0,8646158 0,8302101 0,874421 0,9203368 0,9069151 0,8476972 0,8490696 0,8533211 0,8574203 0,8718867 0,8965588 0,898133 0,8978058 0,8913524 0,7977923 0,8020496 0,8215066 0,8416815 0,8192723 0,8129686 0,7943122 0,8147476 0,8698699 0,8656543 0,8496791 0,8488595 0,8416314 0,8420624 0,9081535 
0,8303809 0,773425 0,7604153 0,8094085 0,7893111 0,9552304 0,9842249 0,9833242 0,9734678 0,9827673 0,9839286 0,9857876 0,9913363 0,9931708 0,9929177 0,9926314 0,9918414 0,9893209 0,9912154 0,9915696 0,99152 0,9922791 0,9916738 0,9916925 0,9919335 0,992135 0,9920264 0,9918724 0,9916667 0,991152 0,9907411 0,9902937 0,9898356 0,9888289 0,9873868 0,9784256 0,9646406 0,9799831 0,9887961 0,988603 0,9867369 0,9841785 0,9777465 0,9743979 0,9797589 0,9839097 0,9850673 0,9824078 0,9748939 0,9604914 0,8714181 0,9946572 0,8440941 0,891403 0,9229805 0,9331374 0,9402425 0,9500703 0,9540262 0,9541817 0,9569848 0,961637 0,9622539 0,9647398 0,9682059 0,964003 0,9527006 0,943485 0,9359088 0,9159973 0,8380262 0,8509952 0,8620136 0,858687 0,8530233 0,8330266 0,7933261 0,7750013 0,8683331 0,8979436 0,8934368 0,8727262 0,9208433 0,9316846 0,920254 0,9579949 0,9605485 0,9697748 0,9322693 0,9469173 0,9463504 0,9443329 0,9275097 0,9301138 0,9151571 0,907362 0,8707764 0,8335799 0,8356724 0,8525841 0,8529311 0,8417994 0,837012 0,8226867 0,8123018 0,8174771 0,7824837 0,7667453 0,814035 0,8246547 0,8687693 0,8947107 0,8888789 0,8789452 0,8591021 0,8265113 0,8067648 0,9367528 0,8825953 0,9285717 0,9145068 0,8909045 0,9237494 0,9261374 0,9140359 0,8624127 0,7813656 0,8563054 0,8528867 0,8527721 0,9620628 0,9090047 0,8542333 0,8218194 0,8310551 0,8572754 0,8322435 0,8413657 0,8549911 0,8581848 0,8684154 0,8908882 0,8780022 0,8724809 0,8627257 0,7987821 0,7641252 0,8047092 0,8252399 0,8148276 0,8053363 0,8287153 0,7749658 0,7481345 0,7611551 0,7544226 0,7739172 0,7876227 0,799265 0,8884237 
0,8530114 0,8186237 0,7446778 0,7684367 0,7869958 0,8325736 0,9663587 0,9773091 0,9711879 0,9842714 0,9843259 0,9878813 0,9913188 0,9923325 0,9927081 0,9911036 0,9876434 0,9873276 0,9923182 0,9930272 0,9930943 0,992901 0,993004 0,9923657 0,9922727 0,9922754 0,9921348 0,9919464 0,9913806 0,9909633 0,990224 0,9896221 0,9884626 0,986802 0,9846671 0,9685849 0,9597297 0,9857646 0,9890839 0,9875531 0,9823396 0,9743272 0,9598017 0,9637126 0,9807354 0,9825574 0,9823087 0,9800303 0,9757064 0,9594362 0,8895285 0,9791046 0,8478267 0,8814595 0,917262 0,9369136 0,94769 0,9526141 0,9570197 0,9576581 0,9480355 0,9408649 0,9460897 0,9539979 0,9615157 0,9565133 0,9257824 0,8939118 0,8956532 0,8979471 0,8746179 0,8827893 0,8988804 0,8989543 0,8885074 0,8748245 0,8517421 0,7951341 0,8518778 0,8564801 0,8892349 0,9012778 0,9407971 0,9513381 0,9492046 0,9615598 0,9705487 0,9722281 0,9570426 0,9673307 0,9520395 0,9261932 0,9077256 0,9124284 0,9053129 0,9136825 0,8811262 0,8493187 0,8630994 0,8567144 0,8556783 0,8415802 0,8158357 0,8277156 0,8275418 0,8271562 0,8242429 0,8140415 0,8420031 0,8294664 0,8744378 0,8615319 0,8821814 0,8787409 0,8422198 0,8161013 0,8949233 0,9316549 0,9038852 0,9345676 0,913885 0,8964383 0,9355879 0,9291667 0,9159113 0,8930972 0,8408028 0,8469342 0,830865 0,8561848 0,9249843 0,8681853 0,8031483 0,8402969 0,8537957 0,8258376 0,8446709 0,8512372 0,8729434 0,8615739 0,8770046 0,8917698 0,8665848 0,8544177 0,8539913 0,8279865 0,7653833 0,8004793 0,8242333 0,8233591 0,8034464 0,8276395 0,8478447 0,845013 0,8291808 0,8180375 0,7873033 0,7767944 0,7927584 0,8770421 
0,8750044 0,8343765 0,7903781 0,747704 0,753239 0,7784811 0,8766026 0,9615805 0,9672632 0,9853231 0,9849881 0,9880379 0,9910814 0,9910144 0,9900827 0,9850721 0,9811818 0,987905 0,99056 0,9903196 0,9922649 0,9931421 0,9932144 0,9925568 0,9920197 0,9918559 0,9916703 0,9914885 0,9906422 0,9900104 0,9887861 0,9884763 0,9864234 0,983781 0,9769649 0,954843 0,9719147 0,9885435 0,9878467 0,9852822 0,9760104 0,9554837 0,9421611 0,9723184 0,982597 0,9819899 0,9813191 0,980961 0,9766598 0,9577426 0,8976129 0,9662564 0,8858736 0,8464381 0,8769476 0,9153413 0,9413238 0,947811 0,9518864 0,9514769 0,9361876 0,8886368 0,9095237 0,9261755 0,9437543 0,9305193 0,8840481 0,8944504 0,9082279 0,9127676 0,8989381 0,8920372 0,9121006 0,9086738 0,8864948 0,8688068 0,8712251 0,850741 0,8692949 0,9014458 0,8916969 0,9006819 0,9229001 0,9278998 0,9267604 0,9103284 0,9129221 0,9235492 0,9307754 0,9124843 0,9041819 0,8968179 0,8911335 0,9068835 0,9209924 0,9086195 0,8768013 0,8745928 0,8752135 0,8382583 0,818979 0,8238134 0,8300483 0,8307993 0,8321859 0,8181098 0,8258872 0,8438466 0,8271732 0,8461183 0,8745239 0,831713 0,878556 0,8566413 0,8030729 0,8233358 0,9416726 0,878929 0,9166191 0,9299751 0,9333777 0,945828 0,9443276 0,9360982 0,916724 0,8987488 0,8796821 0,8147816 0,7859098 0,7623487 0,8821579 0,9386344 0,8482991 0,8283753 0,8015939 0,8264834 0,8363137 0,8459467 0,8694642 0,8682493 0,8666452 0,8812875 0,8591216 0,8469777 0,8271855 0,8125976 0,7820951 0,8066972 0,8242566 0,8102618 0,8150269 0,8013321 0,841385 0,8464864 0,8519887 0,8765006 0,8685198 0,8275492 0,8063622 0,8856571 
0,8904962 0,8509401 0,8209284 0,7559917 0,7372726 0,7624708 0,8050857 0,9866287 0,9812554 0,9841913 0,9861264 0,9892316 0,9906719 0,99124 0,9910191 0,9808029 0,9778204 0,987168 0,9853551 0,9815403 0,9860501 0,9887834 0,9906088 0,9908326 0,9886375 0,9890394 0,9902336 0,9899537 0,9894974 0,9882743 0,9870842 0,9860072 0,9822136 0,9742103 0,9528462 0,9688802 0,9894267 0,990447 0,9874921 0,9806921 0,9693152 0,940456 0,9628403 0,9855375 0,9883712 0,9845749 0,9832404 0,9819799 0,9776229 0,9652941 0,9361583 0,945792 0,8973709 0,9238932 0,9695771 0,9361576 0,9157198 0,9196013 0,9367442 0,9409113 0,9123843 0,9350079 0,8962608 0,9160156 0,9301648 0,9367887 0,9091024 0,9034784 0,9257258 0,9314467 0,9371132 0,8831694 0,8783146 0,8808976 0,868811 0,878757 0,8776172 0,8582909 0,8523964 0,9187992 0,9151366 0,9027125 0,9036773 0,8938528 0,8930144 0,8960871 0,8787689 0,8700467 0,8898063 0,8889674 0,8811013 0,8776029 0,9046932 0,9234802 0,9089172 0,8581799 0,8182694 0,8055688 0,7835121 0,7853252 0,8260214 0,8244468 0,8270531 0,8323706 0,8308282 0,8197908 0,8389794 0,8454854 0,8343907 0,8644518 0,8542424 0,8361179 0,867821 0,8264033 0,8253565 0,9317281 0,9360342 0,9192195 0,9035668 0,9044516 0,9335687 0,9444473 0,9445788 0,9311645 0,90474 0,8873563 0,8832203 0,840121 0,7861153 0,8240558 0,9807864 0,8648709 0,849984 0,8578662 0,8390069 0,8310478 0,8476534 0,863531 0,8519814 0,8605826 0,8747604 0,8869991 0,8547271 0,8364502 0,8235621 0,8193771 0,815686 0,8213536 0,8176644 0,8082501 0,8044126 0,7649805 0,8194304 0,8502623 0,8558636 0,8908694 0,890047 0,875744 0,8779439 0,9080169 
0,8994066 0,8532816 0,8277253 0,8033442 0,7598085 0,7358897 0,7570014 0,9199903 0,9860175 0,9733248 0,9802927 0,9864243 0,9896097 0,9913533 0,9890098 0,9723105 0,9798024 0,9828128 0,9672691 0,9501862 0,954433 0,986643 0,9878651 0,9867657 0,9819242 0,9868553 0,9878925 0,9870982 0,9870704 0,986298 0,9844465 0,9811506 0,9721103 0,9494625 0,9226519 0,9766538 0,9864846 0,9887474 0,9789534 0,9673626 0,9534552 0,9644469 0,9842618 0,9902169 0,9896369 0,9847273 0,9805754 0,9757854 0,9721409 0,9652191 0,9628723 0,9406994 0,8669801 0,8674496 0,8873969 0,9098886 0,9343187 0,9664817 0,953858 0,9587172 0,9840408 0,9367676 0,9184916 0,9229656 0,9451159 0,9284219 0,9014785 0,8995677 0,9127724 0,9326982 0,9592547 0,9245808 0,8977922 0,8977777 0,8868921 0,8897694 0,8798639 0,866827 0,8334177 0,903982 0,9278914 0,9084312 0,9225808 0,9266068 0,9086241 0,8989145 0,8890942 0,8890423 0,9101086 0,9068746 0,8983645 0,9126049 0,9158342 0,8760972 0,8223706 0,8020135 0,8207159 0,8481367 0,8380833 0,8269351 0,8241829 0,8288248 0,8406544 0,8320841 0,8186433 0,8138002 0,8319119 0,8565668 0,8312424 0,8496289 0,8459799 0,8668317 0,862695 0,8132713 0,836903 0,9447532 0,8945578 0,9338946 0,9227146 0,945017 0,9506246 0,947839 0,9441672 0,9239565 0,8737251 0,8724872 0,8639724 0,863277 0,801475 0,802637 0,9442785 0,7913893 0,7947122 0,8289338 0,8328776 0,8502865 0,8546735 0,8623536 0,8546433 0,8396182 0,8409741 0,8392081 0,8307221 0,8009576 0,8097329 0,82082 0,8212596 0,8217275 0,8071325 0,8141444 0,7995032 0,7704164 0,7734396 0,8296739 0,858361 0,8794481 0,873325 0,8535995 0,8773898 0,9068905 
0,8935288 0,8495136 0,8471362 0,8264096 0,7976815 0,7280596 0,7799876 0,874032 0,9613739 0,9761598 0,9562544 0,9625741 0,975536 0,9810667 0,9809616 0,9723647 0,9810578 0,9770656 0,9505432 0,9539269 0,9569067 0,9395483 0,9552997 0,9785167 0,9865524 0,9879595 0,9871751 0,9854547 0,9851502 0,9820201 0,978797 0,9736381 0,9533865 0,9097158 0,8587455 0,975021 0,9870126 0,9869113 0,9607062 0,9470613 0,9524792 0,9813245 0,988004 0,989674 0,9860352 0,9796457 0,9695542 0,9581068 0,9416566 0,9689881 0,9340777 0,9170966 0,9037193 0,906352 0,9186489 0,9277548 0,9337469 0,9029158 0,911268 0,8935325 0,910373 0,9128449 0,9333227 0,9214209 0,9547169 0,9723102 0,9340751 0,9070777 0,9361433 0,9459427 0,9141604 0,9229083 0,8897679 0,8919954 0,9001917 0,9039143 0,901405 0,8872235 0,8635874 0,8763368 0,9258794 0,9365668 0,9376897 0,9369989 0,9296505 0,9257134 0,9098769 0,9125187 0,9221686 0,9168662 0,9113526 0,8900212 0,8594437 0,8110659 0,8211364 0,8305557 0,8466797 0,83983 0,8299079 0,8343803 0,827917 0,8375291 0,8466961 0,8201121 0,7998055 0,8235308 0,7862142 0,7912371 0,7944104 0,8312434 0,8417071 0,8595839 0,8475083 0,8366356 0,8401451 0,9230309 0,936519 0,9336866 0,9486752 0,9535435 0,951201 0,9468933 0,9382124 0,9158937 0,8558329 0,9348857 0,9021642 0,8880625 0,8466289 0,8262522 0,938661 0,7876786 0,7766516 0,8071342 0,8398362 0,8407622 0,8575776 0,8697476 0,8720868 0,863608 0,8611196 0,8420812 0,8355492 0,8272144 0,8346212 0,8355733 0,8336505 0,8146971 0,8034849 0,8074032 0,7944749 0,7774216 0,7600233 0,7845472 0,8328208 0,890352 0,8737765 0,8541355 0,8571895 0,8967752 
0,9053234 0,8871232 0,8641772 0,8390091 0,8040511 0,7394336 0,8010223 0,8066534 0,8276896 0,8036052 0,8233549 0,8762511 0,9302791 0,9677786 0,9768503 0,9741064 0,9752189 0,9722708 0,9685885 0,972387 0,9726275 0,9646999 0,9699473 0,9824648 0,9848061 0,9864095 0,9857693 0,9839807 0,9820139 0,9753743 0,9685291 0,9640721 0,9279034 0,8385844 0,9280744 0,9868551 0,9875351 0,9790742 0,9521712 0,9552779 0,9746951 0,9858777 0,9901105 0,9890323 0,9825332 0,9677657 0,9448974 0,9143843 0,9573947 0,9617997 0,878886 0,9031746 0,9241537 0,9313979 0,9409765 0,9468862 0,9557197 0,9242115 0,8743608 0,8198197 0,8357542 0,8810128 0,8934343 0,9024165 0,9141862 0,9300414 0,9541266 0,9541672 0,9660929 0,9358763 0,8693449 0,8837693 0,8764455 0,8820609 0,898088 0,8707181 0,8831869 0,8922461 0,8865458 0,8928005 0,9162161 0,9182995 0,9281829 0,9350206 0,9277672 0,933142 0,9276056 0,9297296 0,9323341 0,9119647 0,8756692 0,8355282 0,8081437 0,8195363 0,8363181 0,8376346 0,8453273 0,8377111 0,8279216 0,8230179 0,846177 0,8345292 0,8470398 0,8205262 0,8303255 0,8503254 0,864795 0,8537976 0,8433942 0,8451389 0,8493785 0,8560859 0,8416292 0,8557279 0,8390461 0,9596724 0,9519387 0,947939 0,955148 0,9533032 0,9473144 0,9391434 0,9307973 0,9099893 0,8696878 0,9203614 0,9312671 0,8757881 0,8409731 0,9375296 0,9270463 0,8445421 0,8192682 0,8232607 0,8438868 0,863712 0,8598473 0,8682733 0,8747389 0,8739545 0,8477885 0,8568443 0,8543982 0,8472881 0,8400302 0,8407502 0,8302266 0,8085921 0,7818217 0,790676 0,7851937 0,7928081 0,7594566 0,7844594 0,7799437 0,9020149 0,8928249 0,8506604 0,826544 0,8781238 
0,9120151 0,9044518 0,8652346 0,8504173 0,8159733 0,769551 0,8072814 0,8038895 0,8266281 0,801564 0,8028561 0,7807596 0,7777659 0,9575474 0,9792003 0,9778606 0,9662871 0,9759101 0,9704456 0,9753582 0,9756937 0,9704428 0,9673516 0,9788807 0,9811572 0,9833138 0,9842353 0,982796 0,977882 0,9614375 0,9469987 0,9568765 0,8927596 0,8945307 0,9780985 0,9869053 0,9852623 0,967698 0,9737498 0,9865451 0,9892401 0,9897255 0,9910626 0,9869657 0,9742739 0,9331528 0,9129899 0,9643567 0,9428482 0,8575956 0,8733633 0,9232358 0,9462832 0,9510109 0,955661 0,9577124 0,9533252 0,9318954 0,9051336 0,8428769 0,8764368 0,9069989 0,8979543 0,8772142 0,8675278 0,877306 0,9070908 0,8809333 0,9063552 0,9003814 0,869164 0,9154885 0,9048711 0,8986965 0,907642 0,8911886 0,8972443 0,8958167 0,8832214 0,8992414 0,9137973 0,9040735 0,9219575 0,9293906 0,9191427 0,9302353 0,9280242 0,9300706 0,9211202 0,8676957 0,8239645 0,827964 0,8432307 0,8500451 0,8489185 0,8453489 0,8411519 0,8245178 0,8232322 0,8376337 0,859748 0,8432759 0,8147537 0,8335845 0,8644134 0,8926526 0,902311 0,8875127 0,8720748 0,8726057 0,8652603 0,8477436 0,8190536 0,8424753 0,8668197 0,9887973 0,9415637 0,9437551 0,9442216 0,9440554 0,9372382 0,9259411 0,916172 0,9012164 0,8794813 0,8652461 0,9307274 0,8796778 0,9393323 0,940236 0,8250589 0,8211746 0,8338805 0,8336629 0,8405842 0,856773 0,8536736 0,8681826 0,8685178 0,846558 0,8412887 0,8504665 0,8374836 0,8132761 0,8119162 0,8252816 0,8216409 0,7831312 0,725096 0,783663 0,7851911 0,7929644 0,7957212 0,7344286 0,7764543 0,8538659 0,9164527 0,8811566 0,8131 0,8557873 
0,8979067 0,860722 0,8770152 0,8718699 0,8304113 0,8223622 0,8368671 0,8072353 0,8245064 0,7852423 0,7434451 0,7441871 0,7641106 0,7804567 0,9200463 0,9714399 0,9561127 0,9711503 0,9744338 0,976145 0,9757092 0,973574 0,9689695 0,9720843 0,9777248 0,9823362 0,9840797 0,9813361 0,972323 0,9387853 0,9430648 0,961055 0,8754878 0,9369981 0,9628294 0,9856644 0,9854596 0,9821511 0,9893829 0,9924472 0,9930665 0,9928929 0,9914126 0,9841737 0,9585404 0,9120805 0,9808028 0,9130104 0,8489035 0,8817796 0,9075392 0,9341992 0,9505873 0,9572833 0,9570471 0,9596565 0,9583014 0,9340465 0,8869178 0,8740729 0,9060239 0,9247012 0,9106528 0,8932266 0,8802153 0,8621994 0,8208563 0,8129634 0,8397371 0,8317675 0,8530974 0,8781816 0,8782432 0,8940722 0,8827544 0,8824314 0,8743864 0,8704072 0,8436512 0,8804328 0,9003977 0,8989158 0,9218826 0,9219714 0,9214073 0,9316481 0,9311211 0,9115466 0,891072 0,8650303 0,8542784 0,8560351 0,8591938 0,8613576 0,8560886 0,8484974 0,8327992 0,8352496 0,8483405 0,8413123 0,8506415 0,8547034 0,8228729 0,7826834 0,8317834 0,8467944 0,841813 0,8534605 0,8831726 0,8927345 0,8990296 0,8804394 0,8474258 0,8715316 0,8989457 0,9624282 0,9518737 0,934572 0,9250278 0,9316832 0,917981 0,8977385 0,8725901 0,8656757 0,8929939 0,8510586 0,8946074 0,9844463 0,954285 0,8815845 0,8553619 0,8316855 0,8528723 0,8634748 0,8585634 0,8751514 0,8577427 0,8653974 0,8590245 0,8594029 0,837318 0,8390098 0,831281 0,8181251 0,819209 0,812894 0,7914623 0,7342985 0,6883554 0,7685807 0,7619095 0,7906467 0,7953786 0,7315052 0,8086166 0,7982473 0,8629661 0,9107219 0,8503662 0,8456286 
0,8761386 0,8341897 0,84488 0,8841573 0,8741689 0,8551112 0,8281393 0,8386996 0,8328375 0,7977271 0,7640267 0,7418143 0,7152272 0,7086056 0,7267952 0,974854 0,9351499 0,9474399 0,9755967 0,9758871 0,9757032 0,9756691 0,9733608 0,9678621 0,9666988 0,9782277 0,982243 0,9786892 0,9642572 0,9187344 0,9554642 0,964945 0,8725659 0,9797985 0,9585564 0,9821333 0,9814732 0,9859371 0,9890602 0,9909271 0,9925198 0,9931798 0,9916537 0,9822562 0,9342306 0,9381548 0,9304552 0,8277833 0,8538085 0,8737369 0,8811454 0,8857061 0,9062398 0,9286191 0,9222047 0,9291928 0,937027 0,908552 0,8617393 0,8786016 0,9204735 0,9073548 0,8735365 0,886204 0,8850303 0,8811122 0,8684459 0,8585111 0,8606384 0,8548885 0,8642128 0,852381 0,8351648 0,841561 0,8548479 0,8656253 0,8696306 0,8616046 0,851225 0,8599127 0,8479989 0,8383907 0,8578475 0,866933 0,8496685 0,8633794 0,8596978 0,8731479 0,897388 0,8909017 0,8896488 0,8802046 0,8700108 0,867205 0,8634388 0,838591 0,8381041 0,8505496 0,8386545 0,8520572 0,843318 0,8338829 0,8608127 0,7855127 0,8037629 0,8529707 0,8434967 0,8200646 0,8251879 0,8724021 0,8929236 0,8787479 0,8758741 0,861205 0,8061052 0,8306939 0,9788269 0,9369745 0,9205219 0,9199436 0,8986717 0,8338656 0,8304 0,9162669 0,9100698 0,8672814 0,9540356 0,8860704 0,8419791 0,8986177 0,8789826 0,8504537 0,8398615 0,856306 0,8633674 0,8773097 0,8688458 0,8609085 0,8589821 0,8590101 0,8433281 0,8338355 0,8159052 0,8086582 0,8183407 0,8019621 0,7819507 0,7434229 0,7260989 0,8107076 0,8335133 0,8523537 0,8270566 0,7922964 0,7631156 0,8398362 0,8293074 0,8963535 0,8801995 0,8560771 
0,8696856 0,8368037 0,8166551 0,8375865 0,8781289 0,8829629 0,8654175 0,8365437 0,8423005 0,8223909 0,7864428 0,7786934 0,7542069 0,7135183 0,6940295 0,8337529 0,9326634 0,9252764 0,9554884 0,9736701 0,9768623 0,9763473 0,9730834 0,9616531 0,9457579 0,9637109 0,9797049 0,9767825 0,9598919 0,9171981 0,9652638 0,9736966 0,931581 0,9646187 0,9801732 0,9819504 0,9798199 0,9833332 0,9834771 0,9869307 0,9909359 0,9928008 0,9922108 0,9856069 0,9768519 0,938504 0,9509904 0,8888782 0,8620278 0,8848764 0,9071809 0,9085726 0,8886164 0,8730115 0,8961197 0,8720987 0,8433755 0,8535378 0,8782448 0,9104117 0,9153135 0,8974253 0,9011857 0,9029003 0,8917659 0,9053538 0,9067262 0,8960744 0,8838108 0,8556776 0,8410466 0,8413876 0,8427188 0,8418187 0,8430682 0,8404958 0,8610073 0,8723878 0,8636122 0,8657957 0,8539017 0,8347276 0,8478689 0,8673028 0,8661929 0,8773519 0,8799628 0,8882682 0,8852123 0,8976036 0,8957842 0,8811579 0,8642385 0,8557011 0,8449833 0,824904 0,8586638 0,8433805 0,8446788 0,8439243 0,8530549 0,8336803 0,863559 0,8044288 0,7855068 0,8045846 0,8635442 0,8797922 0,8775959 0,8646907 0,8916748 0,8915913 0,8831143 0,8503492 0,8112982 0,8048383 0,9442737 0,9450084 0,904392 0,8738822 0,8902574 0,9428552 0,9888037 0,9860098 0,9531815 0,9683986 0,9162645 0,8351032 0,8295401 0,862031 0,8965048 0,852589 0,8338659 0,8677632 0,8718576 0,8700041 0,8730699 0,8765242 0,8583667 0,83139 0,8135252 0,8189317 0,818741 0,8073997 0,8053842 0,7897165 0,7834933 0,7581955 0,7210493 0,7362506 0,8243281 0,8395417 0,8214794 0,8328624 0,7505043 0,8103636 0,8568087 0,8817012 0,9325647 0,9064782 
0,8650426 0,8292717 0,8240067 0,8029286 0,8072125 0,8540441 0,8740432 0,8600745 0,8524414 0,8209394 0,8087851 0,8030533 0,7768505 0,7326771 0,6896976 0,7755764 0,8563169 0,8633802 0,9124438 0,9483132 0,9724936 0,9750482 0,9714521 0,9582037 0,9299529 0,9385898 0,9776703 0,9767135 0,9576183 0,9163509 0,9683045 0,9818673 0,98124 0,9766556 0,9848024 0,9825246 0,9813139 0,9794561 0,9754174 0,9788541 0,9847594 0,9912066 0,9921879 0,9917455 0,8695357 0,8077937 0,8735114 0,8717798 0,8841045 0,8946846 0,9079159 0,8491511 0,8409357 0,8575569 0,8633483 0,860164 0,8879114 0,8932296 0,8971779 0,9126776 0,9052197 0,8862513 0,8968505 0,8827109 0,9033793 0,9063385 0,8963465 0,8694112 0,856192 0,8436171 0,8348384 0,8299168 0,8197176 0,818962 0,8422414 0,8549277 0,864361 0,8656188 0,8677707 0,8681647 0,8633545 0,8492373 0,8502273 0,861944 0,8675734 0,8747256 0,8685193 0,8642198 0,860173 0,845275 0,824996 0,8303268 0,8370404 0,8389829 0,8292901 0,8536915 0,8615204 0,8623433 0,8532504 0,8434075 0,8617966 0,8581996 0,8783855 0,8505539 0,8089316 0,7915586 0,8054081 0,8507445 0,8652515 0,9133426 0,9158806 0,9037272 0,8763258 0,8454233 0,8128156 0,8181674 0,8806706 0,9567633 0,9580631 0,9703389 0,9453691 0,8419494 0,8593467 0,8936687 0,9296986 0,8927381 0,820442 0,8162309 0,8409884 0,8543651 0,8558928 0,8565904 0,8706561 0,8869141 0,8685091 0,8562962 0,8351993 0,8453079 0,86364 0,8338378 0,8322289 0,8044828 0,8104912 0,8125135 0,7975395 0,7903828 0,7801047 0,748781 0,7054638 0,7981845 0,8205863 0,7956598 0,8316536 0,8594245 0,8009915 0,7708452 0,8088109 0,8457634 0,9657362 0,9475764 
0,8816756 0,8602992 0,8568661 0,8292599 0,7800593 0,7937428 0,7960473 0,8553696 0,8489963 0,8294511 0,818445 0,8092028 0,7899244 0,7484351 0,7271975 0,8395879 0,8886067 0,9347944 0,9466799 0,9386445 0,9536068 0,9705483 0,9680923 0,9577403 0,9373808 0,9376832 0,9781078 0,9763092 0,9536228 0,9239917 0,9714825 0,9806432 0,9828773 0,983879 0,9805702 0,9758701 0,9698161 0,9471094 0,9266275 0,9421506 0,9689184 0,9855529 0,9453061 0,8309994 0,7471949 0,7722995 0,8439252 0,8221501 0,8290001 0,8036447 0,8323852 0,8446741 0,8764873 0,8884231 0,8962644 0,8959047 0,9065784 0,9129457 0,9183233 0,9210167 0,9045328 0,9008982 0,9065083 0,9087079 0,9025255 0,8765836 0,8709697 0,8441958 0,8296123 0,8233598 0,823528 0,8269001 0,8314127 0,8412213 0,850791 0,8581845 0,8632981 0,8650922 0,862478 0,8596111 0,8556075 0,8487865 0,8489454 0,8494051 0,8625499 0,8679993 0,8581682 0,8552698 0,8538507 0,8453875 0,8419295 0,8460442 0,8532124 0,8652083 0,8665105 0,8634703 0,8750803 0,8787503 0,8612908 0,8705953 0,8703543 0,892346 0,9123165 0,9043121 0,8942392 0,8619385 0,8130814 0,8244836 0,8886701 0,9226371 0,9189917 0,906689 0,8797887 0,8638349 0,8596611 0,8753594 0,9330578 0,983277 0,8688897 0,7961913 0,8176988 0,810003 0,8184716 0,8314021 0,8522875 0,8702224 0,8140551 0,8324229 0,8619437 0,8574476 0,8667405 0,8706414 0,8760802 0,8954883 0,8697772 0,8724056 0,8701509 0,8432509 0,8260499 0,8343924 0,837898 0,8097377 0,8191882 0,8157628 0,7877532 0,7683858 0,7549279 0,7262462 0,7047477 0,8169916 0,817585 0,8460394 0,8756474 0,8672381 0,8292351 0,7989089 0,8290027 0,8198547 0,9474952 0,9399745 
0,8734124 0,8744614 0,8801811 0,8770049 0,8635503 0,8521956 0,8071613 0,7865262 0,8073621 0,8189284 0,8092996 0,8124752 0,8046559 0,7775498 0,7444149 0,7585178 0,7921423 0,9286512 0,9635267 0,9594457 0,955689 0,9638271 0,9591819 0,9428875 0,9219761 0,9372839 0,9763393 0,9759525 0,9514782 0,888791 0,9699517 0,9838846 0,9858845 0,9857655 0,9782009 0,9594842 0,9276582 0,9073019 0,9522245 0,966054 0,8857424 0,802783 0,7400845 0,7580013 0,7689721 0,7987435 0,8122113 0,7969855 0,8367146 0,8499712 0,8698058 0,8903636 0,8996549 0,908474 0,9147892 0,9157881 0,9199289 0,9256499 0,9259995 0,9173468 0,905672 0,9187046 0,9088048 0,9054435 0,8592214 0,8499709 0,8454462 0,8172306 0,8158252 0,8241479 0,8252348 0,8356744 0,841406 0,8461177 0,8516043 0,8535587 0,8547488 0,8552771 0,848709 0,843923 0,8389052 0,8359812 0,8453336 0,8380931 0,8276583 0,8477442 0,8468607 0,8514109 0,8553097 0,8585424 0,8550036 0,8735872 0,873647 0,8739164 0,8707467 0,8541434 0,8722275 0,8870349 0,8720796 0,8724757 0,9134822 0,9271606 0,9158455 0,9110376 0,9113652 0,9122243 0,8676513 0,8648912 0,896228 0,915625 0,9175502 0,9057817 0,8743463 0,861155 0,8829433 0,8828571 0,9573915 0,9385174 0,8000094 0,8359941 0,8489721 0,8460094 0,8540116 0,8524421 0,8723456 0,8739961 0,8511591 0,8653836 0,862687 0,8652095 0,8674146 0,8904693 0,8984647 0,9053922 0,8868619 0,8755195 0,8404513 0,8374383 0,8174486 0,8095184 0,8005787 0,8087023 0,8198909 0,8037207 0,7636507 0,7638001 0,7561525 0,7555811 0,6988461 0,7843716 0,8351167 0,8610815 0,8832767 0,8671132 0,8340496 0,7703328 0,8578594 0,9197129 0,8999038 0,9511287 
0,8856026 0,8909863 0,8971142 0,8944253 0,8906788 0,8866557 0,8772739 0,8662229 0,8621866 0,8526648 0,8388705 0,8329347 0,8248198 0,8342135 0,8227555 0,7962542 0,758077 0,751196 0,8609879 0,963945 0,9652225 0,9647482 0,9560754 0,9392342 0,9152442 0,9241185 0,9727876 0,9736575 0,9599224 0,8914146 0,9276063 0,9866477 0,9885048 0,984047 0,9742129 0,9510103 0,9029891 0,9665482 0,861877 0,8457766 0,7666584 0,7815586 0,8332195 0,8446164 0,8493127 0,8639046 0,8756377 0,8793527 0,8845682 0,8997789 0,9122415 0,9229102 0,9289354 0,9248372 0,9180324 0,9218219 0,9202055 0,9223379 0,922478 0,9213181 0,8954484 0,8897291 0,8922083 0,8655294 0,8490974 0,84293 0,8338298 0,8294252 0,8418796 0,8486487 0,8408448 0,842659 0,8440285 0,8352299 0,8379664 0,8305565 0,8435432 0,8430705 0,8220816 0,8345205 0,8437008 0,8433677 0,8502855 0,8414354 0,8244056 0,8392629 0,8412044 0,8542496 0,863279 0,8541988 0,8494234 0,8857539 0,8803717 0,8776383 0,86746 0,8701017 0,8629296 0,8806725 0,8850091 0,9049478 0,9315861 0,9170661 0,9217597 0,9384592 0,9371047 0,9302664 0,9170302 0,8914168 0,9146245 0,9171084 0,9134161 0,9105095 0,8899338 0,8606639 0,8550686 0,8476615 0,9108869 0,948885 0,8328996 0,8586756 0,8846504 0,8898364 0,8753585 0,8741155 0,8878771 0,8882235 0,8789247 0,8841451 0,8829697 0,8768951 0,878575 0,8577216 0,8402573 0,8904756 0,9118187 0,8864896 0,831365 0,8425754 0,8369169 0,8242391 0,8138121 0,8194277 0,8090324 0,7919319 0,7610836 0,7587062 0,8008476 0,7777045 0,7871806 0,792532 0,8381615 0,8592501 0,8754187 0,8504376 0,8333362 0,8085718 0,8799055 0,9433019 0,8696575 0,9304279 
0,8781629 0,9174215 0,9001254 0,8960756 0,8995807 0,8941392 0,8904269 0,8851677 0,8808837 0,8728783 0,8658818 0,8592834 0,8455494 0,8286324 0,8586146 0,8581471 0,8445513 0,8208853 0,783473 0,8952026 0,9567275 0,9595396 0,9538187 0,9249167 0,9114473 0,9262032 0,9689982 0,9740646 0,9642442 0,9213753 0,8998408 0,9867861 0,984195 0,9750955 0,9736193 0,9544464 0,9303414 0,9015704 0,848262 0,8658632 0,8513795 0,880658 0,8800449 0,8802835 0,8865009 0,8932058 0,9029651 0,9005976 0,906335 0,9197373 0,9287548 0,9359732 0,9407302 0,9384933 0,9343783 0,9325134 0,9352912 0,9349771 0,9124497 0,8860316 0,8856688 0,8702043 0,8626288 0,844445 0,840454 0,8450631 0,8475316 0,8557348 0,8548614 0,8456509 0,8360279 0,8215606 0,8046805 0,8168036 0,8470543 0,8382571 0,8493344 0,8436431 0,8284178 0,8382477 0,8334838 0,8248577 0,8283898 0,8361734 0,8226225 0,8368444 0,8383082 0,8590086 0,8731332 0,8551773 0,8524292 0,8994241 0,8877708 0,8870111 0,8846697 0,8989056 0,9059554 0,8891746 0,9239953 0,9391556 0,9395608 0,9355808 0,9368842 0,9312018 0,9254353 0,9248847 0,9281654 0,9277313 0,9280057 0,9254215 0,9144447 0,8786715 0,858214 0,8266031 0,816051 0,8330868 0,8692305 0,9793143 0,8717326 0,8527281 0,8895704 0,9061739 0,8597214 0,8680338 0,8839269 0,8891473 0,8873097 0,8953738 0,8997138 0,8817087 0,8816224 0,8818473 0,8672894 0,8385495 0,8676243 0,8932118 0,8469797 0,8357993 0,8289787 0,8225544 0,8176681 0,8208156 0,8048546 0,8021168 0,8053381 0,7797707 0,8346884 0,8339081 0,8467742 0,8539835 0,8586771 0,8657039 0,8667395 0,8484988 0,8239173 0,8560187 0,9537399 0,8696184 0,8438475 0,8909761 
0,8689593 0,8893331 0,9149647 0,8989592 0,8914482 0,8987237 0,8950292 0,8918821 0,8895814 0,8842021 0,8777333 0,8747336 0,8681831 0,8537059 0,8579087 0,8708683 0,8693625 0,848632 0,8189366 0,7510928 0,8978975 0,959413 0,9519245 0,9381677 0,9344178 0,9644009 0,9740874 0,9747726 0,9662992 0,9360751 0,9148793 0,9729698 0,9753494 0,9783009 0,9832095 0,9712119 0,9674621 0,8595401 0,848629 0,8976468 0,9114645 0,9204292 0,9204391 0,9109141 0,8989074 0,8888323 0,9063988 0,9074187 0,9143826 0,9269154 0,9353223 0,9382856 0,9466173 0,9486078 0,9111622 0,9353693 0,9375105 0,9166793 0,8861953 0,8801624 0,8733753 0,8678584 0,8536987 0,8494464 0,8591956 0,8617706 0,856295 0,8515676 0,8391944 0,8193837 0,792986 0,7846079 0,8303148 0,8538046 0,8677942 0,8566562 0,8629448 0,8611175 0,8507036 0,8560823 0,8472012 0,8301356 0,8438506 0,8679652 0,847509 0,8342851 0,8352833 0,8582021 0,8774055 0,8637476 0,8579857 0,8962035 0,8739218 0,8863763 0,891856 0,9047335 0,9000009 0,9248473 0,9109017 0,9360071 0,9437235 0,9368903 0,933442 0,9232122 0,917792 0,9305074 0,9320575 0,9292949 0,9342285 0,9214423 0,9169649 0,8977345 0,8749449 0,844141 0,8019213 0,8236572 0,8218252 0,9215676 0,8935764 0,8875836 0,9039483 0,898948 0,8589354 0,8597386 0,8706136 0,8761396 0,885939 0,8943983 0,9002657 0,8987045 0,8913369 0,8926961 0,8762488 0,8535395 0,8170486 0,8050694 0,8133737 0,8412002 0,824879 0,8149236 0,8171009 0,8178642 0,8066429 0,798269 0,8120719 0,7770745 0,7564238 0,7930977 0,8034081 0,8155966 0,8468266 0,8582714 0,8539996 0,8199073 0,7885225 0,8274037 0,9692543 0,8649681 0,8703336 0,9583274 
0,904404 0,8661388 0,8855747 0,8887057 0,8675771 0,8595724 0,8770694 0,8886653 0,8905596 0,8882781 0,8846789 0,8836624 0,8803651 0,8751739 0,8739623 0,8716747 0,8616488 0,8540973 0,8348147 0,7593311 0,8053945 0,9460127 0,9462445 0,933071 0,9315906 0,9688053 0,9769589 0,9742335 0,9696407 0,9446277 0,9217128 0,9654887 0,9761278 0,9889628 0,993194 0,9837769 0,9382973 0,8567928 0,8805434 0,9133423 0,916954 0,9173597 0,93067 0,9291888 0,932227 0,9172614 0,9063751 0,8858981 0,9163723 0,9334263 0,9389542 0,928721 0,9217228 0,9254442 0,9056771 0,9133323 0,8771932 0,8728389 0,877031 0,8818043 0,8823057 0,8688521 0,8561831 0,8549291 0,8589908 0,857273 0,8449045 0,8288784 0,806531 0,7772238 0,7708192 0,8330948 0,8627783 0,8799854 0,8967782 0,8845463 0,8753729 0,8830922 0,859533 0,8491945 0,8747455 0,8500791 0,8635141 0,8676855 0,8488267 0,8618188 0,8738538 0,8861228 0,8789649 0,8661338 0,8719172 0,8854355 0,8723026 0,8901076 0,9007769 0,9103492 0,9079818 0,9208328 0,9315156 0,9162937 0,9411961 0,9444926 0,9436148 0,9311492 0,9188421 0,9214458 0,9274147 0,9278486 0,9303135 0,9169739 0,9017873 0,8986131 0,8844186 0,8550337 0,8048535 0,8143835 0,8216392 0,9010149 0,8651041 0,8638808 0,8832563 0,8603855 0,8665971 0,8566105 0,8461483 0,876303 0,8697865 0,8868625 0,9042123 0,905628 0,8935595 0,8900259 0,8857387 0,8832734 0,8488328 0,8022072 0,7796329 0,7834253 0,8136004 0,8152808 0,8126612 0,8105205 0,7995741 0,8051975 0,7997328 0,7890499 0,8221354 0,8223737 0,8273633 0,8173552 0,8572407 0,8541448 0,8417301 0,8057154 0,8099552 0,7950165 0,9237978 0,9587786 0,921602 0,9079405 
0,9176915 0,9136119 0,9105917 0,9008417 0,8408435 0,8089916 0,8184749 0,8459737 0,8644086 0,8787112 0,8858886 0,8915894 0,888335 0,8849803 0,886853 0,8838637 0,8767357 0,8628629 0,8411954 0,7968917 0,7425214 0,784738 0,8680832 0,8721007 0,9114997 0,9623839 0,9746435 0,9731889 0,9688757 0,944701 0,9266891 0,9534734 0,9707743 0,9920423 0,9917527 0,9773179 0,9315355 0,8980561 0,8932612 0,9063633 0,8913623 0,9116297 0,9279537 0,9255989 0,8958105 0,8872571 0,9226607 0,944257 0,9228371 0,9301627 0,9331006 0,9361039 0,9145162 0,9066082 0,8933586 0,8716895 0,870394 0,8733557 0,8706367 0,8708766 0,8731644 0,859392 0,8585606 0,8543054 0,8462371 0,8408146 0,8181834 0,7969779 0,7829028 0,7924653 0,8487552 0,8905273 0,9001623 0,8961613 0,8944756 0,8747523 0,8880603 0,8875622 0,840142 0,8371732 0,8805265 0,855123 0,8769835 0,8693364 0,8434809 0,8885524 0,8953071 0,8507593 0,8616289 0,8503999 0,8824984 0,8764323 0,8797092 0,9116464 0,9185058 0,9257585 0,9111351 0,9179548 0,9340361 0,923257 0,9374653 0,937718 0,9390328 0,9440609 0,9476395 0,9437597 0,9190062 0,9075403 0,9126256 0,9021128 0,9047335 0,8910803 0,8842234 0,8628025 0,8256686 0,8236107 0,8336415 0,848648 0,9045557 0,8301348 0,8722155 0,8397 0,859522 0,848325 0,8370637 0,8708853 0,8447974 0,8797494 0,86554 0,884032 0,8917644 0,8680533 0,8788581 0,8895078 0,8640689 0,8545682 0,8401353 0,8285881 0,8103349 0,8085532 0,81365 0,8075776 0,8127369 0,7972085 0,8089461 0,8042395 0,8375384 0,8238382 0,8292317 0,8619851 0,8830457 0,8612285 0,8348967 0,7955658 0,8117083 0,9069054 0,9549606 0,8397427 0,8507901 0,8988817 
0,9197305 0,9114919 0,9309247 0,9408841 0,9203219 0,8769898 0,8129153 0,8006642 0,8033464 0,810945 0,8520144 0,8959319 0,8953637 0,8898159 0,8995696 0,896 0,8883105 0,8769156 0,8546858 0,8335121 0,7971572 0,7505684 0,7380977 0,7897836 0,8666037 0,9704205 0,9750255 0,9730625 0,9679165 0,9497758 0,9334725 0,9387581 0,9701924 0,9946598 0,9905567 0,9801015 0,8821864 0,8720168 0,9081311 0,9083517 0,9139128 0,9294458 0,9358799 0,9320173 0,9124432 0,9049009 0,9241613 0,9200757 0,9377906 0,9399141 0,9342215 0,9331776 0,9192476 0,8897275 0,901019 0,8755528 0,8683667 0,859843 0,8494027 0,8499106 0,8544171 0,8543719 0,8594254 0,8471196 0,8394203 0,8297348 0,7906563 0,8116453 0,8346814 0,8643144 0,8955221 0,8971599 0,8895808 0,8860466 0,8933719 0,886275 0,9037147 0,8914274 0,8684659 0,9203357 0,8992223 0,8565373 0,8914053 0,9079061 0,9177635 0,9065255 0,8839675 0,8443004 0,8734356 0,8433819 0,86831 0,8886003 0,9067954 0,9394032 0,9404536 0,9288985 0,9108821 0,9320927 0,9405038 0,9402423 0,9336892 0,9223367 0,9325358 0,9495361 0,9487891 0,9432376 0,9326755 0,9111037 0,9013203 0,886786 0,8871173 0,8868234 0,8841305 0,8777078 0,8446404 0,8044958 0,8403333 0,83955 0,9806704 0,9327628 0,8949282 0,8105008 0,8219439 0,8740596 0,9364251 0,9249114 0,9311644 0,9184536 0,8827398 0,8752031 0,8846892 0,8490041 0,8686141 0,8898644 0,858948 0,8445964 0,8198723 0,8273423 0,827886 0,8190772 0,8131949 0,8048248 0,8143901 0,8113419 0,8402913 0,8060926 0,7972063 0,8125595 0,8395774 0,8679716 0,8778863 0,856802 0,8347077 0,8145598 0,8260914 0,9380571 0,8924359 0,8402379 0,8727897 0,8885202 
0,9259863 0,9184464 0,9255766 0,9354757 0,9055427 0,922537 0,8779879 0,8509591 0,8589724 0,8640611 0,8845422 0,9079827 0,901289 0,881151 0,9060764 0,9039857 0,8940573 0,8841885 0,8641207 0,8555234 0,8551043 0,8205427 0,7610554 0,6741087 0,7812672 0,9462871 0,9707474 0,96516 0,9647697 0,9612185 0,9420365 0,9171854 0,9909275 0,8858011 0,8431708 0,8294945 0,9137149 0,8898878 0,9033161 0,906118 0,9199693 0,9323802 0,9309367 0,931103 0,9331145 0,9322284 0,9314482 0,9278489 0,9242841 0,9246821 0,9120671 0,9146063 0,9182581 0,8895494 0,8866212 0,856319 0,851532 0,8600361 0,8584062 0,8553537 0,8600892 0,8613614 0,8602342 0,8477486 0,8263576 0,7987872 0,8016014 0,828501 0,8774602 0,8887987 0,8842397 0,8986405 0,9010292 0,906626 0,9145342 0,9120895 0,8946838 0,8755651 0,8751237 0,951951 0,9135458 0,8999466 0,9546566 0,9648542 0,9301149 0,8759218 0,8426665 0,8548786 0,8653115 0,8327839 0,8666078 0,9041121 0,9365448 0,9502643 0,9398747 0,9206301 0,9398036 0,9491464 0,9451735 0,9351192 0,942632 0,9365728 0,9537872 0,9518123 0,9468716 0,932332 0,8942462 0,923333 0,8851429 0,8498881 0,853927 0,8978455 0,8623052 0,8820868 0,8502084 0,7913971 0,7870482 0,8161204 0,9682951 0,8778177 0,9322415 0,96684 0,9769109 0,9583547 0,8251175 0,8609776 0,9139946 0,9508492 0,8613505 0,8674442 0,8739164 0,8675861 0,9023396 0,8674095 0,8436514 0,8158799 0,8083745 0,8115468 0,8121433 0,8116767 0,8076311 0,8100203 0,8168872 0,7805738 0,7919942 0,8311998 0,8401004 0,8270221 0,8383754 0,8649541 0,8725787 0,8558725 0,8426923 0,8071342 0,8036032 0,9039153 0,8963154 0,8387718 0,8475919 0,8645184 
0,933899 0,9317313 0,9229798 0,9172574 0,8846792 0,8927124 0,9230871 0,8657021 0,9004499 0,9039127 0,9157338 0,9147824 0,901238 0,878929 0,9137111 0,9112638 0,8931823 0,8828284 0,8552152 0,8634918 0,8821374 0,8505001 0,8164711 0,755438 0,6984084 0,7997848 0,9360851 0,9668993 0,9634664 0,9728861 0,9592816 0,9549193 0,878863 0,7807995 0,7892501 0,7896376 0,7955242 0,9399181 0,9134299 0,8785405 0,8976216 0,8992959 0,9058305 0,8872121 0,8844175 0,8957309 0,8670104 0,8720409 0,9094812 0,9239019 0,9057255 0,9056565 0,8780512 0,8858532 0,8671256 0,8485712 0,8694754 0,871775 0,875237 0,8773562 0,8737171 0,8681482 0,861294 0,8332956 0,7889074 0,8278644 0,8672636 0,884696 0,894196 0,8981826 0,9100879 0,9143066 0,9142374 0,9157709 0,9161371 0,8910372 0,8839903 0,9078291 0,9365518 0,9599286 0,9700029 0,9720392 0,936979 0,8994751 0,8899149 0,8792396 0,8663005 0,8629194 0,8587083 0,8519819 0,8730586 0,929176 0,947818 0,9482083 0,9379247 0,935859 0,9423273 0,9428192 0,9355472 0,951758 0,9498788 0,9437619 0,9466543 0,9435115 0,943689 0,925429 0,8685282 0,8853835 0,9341873 0,8747419 0,8785719 0,9369135 0,8705563 0,8884714 0,8582823 0,8013271 0,8277575 0,9024265 0,9039556 0,826556 0,8594644 0,8785719 0,8695695 0,9041874 0,9103235 0,8920251 0,9290875 0,9267471 0,9484257 0,9562262 0,9116439 0,9062744 0,9168659 0,8679352 0,8512791 0,8099104 0,8101852 0,807704 0,8034745 0,8088179 0,7924007 0,8119138 0,8201187 0,8349916 0,8242474 0,7782303 0,7601831 0,7942725 0,8075556 0,8588779 0,8576084 0,839812 0,8394416 0,8043841 0,7812561 0,8559663 0,9258236 0,8142202 0,8150553 0,8513733 
0,9301471 0,9221706 0,9158733 0,8965678 0,821071 0,8935655 0,9250739 0,9311826 0,8921652 0,9076804 0,917578 0,9180918 0,9122657 0,9040598 0,9198105 0,9162375 0,8981289 0,8618968 0,8608471 0,894043 0,895483 0,8668997 0,8416729 0,8110393 0,7371943 0,664187 0,7254554 0,9181356 0,9808199 0,9852763 0,9551476 0,9042575 0,8224409 0,7836552 0,8078868 0,8095704 0,7846274 0,8114806 0,9271882 0,9204049 0,8862232 0,897576 0,9150859 0,9112231 0,9097817 0,9119974 0,9121948 0,9154905 0,9181048 0,9023273 0,8749603 0,8918705 0,8796833 0,8699825 0,851423 0,8622153 0,8763695 0,8835248 0,8871584 0,8841115 0,8829913 0,8755122 0,8432535 0,833995 0,8458638 0,8723701 0,8807116 0,892705 0,9108661 0,9186975 0,9212626 0,918293 0,913649 0,9062341 0,8910816 0,8984123 0,9440918 0,9794034 0,9673301 0,950352 0,9465093 0,9353946 0,8883241 0,8677647 0,8485568 0,8475023 0,8371933 0,8636762 0,8694457 0,8463222 0,8660593 0,938711 0,9411566 0,9410174 0,932357 0,9442665 0,9561237 0,9506618 0,9129239 0,952602 0,9492316 0,9466558 0,9483278 0,9418166 0,9327013 0,9298185 0,9062752 0,8498517 0,8677325 0,9146234 0,9551849 0,9497541 0,897652 0,8919795 0,8507116 0,8258129 0,9340031 0,9137813 0,868867 0,8645378 0,878684 0,9074247 0,9138625 0,923844 0,9504917 0,9482342 0,9444548 0,9459953 0,9472768 0,9023975 0,9127302 0,9394328 0,9245258 0,8570023 0,840677 0,7943802 0,79294 0,7654143 0,791415 0,8062273 0,7739917 0,8022634 0,8362927 0,8470752 0,8368878 0,8326533 0,7927629 0,746837 0,735584 0,7720331 0,8190086 0,8212681 0,8426813 0,8440592 0,8729193 0,9093801 0,9427357 0,9063827 0,8683349 0,9307876 
0,929614 0,918509 0,901426 0,8745221 0,7647675 0,9112957 0,9208574 0,93606 0,8506296 0,905369 0,9121954 0,9170878 0,9157916 0,9123438 0,9185116 0,9164355 0,9026899 0,8492373 0,9059877 0,9140071 0,8984239 0,8674989 0,8263862 0,8277806 0,7952464 0,7497289 0,6814807 0,8111215 0,9180156 0,9088637 0,8114654 0,8236908 0,8679008 0,8483718 0,8340863 0,8242912 0,7993073 0,7898766 0,8223287 0,8876842 0,9455634 0,9366075 0,9216204 0,9239953 0,9285811 0,9123035 0,8943863 0,9028148 0,9105974 0,8842835 0,8715507 0,8686722 0,8477747 0,8660104 0,8753662 0,8844978 0,8899618 0,8905921 0,8891969 0,884973 0,8795714 0,8587414 0,8488089 0,872565 0,8788605 0,880447 0,8832738 0,9160007 0,9284768 0,9141934 0,9106914 0,9264237 0,9109342 0,8977298 0,9182608 0,9720863 0,9865861 0,9473467 0,9161177 0,9400601 0,9439635 0,9100779 0,8751138 0,8703246 0,8485725 0,8478597 0,8625754 0,8834857 0,8832915 0,8733646 0,9065371 0,9432172 0,9473754 0,9515749 0,9584887 0,9643502 0,9431669 0,9663252 0,9613925 0,9459867 0,9507067 0,9466248 0,9424419 0,9336048 0,9276174 0,9207996 0,9071218 0,8887028 0,8691138 0,8260744 0,8604091 0,9495172 0,8675625 0,8870285 0,8437709 0,9298676 0,9322602 0,8953197 0,9072139 0,9135664 0,9054185 0,9170436 0,9090086 0,9270453 0,9296719 0,9390259 0,9478109 0,9604456 0,9581685 0,9095604 0,9199728 0,9183017 0,8875985 0,8556051 0,8532167 0,8474966 0,8154705 0,7821829 0,7930043 0,8050267 0,7527993 0,8020161 0,852832 0,8488058 0,8345984 0,8307124 0,8107004 0,8095976 0,7841046 0,7482469 0,7910737 0,8235035 0,8567615 0,8336498 0,81186 0,8078632 0,8248875 0,9175507 0,9575866 0,9282668 
0,9256101 0,9240385 0,8979284 0,8586792 0,7905075 0,9363726 0,945676 0,9047543 0,8630402 0,9044888 0,8781997 0,9054787 0,9080658 0,8978016 0,9151343 0,9123884 0,8840762 0,8646824 0,9233614 0,9196225 0,8979768 0,8520721 0,8370014 0,8481361 0,8430039 0,8085693 0,7238037 0,8417333 0,8460934 0,861754 0,8514366 0,8267071 0,8319827 0,84895 0,8645136 0,8474203 0,8426173 0,822547 0,7903187 0,8376251 0,8854374 0,88896 0,9036977 0,9338045 0,9443894 0,9137768 0,9238261 0,9168923 0,9091212 0,8849059 0,8436534 0,8319293 0,8695477 0,8865972 0,8928448 0,8966926 0,897137 0,8921825 0,8905653 0,8785795 0,8592579 0,8422158 0,8819734 0,8907386 0,8742822 0,8825346 0,906799 0,9200654 0,9166397 0,9279315 0,9395692 0,9284262 0,9025893 0,894654 0,9659339 0,9854577 0,9877031 0,9238382 0,9349747 0,9355133 0,9078797 0,8623614 0,8646605 0,8648279 0,8597347 0,8670006 0,8816024 0,889349 0,8924919 0,8908584 0,8987097 0,9268468 0,9540719 0,9624133 0,9603015 0,9518431 0,9236479 0,9607087 0,9602541 0,9272372 0,935164 0,9380126 0,9317169 0,9294462 0,9250839 0,9159433 0,8997161 0,8981579 0,8966498 0,8329724 0,8151271 0,9162425 0,8735342 0,8670548 0,8913231 0,9671135 0,8899027 0,9147551 0,9193063 0,9249675 0,9227993 0,9287304 0,9198703 0,9078916 0,9011893 0,9290639 0,9134785 0,9409725 0,9360971 0,9229073 0,9240911 0,9062471 0,8593409 0,8447348 0,8601779 0,8601096 0,809837 0,7957247 0,7997456 0,8020568 0,7407047 0,7724842 0,8488061 0,8524262 0,8430024 0,8350923 0,8360037 0,8379678 0,8459269 0,7855397 0,7670237 0,7770656 0,79245 0,7967936 0,793221 0,7977321 0,8290207 0,8854922 0,9873849 0,9922997 
0,9297801 0,923666 0,9078377 0,8564645 0,7910654 0,9473311 0,9473258 0,8831029 0,8859316 0,9069654 0,9005894 0,9062429 0,8857017 0,8726249 0,9046239 0,9033914 0,8538806 0,8745004 0,9224361 0,9102378 0,8891304 0,8338616 0,8131797 0,8673949 0,8372739 0,7917937 0,832781 0,9220032 0,8875651 0,8635727 0,8499379 0,8515334 0,86558 0,8712009 0,8854549 0,8812287 0,8767657 0,8738637 0,8487325 0,8242842 0,8104014 0,8443043 0,8828279 0,876632 0,9019337 0,8718362 0,8906046 0,8777502 0,8634855 0,8500853 0,8678156 0,8823017 0,896612 0,9016815 0,9005478 0,8998209 0,8950812 0,885442 0,8755611 0,8483123 0,8563285 0,8708036 0,8917555 0,8841206 0,8855871 0,9070858 0,9243549 0,9267278 0,9275458 0,9183131 0,9186001 0,9181958 0,9281331 0,9789453 0,9814421 0,9848549 0,9638528 0,9014963 0,920809 0,9169784 0,8658901 0,854298 0,8636082 0,8766817 0,8769009 0,882012 0,8859019 0,8772901 0,8807392 0,9082909 0,9004995 0,9036568 0,927111 0,9579315 0,9521474 0,9263681 0,9463866 0,9497165 0,9471664 0,954988 0,9348627 0,9277267 0,9217494 0,9195318 0,9149379 0,9090478 0,88701 0,9063711 0,9101304 0,8704768 0,7858908 0,8306773 0,9465436 0,9346253 0,9770227 0,9320693 0,9167736 0,9293221 0,9317882 0,9294623 0,9223466 0,918399 0,9028472 0,9099606 0,9095677 0,9217168 0,9254445 0,9266614 0,9384674 0,9450393 0,9296762 0,8880627 0,8187358 0,8247423 0,8207221 0,8307441 0,8083963 0,796743 0,80843 0,8013487 0,7542142 0,7697563 0,8258963 0,8627529 0,8531412 0,8309278 0,856676 0,8626277 0,8914874 0,8389734 0,7852996 0,7378071 0,7590947 0,7640815 0,7824619 0,7758276 0,8604134 0,9283081 0,8835396 0,8905587 
0,9332556 0,9165348 0,9011941 0,8528156 0,7678191 0,8725833 0,9217381 0,9060993 0,8693782 0,9006284 0,9036634 0,895541 0,8254995 0,8889258 0,8998237 0,8980566 0,8401107 0,905104 0,9160351 0,8938819 0,8792475 0,8260117 0,7714686 0,9101554 0,8019059 0,8178453 0,9518673 0,8982192 0,8897866 0,8945636 0,8954755 0,8955822 0,8980715 0,9017929 0,9048733 0,9047146 0,9046236 0,903726 0,8936485 0,8873615 0,8754296 0,8380756 0,8434336 0,8282827 0,8524961 0,8625596 0,8655453 0,838272 0,8498918 0,8655659 0,8946279 0,9060382 0,9070151 0,905547 0,9030936 0,8968272 0,8873208 0,8698792 0,8233333 0,847424 0,8864895 0,8995296 0,9068336 0,9036223 0,9005899 0,9131638 0,9143386 0,9233848 0,9183376 0,9238985 0,9338231 0,9657174 0,9825425 0,9636458 0,9740224 0,9832977 0,911746 0,9103225 0,9228665 0,9029295 0,8601952 0,8623572 0,8783479 0,882287 0,8831346 0,8874823 0,8836183 0,8772274 0,8904839 0,9205 0,9272136 0,9188234 0,9205977 0,9275094 0,9416907 0,9453903 0,9673817 0,9701296 0,9590554 0,9426254 0,9175343 0,8887774 0,9007389 0,9021991 0,8995581 0,9031109 0,898964 0,9095213 0,9083633 0,8804666 0,783361 0,8014224 0,9512805 0,9053518 0,903124 0,9097434 0,9235475 0,9021911 0,9245238 0,9147923 0,8638631 0,9187421 0,8819035 0,8860793 0,9106402 0,9272419 0,9354693 0,9443113 0,9407071 0,9389164 0,9171261 0,8376756 0,8514453 0,8556439 0,8181112 0,7974056 0,8334117 0,8179298 0,812247 0,7965698 0,7728209 0,7450658 0,7864494 0,8506255 0,8618814 0,8344363 0,830368 0,8360305 0,8829129 0,912851 0,9175166 0,8761764 0,8783121 0,8705218 0,8843239 0,9302219 0,9420443 0,8234144 0,8209175 0,8820705 
0,9281133 0,9075547 0,8872371 0,8457142 0,7642715 0,8542548 0,8963231 0,8914128 0,8450409 0,8500772 0,8784243 0,8608389 0,8159215 0,9112692 0,8714573 0,9034814 0,9237545 0,9285964 0,9245884 0,90674 0,8799454 0,8180731 0,7255046 0,8450402 0,8616961 0,9091969 0,9658341 0,9081751 0,8806069 0,8968421 0,9079042 0,9112145 0,9116806 0,9150606 0,9157908 0,9157478 0,915413 0,9165242 0,9153723 0,9135062 0,9120223 0,9107786 0,9030854 0,8870842 0,864078 0,8528937 0,8539249 0,8473392 0,8797292 0,9010258 0,9097828 0,9124733 0,9093341 0,9057423 0,9003557 0,8887207 0,8737862 0,8259488 0,8287048 0,8911881 0,9087122 0,9084387 0,9157438 0,915037 0,9125438 0,9160565 0,9029883 0,9435022 0,9490316 0,9572418 0,9742337 0,9829957 0,9581171 0,9539825 0,9624959 0,9480135 0,881313 0,9186968 0,9122456 0,8876442 0,8658541 0,869602 0,8873103 0,8871291 0,8921329 0,8923761 0,8899539 0,8992003 0,916262 0,924962 0,9452171 0,9489028 0,9435267 0,9452003 0,9453385 0,9463817 0,9645248 0,9600368 0,9581167 0,9383921 0,9158053 0,8518095 0,8753111 0,8858196 0,8839232 0,8880432 0,892045 0,886665 0,8984323 0,8868517 0,8216121 0,7818245 0,930329 0,8766301 0,9181843 0,8962429 0,8952473 0,8826866 0,890796 0,8797774 0,8859925 0,8959625 0,9136043 0,924014 0,932849 0,9391924 0,936583 0,9303606 0,9463261 0,9308318 0,8901792 0,8860484 0,8863646 0,8773344 0,8211954 0,8184044 0,8271351 0,8363062 0,8227476 0,8048574 0,7968711 0,7514707 0,8106818 0,8352333 0,8581297 0,8620584 0,8630741 0,8833684 0,9025431 0,908623 0,923991 0,8870872 0,8979874 0,8807243 0,8607836 0,8377771 0,8423189 0,8375639 0,8265776 0,8822519 
0,9226213 0,900576 0,8754768 0,8275475 0,7437075 0,8153666 0,8788024 0,8693888 0,8543671 0,8165221 0,8829632 0,8839856 0,8680441 0,8725833 0,8859565 0,9211605 0,9281778 0,9292756 0,9256263 0,904789 0,8716284 0,8037114 0,7632006 0,8561289 0,930742 0,951933 0,9480304 0,8526475 0,867489 0,8947966 0,9086599 0,9152845 0,9158368 0,9203345 0,9193014 0,9147496 0,9120034 0,9154794 0,9167079 0,9146253 0,9092832 0,9033635 0,8941473 0,8918569 0,8835434 0,8866494 0,8844806 0,896373 0,9100935 0,9139032 0,9154716 0,9138294 0,9085637 0,9007214 0,8926365 0,8804473 0,8604658 0,8633837 0,8807455 0,9142621 0,9169177 0,9136768 0,9115778 0,9055177 0,9022147 0,8966144 0,887142 0,91782 0,9374992 0,9568646 0,98532 0,9647204 0,9686123 0,9448335 0,9304242 0,9098722 0,9200494 0,9286553 0,9015097 0,8691574 0,8657552 0,8885345 0,8903652 0,8951409 0,8980282 0,8924257 0,8947487 0,9073656 0,9181445 0,9329711 0,9405771 0,95351 0,9576809 0,9629206 0,9626414 0,9615602 0,9602334 0,9467571 0,934144 0,9216943 0,9483395 0,9215726 0,8530952 0,8542615 0,8666487 0,8771981 0,8710325 0,8550546 0,8777292 0,8858515 0,8228216 0,7932039 0,9846921 0,8785225 0,9070262 0,8806059 0,8836065 0,901099 0,9207363 0,9250895 0,9240493 0,9269221 0,9358529 0,9409975 0,9438304 0,9448624 0,9459426 0,9509009 0,9560118 0,9314142 0,8934453 0,88567 0,8694692 0,8459361 0,8113508 0,8413125 0,8388953 0,8336756 0,8157501 0,8041501 0,8000707 0,7693858 0,7732944 0,8547921 0,8414069 0,8587739 0,8917695 0,9090941 0,9088956 0,917008 0,9362182 0,9225435 0,8891232 0,8511921 0,8389694 0,8253197 0,8572903 0,8575606 0,8560948 0,8826278 
0,9170001 0,8889732 0,8611565 0,8207385 0,7571918 0,8058035 0,8634663 0,8464941 0,8873415 0,8952611 0,9062275 0,8861038 0,9148118 0,8423346 0,883743 0,9226266 0,9293018 0,9285139 0,9194081 0,8969696 0,864403 0,8072811 0,7317511 0,8372098 0,9771123 0,9641371 0,9085513 0,8910998 0,904258 0,909515 0,9130805 0,9169258 0,9108136 0,9169657 0,9146228 0,9069452 0,9062878 0,9065366 0,8930248 0,8851807 0,9004972 0,8908525 0,8835173 0,8881605 0,8983869 0,9009168 0,906593 0,9133613 0,9174549 0,9176699 0,9172758 0,9118747 0,9003612 0,8895792 0,8889902 0,8880017 0,8852834 0,8717526 0,8954403 0,922204 0,9192762 0,9063268 0,9030327 0,8894786 0,8783763 0,8854234 0,8906614 0,9414537 0,9763622 0,986552 0,9822345 0,9815179 0,9226689 0,8957322 0,9210308 0,9050522 0,9137747 0,9039688 0,8526951 0,8591689 0,8865048 0,8979225 0,8993858 0,9047668 0,9066198 0,903147 0,9073753 0,9130926 0,9189529 0,9396679 0,9512219 0,9526548 0,9553977 0,9647704 0,9647325 0,9608147 0,9568323 0,9508533 0,9364551 0,9077643 0,9056008 0,9612021 0,9248251 0,8694916 0,8529389 0,8695028 0,8477188 0,8646356 0,8726165 0,8623075 0,8475273 0,9202697 0,9587976 0,9061725 0,8844377 0,8895227 0,9052697 0,9235083 0,9304194 0,9363114 0,9323529 0,9345903 0,9428964 0,9459 0,9495557 0,9514318 0,9488176 0,9543133 0,9530495 0,9027895 0,8793029 0,8771763 0,8722931 0,8415898 0,8432813 0,8492448 0,8331027 0,7993663 0,8020706 0,8201911 0,8207029 0,8087924 0,7732052 0,8528257 0,8520763 0,890431 0,9241223 0,9350154 0,9242074 0,9100622 0,9243318 0,9391909 0,9320819 0,9170462 0,9072904 0,8895676 0,8900932 0,8773261 0,8746671 0,8930041 
0,9116597 0,8811132 0,8458246 0,8091686 0,7491164 0,7548548 0,8919849 0,8839363 0,8730475 0,8890146 0,8956082 0,8914173 0,9197931 0,8399875 0,8705403 0,9170662 0,9246851 0,9226998 0,9076388 0,8840403 0,8542531 0,8020453 0,7459133 0,8073028 0,969461 0,9288436 0,8817743 0,9132499 0,914539 0,9150895 0,9220424 0,9236004 0,9110457 0,8953507 0,8857855 0,8835213 0,877632 0,8804614 0,8747061 0,8718969 0,8923075 0,8961752 0,8919165 0,8954759 0,8997655 0,9098387 0,9169875 0,9190847 0,920787 0,9195693 0,915098 0,9042115 0,8723042 0,8760094 0,8944244 0,8883603 0,8925831 0,8558729 0,8284914 0,8969573 0,9142952 0,8774359 0,8855201 0,8647299 0,8615329 0,8736567 0,9142712 0,9788021 0,9743533 0,9835316 0,988678 0,9739413 0,9136817 0,9225193 0,9271843 0,9243823 0,9121841 0,8851303 0,8603715 0,8812222 0,8959678 0,8984052 0,903613 0,9127849 0,913859 0,9173163 0,9223009 0,9208751 0,9256114 0,9491795 0,9571925 0,9489231 0,9598697 0,9574228 0,9601904 0,9572425 0,9560125 0,9480704 0,9372228 0,9140424 0,8890648 0,9026353 0,9181929 0,9242573 0,9562299 0,887943 0,7790828 0,8524548 0,8553854 0,8663211 0,9362454 0,9021451 0,8720153 0,9098145 0,902692 0,900229 0,9225095 0,9340624 0,9356924 0,9378685 0,9335839 0,9409302 0,9478624 0,9520947 0,9550508 0,9518621 0,9315622 0,9383475 0,9016443 0,8865319 0,8824893 0,8896672 0,8910755 0,8826112 0,8624886 0,8387876 0,7917244 0,7758613 0,8293377 0,8271964 0,8076315 0,8242723 0,7993968 0,8746815 0,9123418 0,9135086 0,9183785 0,9223504 0,9157051 0,9361829 0,9361717 0,9308233 0,9120173 0,9086341 0,9011713 0,8859534 0,8862636 0,8798692 0,8698647 0,8988453 
0,8961002 0,8601205 0,8170032 0,8162442 0,7617277 0,7557352 0,7509434 0,9296159 0,8297836 0,888432 0,9222194 0,9353591 0,9519816 0,8545802 0,8735527 0,9095107 0,9192759 0,9153216 0,8986115 0,8776591 0,8482469 0,7958443 0,8063205 0,821807 0,9357263 0,8644659 0,8870904 0,9065943 0,9057144 0,9048641 0,912882 0,9137613 0,9037464 0,9277715 0,9056234 0,8873926 0,9032568 0,9127956 0,8895351 0,8829991 0,8860482 0,8925395 0,8822365 0,8887997 0,9105306 0,917722 0,9210383 0,9221461 0,9215491 0,9165064 0,9049556 0,8717573 0,8764429 0,8935264 0,8902576 0,883082 0,8774722 0,8771412 0,8360845 0,855824 0,8876493 0,8805767 0,9001744 0,8739436 0,8794722 0,9099497 0,9698774 0,945209 0,9647624 0,9775213 0,9763372 0,930769 0,9353767 0,9484657 0,940477 0,9133437 0,9068784 0,8902416 0,8905638 0,8971436 0,9021897 0,9060933 0,9075302 0,9114935 0,9165679 0,9185019 0,9186732 0,9292185 0,9268562 0,9532357 0,9618646 0,9351329 0,962994 0,9569457 0,9533864 0,9529796 0,9502017 0,9296411 0,9039633 0,9286144 0,9199446 0,884277 0,8968651 0,8319232 0,8455963 0,9068931 0,8746327 0,904739 0,9054726 0,9011303 0,8648558 0,8938867 0,8976686 0,9182723 0,9380785 0,9393803 0,931989 0,9347345 0,9406049 0,9376068 0,9423645 0,9451028 0,9428293 0,9508818 0,9397126 0,9328386 0,9074671 0,9143109 0,9011909 0,9010383 0,8946911 0,8980824 0,8981001 0,8790474 0,8355885 0,8145525 0,7719221 0,8148382 0,8609638 0,8430622 0,8597324 0,8251671 0,8502683 0,9019686 0,9183582 0,9248047 0,9182315 0,9080476 0,8840697 0,9030473 0,9140657 0,8996155 0,8895351 0,8864168 0,8817263 0,845897 0,8434049 0,85137 0,8519874 0,8947079 
0,8622786 0,8283651 0,8214194 0,8303062 0,798029 0,7626904 0,8269807 0,9427876 0,7945324 0,8908678 0,9252323 0,9373896 0,935684 0,8402926 0,8564641 0,8926424 0,9053912 0,9082942 0,9012691 0,876861 0,8381211 0,7825105 0,7780285 0,849251 0,948433 0,8663252 0,8562027 0,9000256 0,9196165 0,9197197 0,9164497 0,9017477 0,9500769 0,9416532 0,9191656 0,9460195 0,9151198 0,8943317 0,9191869 0,8937254 0,8566327 0,880679 0,8776475 0,9029763 0,9166656 0,9215976 0,9229741 0,9243169 0,9205071 0,9091524 0,8824369 0,8864844 0,9016632 0,8946415 0,8754029 0,8704333 0,8552697 0,8890961 0,882354 0,8936584 0,8749924 0,8971196 0,9001033 0,9071628 0,9842836 0,994515 0,9647264 0,9286308 0,9660496 0,9728978 0,9674326 0,9577248 0,9605478 0,9600534 0,9383015 0,9057811 0,9067716 0,8989912 0,9068899 0,9059377 0,909018 0,9096087 0,9077094 0,909309 0,9155763 0,9219097 0,9154474 0,9033369 0,9258313 0,9560132 0,9609191 0,9316198 0,9679486 0,9595048 0,9526122 0,9490069 0,9449183 0,9241537 0,9228202 0,9459224 0,9398777 0,9211717 0,9143004 0,8812193 0,8297599 0,7948257 0,8397061 0,9348149 0,9557774 0,8383235 0,8649647 0,8914319 0,9147363 0,9199183 0,9189318 0,9211147 0,9311604 0,9399844 0,9446142 0,9426363 0,9425874 0,9383016 0,9475342 0,948171 0,9327943 0,9153997 0,9214357 0,9147439 0,9079756 0,8888441 0,8839629 0,8861324 0,8709316 0,8552288 0,8533757 0,8334164 0,8143258 0,8277368 0,8814144 0,8809717 0,8890453 0,8967759 0,8641841 0,8734742 0,8989621 0,9150989 0,9079992 0,9019075 0,8951644 0,8897224 0,9035231 0,9064015 0,8593168 0,8424032 0,8420823 0,7994837 0,8383536 0,840938 0,8499198 0,8976616 
0,8634699 0,8413431 0,8408091 0,8164812 0,7985995 0,7673963 0,8411073 0,8737917 0,8002798 0,8900133 0,910302 0,9117029 0,9176223 0,8349656 0,797928 0,8790266 0,9052364 0,9067806 0,8930105 0,8669617 0,8178549 0,803023 0,7734615 0,8636757 0,950924 0,8897192 0,8424764 0,8549159 0,9106761 0,9331937 0,9309037 0,9634348 0,8824168 0,8161873 0,8445132 0,8750501 0,9071735 0,908322 0,8830572 0,8681246 0,8536056 0,8701077 0,876366 0,9101398 0,9192024 0,9226825 0,92237 0,9229205 0,9161981 0,8914644 0,8883778 0,9062657 0,906832 0,8994416 0,8740519 0,8668185 0,8486007 0,8706565 0,8808728 0,8984575 0,8928428 0,8867201 0,8801656 0,9453785 0,9510092 0,9458837 0,9640791 0,950823 0,9630613 0,9700955 0,9640999 0,9522949 0,9514344 0,9503271 0,9149855 0,8853487 0,8891761 0,9012911 0,9054608 0,9078181 0,9125142 0,9123071 0,8993354 0,8941582 0,9076049 0,9302565 0,9272631 0,9113225 0,8988734 0,9275572 0,9498783 0,9309852 0,9709925 0,9506272 0,9397108 0,9325621 0,9373074 0,9436271 0,9382022 0,9471719 0,9449395 0,9330955 0,9194788 0,9066976 0,8787427 0,8409684 0,7912812 0,7903035 0,9724867 0,8853076 0,8520787 0,882481 0,9001341 0,8916542 0,8982036 0,9138745 0,9286519 0,9392664 0,9392298 0,9387856 0,936546 0,9339386 0,9237899 0,914821 0,9008619 0,8925482 0,8915064 0,8857647 0,8781495 0,8809894 0,894763 0,8895157 0,8771479 0,8852719 0,8643369 0,8412031 0,8340663 0,8092778 0,8558205 0,8502903 0,8645642 0,8725094 0,8704134 0,8793375 0,8855472 0,8962955 0,868596 0,8676453 0,8742013 0,861252 0,8679733 0,8574569 0,7951425 0,7971033 0,8058699 0,7811754 0,8131836 0,8220582 0,8360863 0,8812793 
0,8839477 0,8490749 0,8210823 0,7991768 0,7685409 0,7630921 0,886045 0,8518192 0,8196 0,8847111 0,8799729 0,8590758 0,9155405 0,9223222 0,7758817 0,8876382 0,9087412 0,9054552 0,8839146 0,8453556 0,8004271 0,8092209 0,7583097 0,9170047 0,9864944 0,9853699 0,9590824 0,9052302 0,9169562 0,9656113 0,925799 0,8547589 0,8254314 0,8368456 0,8702407 0,8706761 0,8901737 0,8915007 0,8919138 0,8897276 0,8817607 0,8639514 0,8986561 0,9151702 0,9218806 0,9243507 0,9226615 0,9197526 0,9023011 0,8979505 0,9018645 0,9201486 0,9126176 0,8865865 0,8503451 0,8565323 0,8415654 0,858292 0,8914899 0,889506 0,8926286 0,890186 0,9129238 0,9722227 0,9307441 0,9455827 0,9647939 0,9719949 0,9500409 0,9678456 0,969156 0,9662188 0,9453722 0,9136461 0,9044287 0,8842161 0,9010659 0,9088045 0,9090877 0,9131861 0,9161915 0,9138905 0,8854529 0,8888085 0,9089124 0,9384249 0,9280277 0,9417008 0,9236349 0,9236395 0,9643964 0,950502 0,9634123 0,965535 0,9342486 0,9116411 0,9270232 0,9348757 0,931423 0,9371035 0,9431815 0,932009 0,9117391 0,9169596 0,9027574 0,8761542 0,8304762 0,847265 0,9735208 0,9184419 0,9007409 0,8896129 0,9174935 0,9229083 0,8952426 0,8949812 0,9065428 0,9269123 0,9303065 0,9357858 0,9224879 0,9249241 0,9158055 0,8994823 0,8986142 0,9070956 0,8784509 0,8881212 0,9037666 0,9095853 0,906567 0,9032135 0,8850006 0,8551689 0,8580055 0,8425574 0,846195 0,8464234 0,867774 0,8832489 0,8502606 0,8679081 0,8526288 0,8459121 0,856578 0,839012 0,8253654 0,8163464 0,8376156 0,8259812 0,8161494 0,8047761 0,7590655 0,7784423 0,7952209 0,7602885 0,7832342 0,8049213 0,8247149 0,8720707 
0,8950481 0,8619214 0,8414202 0,8176388 0,7858699 0,7639356 0,9548882 0,7850789 0,8264298 0,8714668 0,8498207 0,7949482 0,9435062 0,8323061 0,8217221 0,8864771 0,903403 0,8980817 0,8654243 0,8162926 0,8164033 0,8136104 0,8385836 0,954819 0,9281408 0,9344152 0,8426327 0,873219 0,8987272 0,8648185 0,8701247 0,8814211 0,8554831 0,8655616 0,8653658 0,864096 0,876543 0,9021432 0,9050243 0,8924846 0,8689088 0,8667766 0,9086575 0,9176691 0,9215001 0,9229687 0,9202971 0,9128194 0,8861929 0,9132797 0,9113492 0,9129277 0,8991449 0,8619899 0,8643373 0,8979686 0,896637 0,9215167 0,9099364 0,8999017 0,8879024 0,8922204 0,9610509 0,9446411 0,9244791 0,9619727 0,9706512 0,9620368 0,9691361 0,9729761 0,9749315 0,962727 0,9300873 0,9323041 0,9102639 0,88757 0,8989461 0,9062511 0,9112312 0,9160544 0,9199168 0,9213559 0,9090031 0,9167395 0,9341509 0,9472468 0,9563823 0,9550543 0,954128 0,9590172 0,9607631 0,9586687 0,9482371 0,9716822 0,970475 0,913069 0,8965924 0,9028382 0,8991119 0,9169008 0,9346796 0,9276772 0,9095071 0,9211931 0,9123797 0,8932244 0,8525278 0,9735467 0,8898132 0,8618401 0,8593926 0,874948 0,8884757 0,8799224 0,8995511 0,9128102 0,922259 0,9238991 0,9372168 0,9201053 0,9134328 0,9090018 0,9021965 0,8901761 0,8934721 0,9088099 0,8922764 0,8962532 0,9053886 0,8983378 0,9003938 0,9024629 0,8960449 0,8813558 0,8555998 0,8642796 0,854863 0,8570772 0,8610966 0,8734409 0,8738259 0,8492721 0,8496227 0,8158329 0,8042949 0,7899532 0,7589345 0,7893031 0,8032664 0,7666138 0,7553864 0,7511727 0,752035 0,7792064 0,7884969 0,7836661 0,8019924 0,812479 0,8222468 0,8643595 
0,8909771 0,8737785 0,8559864 0,8335316 0,8347452 0,839034 0,9678441 0,7455208 0,8407107 0,8486332 0,7785625 0,8160726 0,919144 0,8539625 0,8491368 0,8722076 0,8903378 0,8817618 0,8400222 0,7993943 0,8518834 0,900071 0,9689481 0,9443104 0,9319087 0,9352794 0,8929045 0,8921883 0,8773757 0,8876494 0,9132621 0,9104486 0,9032481 0,8918128 0,8784776 0,8841248 0,8967626 0,9043913 0,9005798 0,885673 0,8675541 0,8987454 0,9152117 0,9198902 0,9225379 0,9215427 0,9159384 0,8961849 0,8757525 0,9139293 0,909422 0,9132848 0,9003527 0,8880681 0,9141655 0,8971079 0,8873071 0,9568329 0,9352097 0,9089612 0,8856915 0,9299402 0,972635 0,9490087 0,9410857 0,9558749 0,9431494 0,9364622 0,9479701 0,951806 0,9567907 0,9473642 0,9426237 0,9328536 0,9060666 0,9025726 0,905652 0,9109809 0,9163104 0,9209613 0,9254367 0,9314432 0,934917 0,9358829 0,9369059 0,9370795 0,9586654 0,9634966 0,9668671 0,9682322 0,9630232 0,9580996 0,952413 0,9649633 0,9605206 0,9397293 0,9518033 0,8937473 0,828771 0,8766598 0,917556 0,9196667 0,9039851 0,9170488 0,9379623 0,932474 0,9261391 0,9416849 0,8522388 0,892758 0,9039552 0,9069887 0,916025 0,9100427 0,9132471 0,9073951 0,9252838 0,9232832 0,9245774 0,9168802 0,9165117 0,9076385 0,914096 0,9104596 0,9124441 0,9153979 0,9045855 0,9001179 0,9011505 0,9001938 0,8993826 0,8938838 0,8937882 0,8971275 0,8782864 0,861617 0,8503039 0,851631 0,8518665 0,8795648 0,8772501 0,8689207 0,8506384 0,8230616 0,8131214 0,7978305 0,779398 0,7895842 0,7887817 0,7580557 0,7677487 0,7719325 0,7735658 0,7903357 0,8003515 0,7896141 0,8088927 0,8225287 0,8344764 0,8729314 
0,8704439 0,854692 0,8308236 0,823791 0,853191 0,9278404 0,8427195 0,8048304 0,8389151 0,813182 0,814383 0,9475781 0,8937835 0,8707282 0,8731693 0,8798201 0,8775898 0,8605571 0,8067402 0,8207281 0,9533868 0,9630324 0,9063105 0,9156862 0,9253476 0,9404136 0,9426692 0,9180509 0,8997166 0,9019481 0,9159398 0,919382 0,9175569 0,910085 0,8996263 0,892942 0,900004 0,9029319 0,9045446 0,8751091 0,8786753 0,9094085 0,9172832 0,9218042 0,9225792 0,9185419 0,9073479 0,8764591 0,8972125 0,9180787 0,9237161 0,9168416 0,9064364 0,9065156 0,9245246 0,919576 0,9184183 0,9071655 0,892948 0,8823667 0,9160758 0,9750905 0,9362133 0,9573222 0,9691352 0,9476265 0,9375666 0,9359063 0,9467807 0,9544503 0,9600162 0,9568419 0,9479207 0,9354522 0,9178071 0,9109693 0,9027826 0,913094 0,9204099 0,9285402 0,9328607 0,9261916 0,9273384 0,9352131 0,9239147 0,9385332 0,9296877 0,9498647 0,9686924 0,9667265 0,9623275 0,9557884 0,9573077 0,9545648 0,9469779 0,9299023 0,9006626 0,9208226 0,9722877 0,9462645 0,8908253 0,9165215 0,9270741 0,9362982 0,9489341 0,9509804 0,9711854 0,8998063 0,8889349 0,9006675 0,9130652 0,933916 0,9411339 0,9367902 0,9328883 0,9254935 0,9188503 0,9190117 0,9138499 0,9126434 0,9127325 0,9216681 0,9238147 0,921088 0,9204374 0,9174677 0,8976321 0,8982544 0,8964252 0,8915185 0,885095 0,8795753 0,8787181 0,8811799 0,8746881 0,8569274 0,8483662 0,8435794 0,8429937 0,883614 0,8854133 0,879032 0,8726823 0,8466564 0,8210056 0,7951705 0,7917439 0,8000882 0,8073721 0,796563 0,8101618 0,802942 0,8076977 0,8189307 0,8326691 0,7834686 0,7778926 0,7964615 0,8204291 0,8734583 
0,8812349 0,8546057 0,829089 0,8333049 0,9123904 0,9062288 0,7919437 0,8346326 0,8221754 0,804029 0,9133733 0,8949481 0,8612029 0,8928453 0,9051369 0,9141626 0,903776 0,8609405 0,8701618 0,9609252 0,9556923 0,8820897 0,9015945 0,9121695 0,9180309 0,932553 0,9438973 0,9607521 0,9482986 0,9089825 0,884746 0,8947656 0,9157186 0,9179688 0,9238856 0,895441 0,8708596 0,8916934 0,90047 0,8763074 0,8990949 0,9130108 0,9198932 0,9225613 0,9209991 0,9139902 0,8973978 0,8993074 0,9044339 0,9135129 0,8967779 0,8966269 0,8886285 0,9130895 0,9251754 0,9184399 0,9324501 0,9151888 0,8620927 0,9712857 0,9908558 0,9472777 0,9610629 0,9727076 0,9662575 0,9305339 0,918999 0,9234563 0,9438037 0,9569989 0,9691595 0,9619962 0,9571641 0,9353358 0,9047849 0,9005576 0,9063479 0,9164242 0,9241024 0,9342008 0,9395374 0,9325263 0,936886 0,9442478 0,9364951 0,9206134 0,9352753 0,9637491 0,9692175 0,9659345 0,9537743 0,9613305 0,9568419 0,954801 0,9494871 0,95107 0,9194412 0,8778546 0,8813356 0,9456924 0,9804378 0,9539311 0,8935189 0,8994077 0,9126667 0,938261 0,9523876 0,876451 0,9061667 0,9129544 0,9255627 0,9363473 0,9154817 0,9115731 0,9253857 0,9359844 0,9126788 0,9076235 0,9246252 0,9030623 0,9173314 0,9219244 0,9191285 0,9117713 0,9052747 0,8953022 0,8909839 0,8854228 0,8776698 0,8700776 0,8706083 0,861434 0,8861004 0,8641669 0,8459226 0,8548722 0,8434747 0,8388488 0,830432 0,8827912 0,8832054 0,8601214 0,8584754 0,8581482 0,8547305 0,8270317 0,7728466 0,791157 0,8101754 0,8065658 0,8207995 0,8149788 0,8109857 0,8199221 0,8321283 0,8108271 0,7923194 0,804193 0,7931139 0,8474761 
0,8347677 0,8253989 0,8046542 0,8268091 0,9631931 0,7750173 0,7873024 0,8071009 0,7721386 0,7992748 0,9157286 0,8762119 0,8584487 0,8993762 0,9186753 0,9184031 0,8899282 0,9298818 0,9597326 0,9082671 0,8939953 0,8828555 0,9085767 0,9135631 0,9175829 0,9298513 0,9363213 0,9239213 0,9126254 0,9660813 0,8919752 0,8734666 0,8944137 0,8997418 0,9060144 0,8820619 0,8499585 0,8677056 0,8868814 0,8749799 0,9040718 0,9170935 0,923068 0,9232014 0,9190705 0,9111595 0,8923659 0,9028006 0,8931298 0,891619 0,8915036 0,8995895 0,9059666 0,9307375 0,9304707 0,9353112 0,9358997 0,9022563 0,9007665 0,9714593 0,9416436 0,9568 0,9614172 0,9361628 0,9581651 0,9469715 0,9327605 0,9056864 0,9562618 0,9676841 0,9636386 0,9512623 0,9669397 0,9208351 0,882206 0,8995902 0,9101278 0,918643 0,9270484 0,9368242 0,9440062 0,9414299 0,9373878 0,9395556 0,9340999 0,9144312 0,9063038 0,9549329 0,966139 0,9472597 0,9332526 0,9684525 0,9629379 0,9612328 0,951252 0,9533088 0,9480368 0,9293362 0,8982854 0,884483 0,9147435 0,9074597 0,925741 0,9510624 0,9389669 0,9583089 0,844412 0,8873033 0,9103851 0,9224807 0,9222867 0,9105618 0,8888328 0,8909314 0,9085881 0,9000823 0,9120908 0,9155718 0,9063563 0,8960997 0,9177463 0,9184988 0,9146065 0,8968222 0,8896599 0,8863401 0,8774849 0,865567 0,854502 0,8374946 0,8512496 0,8488045 0,8704898 0,8427133 0,8256043 0,8415603 0,8225391 0,8335419 0,820717 0,8699656 0,8829451 0,8842618 0,862778 0,8630792 0,8373777 0,8186986 0,7988858 0,7674278 0,7888675 0,7778216 0,8049055 0,8277097 0,8266338 0,8338162 0,8344169 0,8474581 0,8276262 0,8224745 0,8224028 0,8505805 
0,9211096 0,9322082 0,9233345 0,9376096 0,9821808 0,9208802 0,8617808 0,7769376 0,7147337 0,8238791 0,8934957 0,8439422 0,8570144 0,9012694 0,9210118 0,9325514 0,9552937 0,9438086 0,9164412 0,9106272 0,8872964 0,8994269 0,9177697 0,9209836 0,9190512 0,9246904 0,9319831 0,9253548 0,8968627 0,8495766 0,9110277 0,9340643 0,9508224 0,9482766 0,9416362 0,9161459 0,9268953 0,8912435 0,8779652 0,8530754 0,911587 0,9226944 0,9255781 0,9225964 0,9142392 0,9066503 0,8975816 0,897148 0,8782938 0,8684271 0,8641047 0,885143 0,9237574 0,9259976 0,9280653 0,930975 0,9193004 0,8760769 0,9655625 0,8739043 0,9189447 0,9283599 0,9372218 0,933473 0,9451969 0,9665101 0,9613819 0,9406368 0,9701654 0,9675516 0,9529216 0,9624623 0,95474 0,8762835 0,8829056 0,899295 0,9116431 0,9214138 0,9296922 0,9379784 0,944604 0,946138 0,942601 0,9377697 0,9256546 0,9237024 0,9033177 0,9520667 0,9523642 0,9290565 0,9502252 0,9710218 0,9676458 0,9650216 0,9610764 0,9549565 0,9549739 0,9495118 0,936437 0,9152998 0,9013395 0,8877292 0,8569394 0,8800962 0,9220027 0,951114 0,8370835 0,8848053 0,9196683 0,9159352 0,9125412 0,8938479 0,8946989 0,9097954 0,918141 0,9217439 0,9273688 0,8886132 0,8772377 0,9050688 0,9146205 0,9098209 0,8977408 0,8820224 0,8790711 0,8711437 0,8517078 0,840651 0,8291739 0,8087655 0,8344551 0,8509492 0,8956477 0,8443065 0,8276469 0,8276314 0,8095871 0,8315606 0,8190525 0,8578255 0,8792493 0,8595405 0,8559291 0,8524964 0,8651859 0,8083725 0,8475441 0,848832 0,8256577 0,7979121 0,7983031 0,8047537 0,8241459 0,823484 0,8241677 0,8265204 0,836779 0,8238412 0,8353133 0,8583582 
0,8597181 0,8888775 0,8439796 0,8470275 0,9049796 0,9083517 0,9238812 0,8732188 0,7991683 0,940187 0,8744007 0,833879 0,8757917 0,9150472 0,9263056 0,9420888 0,9388263 0,9227222 0,9219756 0,9189693 0,8928919 0,8918034 0,9058457 0,9239062 0,9318441 0,9348271 0,9348251 0,9160181 0,9031076 0,8744509 0,8304691 0,890283 0,9342322 0,9154066 0,9427103 0,9422865 0,9170844 0,9200463 0,8969182 0,9072452 0,9251607 0,9273589 0,926311 0,9220678 0,911805 0,9010276 0,8932664 0,8927898 0,8769379 0,8609874 0,8496346 0,8737007 0,9005656 0,8787636 0,8893772 0,9039452 0,9014804 0,8971065 0,9768188 0,9007565 0,9131622 0,8653494 0,9092487 0,9441354 0,9570285 0,9605564 0,9443743 0,9571216 0,9705648 0,9722909 0,9733312 0,9720165 0,9312298 0,8810854 0,8904852 0,900215 0,9188382 0,9266694 0,9338094 0,9374383 0,9392188 0,9452173 0,9371566 0,9330366 0,9248021 0,9193352 0,9345752 0,95384 0,948489 0,9337547 0,9766459 0,9751821 0,9713419 0,9680108 0,9632159 0,9576982 0,9561239 0,9551651 0,9497103 0,9424819 0,9323738 0,9226463 0,9141724 0,9144169 0,9332911 0,9633331 0,9151334 0,934881 0,9423355 0,9157592 0,9123879 0,8814092 0,9013804 0,9180161 0,9202324 0,9257442 0,8908287 0,8791813 0,8919542 0,9050723 0,8981701 0,8875386 0,8840826 0,8759773 0,8628379 0,8643963 0,8444716 0,808216 0,7884998 0,8107709 0,8685806 0,9269277 0,9209058 0,8535037 0,8528672 0,8296931 0,8060033 0,833337 0,8134103 0,8478947 0,8637729 0,8569245 0,8398026 0,8911117 0,9027666 0,8640281 0,824827 0,8210717 0,81866 0,8071718 0,8246227 0,8100355 0,7957104 0,8066565 0,8067347 0,8179988 0,8461537 0,8123151 0,839192 0,8525278 
0,8588899 0,8926651 0,8535109 0,88484 0,9218314 0,9000083 0,8197538 0,8237864 0,9059601 0,9411466 0,820291 0,8344302 0,8384409 0,8715945 0,8958403 0,9239824 0,9189503 0,9257204 0,9246807 0,913823 0,8903978 0,9173653 0,92421 0,9272828 0,93106 0,9408444 0,9412281 0,9236647 0,9203904 0,9124834 0,8819954 0,8877864 0,9179285 0,9301137 0,9335937 0,9240652 0,9211558 0,9195863 0,9033268 0,9235361 0,9286519 0,9262168 0,9230121 0,918027 0,9076082 0,8960527 0,885279 0,888148 0,885706 0,8605103 0,8171926 0,8555524 0,8748216 0,8412082 0,9095452 0,910356 0,9220187 0,9751037 0,983464 0,957522 0,8233848 0,8379667 0,9061314 0,9484897 0,9655493 0,9563195 0,9524482 0,9628889 0,9687853 0,971952 0,9704792 0,942577 0,9017543 0,8855631 0,8874711 0,9088537 0,9254053 0,9311761 0,9366664 0,9377726 0,934059 0,9337403 0,9418311 0,9135547 0,9111203 0,9155048 0,9496286 0,9626023 0,932184 0,9149939 0,9748274 0,9748429 0,9722372 0,9696509 0,9641965 0,9576542 0,9509404 0,9494807 0,9490768 0,9467072 0,9422498 0,9344862 0,9262503 0,925039 0,97484 0,9050626 0,8347703 0,8502425 0,9109964 0,9251001 0,9191147 0,899033 0,8995794 0,9069326 0,9268293 0,9037809 0,8817049 0,8882457 0,8941285 0,8877513 0,8863718 0,8816732 0,8717345 0,8555494 0,8384902 0,8426692 0,8265789 0,7932261 0,8600225 0,894434 0,9559013 0,9440056 0,9138389 0,8623521 0,859163 0,8068348 0,8208722 0,8290268 0,8173065 0,857735 0,846944 0,8552667 0,8448223 0,8698102 0,8958493 0,9083981 0,8697109 0,8132242 0,8044294 0,7622756 0,7988682 0,8088982 0,7930157 0,7851101 0,8175008 0,8779613 0,8788649 0,8127073 0,8266157 0,8318391 
0,8908968 0,8921648 0,8447604 0,9397131 0,9259791 0,9014969 0,830407 0,7510487 0,8273776 0,9247453 0,7885227 0,80788 0,8074397 0,8653174 0,9012552 0,9192645 0,9190072 0,9305775 0,9346416 0,9117939 0,9079004 0,9313098 0,9347487 0,9345229 0,9339218 0,936113 0,9392595 0,9298468 0,9266614 0,9202815 0,8891706 0,9056001 0,9234565 0,9325224 0,920028 0,9182212 0,8987669 0,9141484 0,9277546 0,9301748 0,926467 0,9225855 0,9170718 0,9096147 0,8981069 0,8886879 0,8840889 0,881395 0,8837683 0,8613632 0,8093227 0,854961 0,9349253 0,9869103 0,9976431 0,997353 0,9952239 0,9465982 0,9414121 0,9565032 0,8933874 0,836623 0,9052693 0,9490647 0,9641224 0,9591774 0,9556149 0,9519063 0,9577351 0,9583303 0,9573869 0,938966 0,8982121 0,8856692 0,8942395 0,9172881 0,9277087 0,932795 0,9358366 0,9358195 0,932112 0,9273658 0,9356726 0,9383514 0,9274867 0,9387648 0,9587752 0,9565083 0,9236048 0,9041478 0,9730003 0,9731656 0,9713707 0,9682416 0,9626498 0,954528 0,9448397 0,9300631 0,931891 0,9381238 0,9361738 0,9334768 0,9280624 0,9371359 0,9714323 0,8543671 0,8421784 0,8626972 0,9076941 0,9142989 0,9374997 0,9305304 0,9244462 0,9136083 0,9009931 0,8795989 0,8872579 0,8914765 0,8884589 0,8856484 0,8788561 0,8692039 0,857657 0,8428156 0,8079787 0,8254801 0,808105 0,8454488 0,9488245 0,9542741 0,9468523 0,888982 0,8497627 0,8223233 0,7829485 0,7820149 0,8318171 0,8275933 0,8255257 0,8644745 0,8417497 0,8057255 0,867048 0,8736765 0,854681 0,8664416 0,9125836 0,9058092 0,8742521 0,8215656 0,8111677 0,8066092 0,7888502 0,7742753 0,8251159 0,8627495 0,8620151 0,8082904 0,8207783 0,8588788 
0,9048192 0,8740527 0,8915981 0,9365259 0,9299437 0,9044783 0,8393847 0,7388577 0,7930329 0,992735 0,9292779 0,8659123 0,8495014 0,8900039 0,8984334 0,8818445 0,8987342 0,9152254 0,937388 0,9384124 0,9335951 0,9347993 0,9374706 0,9396455 0,942029 0,9419972 0,9416646 0,9314346 0,9260027 0,9252514 0,9108682 0,905403 0,9055018 0,9112152 0,9157119 0,9099356 0,9206991 0,9313761 0,9326779 0,927394 0,9221611 0,9146016 0,9058223 0,8933021 0,8822185 0,8768152 0,873647 0,8647527 0,8856314 0,8667535 0,8159654 0,8355252 0,9709811 0,9855441 0,9766349 0,9912081 0,9408978 0,8863271 0,9075918 0,9232337 0,9345834 0,890237 0,9056436 0,948985 0,9611366 0,9643537 0,9631205 0,9529668 0,9580805 0,9527681 0,9320969 0,9067265 0,8895748 0,8810533 0,9060792 0,9240645 0,9307466 0,9329919 0,9353074 0,9342797 0,9284396 0,9074207 0,9208433 0,9468681 0,942179 0,9336051 0,9598005 0,9416101 0,915378 0,938843 0,970291 0,9664739 0,9685776 0,9652807 0,9594166 0,9502686 0,9343981 0,898647 0,9120911 0,8976951 0,8955631 0,8975747 0,9486945 0,9082168 0,8775392 0,8725905 0,8649628 0,8844053 0,9069403 0,9095827 0,9060276 0,8925911 0,8825606 0,8939558 0,8783404 0,8747626 0,8760355 0,8820471 0,8830327 0,8802842 0,8688238 0,8541899 0,8406212 0,8255419 0,8011048 0,8453175 0,871844 0,9417902 0,9493413 0,9475264 0,8884004 0,8041251 0,7942436 0,7755269 0,7697161 0,7931047 0,8113148 0,8282027 0,8267105 0,8327118 0,8419515 0,8251054 0,8164275 0,8603978 0,8828855 0,8659188 0,8638542 0,8781803 0,8297058 0,8621771 0,9521289 0,9004496 0,8415606 0,7795148 0,8365849 0,8537155 0,8716606 0,8030236 0,8725025 0,8865294 
0,9036563 0,9233892 0,9320897 0,9433196 0,9352715 0,9127162 0,8634497 0,7764311 0,8337137 0,9856858 0,9271424 0,8137237 0,7762657 0,8568182 0,9111705 0,9080983 0,8489872 0,8895154 0,9272473 0,9358191 0,941889 0,9043367 0,9342277 0,9442478 0,9472634 0,9474289 0,9484594 0,9439334 0,9399314 0,9325683 0,9228005 0,9284322 0,9323186 0,9364722 0,9360417 0,934612 0,9347272 0,9331865 0,9278102 0,9202607 0,9137452 0,9038697 0,8879257 0,8715712 0,8524202 0,850048 0,844282 0,850758 0,8905551 0,8712247 0,8401418 0,83856 0,9822756 0,9315728 0,9469025 0,9692734 0,8999371 0,9138025 0,9380068 0,9519685 0,9358646 0,9244689 0,9393215 0,9615849 0,9671897 0,9716012 0,9673275 0,9657261 0,9669484 0,9566001 0,939634 0,8950083 0,8828 0,8994451 0,918869 0,9281883 0,9314415 0,9352959 0,9350145 0,925594 0,9006575 0,8967949 0,9379905 0,9489526 0,9570421 0,9572883 0,9442531 0,8982526 0,8863244 0,9638953 0,9561158 0,9428704 0,9676898 0,9637303 0,9583631 0,9464401 0,9214473 0,8409815 0,8905778 0,8451198 0,8426735 0,9261876 0,9386045 0,8538152 0,8556674 0,886285 0,8962913 0,8987406 0,9145916 0,9103171 0,8963024 0,8986918 0,9175529 0,9110439 0,8863673 0,8813388 0,8785256 0,8830802 0,8810357 0,87309 0,8567932 0,834084 0,8088305 0,8149598 0,8304528 0,837753 0,9399283 0,9570491 0,9060382 0,9088451 0,8338978 0,8075968 0,7877978 0,804609 0,8060658 0,8245882 0,8275063 0,8269379 0,813362 0,8033551 0,843953 0,8371813 0,8309921 0,8415701 0,8609263 0,874994 0,8728033 0,855735 0,8306077 0,7773157 0,789498 0,8926431 0,930471 0,9164166 0,8796014 0,9081153 0,9130127 0,839835 0,8351082 0,8627926 
0,9063412 0,9303868 0,9451454 0,9455862 0,9386014 0,9249023 0,89265 0,8417168 0,8642612 0,8978549 0,9443091 0,8168943 0,80514 0,8628561 0,9191702 0,9366178 0,9238064 0,8921211 0,8657161 0,9240356 0,9420735 0,9344441 0,9386544 0,9460123 0,9498856 0,9521849 0,9513258 0,9448912 0,9443992 0,9431536 0,9405261 0,9389066 0,9388187 0,9393071 0,9376963 0,9350998 0,9321917 0,9276195 0,919423 0,9103653 0,8990265 0,8826537 0,8631321 0,844267 0,8286008 0,8432047 0,8343394 0,8756917 0,8988134 0,8834943 0,8615721 0,937531 0,9635351 0,8912921 0,919687 0,9473693 0,9298442 0,9332491 0,9437636 0,9525295 0,9507132 0,9644222 0,9533343 0,9706221 0,9708606 0,9744087 0,9648423 0,9682688 0,9693422 0,9300394 0,8947676 0,873428 0,8938154 0,9130085 0,925167 0,934305 0,9346069 0,9367296 0,9312677 0,9007055 0,90533 0,928315 0,9553187 0,9535344 0,9486765 0,9343361 0,8995152 0,8836112 0,9243796 0,9703153 0,9582311 0,9524033 0,9713637 0,9656984 0,958146 0,9429688 0,9096924 0,8305991 0,8189766 0,9206432 0,943273 0,9175308 0,8979378 0,8915517 0,9056117 0,9179606 0,9211138 0,9183629 0,9256034 0,9150424 0,8762405 0,9032281 0,9107224 0,9130204 0,9117719 0,8884781 0,8862399 0,8843709 0,8756121 0,8616049 0,8417978 0,8241338 0,8084558 0,8432667 0,8625373 0,9173208 0,9635692 0,8830453 0,8596138 0,8573542 0,8078798 0,7730725 0,8040776 0,8229945 0,8302091 0,8404151 0,8389241 0,8339083 0,8069674 0,8170594 0,8599356 0,8581645 0,8427608 0,8436773 0,8571893 0,8534553 0,8682908 0,8653423 0,8514007 0,8369019 0,8123082 0,7859988 0,7423466 0,803427 0,9058676 0,9832271 0,9074041 0,8568141 0,8503122 0,8695847 
0,9109135 0,887412 0,8928345 0,9368894 0,9399586 0,9333656 0,9270404 0,9052035 0,865775 0,8510472 0,9536905 0,8763579 0,8339244 0,8534422 0,9164925 0,9407237 0,9511737 0,9305655 0,8453746 0,8971007 0,9368467 0,9421811 0,9458897 0,9492282 0,9479843 0,9523207 0,9535398 0,9450139 0,9439273 0,9445815 0,9435664 0,9399655 0,9381508 0,9368301 0,9345903 0,9312953 0,9261503 0,9179451 0,9069881 0,8958813 0,8819372 0,8665324 0,8555728 0,8214861 0,8153181 0,8388723 0,8729182 0,8930197 0,913607 0,8997478 0,8845619 0,9704034 0,9506928 0,9337923 0,9439918 0,9623448 0,9640056 0,9553442 0,9602259 0,9561224 0,9583077 0,9645202 0,9724986 0,9755511 0,9665836 0,9700396 0,9701148 0,9709973 0,935885 0,8849193 0,8756742 0,8875813 0,9086634 0,9231412 0,933759 0,9429063 0,9375825 0,9360739 0,9241116 0,9091231 0,9390056 0,9407682 0,9478325 0,9447141 0,9270476 0,8917423 0,8737097 0,9340555 0,969144 0,9685245 0,9636914 0,9642026 0,971086 0,9667743 0,9565319 0,9415669 0,9084004 0,8464221 0,8118049 0,9320652 0,9162551 0,8906426 0,9050504 0,905805 0,9145177 0,9234089 0,9190997 0,9145722 0,896775 0,9130252 0,9083649 0,9170654 0,9193882 0,9117276 0,9033955 0,8921891 0,8889861 0,8815519 0,8685781 0,8499795 0,825871 0,816246 0,8316176 0,8415667 0,9120753 0,9695807 0,8715242 0,832486 0,8615141 0,8372931 0,8053679 0,8181301 0,8380584 0,8334 0,834679 0,8471646 0,8364937 0,8322534 0,8196049 0,8473223 0,8466763 0,8604057 0,8366519 0,8367031 0,851644 0,8563527 0,8657135 0,8669308 0,8585047 0,8534989 0,860135 0,849535 0,8266699 0,772379 0,7609065 0,9502882 0,9129786 0,8921566 0,8671139 0,8869827 
0,8726853 0,8660806 0,8313459 0,8843219 0,8982265 0,9337759 0,9508627 0,9428798 0,9289689 0,8994409 0,8889378 0,9115003 0,8090268 0,8310405 0,9106849 0,9407553 0,952508 0,939317 0,9008625 0,8843273 0,9218291 0,9349108 0,9495053 0,9550273 0,9413394 0,9470835 0,9508241 0,9477516 0,9450282 0,9423067 0,9403132 0,9382019 0,9343536 0,932145 0,9284542 0,9222305 0,9139673 0,9019811 0,8900704 0,8782616 0,8690623 0,8577728 0,839184 0,8072834 0,8053666 0,8480842 0,9260973 0,91294 0,9222381 0,9310358 0,9651525 0,9683774 0,9659887 0,95786 0,9724951 0,9786691 0,981617 0,9729626 0,9559391 0,9592041 0,9670326 0,9737587 0,9774957 0,976255 0,9696792 0,9751199 0,9523788 0,910148 0,8842068 0,8687942 0,8869058 0,9006364 0,9199132 0,934694 0,9417387 0,9464253 0,9367852 0,9323043 0,9261278 0,928617 0,9299271 0,9330289 0,934689 0,9339825 0,9033272 0,8838964 0,9053003 0,9493517 0,9693284 0,9624062 0,9416382 0,9557471 0,9691973 0,9646819 0,9555919 0,9422988 0,9159507 0,8492893 0,8356749 0,9163207 0,9477115 0,8903234 0,8939534 0,9133751 0,9106903 0,9072754 0,930038 0,9155798 0,9181086 0,9275119 0,9374495 0,9270851 0,8998556 0,9056194 0,9026698 0,8907882 0,8834456 0,8737742 0,8605849 0,8370427 0,8153294 0,8358878 0,8549224 0,8863484 0,971939 0,9258607 0,8337439 0,8693246 0,8556306 0,8339732 0,8344494 0,8525067 0,8505183 0,8379101 0,8344289 0,8498061 0,8327205 0,8313521 0,820553 0,8399987 0,8286098 0,8731055 0,8223263 0,8162476 0,8302245 0,837516 0,8514675 0,8567059 0,8459976 0,8497529 0,867484 0,8568241 0,8443009 0,8052543 0,8883816 0,9198325 0,8305607 0,8401105 0,8686597 0,8776089 
0,8533381 0,8218929 0,7962601 0,7931048 0,8177315 0,9026707 0,9295904 0,9542001 0,9534227 0,9460301 0,9317001 0,8441614 0,8139903 0,8655986 0,9065812 0,9384419 0,9531584 0,9572723 0,9466557 0,9198318 0,8961791 0,9124835 0,95074 0,9575893 0,9156798 0,9297051 0,9455031 0,9485525 0,9475607 0,943714 0,9396314 0,9355648 0,930548 0,9244585 0,9129918 0,9036026 0,8870497 0,8784909 0,8719729 0,8644106 0,8617374 0,8467889 0,8260663 0,8095812 0,8666298 0,9583818 0,9800636 0,9653479 0,9709413 0,9810833 0,9607098 0,9563812 0,9026964 0,8961707 0,9227013 0,9805264 0,9840265 0,9586697 0,9387628 0,9549042 0,9587876 0,9549854 0,9491016 0,9652745 0,9535958 0,9249591 0,9022064 0,8915622 0,8810244 0,8911842 0,9096455 0,913704 0,9315913 0,9438629 0,9461914 0,9469664 0,9374097 0,9299666 0,9312959 0,9284459 0,9335798 0,9161971 0,9159909 0,920968 0,8842525 0,8852546 0,9106717 0,9602841 0,9632798 0,945666 0,9478428 0,970368 0,9710379 0,9629176 0,9520465 0,9418828 0,9220725 0,8722342 0,8357247 0,8253405 0,9586371 0,9403151 0,9067355 0,8918259 0,916508 0,8575129 0,8383013 0,8531299 0,863095 0,8881903 0,8942592 0,911862 0,9014775 0,9059242 0,9046462 0,8899625 0,8765863 0,8654526 0,853202 0,8462793 0,8304262 0,8535426 0,8575306 0,9344999 0,9532046 0,8637607 0,8476908 0,8773572 0,8490235 0,84536 0,862727 0,8709033 0,8554527 0,8397636 0,8421718 0,8590882 0,867632 0,8479696 0,8385199 0,8356032 0,8271415 0,8888698 0,8431096 0,7912452 0,8098502 0,8225709 0,8170502 0,8374839 0,8189793 0,8473827 0,8663798 0,8512082 0,8318073 0,8629193 0,93657 0,8185125 0,8469228 0,8617481 0,8705756 0,881697 
0,8119118 0,7900729 0,7662119 0,7873834 0,8725859 0,8864024 0,9327457 0,9425362 0,9573462 0,9608506 0,9450061 0,8680395 0,8396176 0,8806833 0,9090047 0,9378415 0,9503774 0,958411 0,9649532 0,9575952 0,9349236 0,9171869 0,9545674 0,9606665 0,9028249 0,9179044 0,9368734 0,9437957 0,9456981 0,9411032 0,9361782 0,9327575 0,9246099 0,9116991 0,8805772 0,8698627 0,8755444 0,8700963 0,8487091 0,8508416 0,8464519 0,8349736 0,7889732 0,8771869 0,9467528 0,9806495 0,934952 0,9032302 0,9134201 0,942939 0,9510399 0,9388727 0,8489401 0,893548 0,8812604 0,9071618 0,9773176 0,9152167 0,8889626 0,9193983 0,945086 0,9471368 0,9578385 0,9510995 0,9270562 0,9194712 0,9086009 0,8916048 0,9011199 0,909721 0,9237467 0,9243938 0,9397592 0,9480042 0,9475268 0,9458926 0,938535 0,9258111 0,9229817 0,9353011 0,9200589 0,9087894 0,8728295 0,9113224 0,8988873 0,9138305 0,9550763 0,9616092 0,9429486 0,9495841 0,968652 0,9732875 0,9710249 0,9629629 0,9516624 0,9399527 0,9246671 0,8945565 0,8415101 0,7726139 0,9010811 0,9479846 0,9192363 0,9099658 0,9143561 0,8511258 0,8472166 0,8490775 0,8817092 0,9012904 0,9039196 0,9032657 0,9033923 0,9053327 0,8939826 0,881119 0,8683619 0,8556804 0,8432757 0,8408985 0,827554 0,8604152 0,8317395 0,956053 0,8912734 0,8321931 0,8564606 0,8600625 0,8380249 0,8656175 0,8755741 0,8665297 0,8448671 0,826638 0,8463708 0,8814088 0,8874149 0,8670143 0,8250601 0,8206497 0,8106068 0,8599818 0,880595 0,7905075 0,8102938 0,8263261 0,7946397 0,806507 0,8306191 0,8574332 0,8569533 0,8196778 0,8061233 0,928489 0,8624865 0,8676219 0,8799816 0,8650969 0,8667251 0,8870567 
0,800148 0,7580978 0,6962112 0,7283095 0,8115175 0,88083 0,9634017 0,9531495 0,9391454 0,9544115 0,9577548 0,9550626 0,8057765 0,8354012 0,895722 0,930158 0,9423699 0,9542497 0,9649125 0,9630463 0,9637306 0,9574205 0,9576188 0,9584242 0,9295149 0,9092265 0,9184759 0,9312567 0,9355792 0,9175048 0,9154223 0,9153254 0,9080943 0,8923088 0,8923174 0,8920437 0,8766603 0,8723435 0,8561773 0,8572427 0,8370894 0,7900193 0,7987493 0,9599506 0,9720249 0,9102274 0,8834361 0,8846804 0,873384 0,8808929 0,8730223 0,9070902 0,8624055 0,8630607 0,8328732 0,8085669 0,9614481 0,9333467 0,901883 0,9285516 0,9393639 0,9402949 0,9430595 0,928511 0,9348656 0,9081113 0,9024916 0,8973109 0,9098763 0,9189539 0,9327366 0,9396766 0,9452073 0,9497133 0,9481223 0,9454695 0,9395694 0,9134533 0,9261013 0,9350394 0,9224826 0,8759263 0,8621718 0,8737241 0,8968288 0,9457168 0,9667718 0,9573355 0,9452471 0,9586068 0,9692528 0,9701646 0,9680448 0,9621142 0,9563055 0,9440157 0,9290796 0,897827 0,837159 0,8066564 0,8504433 0,9823276 0,9514897 0,9685578 0,862123 0,815492 0,8529959 0,869528 0,8889142 0,9021115 0,9102672 0,8968643 0,8966658 0,9054346 0,8855404 0,8756588 0,8618819 0,847558 0,8425328 0,8396012 0,826881 0,8331809 0,8576005 0,9673209 0,8476624 0,8541377 0,8716049 0,8322424 0,8586298 0,8830208 0,8826574 0,8511357 0,8271779 0,8397728 0,8620856 0,8925375 0,8986988 0,8915452 0,8541249 0,8624412 0,89763 0,9241005 0,9281594 0,8166173 0,8382078 0,8194997 0,7321905 0,758275 0,7950795 0,8317288 0,8481973 0,7896177 0,95738 0,8935308 0,8765867 0,8726928 0,8885027 0,880733 0,8891629 0,901679 
0,7750075 0,7246749 0,7068108 0,8516172 0,9329014 0,9494376 0,8941537 0,9540281 0,9328437 0,9185169 0,943354 0,892011 0,9215708 0,7711267 0,8512549 0,9189984 0,9426485 0,9399352 0,9580321 0,965358 0,9686822 0,9545737 0,946986 0,938612 0,8936536 0,8490909 0,8577366 0,8841368 0,912029 0,887048 0,8958389 0,9193016 0,917883 0,9199201 0,9070408 0,8620402 0,8475347 0,8567775 0,8466469 0,8307152 0,8335105 0,8981134 0,9870496 0,9376727 0,8942342 0,9003437 0,9125204 0,9137101 0,8730128 0,8747712 0,8617918 0,866423 0,8892052 0,8727911 0,8462611 0,785976 0,9347665 0,9489122 0,9158813 0,9438856 0,9483099 0,9323338 0,9354373 0,9339087 0,9214013 0,909909 0,9039807 0,9171343 0,9234086 0,9311883 0,9384678 0,9443303 0,9472518 0,9495526 0,9485328 0,9442232 0,937078 0,9273722 0,933149 0,9284442 0,9096853 0,8733765 0,8453035 0,8455092 0,9326512 0,9563377 0,9636582 0,9557041 0,95191 0,9550852 0,960052 0,9653767 0,962472 0,9610333 0,9571075 0,9492666 0,9324735 0,8971832 0,8104088 0,8997005 0,9412559 0,9884163 0,8989557 0,8956751 0,906373 0,8153604 0,8291022 0,8626312 0,9095725 0,9365982 0,9064398 0,8885571 0,8925812 0,8934615 0,8839595 0,8664396 0,8548722 0,8449748 0,8392751 0,8452181 0,8304511 0,8394712 0,9353166 0,9019772 0,8501979 0,8466204 0,8401837 0,8435622 0,879855 0,8916956 0,8942938 0,8657058 0,8139077 0,8629275 0,8936318 0,9046154 0,8928902 0,8759003 0,8732728 0,8403126 0,796666 0,7769907 0,7863024 0,8803309 0,912799 0,83258 0,7460042 0,7746049 0,7651905 0,764957 0,7850715 0,744382 0,9597019 0,8410192 0,8563292 0,8787397 0,8913594 0,8988465 0,9036882 0,9195454 
0,7897344 0,8247395 0,8584283 0,8573191 0,8718408 0,8483717 0,8954041 0,9450955 0,9370688 0,8918797 0,8888484 0,8361971 0,934609 0,9436139 0,9385444 0,9011295 0,9100939 0,9539509 0,9597549 0,9694398 0,9598914 0,9446803 0,9401717 0,9443614 0,9090953 0,8778071 0,8852882 0,9059944 0,9314044 0,9432379 0,9508694 0,9501296 0,939903 0,9210899 0,8858033 0,8545393 0,9297758 0,9735918 0,9792382 0,9649875 0,9847869 0,8893688 0,9057423 0,8750197 0,8874381 0,8976954 0,9317529 0,9094629 0,8681068 0,8818993 0,8765294 0,8659264 0,861989 0,8469544 0,8436098 0,7952061 0,9440714 0,9560496 0,9452914 0,9497237 0,9474643 0,9462989 0,9342581 0,9429377 0,9198627 0,9046637 0,921208 0,9280342 0,9335032 0,9421967 0,9446775 0,9451513 0,9483443 0,9475726 0,9468498 0,9344524 0,9319926 0,9335043 0,9304829 0,9198084 0,8880652 0,8473899 0,8240272 0,912663 0,9407973 0,9632556 0,9622246 0,9556867 0,9371847 0,9635089 0,9567642 0,9608657 0,9567813 0,9574925 0,9551381 0,9469509 0,9326116 0,8993455 0,8180425 0,9456586 0,9501835 0,8582879 0,8895923 0,9156862 0,9454696 0,9096315 0,8958611 0,9093896 0,9369537 0,926712 0,9081317 0,906728 0,8985345 0,8919534 0,8756822 0,869109 0,8438383 0,8428793 0,8347219 0,8445483 0,8232253 0,8870153 0,9634846 0,8738467 0,8281422 0,8441213 0,8269088 0,8622432 0,8867098 0,8954231 0,8971031 0,8692225 0,8247052 0,8731728 0,9123658 0,8959783 0,8793385 0,8673306 0,8220044 0,7884199 0,7661216 0,7824074 0,7556072 0,7198227 0,7881228 0,8912202 0,8302475 0,837815 0,8449684 0,8174706 0,7425724 0,7953004 0,8915969 0,8337075 0,873276 0,8858588 0,894156 0,9025294 0,9127612 0,9216464 
0,7627312 0,8010094 0,7963724 0,7810954 0,9223154 0,8437563 0,9102306 0,938179 0,9376473 0,9068369 0,873034 0,8620225 0,8705274 0,8488951 0,8385123 0,8640641 0,8341432 0,8371612 0,9075648 0,9433419 0,9662951 0,9798486 0,9736052 0,9435163 0,9068942 0,948231 0,9661103 0,9577863 0,9826404 0,9753897 0,9624228 0,9523529 0,9356518 0,8981873 0,8531221 0,9470853 0,9330962 0,8661516 0,8169827 0,8361081 0,9214123 0,8254843 0,8770704 0,9243139 0,8829435 0,8831897 0,9245467 0,8766115 0,889688 0,9067056 0,8787991 0,8796009 0,855553 0,8419853 0,8256136 0,8087212 0,9428347 0,945696 0,9518136 0,9579625 0,9562494 0,9395285 0,9401366 0,9469683 0,9228877 0,911982 0,9253535 0,9365534 0,9444512 0,9479828 0,9477719 0,9454727 0,9473686 0,9456602 0,9445305 0,9191044 0,9392461 0,938217 0,9296577 0,9108297 0,86102 0,802257 0,8648216 0,9752796 0,9471492 0,9571685 0,9607864 0,9600875 0,9382651 0,9657311 0,9603297 0,9596245 0,9568946 0,9558764 0,9556863 0,950448 0,9392279 0,9048167 0,919548 0,9026239 0,851736 0,8329206 0,8577163 0,8845836 0,8833494 0,9162438 0,9284965 0,9360763 0,940753 0,9245419 0,9217634 0,9320496 0,9191282 0,8817537 0,8776086 0,874345 0,8546357 0,8335172 0,860868 0,8402459 0,8528221 0,9451543 0,8786042 0,850967 0,8473434 0,834387 0,8395505 0,8717648 0,888956 0,8959839 0,8980907 0,8687627 0,8463666 0,9064368 0,9009585 0,8626071 0,8378581 0,8224639 0,8020421 0,7898633 0,7818889 0,7819028 0,7582607 0,7375343 0,7586019 0,7856097 0,9441658 0,916688 0,845634 0,8090292 0,8586237 0,8977391 0,8491365 0,8644699 0,8815436 0,8758284 0,8840611 0,8876972 0,9020226 0,9009296 
0,7751299 0,7985189 0,766719 0,8197287 0,9211902 0,8577373 0,9289674 0,9466032 0,9458924 0,9310825 0,9092587 0,8863414 0,8446035 0,9181904 0,8742999 0,90511 0,8093573 0,8558146 0,8183712 0,7867371 0,7735999 0,7957804 0,8461009 0,8740259 0,9006739 0,8450692 0,9429179 0,9092959 0,929516 0,9820578 0,9619548 0,9595212 0,9530346 0,9289778 0,9743939 0,9762252 0,8719051 0,8832757 0,86001 0,8482787 0,9519799 0,8882418 0,9102252 0,9068345 0,8995346 0,9077476 0,9431651 0,8563645 0,9042757 0,8932668 0,8867573 0,8942429 0,8839969 0,8665941 0,8427963 0,7543582 0,8512472 0,934404 0,9618096 0,9671336 0,952566 0,9442216 0,9456941 0,948971 0,935712 0,9345516 0,9350656 0,9443631 0,9499253 0,9499817 0,9475347 0,9440767 0,9428464 0,9432697 0,940523 0,9343479 0,9462227 0,9403013 0,9297044 0,9062455 0,8389059 0,8013105 0,8403436 0,9491996 0,9484705 0,9532263 0,9606479 0,9565784 0,9332148 0,9547572 0,9325542 0,9360311 0,9268281 0,942242 0,9536991 0,9559 0,9514574 0,924559 0,9302175 0,8006139 0,8311625 0,8475251 0,8701156 0,8578408 0,8660929 0,8912549 0,8847951 0,9144123 0,9205486 0,929544 0,941128 0,9319593 0,8951959 0,8619388 0,8841566 0,8814058 0,8642833 0,8359958 0,8758637 0,8612491 0,9288733 0,9008518 0,8452728 0,8901905 0,8500023 0,8441967 0,8606344 0,8784847 0,8923323 0,8985143 0,8995309 0,8805293 0,8114563 0,8875993 0,8629018 0,8282198 0,7742862 0,7607097 0,7545179 0,7736182 0,7720791 0,7638295 0,8199025 0,8632677 0,8714169 0,8484409 0,926344 0,9864109 0,9304304 0,9520686 0,9960778 0,9019259 0,8507344 0,8715083 0,8943659 0,894746 0,8949211 0,8958439 0,9097534 0,9084178 
0,8036481 0,7770715 0,8557559 0,7702773 0,8901259 0,901149 0,9192177 0,942288 0,9559373 0,945989 0,9347184 0,9264815 0,8967775 0,9047472 0,8237999 0,8842647 0,8252051 0,8772303 0,8804039 0,8594013 0,8236723 0,8018268 0,8112655 0,7782548 0,8637595 0,8492252 0,8809415 0,896041 0,8941976 0,8783587 0,9031737 0,9537695 0,9008881 0,918062 0,9242111 0,9280056 0,8727301 0,9030702 0,9044629 0,8937366 0,880865 0,9023093 0,9178177 0,9350336 0,9304937 0,9065238 0,9274387 0,8941433 0,9003435 0,9083903 0,9053837 0,9075647 0,9021736 0,8804469 0,853772 0,7899743 0,8536828 0,9361416 0,9579635 0,9494196 0,925213 0,9414674 0,9501594 0,9539157 0,9447922 0,9402359 0,9384944 0,9467065 0,9503719 0,951032 0,9467706 0,9430219 0,9448342 0,9488595 0,9384994 0,9434118 0,9425562 0,9353569 0,9255059 0,9082971 0,8458093 0,8276263 0,874979 0,9159671 0,9695116 0,9521221 0,953011 0,9480613 0,9173719 0,9341889 0,908595 0,9179959 0,9141677 0,9201003 0,9398829 0,9558648 0,9616029 0,9612793 0,9309408 0,8409054 0,8478808 0,867721 0,8852636 0,8918544 0,8975635 0,9051565 0,9096527 0,9238926 0,9330594 0,9363636 0,9335793 0,9145913 0,8929927 0,8839728 0,8966566 0,8926719 0,875703 0,8540078 0,9081713 0,8726647 0,9275898 0,9030941 0,8644023 0,8886889 0,8333432 0,8499237 0,8663344 0,8836824 0,8956357 0,9021562 0,9031729 0,8906948 0,8630496 0,8645701 0,8975096 0,901058 0,9283774 0,8953271 0,8087407 0,8206796 0,8729607 0,9112728 0,9248145 0,9114351 0,8555387 0,7734199 0,9030025 0,9472156 0,9070864 0,8187124 0,8401223 0,9541768 0,8674179 0,8596098 0,887914 0,8863291 0,9003278 0,9077247 0,9077288 0,9239601 
0,801694 0,7943701 0,8668811 0,7825664 0,8311112 0,8694181 0,8743349 0,8941516 0,9540595 0,9452623 0,9254507 0,9362424 0,947189 0,9146034 0,8339437 0,862764 0,8429648 0,8624836 0,8757122 0,8779584 0,8778912 0,8708183 0,8562878 0,8267223 0,8008109 0,8519724 0,9049806 0,8890665 0,8639671 0,7875575 0,8382972 0,8877547 0,8555894 0,8528486 0,864388 0,9288645 0,8824536 0,9209993 0,9382372 0,9369979 0,8910185 0,859367 0,8851147 0,9008583 0,9093624 0,9445691 0,9371754 0,9302422 0,9072814 0,9056126 0,9051515 0,9084513 0,9070636 0,8769909 0,8500101 0,8184485 0,8282676 0,872206 0,8851067 0,937233 0,9340288 0,9454389 0,9428272 0,9528353 0,9463748 0,9453403 0,9444649 0,9454159 0,9481385 0,9504218 0,9428753 0,9421828 0,940609 0,9425307 0,9462713 0,9380527 0,9331725 0,9256066 0,9185185 0,9094316 0,8659063 0,8130435 0,9064525 0,9528211 0,9651918 0,9550915 0,945451 0,9331434 0,8878445 0,8953722 0,8687919 0,8702446 0,8571576 0,9047065 0,9303027 0,9515952 0,9680413 0,9832337 0,863976 0,9019799 0,9004518 0,9055904 0,9092543 0,910481 0,913433 0,9147537 0,9206823 0,9278014 0,9337175 0,9349535 0,922313 0,9100168 0,9024803 0,900078 0,905108 0,8894728 0,8666407 0,8737924 0,8966044 0,8756418 0,9432445 0,9549802 0,9049816 0,8708547 0,8440607 0,85196 0,8719416 0,887998 0,8962479 0,9004743 0,9081764 0,8961434 0,8539664 0,8814496 0,8893497 0,881268 0,8534988 0,8792765 0,9094359 0,9222574 0,9034024 0,8893822 0,9020578 0,8946261 0,8498285 0,8342988 0,9237353 0,8377219 0,8187279 0,8203705 0,8315274 0,8757138 0,96632 0,8813057 0,8642821 0,8693472 0,880549 0,9129193 0,9110951 0,9223351 
0,8815947 0,8624851 0,8705026 0,8708687 0,8427896 0,8719748 0,8642028 0,8613183 0,9344851 0,936505 0,9030302 0,8918606 0,8997397 0,9407433 0,8454121 0,8830764 0,873982 0,8839244 0,8976533 0,8985151 0,900557 0,8940573 0,883221 0,8656752 0,8566849 0,8465328 0,8633553 0,8698221 0,8349656 0,8279727 0,8137652 0,8735141 0,9166474 0,9075054 0,9050992 0,8988305 0,8831295 0,9232543 0,9535059 0,9536045 0,9386152 0,9276983 0,9238102 0,9194863 0,9232791 0,9043145 0,9009476 0,9412699 0,9414356 0,9137551 0,8969977 0,8821408 0,8780858 0,8474266 0,8259528 0,8598568 0,8306288 0,8276455 0,8844252 0,9432858 0,9438004 0,9324164 0,9173283 0,9450209 0,9435607 0,9426299 0,9438713 0,9438556 0,9460537 0,9470304 0,9479418 0,9463427 0,9337372 0,9395213 0,9362639 0,9285041 0,9178609 0,9077212 0,889779 0,8967144 0,8888326 0,8295936 0,7579566 0,8239073 0,9676338 0,9616653 0,9350358 0,9125913 0,85359 0,8524629 0,8252651 0,8168567 0,8954504 0,9437464 0,9660988 0,9626631 0,9779639 0,9209151 0,8564361 0,8809563 0,8997821 0,9103422 0,9186352 0,9194403 0,9206961 0,9224992 0,9262617 0,9334297 0,9367539 0,931265 0,914156 0,914584 0,9134905 0,9083918 0,9057546 0,8859362 0,8753188 0,8709458 0,8365858 0,8358258 0,9445197 0,9520392 0,8876913 0,8692701 0,860593 0,8489571 0,8809116 0,8947852 0,8939984 0,8969949 0,9119181 0,8955702 0,8556205 0,9008662 0,9150678 0,9211524 0,927233 0,9355614 0,9048261 0,9039624 0,9152266 0,9159149 0,901868 0,8722237 0,9021345 0,9280306 0,800253 0,8098677 0,8481209 0,8577484 0,854767 0,8241321 0,8731828 0,9160534 0,9690391 0,9160509 0,9073696 0,922124 0,9096218 0,9189653 
0,9200034 0,9216957 0,9194019 0,9137111 0,9079396 0,909875 0,9008835 0,8854529 0,9122818 0,9252524 0,921576 0,9049115 0,8861907 0,9703791 0,8622441 0,8991443 0,887134 0,8967866 0,9038644 0,9095489 0,9124945 0,9123044 0,8874029 0,8883651 0,8890734 0,8806986 0,8670487 0,8626503 0,8441586 0,8493799 0,833744 0,8104435 0,7931049 0,8249373 0,8402849 0,8492935 0,893891 0,937641 0,9241314 0,9488094 0,9565991 0,930023 0,9149382 0,9253277 0,9420469 0,9188209 0,9304281 0,9381883 0,9500594 0,941303 0,9312025 0,8899444 0,8502759 0,8263571 0,8183516 0,8579728 0,8582466 0,82561 0,898055 0,9404537 0,9408016 0,924061 0,9230959 0,9322286 0,9373862 0,9396348 0,9421422 0,9366266 0,941784 0,9469528 0,9494965 0,9439585 0,9265625 0,9282922 0,9219782 0,9096697 0,8846442 0,8680909 0,8492324 0,8919959 0,9006464 0,885402 0,8283067 0,732169 0,8720175 0,9683105 0,9367091 0,9034547 0,8298163 0,8214373 0,8900654 0,9532624 0,9155408 0,9175743 0,9596476 0,9700716 0,9502276 0,8963819 0,898659 0,8943053 0,8955539 0,9041781 0,9123057 0,9102963 0,9141754 0,9071056 0,9149621 0,9269284 0,9345983 0,9262406 0,9226017 0,9221218 0,9166087 0,9079505 0,894513 0,8773136 0,8593902 0,8592351 0,8571017 0,8372687 0,9063159 0,9093406 0,7968682 0,840508 0,8623317 0,8654871 0,8827445 0,8981276 0,911654 0,9105559 0,914423 0,9086426 0,8908073 0,9072151 0,9282275 0,9383675 0,938678 0,939968 0,9313684 0,9317178 0,9322803 0,9284744 0,9066036 0,887441 0,9114822 0,8260942 0,8393819 0,8734135 0,8907351 0,8930304 0,8926953 0,8881903 0,8913108 0,9216963 0,9522547 0,9564272 0,9279831 0,9407198 0,9173509 0,9078853 
0,9272751 0,9226008 0,9268907 0,9246283 0,9256869 0,9219186 0,9149528 0,9156755 0,9169455 0,9153636 0,9104083 0,9023075 0,9081378 0,948801 0,857296 0,9027154 0,903102 0,9046477 0,909773 0,9126931 0,9166883 0,9146042 0,9016082 0,8944107 0,9008561 0,8862256 0,8885362 0,8735266 0,8701821 0,8599521 0,8454638 0,840103 0,8363295 0,8557776 0,8755774 0,8772612 0,9015353 0,9241782 0,9254684 0,9423609 0,9560773 0,9356157 0,9239476 0,9399642 0,9409275 0,9433352 0,9216563 0,9117815 0,9533259 0,9359337 0,9120479 0,9214694 0,8548801 0,8077635 0,8294655 0,8362764 0,8092214 0,8683907 0,9349611 0,9455293 0,9341493 0,928133 0,9216083 0,9162365 0,9187058 0,9321251 0,935577 0,9338687 0,9377854 0,944672 0,9501321 0,9464878 0,9298088 0,9175484 0,9005928 0,8775567 0,8370296 0,7941615 0,7823862 0,8718218 0,9102473 0,8922055 0,8684238 0,8199093 0,8643399 0,9637344 0,9560988 0,9123962 0,8384238 0,8613761 0,9692054 0,8540064 0,8349178 0,8550333 0,9047801 0,9173486 0,9407194 0,9491695 0,9291849 0,9068874 0,8979372 0,8842685 0,8975622 0,8943456 0,9067806 0,8888396 0,9059804 0,9247847 0,9307401 0,9168294 0,9164596 0,9179475 0,9093722 0,8953188 0,8812007 0,8712542 0,8800418 0,8894232 0,8855476 0,8505921 0,8688045 0,9085248 0,809801 0,8350128 0,8467284 0,8485096 0,8828918 0,9067434 0,9175498 0,9193927 0,9133831 0,9124972 0,8979512 0,910614 0,9327103 0,9394038 0,9383739 0,94244 0,9417406 0,9429852 0,9417704 0,9399474 0,9252493 0,8963512 0,8921282 0,902597 0,9106579 0,9148697 0,9177333 0,9185402 0,9169174 0,9126598 0,9191976 0,9346846 0,94197 0,9708403 0,9376655 0,9516127 0,9362227 0,9089032 
0,9153829 0,906763 0,9092648 0,9126104 0,917604 0,9102356 0,907513 0,9072726 0,9098376 0,9027866 0,895178 0,8980101 0,9302489 0,8255644 0,8387113 0,8903105 0,9051898 0,9100316 0,9121835 0,9149743 0,9171838 0,9176199 0,9203298 0,8941104 0,8697724 0,8707917 0,886856 0,8801795 0,875662 0,8569911 0,8482667 0,8556565 0,8513849 0,8508579 0,8673884 0,8913282 0,902441 0,9270467 0,9419068 0,9518707 0,9508716 0,9433041 0,868229 0,9085211 0,9449616 0,9517149 0,9169098 0,8690384 0,8795783 0,8866168 0,8971808 0,9066222 0,8634019 0,8062122 0,821507 0,7956656 0,8754515 0,9192261 0,9160758 0,9336525 0,9231899 0,9141556 0,9010246 0,8934464 0,8853631 0,9023291 0,9233522 0,9123664 0,9317137 0,9345442 0,9497219 0,9462132 0,9306751 0,9093646 0,8654482 0,8203043 0,7861351 0,8085451 0,8803464 0,9018692 0,9035685 0,8774837 0,8755338 0,8237906 0,8547003 0,9345428 0,9581698 0,9332839 0,8865194 0,9582515 0,8913444 0,8300097 0,8124802 0,8171899 0,8258075 0,8774121 0,9492193 0,9578053 0,9498069 0,9594977 0,9005671 0,861504 0,8844052 0,9070531 0,9183164 0,8460751 0,8706782 0,9076418 0,897818 0,9063407 0,9156637 0,9112495 0,9045787 0,8983414 0,8866097 0,8812642 0,9096988 0,9241309 0,9215013 0,9090765 0,8796722 0,9528373 0,8627998 0,8404468 0,8225985 0,815956 0,8773699 0,9091451 0,9226633 0,9308915 0,9299245 0,9281546 0,9169687 0,9296675 0,943268 0,9459516 0,9483629 0,950801 0,9500068 0,9490558 0,9473253 0,9459195 0,9413406 0,9363832 0,9340073 0,9351621 0,9334565 0,9302266 0,9288839 0,9267169 0,9222512 0,9174861 0,9238656 0,9285492 0,9279359 0,9363052 0,9448043 0,9423206 0,9463045 0,9223803 
0,8846069 0,8766242 0,878108 0,8773586 0,8800433 0,8734065 0,8770379 0,8879575 0,8863393 0,8744927 0,8651367 0,8446028 0,9171939 0,7968079 0,8176448 0,8779172 0,9016404 0,912991 0,9144594 0,9166842 0,9216144 0,9205719 0,9192463 0,8910677 0,8590838 0,8814149 0,88593 0,8866823 0,8814778 0,8713324 0,8565693 0,8407112 0,8292751 0,8450723 0,8442858 0,8446237 0,8587199 0,8664895 0,8804361 0,9616257 0,965101 0,9570115 0,8889948 0,9273558 0,948788 0,9487033 0,9306632 0,8789557 0,8818274 0,9005313 0,8916675 0,9003844 0,8678483 0,8152586 0,804155 0,764045 0,9068056 0,9133603 0,8699939 0,8880992 0,8877946 0,8927861 0,8696247 0,8454481 0,8331916 0,8486416 0,9068308 0,915949 0,928084 0,9250333 0,9479334 0,9440162 0,9309846 0,9026962 0,8482609 0,8218559 0,84985 0,867389 0,8713167 0,8741925 0,8793823 0,8352235 0,857012 0,869276 0,9265364 0,9339302 0,9416369 0,9392216 0,874046 0,9945381 0,8094925 0,799729 0,7908709 0,7784171 0,8036696 0,8068471 0,8468471 0,9193989 0,9596266 0,9692866 0,9796473 0,9838628 0,974311 0,9657474 0,9606549 0,9295977 0,8607482 0,8543783 0,8911757 0,9105071 0,9169508 0,9087088 0,8967766 0,8991817 0,9294629 0,9423306 0,943143 0,9399796 0,930312 0,9285349 0,9090359 0,9399486 0,9110688 0,8725703 0,8558685 0,8283957 0,8781189 0,9002358 0,9135171 0,9267265 0,9339228 0,9357446 0,9370356 0,9427325 0,946654 0,9457985 0,9480807 0,9501303 0,9503951 0,95033 0,9472353 0,946375 0,9417556 0,9383078 0,9399608 0,9401449 0,9352071 0,929759 0,9263729 0,9227862 0,9144734 0,9050347 0,9009414 0,8972054 0,8872409 0,8596522 0,9157156 0,8952484 0,9380036 0,9322353 
0,8482168 0,8266537 0,8382428 0,8920879 0,8409708 0,8126441 0,84343 0,8559666 0,8671716 0,8435681 0,8343009 0,8786674 0,9705032 0,8698005 0,8521146 0,8676692 0,8934166 0,9097989 0,9179698 0,920194 0,9233824 0,9240972 0,9230324 0,9137797 0,8831037 0,8942474 0,8991506 0,899332 0,8908887 0,8716441 0,8584225 0,8462324 0,8424889 0,8413709 0,8357635 0,8168225 0,7951399 0,8008979 0,7858646 0,890923 0,9670106 0,9339719 0,8341047 0,9008718 0,8979855 0,8905879 0,8914611 0,8566728 0,899884 0,9162135 0,9180394 0,8995746 0,8665333 0,8304812 0,7914393 0,8165416 0,8526278 0,8727708 0,8540258 0,8183501 0,8809447 0,8930558 0,8420187 0,849091 0,8682676 0,8695737 0,9148722 0,9260737 0,9409298 0,9606609 0,9363732 0,9356377 0,9278409 0,8945411 0,8316407 0,7563089 0,7717562 0,9617967 0,8307857 0,8485457 0,8295044 0,8403653 0,8883178 0,9150938 0,9421356 0,9397265 0,9370326 0,9413882 0,9037369 0,9699997 0,8164014 0,8192914 0,8019207 0,7996461 0,8053887 0,8051594 0,7895777 0,7960326 0,8505063 0,8326824 0,8361499 0,9249215 0,9608176 0,9742305 0,9562217 0,9335498 0,9371641 0,8803449 0,8845823 0,9126529 0,9236106 0,9186547 0,914708 0,9139521 0,9047222 0,9368191 0,9353313 0,9325259 0,9283904 0,9466322 0,9350682 0,9457039 0,9856278 0,8867812 0,8350476 0,8334182 0,8723828 0,8934522 0,9065837 0,9187454 0,9260409 0,9258324 0,9295968 0,9352432 0,9373413 0,9408715 0,9438823 0,9439597 0,9438795 0,9437371 0,9422334 0,941137 0,9346591 0,9331764 0,9388286 0,9358007 0,9310572 0,9239716 0,9170895 0,9072024 0,8893741 0,8700655 0,8494749 0,8312441 0,8046146 0,8070511 0,8836457 0,8308147 0,9159219 0,956591 
0,8401584 0,8168862 0,778688 0,8640692 0,9062831 0,9063611 0,9727125 0,9633614 0,9387938 0,9322385 0,9782841 0,9120855 0,9201894 0,8164533 0,8610827 0,8924742 0,8999717 0,9012902 0,9101732 0,9154993 0,918312 0,9208226 0,9209892 0,9228198 0,9117176 0,8841175 0,9004905 0,8970073 0,8544998 0,84395 0,861241 0,8532323 0,8457983 0,8440161 0,8387803 0,8280726 0,8274869 0,8121001 0,7827064 0,8106362 0,9229445 0,902685 0,8041188 0,8775431 0,8901 0,899931 0,9169049 0,8868664 0,9094126 0,913255 0,9133445 0,8937762 0,8757298 0,8415819 0,7842233 0,7913676 0,8264713 0,8342269 0,8245956 0,7935361 0,8597233 0,851154 0,7860969 0,819849 0,8298296 0,8960609 0,9286677 0,9660241 0,9619665 0,9620317 0,9541072 0,9266408 0,9220958 0,8828578 0,8121247 0,7505153 0,7148213 0,9017356 0,7929808 0,8298092 0,7897356 0,9045175 0,9052579 0,9311589 0,9427581 0,9372721 0,9223504 0,944598 0,9684134 0,866962 0,8138504 0,822269 0,8397446 0,8061197 0,8298879 0,8285717 0,8183088 0,8369339 0,8563589 0,8406953 0,8193565 0,8647208 0,9385691 0,9782495 0,9480005 0,9125522 0,940663 0,918417 0,8893349 0,9177492 0,9277864 0,923149 0,914115 0,9036937 0,8729106 0,9245503 0,9112059 0,9183393 0,9196616 0,958225 0,9613148 0,9405988 0,9866425 0,8782236 0,8235134 0,8269032 0,8716857 0,890278 0,9019902 0,9203259 0,9240104 0,916394 0,9086046 0,9089103 0,9014351 0,9132069 0,929931 0,9326796 0,9318768 0,9292454 0,9292978 0,9269305 0,9245161 0,9246224 0,9250631 0,9186181 0,9119955 0,9094408 0,8909329 0,8639663 0,8378814 0,8068149 0,7908579 0,7661165 0,754495 0,8847134 0,9647307 0,9037416 0,9235124 0,9677036 
0,8083996 0,7893169 0,7890605 0,9134144 0,9376686 0,9680107 0,8494374 0,7608448 0,8863354 0,8929049 0,8174009 0,8068559 0,8540353 0,8874541 0,8772562 0,8742052 0,8858269 0,8877175 0,8958611 0,9033173 0,9076742 0,9049052 0,9016876 0,9068377 0,9184045 0,9148974 0,9009529 0,909435 0,8650581 0,7969757 0,8267367 0,8624585 0,8593641 0,8308141 0,8381094 0,8332428 0,8325672 0,8255492 0,7956377 0,7921121 0,8267335 0,9345326 0,8598955 0,8525223 0,8989273 0,9166891 0,9171221 0,9081687 0,9135045 0,915873 0,8957875 0,9023327 0,8963747 0,8536507 0,8057678 0,7614238 0,8384979 0,8067661 0,7910685 0,8016818 0,8509673 0,8188407 0,7730862 0,8538654 0,9257367 0,9253589 0,9588242 0,9633079 0,9644209 0,9623706 0,9556371 0,9421443 0,9185448 0,8629692 0,8146157 0,7692291 0,7554012 0,8958932 0,8941808 0,7724022 0,8099697 0,9462346 0,9186279 0,9153108 0,905973 0,9284178 0,9186331 0,9627366 0,9845129 0,8974074 0,8476138 0,8087125 0,8273423 0,8419852 0,8397785 0,8475142 0,8442771 0,8534633 0,8488411 0,8439473 0,8336175 0,8196743 0,8342052 0,840476 0,9656887 0,9239156 0,9188987 0,9042834 0,8910568 0,9149371 0,9306396 0,9285136 0,9083083 0,8803356 0,8372932 0,9087797 0,9071491 0,9034424 0,9095982 0,955557 0,962805 0,9666312 0,9802274 0,9599987 0,8261971 0,8052938 0,8733774 0,89297 0,9058492 0,9181314 0,9184937 0,9124689 0,9045888 0,892907 0,8641099 0,8618349 0,8549874 0,8744968 0,895885 0,899024 0,9024559 0,906207 0,9070866 0,9086131 0,9064241 0,8924639 0,8660766 0,8498435 0,8233149 0,7814661 0,7763808 0,7874579 0,7980643 0,8725065 0,959331 0,9028889 0,8323557 0,8519405 0,8085138 0,8399236 
0,8996309 0,883328 0,9289252 0,9412529 0,7874469 0,8788862 0,8204342 0,8016096 0,7905288 0,8723727 0,8256494 0,8314803 0,8256833 0,8666816 0,8654202 0,823214 0,8468351 0,8697351 0,8670963 0,8861037 0,8997799 0,8791 0,8747013 0,8854034 0,9106224 0,9279183 0,9241447 0,9374776 0,932886 0,8697274 0,8333336 0,8595054 0,8582293 0,8252964 0,8548119 0,8661792 0,8430543 0,8289962 0,8184696 0,7975393 0,7789778 0,8002653 0,9544863 0,8518112 0,8877763 0,9059905 0,9136931 0,9128698 0,9167922 0,9142568 0,885893 0,8754001 0,8894441 0,8680592 0,8045143 0,8014162 0,8126122 0,7773983 0,8238226 0,7997655 0,8428848 0,8113289 0,7822821 0,8605709 0,9436874 0,954667 0,9552512 0,9604508 0,9623457 0,9614137 0,9543166 0,944123 0,927923 0,8573309 0,8863362 0,8948487 0,909005 0,8757 0,8983614 0,9442068 0,9706467 0,9663005 0,9389457 0,9597108 0,9398893 0,9425133 0,948508 0,9820088 0,9191505 0,7953383 0,8216985 0,835575 0,8348308 0,8442851 0,8551316 0,8625047 0,8630919 0,8676407 0,843731 0,8454501 0,8285679 0,8178259 0,8284411 0,7875371 0,8766441 0,9582472 0,9754262 0,864144 0,8656801 0,9165082 0,9333728 0,9312059 0,9100985 0,8762293 0,8446097 0,89604 0,9009325 0,8641769 0,899179 0,9547241 0,9697339 0,9792275 0,9808815 0,9352265 0,8308545 0,8447316 0,8727331 0,8990006 0,9106658 0,9095889 0,9094459 0,9062157 0,900933 0,9034516 0,8978803 0,8848525 0,8935295 0,8125737 0,8001568 0,8325025 0,8588428 0,8785998 0,8834388 0,8864055 0,9042399 0,863021 0,8602018 0,9025611 0,9148374 0,9425129 0,9448504 0,9321018 0,9343997 0,9711426 0,8097017 0,7921885 0,8013328 0,795095 0,7932742 0,8335109 
0,9534195 0,9511895 0,9071878 0,9111363 0,8547518 0,8671042 0,911274 0,8472768 0,8311783 0,8432283 0,8576547 0,8411887 0,8092451 0,7981598 0,885627 0,8028121 0,8607644 0,8964116 0,9014553 0,9154813 0,9324635 0,946709 0,9432154 0,8824209 0,8754813 0,9209399 0,9551361 0,9616876 0,9630302 0,9491214 0,8938525 0,827655 0,8721253 0,8811449 0,8894995 0,8900372 0,8595417 0,8440564 0,8247908 0,8105262 0,770418 0,7477296 0,9611416 0,8255048 0,8704859 0,8932977 0,9011832 0,9106426 0,9183751 0,9077887 0,8737936 0,8836784 0,8426036 0,8191715 0,8063971 0,7973439 0,7927057 0,7137254 0,819284 0,8557507 0,9178473 0,849795 0,8472052 0,950914 0,9269506 0,9432892 0,9449408 0,9573132 0,9586653 0,9593229 0,9536255 0,9455692 0,9314858 0,8777811 0,917546 0,8918554 0,8827973 0,9067417 0,8955473 0,8759091 0,8434932 0,9576874 0,967239 0,9812532 0,9829232 0,9813202 0,9592508 0,8910559 0,8487116 0,8273749 0,7867235 0,8062009 0,8170959 0,8362107 0,8566957 0,8717103 0,8781408 0,8700594 0,8541797 0,8480055 0,8414928 0,8315338 0,824605 0,7739507 0,8344672 0,8193898 0,9092035 0,929162 0,8878249 0,9199181 0,9339651 0,9297103 0,9103103 0,8710131 0,8241187 0,853552 0,9181046 0,8146512 0,8782244 0,9523779 0,9714788 0,9730917 0,971719 0,9479513 0,8364812 0,8342003 0,8720996 0,8965337 0,9078335 0,904202 0,8961025 0,8911141 0,884801 0,8984659 0,901059 0,8829651 0,8938385 0,9003218 0,832783 0,7667096 0,8001247 0,8528607 0,8760984 0,8969088 0,9054295 0,9121872 0,9257225 0,9210079 0,9123699 0,8861032 0,8634071 0,8624189 0,9408977 0,8399421 0,8194352 0,8075216 0,8089702 0,8079094 0,7942852 0,8540686 
0,9655399 0,853644 0,8460429 0,8825739 0,9039239 0,8886243 0,9168435 0,8453014 0,8557572 0,8559072 0,859027 0,8238341 0,7847095 0,7991196 0,9068685 0,9587586 0,9017649 0,846037 0,8499668 0,8396735 0,8109806 0,8048815 0,8319592 0,8789932 0,9411199 0,9560648 0,9554996 0,9515635 0,9646634 0,9640797 0,9472058 0,9572316 0,9510739 0,9030047 0,8871035 0,8648251 0,8627924 0,8662589 0,8370643 0,8095826 0,7542858 0,7005207 0,9067222 0,86166 0,8223193 0,8628747 0,8985446 0,9184707 0,92059 0,895074 0,8647425 0,877827 0,8686465 0,8460793 0,8243586 0,7942435 0,7756354 0,7033487 0,7362854 0,7877538 0,9148842 0,8791079 0,9474099 0,9093034 0,9012854 0,926982 0,9446325 0,9541578 0,953074 0,9545463 0,9514078 0,9457508 0,9350005 0,8915154 0,8754295 0,9082987 0,912886 0,9137442 0,9566435 0,9412687 0,876025 0,8630393 0,8807206 0,8868051 0,9221957 0,95515 0,9163225 0,8706113 0,7858748 0,762207 0,769579 0,8304496 0,8563195 0,8603298 0,8620584 0,8793425 0,8817936 0,8747267 0,8688173 0,854014 0,8429282 0,8256629 0,7875707 0,7786357 0,8078054 0,8214512 0,8523185 0,9530717 0,938911 0,9163348 0,9340379 0,925463 0,8987208 0,8723143 0,8530219 0,8877519 0,9360041 0,9818286 0,9764645 0,9592634 0,9766145 0,9680099 0,969273 0,9624767 0,8696752 0,8182991 0,8614852 0,8880862 0,9009626 0,9003556 0,8861173 0,8831261 0,8790265 0,8890092 0,8881999 0,8696712 0,8795522 0,8326664 0,874282 0,8295159 0,7456996 0,7872942 0,8424887 0,8714639 0,8827661 0,8709913 0,8640281 0,8979816 0,9026803 0,8554561 0,9045572 0,9753254 0,8916582 0,8538706 0,8182424 0,8442069 0,8118854 0,8046407 0,8331899 0,8701949 
0,9270422 0,8778605 0,8717079 0,8340727 0,906414 0,8995785 0,9212862 0,8542077 0,8718753 0,861583 0,845614 0,7953053 0,7658308 0,8211284 0,9733216 0,8717049 0,8143522 0,8037392 0,8023953 0,8165312 0,8083411 0,8075248 0,8055297 0,8084394 0,8101586 0,8224105 0,8929679 0,8479509 0,8021924 0,8447861 0,8891186 0,9267623 0,933392 0,9500493 0,8749388 0,8634151 0,895288 0,8789092 0,8307883 0,8099393 0,7636641 0,7082541 0,7757595 0,9418688 0,8467811 0,8695827 0,9126182 0,9131176 0,9235559 0,9052168 0,8497416 0,8732894 0,8739057 0,8292379 0,8247258 0,79626 0,7958745 0,7458959 0,7403609 0,7835929 0,7952484 0,872931 0,9682337 0,8772259 0,9046124 0,925712 0,9406663 0,9475445 0,9443747 0,9372669 0,9238766 0,938928 0,9397427 0,9148302 0,8405774 0,9686793 0,9097854 0,8933512 0,9668164 0,837639 0,8471835 0,8515695 0,8429415 0,8580045 0,9492521 0,960932 0,9075583 0,8236163 0,7801617 0,7845152 0,7776458 0,8047565 0,8394963 0,8555425 0,8663279 0,8765924 0,878855 0,883296 0,8808584 0,8710592 0,8557573 0,8399243 0,8279905 0,8092338 0,807544 0,7917608 0,8261399 0,9115577 0,9671268 0,9239928 0,9339573 0,9243886 0,9140542 0,9290594 0,929499 0,9232319 0,907543 0,8953294 0,9074247 0,9751036 0,9803332 0,9761411 0,9763018 0,9707593 0,9052473 0,7778809 0,8511429 0,8747036 0,8921196 0,8924599 0,8832179 0,8778045 0,8730742 0,8691571 0,8531429 0,8113216 0,8269565 0,8175427 0,7829923 0,8725984 0,7754799 0,7629784 0,7956361 0,8308281 0,8655894 0,8752608 0,9084132 0,939675 0,9143709 0,9318603 0,9196647 0,8154283 0,8429063 0,8646869 0,8452614 0,8252124 0,8038383 0,8221698 0,8519952 0,8788069 
0,9210736 0,9297599 0,9151001 0,8619738 0,8445663 0,8775667 0,8517101 0,8610911 0,8705677 0,8582582 0,824703 0,773681 0,7922878 0,9097458 0,9016516 0,9422336 0,8114004 0,7721015 0,7841036 0,7970555 0,807317 0,8183736 0,8278664 0,8419269 0,8611514 0,8733176 0,8626021 0,8259206 0,8083482 0,8062837 0,8346735 0,8313836 0,8084607 0,8279875 0,917733 0,8839215 0,8823934 0,828294 0,8353512 0,8212425 0,7868869 0,7324542 0,7925768 0,9154827 0,863142 0,9050261 0,9084587 0,9041542 0,9250627 0,9261718 0,8642418 0,8701812 0,8836902 0,8237913 0,8182167 0,7799325 0,8081712 0,7546953 0,7694582 0,7810779 0,8114524 0,7726125 0,9572011 0,861059 0,8958619 0,9117334 0,9228152 0,9331373 0,9300271 0,915363 0,8909734 0,8838418 0,9238234 0,9360747 0,9189884 0,9226826 0,9290328 0,9311603 0,8386458 0,8277862 0,8438089 0,837148 0,8069794 0,8040829 0,9237188 0,9563803 0,9595821 0,956482 0,7935984 0,7762423 0,7872421 0,7994399 0,8217118 0,8509691 0,8531958 0,8617371 0,868475 0,894008 0,8927318 0,8825899 0,8755378 0,847577 0,8377718 0,8324375 0,8109494 0,7798709 0,7688375 0,8418919 0,9749408 0,9385713 0,9195575 0,923009 0,9364645 0,9412217 0,9453549 0,9446868 0,9469186 0,9461567 0,9457133 0,9544103 0,976804 0,9788633 0,9776896 0,972855 0,9355771 0,7806926 0,8354808 0,8675081 0,8816106 0,8821422 0,8697715 0,8615393 0,8399766 0,8137143 0,8084028 0,7904452 0,8527554 0,7867054 0,7655184 0,9564812 0,9373674 0,7870884 0,7094817 0,7288312 0,8034815 0,8476512 0,8797565 0,9055319 0,9204952 0,9034109 0,7879977 0,7432491 0,8037394 0,8201123 0,8699812 0,8449136 0,8271315 0,8415165 0,8717942 0,898098 
0,8887314 0,8309526 0,8661264 0,8665447 0,9029358 0,8930445 0,8819203 0,8778709 0,8635621 0,8388751 0,8105665 0,7982156 0,8855923 0,9492543 0,8751798 0,8792939 0,8833299 0,8694655 0,8078836 0,7705508 0,795367 0,8198234 0,8467279 0,8722647 0,8915457 0,9036237 0,8981944 0,8870925 0,8516548 0,8562807 0,8581421 0,8472474 0,8140401 0,7882717 0,8092598 0,8534772 0,8902632 0,8995894 0,8684474 0,8327428 0,7957655 0,7478888 0,7372226 0,8781957 0,8805269 0,9065936 0,9214287 0,9034263 0,9073959 0,9179041 0,9089853 0,8696177 0,8861562 0,8354852 0,8165647 0,7729365 0,8074676 0,7521646 0,7922717 0,807328 0,7782978 0,7725096 0,966558 0,9263836 0,9328531 0,9083424 0,9065109 0,9098941 0,9055512 0,899142 0,882417 0,91575 0,9117686 0,9752092 0,9001083 0,8096741 0,839193 0,8456221 0,8196368 0,9038278 0,8784304 0,8482093 0,82091 0,7842352 0,9034411 0,9483055 0,9676411 0,972244 0,8167682 0,770053 0,7796222 0,8022548 0,8234697 0,8499552 0,8836516 0,905835 0,8746223 0,8814504 0,8969207 0,8855706 0,8765119 0,8357899 0,8453696 0,8330389 0,8197834 0,7887753 0,7815655 0,792639 0,8924944 0,9488937 0,9285476 0,8793064 0,8767962 0,9193327 0,9410523 0,9156891 0,907886 0,9410933 0,9268495 0,9299955 0,9678894 0,9732082 0,966364 0,9639781 0,9374756 0,8075147 0,8203168 0,859705 0,865274 0,8685523 0,8537452 0,8175496 0,7887254 0,7647609 0,7699736 0,7650372 0,8039038 0,9093558 0,9874465 0,9321938 0,9427684 0,9808515 0,9011449 0,8414509 0,7632599 0,7386911 0,7447476 0,8424778 0,9587849 0,8082263 0,7442344 0,7556164 0,7773408 0,8707389 0,8058399 0,8193837 0,8401242 0,8633491 0,8812468 0,898303 
0,8812759 0,8551663 0,8735551 0,9009956 0,9163621 0,9060649 0,8974642 0,8765697 0,8548419 0,8039718 0,8135857 0,7966231 0,9806089 0,929726 0,9063057 0,8838136 0,8416559 0,8623604 0,9043707 0,8234147 0,783407 0,7992294 0,8322461 0,8488624 0,8723942 0,8932297 0,9044425 0,9122853 0,8735621 0,88016 0,8867131 0,8806577 0,8694842 0,8608395 0,8397268 0,8211854 0,8487599 0,8821293 0,8960195 0,8443746 0,8125164 0,7833051 0,7661433 0,913824 0,9107647 0,9121935 0,8874935 0,9122874 0,8663034 0,8719696 0,8850062 0,8716662 0,8838127 0,866982 0,8173711 0,7720959 0,7869249 0,7220266 0,7807426 0,7841925 0,8086379 0,8093435 0,8612368 0,9176186 0,9772067 0,9377699 0,8931394 0,9053812 0,9044132 0,9069064 0,9508594 0,9436531 0,9363606 0,9421163 0,8809474 0,8772479 0,8685206 0,8290468 0,7830753 0,8878506 0,9121248 0,8731588 0,8519035 0,7895244 0,8866909 0,9254631 0,9661331 0,9827893 0,9160285 0,8732026 0,868353 0,8715812 0,8577122 0,8456274 0,8594359 0,8575188 0,8256395 0,8306824 0,8513942 0,8627559 0,8648006 0,8543697 0,8477882 0,8350583 0,8200229 0,7885211 0,79452 0,7954429 0,7809784 0,7845129 0,8865229 0,9298058 0,924827 0,9184004 0,9229388 0,8821477 0,9139131 0,934466 0,917844 0,9508398 0,9693825 0,9662904 0,9679951 0,9674279 0,9703099 0,8421199 0,7966312 0,8407397 0,8519523 0,8692642 0,8600655 0,8652118 0,855623 0,8920695 0,9179584 0,9652669 0,9566895 0,919481 0,9050131 0,9298419 0,9457868 0,927802 0,9570984 0,9882603 0,9891934 0,9529428 0,9611467 0,9671582 0,9146898 0,82701 0,7673187 0,7958602 0,8033613 0,8607087 0,8235356 0,8291509 0,8286442 0,8713028 0,8908796 0,904633 
0,8958011 0,8935195 0,9113634 0,916549 0,9157685 0,9048026 0,8914565 0,871894 0,8344935 0,7871901 0,8120141 0,8698068 0,9293511 0,8590932 0,8957494 0,9333472 0,9305994 0,8836924 0,8955657 0,8843783 0,8305384 0,7980151 0,7941765 0,8278183 0,8452173 0,8888247 0,9060624 0,8801852 0,8756411 0,9014802 0,9056783 0,8999285 0,9039813 0,9042118 0,8922906 0,8857905 0,8835117 0,8567582 0,8770416 0,872346 0,8159009 0,8049591 0,8025091 0,9244959 0,8922324 0,8989205 0,885054 0,87413 0,8394316 0,8489701 0,8536414 0,8855507 0,8860924 0,8699173 0,8276723 0,8059837 0,7837037 0,757507 0,8018392 0,8172788 0,8039333 0,8336239 0,8487951 0,8286371 0,873445 0,9498198 0,9456547 0,8886402 0,8980038 0,9257823 0,9561985 0,8395993 0,8395095 0,8517489 0,879809 0,8802295 0,8691756 0,8396493 0,7818334 0,8328589 0,9117534 0,879794 0,8825045 0,813809 0,8365699 0,9362952 0,9620506 0,9674501 0,9494436 0,8542187 0,8459359 0,8503408 0,8457875 0,8386118 0,8404475 0,8338583 0,845972 0,8389668 0,8639227 0,8703305 0,8714023 0,8566211 0,8487143 0,8367367 0,8204974 0,8020298 0,7980117 0,7993177 0,8010508 0,8045844 0,8227923 0,8419414 0,9559113 0,9013575 0,8984318 0,8862715 0,9713983 0,965685 0,9646129 0,9716731 0,9730674 0,9766043 0,9784041 0,9706742 0,9656224 0,849286 0,7566758 0,7658226 0,7928469 0,8409566 0,851413 0,7867576 0,791103 0,9600695 0,934606 0,9457265 0,9542606 0,9619566 0,9499732 0,9578828 0,9610648 0,9613363 0,9533211 0,9596058 0,9658483 0,9597939 0,9389526 0,8693674 0,8828474 0,8608749 0,8048478 0,8126642 0,8445662 0,8887991 0,8412877 0,8481791 0,8764642 0,8860806 0,9030483 0,915516 
0,9172699 0,9026247 0,9134244 0,915085 0,9143436 0,9045783 0,8848783 0,8620878 0,8149498 0,8088306 0,7827375 0,9379789 0,8292814 0,8322181 0,8458246 0,8800892 0,8828347 0,8435845 0,8807326 0,8988309 0,9270801 0,9440204 0,8818117 0,8574257 0,8130656 0,8514655 0,8852932 0,8793021 0,8983097 0,9158167 0,9153657 0,8918213 0,9128627 0,9247308 0,9115437 0,8935495 0,8976582 0,856697 0,8230048 0,8582243 0,8181833 0,7735063 0,7543837 0,9133806 0,9067943 0,88489 0,8687063 0,8220252 0,8252337 0,827883 0,8487455 0,878348 0,8855306 0,8714099 0,8338196 0,8099955 0,7863007 0,7677487 0,8063319 0,8011079 0,8228371 0,8585793 0,8661943 0,8445625 0,8499622 0,902986 0,8685333 0,7842016 0,783388 0,8119089 0,9255434 0,8918307 0,8366492 0,8397632 0,8373634 0,8192137 0,8366339 0,8471422 0,7881011 0,8185369 0,8811553 0,8651521 0,8809953 0,8330712 0,7677803 0,8910745 0,9472505 0,9095122 0,9233382 0,8794641 0,8175786 0,8168008 0,8311707 0,8481534 0,8547419 0,8668177 0,8702228 0,8500109 0,8651296 0,8675597 0,8718303 0,8644198 0,8512501 0,840337 0,8296642 0,8263862 0,8211119 0,8136086 0,818742 0,8082827 0,8020457 0,8152414 0,85411 0,9704177 0,9075161 0,8569525 0,9624912 0,9535929 0,9285721 0,9640162 0,9736645 0,9748161 0,9728528 0,9639624 0,9632443 0,8940611 0,7525561 0,740127 0,7576707 0,7879384 0,8250372 0,8193306 0,7659628 0,9295085 0,9547169 0,9645299 0,9637941 0,9745189 0,9700104 0,9702509 0,972991 0,9745898 0,9689357 0,9599106 0,9542249 0,9471341 0,845155 0,8736928 0,9096977 0,8583384 0,8140051 0,82092 0,8672147 0,8921562 0,8211896 0,8392226 0,8845975 0,9028405 0,9157346 0,9150997 
0,928421 0,9124159 0,9077227 0,9172568 0,9197615 0,9046128 0,8756383 0,8368368 0,8409902 0,8178266 0,8192952 0,9916278 0,7851734 0,8563315 0,8813993 0,8731093 0,8597695 0,8654061 0,8791684 0,8767836 0,8578632 0,8939497 0,8869202 0,7850583 0,7826903 0,8186314 0,8560266 0,8832209 0,9040267 0,9232358 0,9312729 0,8966655 0,9124925 0,931368 0,9294145 0,8845255 0,8972514 0,8679266 0,8448139 0,8148323 0,8280289 0,7732912 0,7257116 0,9620195 0,9190085 0,8949068 0,8719267 0,8370867 0,8360184 0,8343755 0,8498054 0,8752231 0,8760837 0,8700107 0,8548539 0,8211968 0,7871263 0,7769313 0,801422 0,8013741 0,8327801 0,8701215 0,8896956 0,8620522 0,8540894 0,8982927 0,92225 0,8438795 0,8509837 0,8345267 0,8701779 0,8976006 0,8916073 0,833613 0,8506135 0,8390886 0,8491498 0,8519679 0,8280694 0,7733369 0,8380957 0,8569262 0,8792066 0,8522085 0,7719516 0,7913792 0,9377358 0,8849317 0,8873108 0,9536141 0,838631 0,8168392 0,8206458 0,8470728 0,8732575 0,8733116 0,8728085 0,8619455 0,8739196 0,8779118 0,8773439 0,8736051 0,8601286 0,8492617 0,8428956 0,8384125 0,8330369 0,8223193 0,8087407 0,7957329 0,8282303 0,8253294 0,8180721 0,9181029 0,9532106 0,918522 0,9863843 0,9589329 0,9757154 0,9816313 0,9731175 0,9737649 0,9728208 0,96846 0,9691194 0,9255551 0,878806 0,8317621 0,7719294 0,726343 0,720715 0,7275807 0,8571723 0,9499734 0,973771 0,975466 0,9760085 0,9797337 0,9776751 0,9749508 0,9760725 0,9720287 0,9591599 0,9367356 0,9298919 0,8269669 0,7968356 0,846135 0,8739724 0,8657363 0,8320357 0,8496404 0,8846767 0,8939237 0,855897 0,8374318 0,8690006 0,907226 0,9194539 0,9165245 
0,93371 0,9233358 0,9206758 0,9244935 0,9242892 0,9037166 0,8747047 0,8405845 0,8149211 0,8007683 0,7930291 0,9832138 0,7984233 0,8521641 0,8856196 0,898258 0,9045554 0,9155982 0,9146698 0,8963655 0,9018934 0,8771019 0,9374931 0,8446357 0,8151334 0,8277304 0,8363094 0,8749565 0,8796684 0,9198829 0,9281601 0,9372888 0,9344151 0,9447774 0,92405 0,8706198 0,8735328 0,85527 0,8614382 0,829193 0,7992064 0,7674197 0,7679212 0,9671032 0,9161799 0,8760235 0,8633048 0,8467335 0,8579245 0,8410533 0,8365803 0,8775741 0,8856365 0,8783037 0,8648515 0,8359957 0,8151963 0,7992971 0,7781036 0,7989441 0,850143 0,9138296 0,8653411 0,8781949 0,8786966 0,8287905 0,8701995 0,8994491 0,9063386 0,9009114 0,9111291 0,8631281 0,896972 0,9042184 0,8695856 0,8627763 0,8596402 0,8596045 0,8523884 0,8302149 0,8395706 0,8567795 0,8718805 0,8012366 0,7446083 0,7767794 0,9397619 0,9223875 0,8777286 0,9607393 0,8583372 0,8244252 0,8130448 0,8441423 0,8664112 0,871314 0,8604029 0,8596205 0,8809956 0,8818883 0,882651 0,8780309 0,8666451 0,8580279 0,8530182 0,8489393 0,8403156 0,8248448 0,8202678 0,8252157 0,8319601 0,8482558 0,8784218 0,9333915 0,9569334 0,9579804 0,9375253 0,920859 0,8590598 0,8010143 0,791828 0,921515 0,9090869 0,8959765 0,8975948 0,9411418 0,9620848 0,9162252 0,7804587 0,8048386 0,8914957 0,899199 0,9493049 0,9699675 0,9785807 0,9814827 0,9826288 0,9835581 0,9830641 0,9804302 0,970883 0,9618756 0,9311803 0,8441395 0,8365639 0,8214266 0,8170633 0,842437 0,8524035 0,8820477 0,8558685 0,867163 0,8867822 0,8953711 0,8850294 0,8664044 0,8750045 0,9125376 0,9263185 0,9210721 
0,9408433 0,9287075 0,9247952 0,9322235 0,9300189 0,9046004 0,8898431 0,8539648 0,8068122 0,7783597 0,900042 0,9778461 0,9019927 0,8237141 0,8571659 0,8701631 0,8955907 0,9201541 0,932245 0,9014484 0,9158853 0,9366282 0,9320672 0,9063462 0,9254258 0,886863 0,8681253 0,9238846 0,8931576 0,8887641 0,9228989 0,9362059 0,94396 0,9476458 0,9031593 0,8599346 0,8538021 0,8443521 0,85624 0,8518932 0,8121317 0,7684235 0,7644922 0,8484101 0,9132004 0,8668992 0,8699383 0,8549314 0,8745791 0,8348989 0,8250729 0,8402397 0,883481 0,8772081 0,8716927 0,8478236 0,8089805 0,8102342 0,7842932 0,7861189 0,860068 0,8563191 0,8112838 0,8795988 0,8382343 0,7647147 0,8674182 0,9236623 0,9369909 0,9451087 0,9431229 0,8808893 0,8875878 0,9038259 0,9108327 0,9026195 0,9047502 0,867028 0,8408951 0,8576322 0,8584198 0,8262033 0,8802112 0,7588177 0,7361595 0,8365413 0,8704073 0,8051212 0,8028326 0,9145371 0,9154233 0,8613243 0,8541777 0,8478026 0,8494509 0,8613806 0,8679403 0,8792474 0,886898 0,8813152 0,8844486 0,883186 0,8737101 0,8680713 0,8609461 0,8464032 0,8281877 0,8302476 0,847701 0,8558184 0,881798 0,8770953 0,8623116 0,9030222 0,9054658 0,8795658 0,8485337 0,8315747 0,8107366 0,7593825 0,8219211 0,84743 0,813622 0,7979428 0,8147188 0,8152623 0,833884 0,93622 0,9632926 0,9246051 0,8919354 0,8921757 0,9409008 0,9688783 0,9796242 0,9838868 0,9854334 0,9863285 0,9861803 0,981966 0,9592127 0,9335442 0,8367929 0,8385369 0,8721718 0,8551927 0,8390995 0,8497405 0,8445217 0,7902981 0,8416716 0,8687363 0,8897365 0,8993374 0,8958653 0,9005473 0,9030854 0,9159097 0,8912716 0,9140765 
0,9312791 0,9044565 0,9231191 0,9399314 0,9221283 0,9205117 0,8951775 0,869658 0,8202447 0,8477672 0,9643979 0,9227198 0,9655892 0,8944465 0,8949228 0,8753721 0,9093682 0,9365242 0,9444056 0,9052086 0,8860646 0,9156501 0,9402695 0,8784146 0,7972884 0,8405869 0,8575206 0,8726799 0,9035483 0,8802206 0,9338366 0,9481921 0,9522768 0,9384971 0,891226 0,8781053 0,8649734 0,8633699 0,8747288 0,8708053 0,8455564 0,8263138 0,8374614 0,8246675 0,878382 0,8854461 0,8575863 0,8381315 0,8420544 0,8209131 0,8303697 0,8165002 0,8683558 0,8878877 0,8768473 0,8571672 0,8274178 0,8098084 0,7751535 0,8190393 0,8838475 0,8017924 0,754952 0,8562355 0,7968951 0,8026173 0,9086202 0,9304821 0,9250962 0,9567252 0,9488398 0,878996 0,9236516 0,9292842 0,9269484 0,8669339 0,901404 0,9175134 0,8770915 0,8638006 0,8735633 0,8048426 0,8133428 0,7869253 0,7506821 0,8440212 0,8444712 0,8118928 0,7812737 0,9062746 0,9381232 0,8735806 0,8796834 0,8863819 0,8706406 0,883556 0,8875318 0,8932258 0,8991075 0,8800331 0,8794845 0,892152 0,8845227 0,879675 0,8697106 0,8512005 0,8325591 0,8572479 0,8681794 0,8456384 0,8674573 0,878485 0,8936749 0,9115121 0,8708015 0,8700652 0,8384715 0,8368578 0,8266395 0,7740676 0,8215099 0,8039247 0,8148384 0,8261663 0,8268224 0,8250394 0,8376213 0,9201369 0,9204677 0,9018962 0,8778281 0,8903078 0,9470139 0,9703736 0,980824 0,985639 0,987234 0,9881744 0,9894915 0,9837047 0,9503425 0,8683895 0,8160932 0,7945385 0,8303593 0,8588031 0,8581243 0,8489162 0,8580912 0,7594321 0,7834435 0,8733639 0,8816969 0,8903161 0,8928967 0,8981519 0,9179218 0,8875802 0,8869652 0,9107049 
