ncols        64
nrows        60
xllcorner    630800.000000000000
yllcorner    5180500.000000000000
cellsize     250.000000000000
0.95147252082824707031 0.94151550531387329102 0.91005754470825195312 0.87369465827941894531 0.89597415924072265625 0.91244715452194213867 0.90244972705841064453 0.87492531538009643555 0.85266733169555664062 0.90547347068786621094 0.92651444673538208008 0.90890920162200927734 0.90516912937164306641 0.906246185302734375 0.89336371421813964844 0.86144101619720458984 0.87994343042373657227 0.89757096767425537109 0.87636345624923706055 0.90057736635208129883 0.93020164966583251953 0.91445654630661010742 0.91817700862884521484 0.90610933303833007812 0.89050745964050292969 0.83135843276977539062 0.79253977537155151367 0.78532254695892333984 0.82701861858367919922 0.81715452671051025391 0.85428345203399658203 0.86649787425994873047 0.86430519819259643555 0.85058730840682983398 0.84935593605041503906 0.83522588014602661133 0.80232673883438110352 0.82035988569259643555 0.84416562318801879883 0.8524379730224609375 0.85839420557022094727 0.91388249397277832031 0.94278806447982788086 0.94057536125183105469 0.91699904203414916992 0.90777003765106201172 0.84853857755661010742 0.82715064287185668945 0.90205657482147216797 0.91854310035705566406 0.96275866031646728516 0.96506977081298828125 0.96960359811782836914 0.972637176513671875 0.96852862834930419922 0.95713043212890625 0.92401200532913208008 0.86519545316696166992 0.83168131113052368164 0.82939618825912475586 0.86526226997375488281 0.88422489166259765625 0.90241730213165283203 0.9051710963249206543 
0.93519186973571777344 0.92135441303253173828 0.89342296123504638672 0.86906349658966064453 0.87265425920486450195 0.89082628488540649414 0.87642878293991088867 0.87487417459487915039 0.85412561893463134766 0.90860754251480102539 0.91715824604034423828 0.90192240476608276367 0.88538140058517456055 0.90217870473861694336 0.8752797245979309082 0.84345650672912597656 0.83724355697631835938 0.88476955890655517578 0.91950219869613647461 0.86932092905044555664 0.87507271766662597656 0.89035707712173461914 0.89159315824508666992 0.87978649139404296875 0.86697560548782348633 0.82636862993240356445 0.82955902814865112305 0.84230840206146240234 0.85189461708068847656 0.82823044061660766602 0.84824919700622558594 0.83714884519577026367 0.8325049281120300293 0.81430912017822265625 0.82668226957321166992 0.81667292118072509766 0.80676871538162231445 0.83059984445571899414 0.82068806886672973633 0.93213552236557006836 0.94170194864273071289 0.95853918790817260742 0.95475822687149047852 0.93130820989608764648 0.88125908374786376953 0.88656586408615112305 0.86514753103256225586 0.87783551216125488281 0.88263934850692749023 0.9323971867561340332 0.95762079954147338867 0.96283358335494995117 0.96931844949722290039 0.96640789508819580078 0.9533144831657409668 0.93240785598754882812 0.88042151927947998047 0.84474849700927734375 0.8314921259880065918 0.81945741176605224609 0.83642596006393432617 0.83291316032409667969 0.85612112283706665039 0.87054580450057983398 
0.92785245180130004883 0.91470634937286376953 0.89769816398620605469 0.87294298410415649414 0.86295223236083984375 0.87648361921310424805 0.87762665748596191406 0.86863666772842407227 0.84908187389373779297 0.89369362592697143555 0.87846136093139648438 0.88989716768264770508 0.88822829723358154297 0.86509573459625244141 0.82692646980285644531 0.83057326078414916992 0.81086862087249755859 0.83294594287872314453 0.92096316814422607422 0.85433584451675415039 0.87089616060256958008 0.86486095190048217773 0.84555894136428833008 0.84387391805648803711 0.86871039867401123047 0.87419074773788452148 0.82231527566909790039 0.8024571537971496582 0.85832810401916503906 0.87247717380523681641 0.85477721691131591797 0.8278796076774597168 0.79328387975692749023 0.76485353708267211914 0.81323063373565673828 0.82315641641616821289 0.84105610847473144531 0.8419888615608215332 0.90347266197204589844 0.97312283515930175781 0.96785271167755126953 0.95311880111694335938 0.92559957504272460938 0.88881361484527587891 0.89740043878555297852 0.92572098970413208008 0.91568464040756225586 0.89723473787307739258 0.88806331157684326172 0.90647089481353759766 0.94869500398635864258 0.96259593963623046875 0.97086769342422485352 0.9593181610107421875 0.90478396415710449219 0.88922113180160522461 0.84719544649124145508 0.8788045048713684082 0.87537133693695068359 0.8579928278923034668 0.85464608669281005859 0.82294958829879760742 0.84167087078094482422 0.86603331565856933594 
0.95690953731536865234 0.94468015432357788086 0.92192417383193969727 0.92107188701629638672 0.89009684324264526367 0.84113132953643798828 0.86077725887298583984 0.84995704889297485352 0.84657835960388183594 0.88484942913055419922 0.85402399301528930664 0.83365643024444580078 0.84209942817687988281 0.80068606138229370117 0.80643731355667114258 0.85244393348693847656 0.81940418481826782227 0.84805732965469360352 0.87540709972381591797 0.83827382326126098633 0.83780914545059204102 0.82383632659912109375 0.87592542171478271484 0.88181346654891967773 0.8740749359130859375 0.86871254444122314453 0.84317338466644287109 0.86243879795074462891 0.90199619531631469727 0.90982854366302490234 0.90811693668365478516 0.87557131052017211914 0.87042921781539916992 0.88211113214492797852 0.90820181369781494141 0.91225570440292358398 0.89427191019058227539 0.88472402095794677734 0.97160565853118896484 0.96847164630889892578 0.96005326509475708008 0.9544474482536315918 0.93650603294372558594 0.89673018455505371094 0.87028050422668457031 0.89087212085723876953 0.88206195831298828125 0.9244715571403503418 0.92193621397018432617 0.89347928762435913086 0.92676115036010742188 0.95826667547225952148 0.96626263856887817383 0.95547825098037719727 0.88084131479263305664 0.85788559913635253906 0.88761293888092041016 0.85303002595901489258 0.82301425933837890625 0.8296902775764465332 0.8241825103759765625 0.88040173053741455078 0.84718137979507446289 0.83383405208587646484 
0.9111550450325012207 0.90081644058227539062 0.90646886825561523438 0.91981112957000732422 0.88045316934585571289 0.81973785161972045898 0.85334646701812744141 0.85047042369842529297 0.84782493114471435547 0.88626331090927124023 0.88526058197021484375 0.87048637866973876953 0.88391023874282836914 0.79682338237762451172 0.8106511235237121582 0.84628862142562866211 0.87127715349197387695 0.8751156926155090332 0.89625281095504760742 0.87147408723831176758 0.85433363914489746094 0.8441479802131652832 0.88030767440795898438 0.85545396804809570312 0.84626722335815429688 0.86714714765548706055 0.83825057744979858398 0.8823490142822265625 0.85113263130187988281 0.84253579378128051758 0.87009108066558837891 0.89872366189956665039 0.92221611738204956055 0.90670722723007202148 0.92140716314315795898 0.92092365026473999023 0.86531227827072143555 0.94379091262817382812 0.97302043437957763672 0.921680450439453125 0.89938956499099731445 0.93618792295455932617 0.9569530487060546875 0.91882401704788208008 0.90185022354125976562 0.88876199722290039062 0.85530054569244384766 0.84544891119003295898 0.87527281045913696289 0.89085251092910766602 0.91213268041610717773 0.92823547124862670898 0.93846172094345092773 0.89448708295822143555 0.8558279871940612793 0.84453719854354858398 0.86855113506317138672 0.85422128438949584961 0.84929078817367553711 0.84669476747512817383 0.84405750036239624023 0.85075604915618896484 0.82590687274932861328 0.84837269783020019531 
0.91682654619216918945 0.91331028938293457031 0.92225235700607299805 0.93242800235748291016 0.8752123713493347168 0.83216589689254760742 0.85310572385787963867 0.85307532548904418945 0.8564828038215637207 0.89676403999328613281 0.87781888246536254883 0.86384212970733642578 0.8670775294303894043 0.89058661460876464844 0.87261331081390380859 0.82664257287979125977 0.83696252107620239258 0.92218482494354248047 0.90380787849426269531 0.86518496274948120117 0.82341617345809936523 0.84327131509780883789 0.89781731367111206055 0.89533472061157226562 0.89627814292907714844 0.87520819902420043945 0.8791720271110534668 0.91274738311767578125 0.90464371442794799805 0.89643901586532592773 0.89039343595504760742 0.89454382658004760742 0.92458188533782958984 0.93285840749740600586 0.94855678081512451172 0.93686443567276000977 0.86144608259201049805 0.89284980297088623047 0.89439374208450317383 0.89001375436782836914 0.89311903715133666992 0.90659272670745849609 0.92957848310470581055 0.89021021127700805664 0.92525875568389892578 0.9006710052490234375 0.84088820219039916992 0.85152256488800048828 0.882869720458984375 0.89807277917861938477 0.88240730762481689453 0.90047514438629150391 0.908336639404296875 0.84973889589309692383 0.87396931648254394531 0.86462825536727905273 0.88275682926177978516 0.81200933456420898438 0.83149856328964233398 0.87689352035522460938 0.87283986806869506836 0.85359239578247070312 0.85426062345504760742 0.88535076379776000977 
0.91871011257171630859 0.91448724269866943359 0.92282658815383911133 0.92372864484786987305 0.87769895792007446289 0.84507995843887329102 0.84047865867614746094 0.8132393956184387207 0.83481949567794799805 0.88686728477478027344 0.89096754789352416992 0.87103152275085449219 0.85845160484313964844 0.88070648908615112305 0.8804391026496887207 0.85256612300872802734 0.81110537052154541016 0.90776878595352172852 0.89365559816360473633 0.85958892107009887695 0.84837043285369873047 0.79613488912582397461 0.81133615970611572266 0.89828014373779296875 0.88682550191879272461 0.90162777900695800781 0.90283119678497314453 0.90121364593505859375 0.93046998977661132812 0.91901421546936035156 0.88097870349884033203 0.90290927886962890625 0.95129662752151489258 0.95625966787338256836 0.94710522890090942383 0.91893678903579711914 0.87982630729675292969 0.90686947107315063477 0.89545410871505737305 0.88716781139373779297 0.9001051783561706543 0.83149820566177368164 0.82343244552612304688 0.8330929875373840332 0.85817056894302368164 0.82329696416854858398 0.86061871051788330078 0.90520489215850830078 0.86793273687362670898 0.90465283393859863281 0.91615259647369384766 0.88446390628814697266 0.91951513290405273438 0.87879580259323120117 0.89647340774536132812 0.90223711729049682617 0.88596880435943603516 0.87200707197189331055 0.86713528633117675781 0.89389961957931518555 0.88522970676422119141 0.86662125587463378906 0.89282244443893432617 0.90005964040756225586 
0.92533004283905029297 0.91694128513336181641 0.89986628293991088867 0.89929968118667602539 0.87430095672607421875 0.86041504144668579102 0.86590492725372314453 0.83866369724273681641 0.81672704219818115234 0.84927481412887573242 0.90838861465454101562 0.89777016639709472656 0.86931049823760986328 0.87587410211563110352 0.88260781764984130859 0.87096297740936279297 0.8355197906494140625 0.87066292762756347656 0.88816374540328979492 0.87774795293807983398 0.86261260509490966797 0.80953365564346313477 0.78403133153915405273 0.87474340200424194336 0.88813179731369018555 0.86022448539733886719 0.90013015270233154297 0.93188893795013427734 0.95028650760650634766 0.95086890459060668945 0.93078023195266723633 0.94610261917114257812 0.95700967311859130859 0.96240967512130737305 0.95690482854843139648 0.91015446186065673828 0.89498716592788696289 0.92468953132629394531 0.93271398544311523438 0.90814346075057983398 0.91206890344619750977 0.81027847528457641602 0.82620561122894287109 0.81744807958602905273 0.80725044012069702148 0.79589772224426269531 0.82589775323867797852 0.86727946996688842773 0.84777253866195678711 0.86730051040649414062 0.90772837400436401367 0.87468248605728149414 0.8471552729606628418 0.86741805076599121094 0.90078634023666381836 0.93891495466232299805 0.88557094335556030273 0.86349749565124511719 0.87724375724792480469 0.88208204507827758789 0.86219054460525512695 0.86664104461669921875 0.88283944129943847656 0.89115476608276367188 
0.92066568136215209961 0.8851483464241027832 0.86304104328155517578 0.86125785112380981445 0.83724093437194824219 0.84570294618606567383 0.85772192478179931641 0.85192304849624633789 0.83095264434814453125 0.85568928718566894531 0.89770281314849853516 0.89814287424087524414 0.86749207973480224609 0.85887867212295532227 0.85239052772521972656 0.8730309605598449707 0.85271954536437988281 0.83846002817153930664 0.87228512763977050781 0.86858344078063964844 0.83781522512435913086 0.7751331329345703125 0.79267591238021850586 0.93567037582397460938 0.94510614871978759766 0.89897257089614868164 0.88293731212615966797 0.93230330944061279297 0.95547622442245483398 0.95987641811370849609 0.9586912989616394043 0.96156537532806396484 0.96177411079406738281 0.96342521905899047852 0.95948803424835205078 0.93441051244735717773 0.93820685148239135742 0.94488281011581420898 0.91546738147735595703 0.8986479640007019043 0.8752682805061340332 0.81601327657699584961 0.8431879878044128418 0.84805440902709960938 0.78887760639190673828 0.80602973699569702148 0.83090764284133911133 0.82458174228668212891 0.85396295785903930664 0.86950814723968505859 0.8674793243408203125 0.88890415430068969727 0.86229670047760009766 0.87267655134201049805 0.90482085943222045898 0.93860149383544921875 0.9000098109245300293 0.89051872491836547852 0.87093663215637207031 0.84340238571166992188 0.84823453426361083984 0.88034367561340332031 0.89572519063949584961 0.88791948556900024414 
0.89530980587005615234 0.84954434633255004883 0.89633017778396606445 0.89228916168212890625 0.85072165727615356445 0.86103117465972900391 0.83627152442932128906 0.85556149482727050781 0.83923983573913574219 0.84260249137878417969 0.85681307315826416016 0.84737932682037353516 0.82597780227661132812 0.82541656494140625 0.83750700950622558594 0.85781091451644897461 0.86509716510772705078 0.85587596893310546875 0.84950685501098632812 0.83661180734634399414 0.80822002887725830078 0.7977237701416015625 0.8802464604377746582 0.95030105113983154297 0.96539729833602905273 0.91647773981094360352 0.88085842132568359375 0.91158109903335571289 0.95289731025695800781 0.96022200584411621094 0.96051412820816040039 0.96413886547088623047 0.96593201160430908203 0.96331512928009033203 0.95981502532958984375 0.95176148414611816406 0.95412653684616088867 0.92226195335388183594 0.8822301030158996582 0.86485826969146728516 0.87238526344299316406 0.82608622312545776367 0.83004945516586303711 0.85751295089721679688 0.85497170686721801758 0.86771041154861450195 0.85627883672714233398 0.8376381993293762207 0.86995112895965576172 0.8607692718505859375 0.85169714689254760742 0.85830026865005493164 0.84161514043807983398 0.86277765035629272461 0.9064171910285949707 0.91347682476043701172 0.92095166444778442383 0.90683799982070922852 0.8806629180908203125 0.86648833751678466797 0.87662672996520996094 0.89890694618225097656 0.89981263875961303711 0.8799260258674621582 
0.88578426837921142578 0.84404277801513671875 0.91871839761734008789 0.89645802974700927734 0.89783573150634765625 0.90223258733749389648 0.86352264881134033203 0.85077369213104248047 0.84728473424911499023 0.85607695579528808594 0.8445422053337097168 0.83932024240493774414 0.83791774511337280273 0.84935617446899414062 0.8573551177978515625 0.83876919746398925781 0.81155198812484741211 0.86697256565093994141 0.87528115510940551758 0.79698556661605834961 0.79642206430435180664 0.88983339071273803711 0.90574598312377929688 0.86642909049987792969 0.89932078123092651367 0.92022645473480224609 0.92058044672012329102 0.90774446725845336914 0.94767785072326660156 0.96159255504608154297 0.95938050746917724609 0.95794779062271118164 0.96530950069427490234 0.96406948566436767578 0.96060460805892944336 0.95564520359039306641 0.95297425985336303711 0.91247320175170898438 0.89523535966873168945 0.85124468803405761719 0.86286109685897827148 0.86247652769088745117 0.81708216667175292969 0.83668375015258789062 0.87072348594665527344 0.89346855878829956055 0.88272291421890258789 0.84564024209976196289 0.88671475648880004883 0.88233941793441772461 0.8688189387321472168 0.86478018760681152344 0.86111342906951904297 0.8786830902099609375 0.90470016002655029297 0.88695317506790161133 0.89905780553817749023 0.8962319493293762207 0.87643736600875854492 0.87916791439056396484 0.89346796274185180664 0.90821236371994018555 0.89924925565719604492 0.88796246051788330078 
0.89141142368316650391 0.86416757106781005859 0.88071531057357788086 0.85897600650787353516 0.87200003862380981445 0.88006728887557983398 0.87091481685638427734 0.85103458166122436523 0.83434617519378662109 0.84925001859664916992 0.84355539083480834961 0.82792878150939941406 0.81879836320877075195 0.80719864368438720703 0.82241642475128173828 0.85005265474319458008 0.81381851434707641602 0.81682449579238891602 0.86245530843734741211 0.79389059543609619141 0.82952648401260375977 0.85211080312728881836 0.89875978231430053711 0.90273946523666381836 0.91196942329406738281 0.93909126520156860352 0.94315308332443237305 0.94852912425994873047 0.9561697840690612793 0.95974528789520263672 0.95381677150726318359 0.95007437467575073242 0.96120661497116088867 0.96257036924362182617 0.95765441656112670898 0.9569377899169921875 0.95096063613891601562 0.93053084611892700195 0.90825575590133666992 0.86005169153213500977 0.88017809391021728516 0.89601820707321166992 0.83924788236618041992 0.84722983837127685547 0.87270128726959228516 0.90395921468734741211 0.90347778797149658203 0.87567639350891113281 0.88010561466217041016 0.88585633039474487305 0.86312723159790039062 0.85974234342575073242 0.86817383766174316406 0.90228295326232910156 0.87540787458419799805 0.87489199638366699219 0.91245359182357788086 0.90506309270858764648 0.87838417291641235352 0.88927626609802246094 0.89642852544784545898 0.89854198694229125977 0.89801234006881713867 0.87129688262939453125 
0.8809311985969543457 0.85437792539596557617 0.8884341120719909668 0.88157349824905395508 0.88194864988327026367 0.87403601408004760742 0.89879137277603149414 0.88070660829544067383 0.85227578878402709961 0.82973337173461914062 0.80592298507690429688 0.80451297760009765625 0.81532496213912963867 0.83298975229263305664 0.86850875616073608398 0.82505071163177490234 0.84193211793899536133 0.83254212141036987305 0.82053494453430175781 0.80894768238067626953 0.89776068925857543945 0.85946071147918701172 0.89232462644577026367 0.93136376142501831055 0.94516664743423461914 0.9507840275764465332 0.94870734214782714844 0.92202258110046386719 0.903369903564453125 0.91624289751052856445 0.93436735868453979492 0.93731981515884399414 0.94146913290023803711 0.95154821872711181641 0.93449676036834716797 0.94431060552597045898 0.94526827335357666016 0.9246953129768371582 0.89223474264144897461 0.89220529794692993164 0.86584681272506713867 0.87252283096313476562 0.8795413970947265625 0.89963036775588989258 0.88664162158966064453 0.90747207403182983398 0.91690599918365478516 0.90550762414932250977 0.89378279447555541992 0.90563678741455078125 0.87476652860641479492 0.86993521451950073242 0.88140481710433959961 0.91344058513641357422 0.8970584869384765625 0.91590422391891479492 0.91905742883682250977 0.89487344026565551758 0.89581495523452758789 0.89629894495010375977 0.8891709446907043457 0.88403308391571044922 0.84944611787796020508 0.81734699010848999023 
0.87463480234146118164 0.82681304216384887695 0.87394124269485473633 0.87159776687622070312 0.89006179571151733398 0.88799864053726196289 0.89861857891082763672 0.90334171056747436523 0.87365055084228515625 0.83069175481796264648 0.8110167384147644043 0.82167541980743408203 0.79587054252624511719 0.85936021804809570312 0.89293801784515380859 0.8568699955940246582 0.85449248552322387695 0.88369184732437133789 0.81893944740295410156 0.78998053073883056641 0.88413071632385253906 0.8849430084228515625 0.85652011632919311523 0.89947623014450073242 0.93417859077453613281 0.94533556699752807617 0.93930029869079589844 0.90363740921020507812 0.91815328598022460938 0.92784148454666137695 0.91145348548889160156 0.91841810941696166992 0.88724339008331298828 0.91650348901748657227 0.8673102259635925293 0.91933435201644897461 0.91575336456298828125 0.90650355815887451172 0.83741545677185058594 0.88276720046997070312 0.86703824996948242188 0.87371945381164550781 0.90058088302612304688 0.91252285242080688477 0.90514081716537475586 0.89081090688705444336 0.90756344795227050781 0.91058123111724853516 0.89869606494903564453 0.93200498819351196289 0.9110152125358581543 0.88626557588577270508 0.89629858732223510742 0.91664516925811767578 0.93166387081146240234 0.93707835674285888672 0.91539305448532104492 0.91678053140640258789 0.90576630830764770508 0.89569985866546630859 0.8537006378173828125 0.86463707685470581055 0.83169281482696533203 0.79440057277679443359 
0.88218069076538085938 0.85418856143951416016 0.8843733668327331543 0.85296934843063354492 0.86539846658706665039 0.88687992095947265625 0.89797788858413696289 0.9026114344596862793 0.87363868951797485352 0.85630142688751220703 0.82958489656448364258 0.80151093006134033203 0.87311989068984985352 0.92420202493667602539 0.91543930768966674805 0.90875488519668579102 0.92726993560791015625 0.91402012109756469727 0.83555579185485839844 0.78550577163696289062 0.91416835784912109375 0.9075253605842590332 0.87152320146560668945 0.88969153165817260742 0.91098260879516601562 0.93210351467132568359 0.93713676929473876953 0.93315279483795166016 0.93335604667663574219 0.93381059169769287109 0.92928206920623779297 0.92178273200988769531 0.89261388778686523438 0.87256079912185668945 0.8500792384147644043 0.88745296001434326172 0.90478086471557617188 0.89333808422088623047 0.85017216205596923828 0.88984853029251098633 0.86838579177856445312 0.88077127933502197266 0.92711478471755981445 0.91623604297637939453 0.91701561212539672852 0.89596086740493774414 0.88598614931106567383 0.90870469808578491211 0.89226675033569335938 0.91858679056167602539 0.92221045494079589844 0.91592609882354736328 0.90742850303649902344 0.92090457677841186523 0.94168680906295776367 0.94631159305572509766 0.93353676795959472656 0.93222600221633911133 0.89856123924255371094 0.89347362518310546875 0.86661487817764282227 0.85075283050537109375 0.81812363862991333008 0.79885435104370117188 
0.92523115873336791992 0.87407189607620239258 0.88725453615188598633 0.87970018386840820312 0.90072894096374511719 0.91458159685134887695 0.91482979059219360352 0.89454537630081176758 0.85597503185272216797 0.85759598016738891602 0.82548147439956665039 0.86633360385894775391 0.93171495199203491211 0.96163856983184814453 0.95911794900894165039 0.94636666774749755859 0.94586694240570068359 0.92653346061706542969 0.84499406814575195312 0.8210766911506652832 0.90699028968811035156 0.89858645200729370117 0.87924230098724365234 0.89781665802001953125 0.90303456783294677734 0.8887392878532409668 0.89704018831253051758 0.90045583248138427734 0.90336143970489501953 0.88979095220565795898 0.90829026699066162109 0.92176920175552368164 0.90841305255889892578 0.87701016664505004883 0.88613945245742797852 0.91844463348388671875 0.90651208162307739258 0.89402383565902709961 0.8598009943962097168 0.90864670276641845703 0.87324494123458862305 0.90595453977584838867 0.93168365955352783203 0.92552667856216430664 0.93668508529663085938 0.91407907009124755859 0.9023043513298034668 0.90680265426635742188 0.89152950048446655273 0.89345532655715942383 0.87586808204650878906 0.88341253995895385742 0.88407498598098754883 0.89268034696578979492 0.91194593906402587891 0.91877990961074829102 0.9137642979621887207 0.91594219207763671875 0.88939130306243896484 0.88288515806198120117 0.85641270875930786133 0.83838021755218505859 0.81595408916473388672 0.83344548940658569336 
0.93333762884140014648 0.87204259634017944336 0.89459896087646484375 0.8980744481086730957 0.91839170455932617188 0.91343015432357788086 0.90233492851257324219 0.88092935085296630859 0.84142744541168212891 0.82763850688934326172 0.81881511211395263672 0.91860145330429077148 0.97205007076263427734 0.97453749179840087891 0.95734226703643798828 0.94369292259216308594 0.94535034894943237305 0.93409216403961181641 0.89274972677230834961 0.88170439004898071289 0.89822661876678466797 0.85695511102676391602 0.83710515499114990234 0.86186319589614868164 0.88705718517303466797 0.87165611982345581055 0.84274214506149291992 0.83369421958923339844 0.84981149435043334961 0.86591124534606933594 0.85354793071746826172 0.90061628818511962891 0.90570980310440063477 0.89990788698196411133 0.90163379907608032227 0.91091889142990112305 0.92335677146911621094 0.90302056074142456055 0.88199460506439208984 0.9285666346549987793 0.88850903511047363281 0.91353237628936767578 0.91062742471694946289 0.89132487773895263672 0.89109897613525390625 0.89139610528945922852 0.87543135881423950195 0.86597299575805664062 0.87181431055068969727 0.86504292488098144531 0.86731350421905517578 0.87818479537963867188 0.88025391101837158203 0.86509269475936889648 0.84730303287506103516 0.85278338193893432617 0.88484340906143188477 0.88607561588287353516 0.87580496072769165039 0.86755406856536865234 0.85900896787643432617 0.82913857698440551758 0.81403625011444091797 0.86283171176910400391 
0.93221479654312133789 0.85095018148422241211 0.87065237760543823242 0.87176644802093505859 0.88702780008316040039 0.8749402165412902832 0.87893247604370117188 0.87346953153610229492 0.8295135498046875 0.83971548080444335938 0.92297762632369995117 0.97262442111968994141 0.98200273513793945312 0.97988015413284301758 0.97135716676712036133 0.95462471246719360352 0.94596350193023681641 0.92841941118240356445 0.89554202556610107422 0.88583415746688842773 0.86672061681747436523 0.81310886144638061523 0.81644070148468017578 0.90036016702651977539 0.88200646638870239258 0.83812290430068969727 0.83648794889450073242 0.87217849493026733398 0.88571429252624511719 0.86832141876220703125 0.83451026678085327148 0.87868845462799072266 0.89758211374282836914 0.90688413381576538086 0.91324114799499511719 0.91142416000366210938 0.90773147344589233398 0.90936732292175292969 0.90307092666625976562 0.93226182460784912109 0.89976209402084350586 0.92162162065505981445 0.91969376802444458008 0.88723170757293701172 0.83987402915954589844 0.85952299833297729492 0.85478484630584716797 0.86634296178817749023 0.87826442718505859375 0.87759089469909667969 0.86884921789169311523 0.86590254306793212891 0.87332022190093994141 0.85444867610931396484 0.84052127599716186523 0.84068381786346435547 0.85583716630935668945 0.86154776811599731445 0.86768192052841186523 0.86915808916091918945 0.86669230461120605469 0.83301681280136108398 0.83259481191635131836 0.92072457075119018555 
0.92190521955490112305 0.84860056638717651367 0.86301118135452270508 0.85250693559646606445 0.85856270790100097656 0.88282299041748046875 0.89479196071624755859 0.91886359453201293945 0.8874314427375793457 0.93511414527893066406 0.97993999719619750977 0.9849560856819152832 0.98307329416275024414 0.97913658618927001953 0.97285574674606323242 0.96242374181747436523 0.94449949264526367188 0.89738559722900390625 0.86078554391860961914 0.85839086771011352539 0.82683610916137695312 0.81104427576065063477 0.87217855453491210938 0.90803492069244384766 0.90520715713500976562 0.87138772010803222656 0.86647528409957885742 0.84320986270904541016 0.83225035667419433594 0.86145001649856567383 0.85858881473541259766 0.85765212774276733398 0.88610887527465820312 0.89877408742904663086 0.90817296504974365234 0.91466438770294189453 0.88480573892593383789 0.88565403223037719727 0.88473653793334960938 0.90986812114715576172 0.91493397951126098633 0.92632251977920532227 0.93260097503662109375 0.89618504047393798828 0.84939146041870117188 0.85141104459762573242 0.87958580255508422852 0.88106960058212280273 0.88549268245697021484 0.87132310867309570312 0.86281621456146240234 0.8619448542594909668 0.85522985458374023438 0.85061949491500854492 0.84641790390014648438 0.83920419216156005859 0.84281194210052490234 0.85607397556304931641 0.86649292707443237305 0.87548482418060302734 0.84907931089401245117 0.86701333522796630859 0.87445253133773803711 0.92679864168167114258 
0.91476052999496459961 0.87476205825805664062 0.8746020197868347168 0.86279940605163574219 0.91178399324417114258 0.96507906913757324219 0.97612720727920532227 0.97548460960388183594 0.97293764352798461914 0.98166948556900024414 0.98591351509094238281 0.98463648557662963867 0.98191189765930175781 0.97688710689544677734 0.96931749582290649414 0.95701193809509277344 0.93263030052185058594 0.88418787717819213867 0.85439348220825195312 0.83253139257431030273 0.89763504266738891602 0.92721289396286010742 0.93812465667724609375 0.91104245185852050781 0.91412568092346191406 0.93095684051513671875 0.91279113292694091797 0.90389901399612426758 0.88075411319732666016 0.86324959993362426758 0.89302396774291992188 0.90011948347091674805 0.90831089019775390625 0.89854007959365844727 0.90140199661254882812 0.91584926843643188477 0.9054533839225769043 0.88640689849853515625 0.86645108461380004883 0.88171982765197753906 0.90361732244491577148 0.91856914758682250977 0.91037148237228393555 0.85918372869491577148 0.86274868249893188477 0.8629671931266784668 0.87485110759735107422 0.88035482168197631836 0.86219328641891479492 0.84970760345458984375 0.83580380678176879883 0.82564169168472290039 0.83524292707443237305 0.83844047784805297852 0.83990532159805297852 0.84098225831985473633 0.84074878692626953125 0.84611374139785766602 0.84880197048187255859 0.87970590591430664062 0.81953585147857666016 0.83278471231460571289 0.8810710906982421875 0.91530621051788330078 
0.88040244579315185547 0.84517830610275268555 0.85274446010589599609 0.9033565521240234375 0.94254255294799804688 0.96882110834121704102 0.97930938005447387695 0.98287069797515869141 0.98512786626815795898 0.98559004068374633789 0.98493242263793945312 0.98371332883834838867 0.98034423589706420898 0.97402644157409667969 0.96456331014633178711 0.94961822032928466797 0.91349083185195922852 0.85797113180160522461 0.79837393760681152344 0.84244203567504882812 0.97366654872894287109 0.98461073637008666992 0.9698550105094909668 0.91754776239395141602 0.92157948017120361328 0.93427032232284545898 0.92936617136001586914 0.90690904855728149414 0.9127667546272277832 0.91597628593444824219 0.91904908418655395508 0.92923021316528320312 0.91287726163864135742 0.91972005367279052734 0.9058863520622253418 0.90899175405502319336 0.90806686878204345703 0.90482497215270996094 0.88861715793609619141 0.88317602872848510742 0.92986291646957397461 0.924983978271484375 0.89477086067199707031 0.87533068656921386719 0.88335835933685302734 0.88020676374435424805 0.85994154214859008789 0.85219937562942504883 0.83515077829360961914 0.80987071990966796875 0.79532140493392944336 0.8201954960823059082 0.83174675703048706055 0.82724434137344360352 0.83068346977233886719 0.83966094255447387695 0.83487266302108764648 0.8178914189338684082 0.8497416377067565918 0.87782967090606689453 0.83975237607955932617 0.8153101801872253418 0.86130183935165405273 0.89670228958129882812 
0.86566090583801269531 0.84300684928894042969 0.84832805395126342773 0.91947692632675170898 0.93090778589248657227 0.96115660667419433594 0.97406029701232910156 0.97976958751678466797 0.98349648714065551758 0.98403793573379516602 0.98374086618423461914 0.98307275772094726562 0.98047506809234619141 0.97343558073043823242 0.96043467521667480469 0.93838429450988769531 0.87495821714401245117 0.83408510684967041016 0.83570045232772827148 0.92867928743362426758 0.97963237762451171875 0.98448377847671508789 0.96594464778900146484 0.93416321277618408203 0.92261451482772827148 0.88664042949676513672 0.85743582248687744141 0.86249852180480957031 0.8975124359130859375 0.91261422634124755859 0.92446190118789672852 0.9233856201171875 0.91889965534210205078 0.92543077468872070312 0.91281652450561523438 0.88774412870407104492 0.89049875736236572266 0.89766132831573486328 0.90232121944427490234 0.88946729898452758789 0.92881232500076293945 0.93626534938812255859 0.91639822721481323242 0.90839695930480957031 0.89422440528869628906 0.87398999929428100586 0.83462661504745483398 0.80862504243850708008 0.78161841630935668945 0.7896785736083984375 0.83334928750991821289 0.86487066745758056641 0.85621786117553710938 0.85882508754730224609 0.86536258459091186523 0.8721281886100769043 0.85823982954025268555 0.85596978664398193359 0.88787341117858886719 0.85757738351821899414 0.83654314279556274414 0.81106966733932495117 0.82002085447311401367 0.88512444496154785156 
0.83686834573745727539 0.87891167402267456055 0.92242127656936645508 0.94172447919845581055 0.94531095027923583984 0.96601045131683349609 0.97265809774398803711 0.97736221551895141602 0.97722911834716796875 0.98098897933959960938 0.98260921239852905273 0.98258632421493530273 0.98188102245330810547 0.97600686550140380859 0.96444803476333618164 0.92801171541213989258 0.85494053363800048828 0.8700644373893737793 0.89492046833038330078 0.93677794933319091797 0.97825533151626586914 0.98308432102203369141 0.97388249635696411133 0.94780147075653076172 0.91358768939971923828 0.88998758792877197266 0.87643676996231079102 0.87058770656585693359 0.88862329721450805664 0.91749602556228637695 0.9268906712532043457 0.92720830440521240234 0.92871654033660888672 0.92723631858825683594 0.9299259185791015625 0.90869385004043579102 0.89586102962493896484 0.87499707937240600586 0.88242441415786743164 0.88224375247955322266 0.90049690008163452148 0.93299901485443115234 0.92980653047561645508 0.9227072596549987793 0.89440268278121948242 0.85085719823837280273 0.78971314430236816406 0.76261663436889648438 0.82204759120941162109 0.79048013687133789062 0.87828898429870605469 0.89968895912170410156 0.88065803050994873047 0.86905550956726074219 0.87504941225051879883 0.8695653080940246582 0.87919378280639648438 0.9035155177116394043 0.8980305790901184082 0.8409392237663269043 0.82663363218307495117 0.82133376598358154297 0.79617130756378173828 0.86515039205551147461 
0.93934881687164306641 0.94790005683898925781 0.94545167684555053711 0.94358062744140625 0.96006453037261962891 0.97323524951934814453 0.97643810510635375977 0.97783327102661132812 0.97481232881546020508 0.97612094879150390625 0.97974026203155517578 0.98218953609466552734 0.98365676403045654297 0.97854369878768920898 0.97092932462692260742 0.91828519105911254883 0.86510360240936279297 0.89819067716598510742 0.91817843914031982422 0.9296633601188659668 0.97799813747406005859 0.98315352201461791992 0.97716772556304931641 0.9580656886100769043 0.90303140878677368164 0.89035785198211669922 0.89582675695419311523 0.91329568624496459961 0.90564060211181640625 0.92926293611526489258 0.93173974752426147461 0.92326498031616210938 0.93241786956787109375 0.93974721431732177734 0.939117431640625 0.92499327659606933594 0.91456204652786254883 0.90131235122680664062 0.86693459749221801758 0.86765807867050170898 0.87796235084533691406 0.93701434135437011719 0.94219946861267089844 0.910144805908203125 0.84663844108581542969 0.77609199285507202148 0.74576151371002197266 0.77596306800842285156 0.8693135380744934082 0.82117331027984619141 0.86718565225601196289 0.88385522365570068359 0.85966867208480834961 0.86100441217422485352 0.8805167078971862793 0.91226118803024291992 0.92696774005889892578 0.88852697610855102539 0.87488502264022827148 0.84866559505462646484 0.83975178003311157227 0.80283236503601074219 0.80569696426391601562 0.83680313825607299805 
0.98253709077835083008 0.96736013889312744141 0.95527452230453491211 0.93485462665557861328 0.95116704702377319336 0.96901333332061767578 0.96911233663558959961 0.97554254531860351562 0.98034101724624633789 0.97515070438385009766 0.97170978784561157227 0.9798647761344909668 0.98130965232849121094 0.97885876893997192383 0.97848260402679443359 0.94354140758514404297 0.90329092741012573242 0.92156362533569335938 0.9248765110969543457 0.95156508684158325195 0.98193490505218505859 0.98487955331802368164 0.98112416267395019531 0.97098076343536376953 0.92687833309173583984 0.90021467208862304688 0.90323972702026367188 0.91510832309722900391 0.93046510219573974609 0.93346482515335083008 0.93806588649749755859 0.93594086170196533203 0.93329280614852905273 0.91570878028869628906 0.91695421934127807617 0.90730822086334228516 0.92208677530288696289 0.9240010380744934082 0.90270572900772094727 0.85124582052230834961 0.85325199365615844727 0.89818733930587768555 0.90102207660675048828 0.82276880741119384766 0.77525973320007324219 0.75508421659469604492 0.7561308741569519043 0.80075460672378540039 0.89784318208694458008 0.85207790136337280273 0.84251737594604492188 0.89872717857360839844 0.87746840715408325195 0.86443895101547241211 0.93067502975463867188 0.94587522745132446289 0.93243211507797241211 0.89626854658126831055 0.86607593297958374023 0.8574231266975402832 0.84656846523284912109 0.78179758787155151367 0.81284230947494506836 0.8402169346809387207 
0.97297424077987670898 0.98829030990600585938 0.97423577308654785156 0.94989234209060668945 0.94696092605590820312 0.95818996429443359375 0.96083492040634155273 0.97253656387329101562 0.97842520475387573242 0.97515738010406494141 0.97902059555053710938 0.97887659072875976562 0.96665853261947631836 0.97401285171508789062 0.98330324888229370117 0.98010075092315673828 0.96970713138580322266 0.96588224172592163086 0.96850466728210449219 0.98181283473968505859 0.9833157658576965332 0.98181641101837158203 0.97951579093933105469 0.97268712520599365234 0.95765471458435058594 0.90564805269241333008 0.90752267837524414062 0.91328269243240356445 0.92525184154510498047 0.92774158716201782227 0.92914617061614990234 0.90510058403015136719 0.90467029809951782227 0.87406575679779052734 0.9119637608528137207 0.90209370851516723633 0.91043853759765625 0.91163694858551025391 0.9042034149169921875 0.88277685642242431641 0.83326995372772216797 0.8167966008186340332 0.82419413328170776367 0.77272963523864746094 0.77062702178955078125 0.78581184148788452148 0.78868681192398071289 0.8448645472526550293 0.91993379592895507812 0.88751709461212158203 0.81759858131408691406 0.86008626222610473633 0.83172929286956787109 0.88206899166107177734 0.91017717123031616211 0.91168683767318725586 0.9268582463264465332 0.89457082748413085938 0.84737402200698852539 0.85609322786331176758 0.84461927413940429688 0.77464091777801513672 0.80350041389465332031 0.85622870922088623047 
0.87503087520599365234 0.96893572807312011719 0.99184238910675048828 0.98279422521591186523 0.97937679290771484375 0.98102051019668579102 0.97722834348678588867 0.98122644424438476562 0.98559641838073730469 0.98924505710601806641 0.98904567956924438477 0.9859078526496887207 0.97445571422576904297 0.98726457357406616211 0.98519098758697509766 0.98330038785934448242 0.98295354843139648438 0.97969323396682739258 0.98158204555511474609 0.98868411779403686523 0.97583091259002685547 0.95839327573776245117 0.96671438217163085938 0.97053796052932739258 0.96952390670776367188 0.95131641626358032227 0.90559941530227661133 0.87793564796447753906 0.88772362470626831055 0.92127668857574462891 0.92356383800506591797 0.91645616292953491211 0.89833986759185791016 0.90235507488250732422 0.91902637481689453125 0.93436032533645629883 0.93716460466384887695 0.89669424295425415039 0.87974238395690917969 0.88460689783096313477 0.87057173252105712891 0.81803339719772338867 0.79296880960464477539 0.78113102912902832031 0.77150231599807739258 0.79400694370269775391 0.8198598027229309082 0.83955496549606323242 0.91072440147399902344 0.88626950979232788086 0.81485426425933837891 0.81424820423126220703 0.82288461923599243164 0.9061126708984375 0.92546194791793823242 0.8797753453254699707 0.89493566751480102539 0.879985809326171875 0.83892333507537841797 0.85115814208984375 0.84085369110107421875 0.79511022567749023438 0.81031328439712524414 0.87467712163925170898 
0.79112017154693603516 0.90920388698577880859 0.98802316188812255859 0.98504865169525146484 0.9848175048828125 0.9890206456184387207 0.98735404014587402344 0.98963248729705810547 0.99039340019226074219 0.99181997776031494141 0.99114042520523071289 0.99027001857757568359 0.98999375104904174805 0.99095267057418823242 0.98550492525100708008 0.98645359277725219727 0.98564201593399047852 0.9873358607292175293 0.98897767066955566406 0.98474729061126708984 0.96269810199737548828 0.92231446504592895508 0.94434046745300292969 0.96420991420745849609 0.96991682052612304688 0.97004240751266479492 0.95725709199905395508 0.91026896238327026367 0.83675462007522583008 0.83504217863082885742 0.83680576086044311523 0.91204166412353515625 0.93738794326782226562 0.93460768461227416992 0.92578238248825073242 0.95672273635864257812 0.95862466096878051758 0.90822768211364746094 0.87698978185653686523 0.86377942562103271484 0.86924749612808227539 0.83736747503280639648 0.80753272771835327148 0.79947936534881591797 0.78953099250793457031 0.83388626575469970703 0.84753853082656860352 0.89783394336700439453 0.93594688177108764648 0.90729624032974243164 0.81463098526000976562 0.79842638969421386719 0.8737532496452331543 0.89242541790008544922 0.91824841499328613281 0.86331987380981445312 0.87277817726135253906 0.87889754772186279297 0.82595962285995483398 0.84027206897735595703 0.82500439882278442383 0.80161994695663452148 0.84526014328002929688 0.8843314051628112793 
0.78755450248718261719 0.81499958038330078125 0.94756847620010375977 0.97845435142517089844 0.98605233430862426758 0.99125885963439941406 0.99056285619735717773 0.99114137887954711914 0.9917736053466796875 0.99204665422439575195 0.99198639392852783203 0.99133187532424926758 0.99049890041351318359 0.98777729272842407227 0.97722566127777099609 0.98643362522125244141 0.98266148567199707031 0.97926020622253417969 0.98403507471084594727 0.96701514720916748047 0.92580646276473999023 0.90200448036193847656 0.93863761425018310547 0.95554000139236450195 0.95834755897521972656 0.96372467279434204102 0.95345193147659301758 0.91909164190292358398 0.85351514816284179688 0.8485476374626159668 0.81876373291015625 0.86639070510864257812 0.90635192394256591797 0.93170773983001708984 0.95165246725082397461 0.95474958419799804688 0.93961423635482788086 0.91838479042053222656 0.88521629571914672852 0.85497850179672241211 0.85096156597137451172 0.83101832866668701172 0.805423736572265625 0.81236571073532104492 0.8562068939208984375 0.86193007230758666992 0.85185360908508300781 0.91453403234481811523 0.92113083600997924805 0.91425436735153198242 0.83799028396606445312 0.8375466465950012207 0.88330531120300292969 0.8541049957275390625 0.85872513055801391602 0.85767644643783569336 0.87969702482223510742 0.87020152807235717773 0.80470669269561767578 0.81957590579986572266 0.81311827898025512695 0.80971372127532958984 0.81104016304016113281 0.83915722370147705078 
0.83716374635696411133 0.77000188827514648438 0.85372328758239746094 0.97435283660888671875 0.98731791973114013672 0.99036383628845214844 0.98452919721603393555 0.98613363504409790039 0.98948574066162109375 0.99092924594879150391 0.99066680669784545898 0.98980319499969482422 0.98693066835403442383 0.97467702627182006836 0.97421371936798095703 0.98437535762786865234 0.96477133035659790039 0.97508680820465087891 0.98228567838668823242 0.96637618541717529297 0.92703217267990112305 0.89786869287490844727 0.9322897791862487793 0.94614166021347045898 0.92749017477035522461 0.931385040283203125 0.91735988855361938477 0.91081064939498901367 0.90006422996520996094 0.88884192705154418945 0.86469304561614990234 0.87132698297500610352 0.90609276294708251953 0.91957640647888183594 0.91469794511795043945 0.91687071323394775391 0.90446496009826660156 0.90324074029922485352 0.86549389362335205078 0.83530086278915405273 0.82813930511474609375 0.82779163122177124023 0.82847350835800170898 0.84086394309997558594 0.85779833793640136719 0.84688645601272583008 0.89240205287933349609 0.9163621068000793457 0.93398278951644897461 0.92265754938125610352 0.87024211883544921875 0.8234354853630065918 0.87961369752883911133 0.83362281322479248047 0.83969259262084960938 0.86000555753707885742 0.86849999427795410156 0.83938139677047729492 0.80773520469665527344 0.81385439634323120117 0.80796617269515991211 0.84193491935729980469 0.85218638181686401367 0.85054439306259155273 
0.86695826053619384766 0.80324530601501464844 0.79094141721725463867 0.92226976156234741211 0.94830644130706787109 0.97761827707290649414 0.97728389501571655273 0.96547085046768188477 0.96527951955795288086 0.98131608963012695312 0.98675888776779174805 0.98379141092300415039 0.97088491916656494141 0.92827969789505004883 0.97432249784469604492 0.96830707788467407227 0.97049468755722045898 0.98594945669174194336 0.97004908323287963867 0.95677423477172851562 0.9235935211181640625 0.9105224609375 0.92969501018524169922 0.91638886928558349609 0.91401457786560058594 0.92694586515426635742 0.92977106571197509766 0.9279499053955078125 0.9121983647346496582 0.89088612794876098633 0.88677048683166503906 0.88008189201354980469 0.92012560367584228516 0.9240201115608215332 0.90985912084579467773 0.90964287519454956055 0.88537299633026123047 0.84588623046875 0.83285021781921386719 0.82859832048416137695 0.83284682035446166992 0.82637536525726318359 0.82542741298675537109 0.83187222480773925781 0.85108160972595214844 0.85004824399948120117 0.92392057180404663086 0.93942862749099731445 0.94408804178237915039 0.90757173299789428711 0.88948523998260498047 0.85690915584564208984 0.84653776884078979492 0.82421463727951049805 0.8536923527717590332 0.86127358675003051758 0.84814500808715820312 0.82853978872299194336 0.82459479570388793945 0.80491566658020019531 0.78474336862564086914 0.81404328346252441406 0.87173044681549072266 0.87036752700805664062 
0.88340842723846435547 0.84232246875762939453 0.8097031712532043457 0.81376844644546508789 0.79638695716857910156 0.88948988914489746094 0.96486073732376098633 0.97227907180786132812 0.97173953056335449219 0.9764003753662109375 0.98292952775955200195 0.96829766035079956055 0.94169640541076660156 0.92920744419097900391 0.98080670833587646484 0.97886395454406738281 0.98835635185241699219 0.97628057003021240234 0.9391759037971496582 0.90422117710113525391 0.91054397821426391602 0.94541829824447631836 0.9466698765754699707 0.88604557514190673828 0.89216363430023193359 0.88938844203948974609 0.884441375732421875 0.88482528924942016602 0.88084572553634643555 0.88806205987930297852 0.88502717018127441406 0.88140302896499633789 0.90415704250335693359 0.91762083768844604492 0.91938155889511108398 0.89755541086196899414 0.85075080394744873047 0.84694963693618774414 0.8401654362678527832 0.83701676130294799805 0.84156507253646850586 0.83045107126235961914 0.8633835911750793457 0.86648428440093994141 0.86283361911773681641 0.86594015359878540039 0.94107443094253540039 0.93832993507385253906 0.91664898395538330078 0.89066147804260253906 0.90018516778945922852 0.90872305631637573242 0.85223925113677978516 0.84601962566375732422 0.86185312271118164062 0.86143732070922851562 0.84490275382995605469 0.8256842494010925293 0.80537301301956176758 0.76104301214218139648 0.78939479589462280273 0.78122311830520629883 0.86113119125366210938 0.85512453317642211914 
0.84790599346160888672 0.84656363725662231445 0.85203754901885986328 0.82469576597213745117 0.77148622274398803711 0.74800103902816772461 0.88947695493698120117 0.95301342010498046875 0.97367137670516967773 0.96224898099899291992 0.97156184911727905273 0.95345222949981689453 0.95239174365997314453 0.96141046285629272461 0.98098778724670410156 0.98449784517288208008 0.99061018228530883789 0.96194106340408325195 0.90899717807769775391 0.87305945158004760742 0.89116501808166503906 0.89672541618347167969 0.89329236745834350586 0.89034903049468994141 0.90334963798522949219 0.89264911413192749023 0.88391500711441040039 0.86065983772277832031 0.84574145078659057617 0.84528380632400512695 0.86159515380859375 0.86224460601806640625 0.85553741455078125 0.86847800016403198242 0.8773822784423828125 0.88096594810485839844 0.86866587400436401367 0.85351139307022094727 0.84660893678665161133 0.84772634506225585938 0.84814941883087158203 0.81972634792327880859 0.83333098888397216797 0.86782550811767578125 0.88758361339569091797 0.84776014089584350586 0.89839440584182739258 0.92223340272903442383 0.89581656455993652344 0.91879731416702270508 0.89698010683059692383 0.86396634578704833984 0.85960227251052856445 0.86268746852874755859 0.86537533998489379883 0.85146164894104003906 0.82485741376876831055 0.80989432334899902344 0.78006744384765625 0.75429463386535644531 0.82003122568130493164 0.80454105138778686523 0.83380275964736938477 0.89648920297622680664 
0.86532032489776611328 0.84214681386947631836 0.83112365007400512695 0.83087337017059326172 0.80919426679611206055 0.76577144861221313477 0.8312861323356628418 0.93320828676223754883 0.96321904659271240234 0.94657039642333984375 0.95995336771011352539 0.94749432802200317383 0.96955776214599609375 0.98041176795959472656 0.95906734466552734375 0.94062405824661254883 0.91161483526229858398 0.83620947599411010742 0.8255341649055480957 0.84853774309158325195 0.87081819772720336914 0.89112991094589233398 0.90403568744659423828 0.91403919458389282227 0.90452712774276733398 0.89283722639083862305 0.86353147029876708984 0.83470320701599121094 0.83130079507827758789 0.84114760160446166992 0.85607087612152099609 0.8556982874870300293 0.84842973947525024414 0.84987223148345947266 0.85674417018890380859 0.85438519716262817383 0.85376060009002685547 0.86020946502685546875 0.86662119626998901367 0.87070816755294799805 0.89305001497268676758 0.89167177677154541016 0.85651439428329467773 0.89184862375259399414 0.90341609716415405273 0.86284661293029785156 0.9034481048583984375 0.88142287731170654297 0.85034161806106567383 0.86538702249526977539 0.85639864206314086914 0.8573780059814453125 0.87083655595779418945 0.88464206457138061523 0.85779267549514770508 0.83268594741821289062 0.81688070297241210938 0.79822355508804321289 0.7631085515022277832 0.75587105751037597656 0.83843630552291870117 0.84294742345809936523 0.83086037635803222656 0.91634261608123779297 
0.89187121391296386719 0.89362108707427978516 0.8809229731559753418 0.86692953109741210938 0.850616455078125 0.83516854047775268555 0.82367300987243652344 0.85878896713256835938 0.94648557901382446289 0.93421828746795654297 0.9563586115837097168 0.94506371021270751953 0.95727276802062988281 0.97785222530364990234 0.93679028749465942383 0.87758612632751464844 0.85474199056625366211 0.86545544862747192383 0.88015472888946533203 0.89893013238906860352 0.92477506399154663086 0.92951875925064086914 0.92629724740982055664 0.90820169448852539062 0.88271802663803100586 0.85858917236328125 0.84594237804412841797 0.83943092823028564453 0.82591414451599121094 0.83776694536209106445 0.84790325164794921875 0.84077996015548706055 0.83812826871871948242 0.83870363235473632812 0.84226131439208984375 0.85975533723831176758 0.87540346384048461914 0.88227504491806030273 0.88894176483154296875 0.9098758697509765625 0.93077993392944335938 0.92787832021713256836 0.92056250572204589844 0.91844409704208374023 0.89802491664886474609 0.84742754697799682617 0.87629866600036621094 0.8807131648063659668 0.88163137435913085938 0.87213551998138427734 0.88345181941986083984 0.88685941696166992188 0.87688022851943969727 0.86786752939224243164 0.84786880016326904297 0.82662701606750488281 0.81475788354873657227 0.79506415128707885742 0.79182010889053344727 0.81271672248840332031 0.85457706451416015625 0.84077298641204833984 0.87508845329284667969 0.89464366436004638672 
0.89804071187973022461 0.88690638542175292969 0.86048054695129394531 0.87317234277725219727 0.88139176368713378906 0.87678104639053344727 0.86950594186782836914 0.82103186845779418945 0.85377955436706542969 0.91300219297409057617 0.96581703424453735352 0.95696467161178588867 0.95101088285446166992 0.98424988985061645508 0.93986719846725463867 0.89080613851547241211 0.91500681638717651367 0.91754990816116333008 0.90942525863647460938 0.92310243844985961914 0.93198680877685546875 0.91477555036544799805 0.89209926128387451172 0.87655371427536010742 0.86664420366287231445 0.85335516929626464844 0.83779436349868774414 0.81108373403549194336 0.83702433109283447266 0.87813836336135864258 0.87806630134582519531 0.86138486862182617188 0.85994642972946166992 0.86384254693984985352 0.86846452951431274414 0.86744290590286254883 0.87752860784530639648 0.89962488412857055664 0.9135920405387878418 0.9268099665641784668 0.93739712238311767578 0.93464481830596923828 0.9272320866584777832 0.91705572605133056641 0.89549672603607177734 0.84635150432586669922 0.83776462078094482422 0.88068294525146484375 0.86668372154235839844 0.85988444089889526367 0.8780091404914855957 0.89092195034027099609 0.88447773456573486328 0.8645833134651184082 0.8203245997428894043 0.81421387195587158203 0.81067979335784912109 0.80381548404693603516 0.80682373046875 0.83050376176834106445 0.85262596607208251953 0.82026469707489013672 0.88805973529815673828 0.89571779966354370117 
0.92248481512069702148 0.91411572694778442383 0.87048882246017456055 0.85326302051544189453 0.8913351893424987793 0.89537507295608520508 0.89200544357299804688 0.85656005144119262695 0.80939006805419921875 0.78977161645889282227 0.93268626928329467773 0.96206241846084594727 0.94330495595932006836 0.90938407182693481445 0.88453555107116699219 0.90174180269241333008 0.91694408655166625977 0.9187310338020324707 0.91412866115570068359 0.92321288585662841797 0.91749095916748046875 0.89087480306625366211 0.86543810367584228516 0.86148869991302490234 0.86096602678298950195 0.83971399068832397461 0.8225987553596496582 0.86023312807083129883 0.8949305415153503418 0.90171766281127929688 0.89495325088500976562 0.90414923429489135742 0.91301339864730834961 0.91376972198486328125 0.87225854396820068359 0.85657876729965209961 0.89177691936492919922 0.93452119827270507812 0.93160265684127807617 0.93923449516296386719 0.93921500444412231445 0.94539129734039306641 0.91862839460372924805 0.89164406061172485352 0.88699620962142944336 0.86096185445785522461 0.82748734951019287109 0.89898967742919921875 0.8917897343635559082 0.89558386802673339844 0.90485280752182006836 0.89812290668487548828 0.88310378789901733398 0.86654722690582275391 0.82318347692489624023 0.81362587213516235352 0.80975377559661865234 0.81080329418182373047 0.81203234195709228516 0.8393757939338684082 0.85540169477462768555 0.82563936710357666016 0.88256794214248657227 0.85466504096984863281 
0.92179197072982788086 0.87524688243865966797 0.90276467800140380859 0.89862215518951416016 0.91176784038543701172 0.90955388545989990234 0.89724969863891601562 0.88261002302169799805 0.86648678779602050781 0.79062503576278686523 0.78401982784271240234 0.9253126978874206543 0.88613831996917724609 0.82488924264907836914 0.81608849763870239258 0.87412226200103759766 0.9087886810302734375 0.91330426931381225586 0.90508615970611572266 0.90312379598617553711 0.88037967681884765625 0.87135267257690429688 0.87627464532852172852 0.88289713859558105469 0.86763602495193481445 0.85190922021865844727 0.87627673149108886719 0.91000413894653320312 0.91649717092514038086 0.91088879108428955078 0.93810003995895385742 0.94461464881896972656 0.92671620845794677734 0.87457329034805297852 0.86027848720550537109 0.86941766738891601562 0.91482943296432495117 0.9463055729866027832 0.94829422235488891602 0.94503200054168701172 0.94591861963272094727 0.93685841560363769531 0.90470331907272338867 0.87937843799591064453 0.90588432550430297852 0.87540549039840698242 0.88682270050048828125 0.89084982872009277344 0.89930182695388793945 0.92129057645797729492 0.93599134683609008789 0.93372577428817749023 0.91355240345001220703 0.86204141378402709961 0.80892181396484375 0.79336959123611450195 0.8000176548957824707 0.83598941564559936523 0.8062254786491394043 0.78633558750152587891 0.81956589221954345703 0.83192092180252075195 0.87385702133178710938 0.90309429168701171875 
0.91802322864532470703 0.85389661788940429688 0.90680670738220214844 0.89062994718551635742 0.89611214399337768555 0.8954792022705078125 0.88624006509780883789 0.9038569331169128418 0.85730952024459838867 0.83589774370193481445 0.82589769363403320312 0.87294024229049682617 0.85858166217803955078 0.87036269903182983398 0.86618834733963012695 0.84927731752395629883 0.86772334575653076172 0.89284169673919677734 0.89162230491638183594 0.87647324800491333008 0.87322086095809936523 0.89283353090286254883 0.89186704158782958984 0.87047249078750610352 0.87197917699813842773 0.88819217681884765625 0.90793812274932861328 0.92424410581588745117 0.93003600835800170898 0.95174068212509155273 0.95772379636764526367 0.91847413778305053711 0.87749409675598144531 0.87206494808197021484 0.87894672155380249023 0.89280694723129272461 0.91805744171142578125 0.94702947139739990234 0.94824641942977905273 0.94987535476684570312 0.9272429347038269043 0.91792273521423339844 0.90394324064254760742 0.87749999761581420898 0.85525774955749511719 0.91350197792053222656 0.92085653543472290039 0.91921204328536987305 0.91298270225524902344 0.90947675704956054688 0.92775362730026245117 0.93597102165222167969 0.8923447728157043457 0.84131133556365966797 0.82005059719085693359 0.79825377464294433594 0.78215968608856201172 0.84323745965957641602 0.84150350093841552734 0.8446572422981262207 0.80394065380096435547 0.80908358097076416016 0.84865975379943847656 0.90694475173950195312 
0.90565836429595947266 0.82640892267227172852 0.86371415853500366211 0.86575913429260253906 0.87337273359298706055 0.87933468818664550781 0.90926939249038696289 0.91137105226516723633 0.83015435934066772461 0.84774202108383178711 0.91546243429183959961 0.89245969057083129883 0.90643125772476196289 0.91229414939880371094 0.91120439767837524414 0.90642982721328735352 0.89333546161651611328 0.87653189897537231445 0.87078398466110229492 0.88740962743759155273 0.90783017873764038086 0.90077948570251464844 0.87532991170883178711 0.87026768922805786133 0.90593099594116210938 0.90628182888031005859 0.90957927703857421875 0.94379633665084838867 0.96626079082489013672 0.95219582319259643555 0.92268526554107666016 0.89698541164398193359 0.87667250633239746094 0.89041090011596679688 0.8940219879150390625 0.91570419073104858398 0.94097429513931274414 0.94908708333969116211 0.95673692226409912109 0.94320756196975708008 0.90402495861053466797 0.87964552640914916992 0.88339394330978393555 0.87918901443481445312 0.84758257865905761719 0.9069703221321105957 0.89863955974578857422 0.90611994266510009766 0.90991938114166259766 0.9267889857292175293 0.93968445062637329102 0.93636339902877807617 0.88627034425735473633 0.84662282466888427734 0.82729285955429077148 0.81294286251068115234 0.78481948375701904297 0.83594864606857299805 0.86901378631591796875 0.90346819162368774414 0.90381157398223876953 0.87058341503143310547 0.86073917150497436523 0.85579836368560791016 
0.87982618808746337891 0.80103117227554321289 0.82501000165939331055 0.87627041339874267578 0.90157359838485717773 0.87956017255783081055 0.91710060834884643555 0.90168976783752441406 0.81732207536697387695 0.86237633228302001953 0.91330826282501220703 0.90523809194564819336 0.9147116541862487793 0.90870779752731323242 0.89718222618103027344 0.88958013057708740234 0.89107233285903930664 0.89469200372695922852 0.91002607345581054688 0.91710895299911499023 0.90264451503753662109 0.88827168941497802734 0.88050454854965209961 0.8771616816520690918 0.89813351631164550781 0.88359200954437255859 0.91360110044479370117 0.96940201520919799805 0.96365833282470703125 0.92540299892425537109 0.90999889373779296875 0.88069528341293334961 0.89528053998947143555 0.90764564275741577148 0.91357630491256713867 0.93162679672241210938 0.95212006568908691406 0.95936995744705200195 0.95349091291427612305 0.92708694934844970703 0.91219121217727661133 0.89134347438812255859 0.86059749126434326172 0.87255036830902099609 0.89267873764038085938 0.90747618675231933594 0.9143511652946472168 0.93265575170516967773 0.93842041492462158203 0.94740563631057739258 0.93977189064025878906 0.91535931825637817383 0.88638663291931152344 0.86047476530075073242 0.81825673580169677734 0.82037466764450073242 0.81818091869354248047 0.86421495676040649414 0.9101975560188293457 0.91753762960433959961 0.92147076129913330078 0.89701068401336669922 0.87469792366027832031 0.87485522031784057617 
0.84741222858428955078 0.80593687295913696289 0.81899940967559814453 0.86552965641021728516 0.91551339626312255859 0.86791080236434936523 0.89610725641250610352 0.88531780242919921875 0.81092631816864013672 0.87206643819808959961 0.88879370689392089844 0.91175663471221923828 0.91646116971969604492 0.89448720216751098633 0.90309995412826538086 0.89045596122741699219 0.87681299448013305664 0.90414506196975708008 0.92137229442596435547 0.91206037998199462891 0.89505821466445922852 0.88768166303634643555 0.86731863021850585938 0.87842285633087158203 0.88944220542907714844 0.92460811138153076172 0.95555329322814941406 0.96317130327224731445 0.95918500423431396484 0.93806922435760498047 0.90343415737152099609 0.90325140953063964844 0.90766721963882446289 0.90864896774291992188 0.92022699117660522461 0.92956578731536865234 0.95038771629333496094 0.9533894658088684082 0.93975841999053955078 0.93358749151229858398 0.92359280586242675781 0.87882411479949951172 0.84960311651229858398 0.89962810277938842773 0.88607919216156005859 0.91145247220993041992 0.926441192626953125 0.93918693065643310547 0.93740457296371459961 0.92920911312103271484 0.90833288431167602539 0.8959318995475769043 0.88856911659240722656 0.86410021781921386719 0.82642835378646850586 0.85551202297210693359 0.86715650558471679688 0.88188433647155761719 0.89320367574691772461 0.8818295598030090332 0.87206125259399414062 0.83218985795974731445 0.82312732934951782227 0.8550040125846862793 
0.86079245805740356445 0.81000536680221557617 0.83969616889953613281 0.84141701459884643555 0.8629550933837890625 0.86113965511322021484 0.88479822874069213867 0.85706502199172973633 0.83160632848739624023 0.91695392131805419922 0.91019898653030395508 0.90063917636871337891 0.88809728622436523438 0.86351883411407470703 0.88393628597259521484 0.89300972223281860352 0.88144308328628540039 0.91516792774200439453 0.91858786344528198242 0.9022719264030456543 0.90857523679733276367 0.8837674260139465332 0.88248676061630249023 0.90077102184295654297 0.90631765127182006836 0.94326323270797729492 0.95492136478424072266 0.96157658100128173828 0.95795929431915283203 0.92174446582794189453 0.89945924282073974609 0.91248339414596557617 0.91647154092788696289 0.91654443740844726562 0.94127029180526733398 0.9468371272087097168 0.95568734407424926758 0.95516413450241088867 0.92245638370513916016 0.91376334428787231445 0.92474567890167236328 0.91233628988265991211 0.88614195585250854492 0.90013921260833740234 0.88935619592666625977 0.90171068906784057617 0.9152972102165222168 0.92762303352355957031 0.91674780845642089844 0.90415275096893310547 0.89780980348587036133 0.89886295795440673828 0.89727222919464111328 0.87364846467971801758 0.85184067487716674805 0.86234992742538452148 0.86296039819717407227 0.83527350425720214844 0.80904108285903930664 0.80476355552673339844 0.78105014562606811523 0.78304189443588256836 0.79556816816329956055 0.83554369211196899414 
0.85559886693954467773 0.8499253392219543457 0.85317564010620117188 0.8218562006950378418 0.87111401557922363281 0.88184601068496704102 0.88489931821823120117 0.8690395355224609375 0.91228163242340087891 0.92261254787445068359 0.92892694473266601562 0.91075021028518676758 0.90507185459136962891 0.90454518795013427734 0.8913669586181640625 0.8911215662956237793 0.89963316917419433594 0.92020511627197265625 0.90716630220413208008 0.90063995122909545898 0.90689069032669067383 0.91097152233123779297 0.91787797212600708008 0.91323673725128173828 0.9456551671028137207 0.95634341239929199219 0.93954330682754516602 0.94835317134857177734 0.95648372173309326172 0.9265658259391784668 0.9071782231330871582 0.92300701141357421875 0.93225526809692382812 0.93433040380477905273 0.93950074911117553711 0.96286541223526000977 0.9584820866584777832 0.95400142669677734375 0.92563092708587646484 0.91341626644134521484 0.92482960224151611328 0.9263827204704284668 0.9307772517204284668 0.90056920051574707031 0.91847628355026245117 0.92050987482070922852 0.91960465908050537109 0.91492676734924316406 0.91617351770401000977 0.91294139623641967773 0.89923554658889770508 0.88596266508102416992 0.87875610589981079102 0.87092006206512451172 0.84905058145523071289 0.85677498579025268555 0.87389081716537475586 0.84162402153015136719 0.79776740074157714844 0.79515808820724487305 0.80024665594100952148 0.81373798847198486328 0.80143129825592041016 0.82824289798736572266 
0.87352895736694335938 0.8935883641242980957 0.85574394464492797852 0.81364917755126953125 0.86973959207534790039 0.89943933486938476562 0.92594808340072631836 0.92041093111038208008 0.9002411961555480957 0.91853576898574829102 0.9298114776611328125 0.9073734283447265625 0.90310198068618774414 0.9232743382453918457 0.90153032541275024414 0.88691401481628417969 0.91395145654678344727 0.9192988276481628418 0.90127730369567871094 0.88456845283508300781 0.88696271181106567383 0.91502481698989868164 0.91713130474090576172 0.92266094684600830078 0.92820924520492553711 0.94571417570114135742 0.9470984339714050293 0.95794242620468139648 0.95846867561340332031 0.90764838457107543945 0.90838080644607543945 0.93100589513778686523 0.94143509864807128906 0.93361461162567138672 0.92646676301956176758 0.94971525669097900391 0.96074658632278442383 0.96157425642013549805 0.94863915443420410156 0.92347347736358642578 0.90863466262817382812 0.91915792226791381836 0.90586781501770019531 0.91233831644058227539 0.90691161155700683594 0.9074509739875793457 0.9112669825553894043 0.89958751201629638672 0.90688282251358032227 0.88766139745712280273 0.86367845535278320312 0.83710038661956787109 0.86387234926223754883 0.85374718904495239258 0.82710742950439453125 0.83997374773025512695 0.86666113138198852539 0.8575636744499206543 0.8261979222297668457 0.80503457784652709961 0.80974584817886352539 0.82218587398529052734 0.82799851894378662109 0.83391922712326049805 
0.87956315279006958008 0.89953970909118652344 0.86179012060165405273 0.86117470264434814453 0.84630048274993896484 0.88222599029541015625 0.92141526937484741211 0.92140936851501464844 0.91476035118103027344 0.93034982681274414062 0.93438684940338134766 0.91168892383575439453 0.89835846424102783203 0.92625129222869873047 0.92039632797241210938 0.91706264019012451172 0.92337018251419067383 0.9101193547248840332 0.88947635889053344727 0.87008756399154663086 0.85783600807189941406 0.92142641544342041016 0.94328379631042480469 0.94137144088745117188 0.88086175918579101562 0.94205325841903686523 0.95674020051956176758 0.9628575444221496582 0.94236201047897338867 0.89463031291961669922 0.91858333349227905273 0.93451148271560668945 0.93387621641159057617 0.92791855335235595703 0.94021153450012207031 0.93747895956039428711 0.96676123142242431641 0.96622908115386962891 0.95016902685165405273 0.93899875879287719727 0.92930799722671508789 0.92985773086547851562 0.88405966758728027344 0.90763038396835327148 0.91160535812377929688 0.90755242109298706055 0.89257997274398803711 0.88828289508819580078 0.87830102443695068359 0.84940278530120849609 0.83544123172760009766 0.87844640016555786133 0.90389037132263183594 0.84124004840850830078 0.81677287817001342773 0.83496999740600585938 0.84646373987197875977 0.8709812164306640625 0.87094295024871826172 0.82814764976501464844 0.81246459484100341797 0.80685770511627197266 0.84707432985305786133 0.83437162637710571289 
0.90900701284408569336 0.92951399087905883789 0.8661098480224609375 0.86829191446304321289 0.86661285161972045898 0.87101584672927856445 0.89977365732192993164 0.91896277666091918945 0.93116629123687744141 0.9415760040283203125 0.94419443607330322266 0.93343007564544677734 0.92306286096572875977 0.92754882574081420898 0.92674154043197631836 0.92429375648498535156 0.90510439872741699219 0.87305563688278198242 0.86056065559387207031 0.8729788661003112793 0.8801962733268737793 0.95426404476165771484 0.9423821568489074707 0.93177115917205810547 0.92884522676467895508 0.95438408851623535156 0.96538913249969482422 0.95502007007598876953 0.9108282923698425293 0.90350365638732910156 0.92945271730422973633 0.92908316850662231445 0.9195658564567565918 0.94399911165237426758 0.93541663885116577148 0.92976307868957519531 0.96022623777389526367 0.96217978000640869141 0.9222634434700012207 0.88386273384094238281 0.90714979171752929688 0.89662992954254150391 0.88973772525787353516 0.90660142898559570312 0.90367943048477172852 0.89929789304733276367 0.88313472270965576172 0.87726932764053344727 0.84594327211380004883 0.83014059066772460938 0.88926154375076293945 0.90935027599334716797 0.8321431279182434082 0.80252736806869506836 0.82042205333709716797 0.82460045814514160156 0.83720314502716064453 0.85276615619659423828 0.86901313066482543945 0.84124219417572021484 0.84982073307037353516 0.85324656963348388672 0.87981885671615600586 0.85510098934173583984 
0.88554483652114868164 0.90480393171310424805 0.92038339376449584961 0.897922515869140625 0.87939846515655517578 0.8718026280403137207 0.93417471647262573242 0.90300393104553222656 0.93243873119354248047 0.94687402248382568359 0.94828760623931884766 0.94438070058822631836 0.93921554088592529297 0.93332976102828979492 0.9209817051887512207 0.89872008562088012695 0.86857473850250244141 0.8316287994384765625 0.87607359886169433594 0.91208124160766601562 0.93748003244400024414 0.94289004802703857422 0.96040594577789306641 0.95534777641296386719 0.96300131082534790039 0.96959578990936279297 0.95791655778884887695 0.91490018367767333984 0.89525192975997924805 0.92651212215423583984 0.93759363889694213867 0.92546874284744262695 0.93126738071441650391 0.93059611320495605469 0.9063720703125 0.95222967863082885742 0.96065562963485717773 0.96130150556564331055 0.91003811359405517578 0.86820191144943237305 0.91327947378158569336 0.90507566928863525391 0.91009086370468139648 0.90840798616409301758 0.9125493168830871582 0.90631777048110961914 0.88698649406433105469 0.86007106304168701172 0.83190160989761352539 0.88200491666793823242 0.89508664608001708984 0.85073179006576538086 0.82749247550964355469 0.8347651362419128418 0.8391119837760925293 0.83028489351272583008 0.84801518917083740234 0.83665490150451660156 0.85349816083908081055 0.85094743967056274414 0.8381531834602355957 0.83530980348587036133 0.88866502046585083008 0.86881989240646362305 
0.79837131500244140625 0.81361538171768188477 0.91982698440551757812 0.94727373123168945312 0.89396512508392333984 0.87388044595718383789 0.94191306829452514648 0.94639700651168823242 0.93473988771438598633 0.94001477956771850586 0.93010163307189941406 0.93927621841430664062 0.92936760187149047852 0.90941166877746582031 0.88406550884246826172 0.8632939457893371582 0.83751839399337768555 0.87628024816513061523 0.93271344900131225586 0.92872387170791625977 0.92593944072723388672 0.89447963237762451172 0.93943947553634643555 0.93079572916030883789 0.9499486088752746582 0.9459202885627746582 0.91378450393676757812 0.90013116598129272461 0.92244088649749755859 0.94358682632446289062 0.93839460611343383789 0.92822557687759399414 0.91137546300888061523 0.89997881650924682617 0.93003404140472412109 0.95428168773651123047 0.96473419666290283203 0.95948201417922973633 0.92188483476638793945 0.84864431619644165039 0.91710859537124633789 0.90588372945785522461 0.86012488603591918945 0.88692885637283325195 0.90484893321990966797 0.89902710914611816406 0.87380528450012207031 0.8465639948844909668 0.84481984376907348633 0.90267711877822875977 0.86049562692642211914 0.85610491037368774414 0.86030668020248413086 0.84570986032485961914 0.86986756324768066406 0.84315836429595947266 0.85780709981918334961 0.82630819082260131836 0.80968624353408813477 0.82859605550765991211 0.84376728534698486328 0.87628924846649169922 0.86712449789047241211 0.87578248977661132812 
0.77340078353881835938 0.83432424068450927734 0.91141068935394287109 0.93144392967224121094 0.900295257568359375 0.87480664253234863281 0.91893661022186279297 0.95475250482559204102 0.95796537399291992188 0.92890822887420654297 0.89367163181304931641 0.92106920480728149414 0.92681670188903808594 0.90529817342758178711 0.88429939746856689453 0.88405340909957885742 0.88401508331298828125 0.9110469818115234375 0.90552622079849243164 0.8835824131965637207 0.87485575675964355469 0.85049515962600708008 0.89112174510955810547 0.93789279460906982422 0.94173794984817504883 0.93082052469253540039 0.91334509849548339844 0.92727392911911010742 0.94216686487197875977 0.94684457778930664062 0.93604457378387451172 0.92591428756713867188 0.87623727321624755859 0.89661306142807006836 0.95553880929946899414 0.95427274703979492188 0.96219903230667114258 0.95788747072219848633 0.92955285310745239258 0.87430489063262939453 0.91718667745590209961 0.9055983424186706543 0.87219202518463134766 0.90984284877777099609 0.90561926364898681641 0.88907951116561889648 0.85907882452011108398 0.84129786491394042969 0.86480545997619628906 0.88204866647720336914 0.8463891148567199707 0.87669003009796142578 0.86723089218139648438 0.86770427227020263672 0.88472265005111694336 0.83982044458389282227 0.80858284235000610352 0.81831270456314086914 0.81430685520172119141 0.80155646800994873047 0.82061040401458740234 0.87230145931243896484 0.88593566417694091797 0.9036960601806640625 
0.79342126846313476562 0.83717888593673706055 0.90834182500839233398 0.93236142396926879883 0.89312011003494262695 0.87990498542785644531 0.85795187950134277344 0.86659908294677734375 0.87087476253509521484 0.88491535186767578125 0.91010367870330810547 0.93920129537582397461 0.94553327560424804688 0.92287957668304443359 0.91228216886520385742 0.8836510777473449707 0.89387887716293334961 0.90442955493927001953 0.90739417076110839844 0.89384132623672485352 0.88715988397598266602 0.85018587112426757812 0.86490523815155029297 0.94987469911575317383 0.94609510898590087891 0.94053745269775390625 0.93232899904251098633 0.94578385353088378906 0.94579166173934936523 0.94299280643463134766 0.93751657009124755859 0.91775763034820556641 0.84627038240432739258 0.92817735671997070312 0.95581090450286865234 0.94308435916900634766 0.94018959999084472656 0.94435697793960571289 0.94542032480239868164 0.89306694269180297852 0.85677415132522583008 0.88198655843734741211 0.90796059370040893555 0.92816430330276489258 0.92113947868347167969 0.88605415821075439453 0.86542785167694091797 0.86331808567047119141 0.89449924230575561523 0.86223459243774414062 0.85355454683303833008 0.89033186435699462891 0.87811774015426635742 0.87420821189880371094 0.84484511613845825195 0.80113935470581054688 0.80513012409210205078 0.81915003061294555664 0.88212847709655761719 0.89225560426712036133 0.88410168886184692383 0.87197148799896240234 0.89074438810348510742 0.90618479251861572266 
0.83704394102096557617 0.84566175937652587891 0.88488286733627319336 0.92850893735885620117 0.92186212539672851562 0.89104819297790527344 0.86499905586242675781 0.87954258918762207031 0.86732041835784912109 0.84581762552261352539 0.86936426162719726562 0.85556352138519287109 0.86569291353225708008 0.88708668947219848633 0.90096634626388549805 0.92552721500396728516 0.90747332572937011719 0.91563534736633300781 0.92328977584838867188 0.91666084527969360352 0.8996194005012512207 0.85935688018798828125 0.8418515324592590332 0.91021484136581420898 0.93786042928695678711 0.9433574676513671875 0.94321858882904052734 0.94694244861602783203 0.94397330284118652344 0.9392750859260559082 0.92696225643157958984 0.90422368049621582031 0.85203069448471069336 0.90440618991851806641 0.94467157125473022461 0.88880890607833862305 0.87855833768844604492 0.92430937290191650391 0.95685762166976928711 0.89705932140350341797 0.89459323883056640625 0.90889817476272583008 0.91835707426071166992 0.93081951141357421875 0.91654801368713378906 0.90008521080017089844 0.87865293025970458984 0.87489295005798339844 0.91727793216705322266 0.86582189798355102539 0.86900413036346435547 0.89739817380905151367 0.89236730337142944336 0.88729828596115112305 0.89905649423599243164 0.89186483621597290039 0.90077435970306396484 0.88573664426803588867 0.86393815279006958008 0.85439103841781616211 0.87331146001815795898 0.90297132730484008789 0.90269553661346435547 0.91491395235061645508 
0.91377121210098266602 0.91141641139984130859 0.90536570549011230469 0.91125988960266113281 0.90710169076919555664 0.89448779821395874023 0.8934313654899597168 0.90753322839736938477 0.90982359647750854492 0.88979923725128173828 0.87734377384185791016 0.85796719789505004883 0.84081268310546875 0.85501009225845336914 0.89282912015914916992 0.93623763322830200195 0.9364579319953918457 0.92835593223571777344 0.92595708370208740234 0.92432385683059692383 0.89724600315093994141 0.83206027746200561523 0.84319096803665161133 0.91176164150238037109 0.92652440071105957031 0.91834026575088500977 0.92950016260147094727 0.93944346904754638672 0.94274854660034179688 0.91377204656600952148 0.86006909608840942383 0.8573405146598815918 0.87848252058029174805 0.84908181428909301758 0.93481498956680297852 0.87761008739471435547 0.88151514530181884766 0.8879935145378112793 0.93287742137908935547 0.91842377185821533203 0.89902734756469726562 0.90558725595474243164 0.90437030792236328125 0.92138779163360595703 0.91560423374176025391 0.89837247133255004883 0.88244479894638061523 0.87473148107528686523 0.88710302114486694336 0.84237623214721679688 0.87311923503875732422 0.91212332248687744141 0.91135716438293457031 0.91772896051406860352 0.93934434652328491211 0.93848651647567749023 0.93229246139526367188 0.90645432472229003906 0.8910172581672668457 0.90276551246643066406 0.90210509300231933594 0.92863678932189941406 0.94140827655792236328 0.92688643932342529297 
0.86832082271575927734 0.87768709659576416016 0.88068443536758422852 0.88571131229400634766 0.88638311624526977539 0.85996788740158081055 0.88978153467178344727 0.91466605663299560547 0.9197521209716796875 0.89612680673599243164 0.88662856817245483398 0.87516367435455322266 0.85007125139236450195 0.84433335065841674805 0.84864860773086547852 0.88561421632766723633 0.92734998464584350586 0.90846204757690429688 0.91108477115631103516 0.89251470565795898438 0.89300054311752319336 0.82330137491226196289 0.84475767612457275391 0.87815880775451660156 0.88177585601806640625 0.86003816127777099609 0.89874607324600219727 0.93622976541519165039 0.93868386745452880859 0.87959259748458862305 0.82146549224853515625 0.86114329099655151367 0.86183828115463256836 0.89453476667404174805 0.93586516380310058594 0.91689336299896240234 0.83329999446868896484 0.80592757463455200195 0.84731042385101318359 0.90356457233428955078 0.92302083969116210938 0.94645303487777709961 0.90235841274261474609 0.8976967930793762207 0.91339778900146484375 0.90708220005035400391 0.92518901824951171875 0.92736977338790893555 0.92767167091369628906 0.87032145261764526367 0.86365991830825805664 0.91399401426315307617 0.92808866500854492188 0.93410080671310424805 0.9433994293212890625 0.94591128826141357422 0.94199913740158081055 0.93568348884582519531 0.93128257989883422852 0.91754692792892456055 0.89194047451019287109 0.86833834648132324219 0.89084362983703613281 0.92327255010604858398 
0.83355891704559326172 0.87974649667739868164 0.88363438844680786133 0.87512737512588500977 0.86576193571090698242 0.86699020862579345703 0.87767511606216430664 0.8995037078857421875 0.90870106220245361328 0.90733122825622558594 0.90736025571823120117 0.87070429325103759766 0.84855574369430541992 0.84268605709075927734 0.83145624399185180664 0.81276476383209228516 0.866565704345703125 0.87796193361282348633 0.90566551685333251953 0.9085235595703125 0.89514231681823730469 0.83505141735076904297 0.81051367521286010742 0.81625056266784667969 0.82763689756393432617 0.8584499359130859375 0.93376260995864868164 0.96015071868896484375 0.94013965129852294922 0.86334896087646484375 0.81599700450897216797 0.85497081279754638672 0.88870549201965332031 0.92985999584197998047 0.93829077482223510742 0.91702085733413696289 0.83004605770111083984 0.83106684684753417969 0.84012490510940551758 0.84394478797912597656 0.84648001194000244141 0.90067601203918457031 0.92535609006881713867 0.90354204177856445312 0.92244696617126464844 0.8870766758918762207 0.90346276760101318359 0.92712897062301635742 0.96381717920303344727 0.89656984806060791016 0.85881215333938598633 0.90715491771697998047 0.91386026144027709961 0.89954978227615356445 0.89144712686538696289 0.89214825630187988281 0.90606665611267089844 0.91076773405075073242 0.89344775676727294922 0.86874383687973022461 0.83889317512512207031 0.84933364391326904297 0.86135369539260864258 0.86269897222518920898 
0.90841645002365112305 0.88437926769256591797 0.87393653392791748047 0.84401047229766845703 0.83110928535461425781 0.84219264984130859375 0.86707252264022827148 0.87174445390701293945 0.87744373083114624023 0.88717722892761230469 0.9304072260856628418 0.92882573604583740234 0.89498573541641235352 0.88401871919631958008 0.86307835578918457031 0.82070571184158325195 0.79738217592239379883 0.86789482831954956055 0.89663565158843994141 0.90856534242630004883 0.87593519687652587891 0.83357208967208862305 0.78296703100204467773 0.794132232666015625 0.86428254842758178711 0.9081795811653137207 0.94361591339111328125 0.95556849241256713867 0.94380557537078857422 0.89656347036361694336 0.89726996421813964844 0.90723580121994018555 0.9061133265495300293 0.94009566307067871094 0.93461948633193969727 0.83681857585906982422 0.81350904703140258789 0.85026508569717407227 0.87173056602478027344 0.857799530029296875 0.83016175031661987305 0.81418651342391967773 0.88064819574356079102 0.91614043712615966797 0.92350101470947265625 0.87617403268814086914 0.89215081930160522461 0.9269847869873046875 0.97166591882705688477 0.91376626491546630859 0.85921937227249145508 0.89987069368362426758 0.89260309934616088867 0.8889115452766418457 0.87253785133361816406 0.83035099506378173828 0.82572698593139648438 0.87979155778884887695 0.89503663778305053711 0.90075331926345825195 0.89892351627349853516 0.86216151714324951172 0.81322151422500610352 0.82386857271194458008 
0.89279437065124511719 0.87436121702194213867 0.88095551729202270508 0.85905832052230834961 0.81524896621704101562 0.87870359420776367188 0.86064481735229492188 0.80546468496322631836 0.81241726875305175781 0.84694260358810424805 0.87452667951583862305 0.84818410873413085938 0.86792534589767456055 0.86943173408508300781 0.8731759190559387207 0.83500134944915771484 0.76989144086837768555 0.86231315135955810547 0.89898711442947387695 0.9094035029411315918 0.87599492073059082031 0.83376532793045043945 0.785091400146484375 0.77189558744430541992 0.84061485528945922852 0.90821194648742675781 0.92239999771118164062 0.92351001501083374023 0.9166762232780456543 0.91656136512756347656 0.90086984634399414062 0.87857025861740112305 0.84628325700759887695 0.86984264850616455078 0.93448466062545776367 0.81713807582855224609 0.80361574888229370117 0.85372525453567504883 0.87623494863510131836 0.88019484281539916992 0.84951263666152954102 0.8166351318359375 0.8140964508056640625 0.91811329126358032227 0.91934877634048461914 0.92411494255065917969 0.92744225263595581055 0.94484251737594604492 0.97299087047576904297 0.93640655279159545898 0.84108102321624755859 0.87852448225021362305 0.86197847127914428711 0.82891583442687988281 0.82614982128143310547 0.85805338621139526367 0.83993649482727050781 0.81383544206619262695 0.86301362514495849609 0.89696317911148071289 0.821136474609375 0.83663481473922729492 0.83121812343597412109 0.86413073539733886719 
0.88155245780944824219 0.90045046806335449219 0.89121782779693603516 0.83829200267791748047 0.84279477596282958984 0.90089780092239379883 0.884464263916015625 0.85681897401809692383 0.82285451889038085938 0.8526312708854675293 0.89094907045364379883 0.88106131553649902344 0.8804035186767578125 0.8639914393424987793 0.86693108081817626953 0.86136603355407714844 0.79836928844451904297 0.87330591678619384766 0.89515024423599243164 0.87320047616958618164 0.87727260589599609375 0.84659594297409057617 0.78389513492584228516 0.78643566370010375977 0.82508730888366699219 0.89742922782897949219 0.91543757915496826172 0.90244334936141967773 0.90965729951858520508 0.89171975851058959961 0.85594046115875244141 0.83713990449905395508 0.87305808067321777344 0.84573209285736083984 0.94225072860717773438 0.89311945438385009766 0.8406950831413269043 0.84995722770690917969 0.85243248939514160156 0.86433804035186767578 0.85790526866912841797 0.83006107807159423828 0.79901689291000366211 0.82372009754180908203 0.88083809614181518555 0.91500252485275268555 0.92370176315307617188 0.94810026884078979492 0.96968448162078857422 0.95318639278411865234 0.82615810632705688477 0.83363389968872070312 0.83685642480850219727 0.87701201438903808594 0.91900461912155151367 0.94020593166351318359 0.94792497158050537109 0.93186098337173461914 0.90428304672241210938 0.87358140945434570312 0.801143646240234375 0.84236395359039306641 0.8503195643424987793 0.89235156774520874023 
0.91440188884735107422 0.91577494144439697266 0.88397085666656494141 0.82243061065673828125 0.86497277021408081055 0.85883176326751708984 0.88110172748565673828 0.88522118330001831055 0.8878612518310546875 0.83756607770919799805 0.85602730512619018555 0.90014827251434326172 0.9145749211311340332 0.91768914461135864258 0.8838132023811340332 0.84448248147964477539 0.79423427581787109375 0.88364118337631225586 0.87227648496627807617 0.83889478445053100586 0.86437171697616577148 0.8619454503059387207 0.80313205718994140625 0.79787689447402954102 0.85221689939498901367 0.86339944601058959961 0.87761574983596801758 0.8559843897819519043 0.8823083043098449707 0.85705637931823730469 0.84871840476989746094 0.82610362768173217773 0.85679990053176879883 0.82469654083251953125 0.88288348913192749023 0.90333598852157592773 0.84040594100952148438 0.84803968667984008789 0.86362051963806152344 0.86982750892639160156 0.8694604039192199707 0.84615284204483032227 0.82796710729598999023 0.8136386871337890625 0.83363515138626098633 0.9113483428955078125 0.93854552507400512695 0.93542540073394775391 0.94731664657592773438 0.94677156209945678711 0.86787074804306030273 0.79021459817886352539 0.81288164854049682617 0.93000686168670654297 0.97193938493728637695 0.97403472661972045898 0.96573305130004882812 0.92399871349334716797 0.86175435781478881836 0.86329734325408935547 0.84779024124145507812 0.87160378694534301758 0.87169349193572998047 0.91225916147232055664 
0.92612951993942260742 0.92616665363311767578 0.8885962367057800293 0.83042949438095092773 0.90954965353012084961 0.87213867902755737305 0.89604341983795166016 0.91697263717651367188 0.91295796632766723633 0.88036191463470458984 0.86460441350936889648 0.89725440740585327148 0.93222475051879882812 0.924442291259765625 0.86702489852905273438 0.85304343700408935547 0.80602174997329711914 0.86192101240158081055 0.86891007423400878906 0.84550309181213378906 0.84574919939041137695 0.87297320365905761719 0.82831567525863647461 0.80078774690628051758 0.84353536367416381836 0.83799409866333007812 0.85878431797027587891 0.927944183349609375 0.9058551788330078125 0.90266752243041992188 0.88671571016311645508 0.85979306697845458984 0.8423188328742980957 0.79266792535781860352 0.83519119024276733398 0.86308246850967407227 0.8764801025390625 0.85830932855606079102 0.87258660793304443359 0.883609771728515625 0.88094925880432128906 0.86629998683929443359 0.841522216796875 0.84547621011734008789 0.86571913957595825195 0.90195894241333007812 0.87743765115737915039 0.82440763711929321289 0.83155906200408935547 0.83984053134918212891 0.87041950225830078125 0.89884346723556518555 0.8968893885612487793 0.96618151664733886719 0.98437422513961791992 0.98217332363128662109 0.92298394441604614258 0.84568303823471069336 0.84537541866302490234 0.83346647024154663086 0.8534081578254699707 0.89114683866500854492 0.89745998382568359375 0.9051163792610168457 
