ncols         160
nrows         150
xllcorner     630800
yllcorner     5180500
cellsize      100
NODATA_value  -9999
2382,998 2351,933 2316,465 2288,147 2257,77 2228,015 2193,48 2148,01 2093,112 2023,593 1957,698 1927,255 1913,838 1899,28 1873,8 1886,562 1904,845 1929,223 1969,047 2026,44 2094,958 2168,073 2242,405 2309,778 2359,478 2407,488 2452,518 2478,573 2500,78 2541,837 2588,028 2633,843 2690,093 2757,958 2818,248 2882,945 2912,065 2910,978 2929,357 2964,385 3020,802 3030,315 3021,805 3063,68 3103,91 3025,603 2956,637 2933,048 2907,185 2879,363 2864,12 2860,015 2850,692 2809,268 2753,635 2733,357 2720,765 2688,375 2664,742 2634,677 2628,76 2620,74 2629,817 2646,09 2683,058 2720,132 2731,475 2747,828 2780,857 2833,388 2902,893 2932,58 2846,748 2791,16 2735,615 2697,795 2666,792 2663,552 2642,073 2628,073 2631,62 2633,098 2631,72 2626,782 2642,635 2666,502 2675,153 2689,558 2702,958 2710,905 2729,035 2749,367 2810,028 2883,735 2952,198 3007,802 3070,828 3078,005 3087,935 3120,508 3115,07 3078,308 3086,238 3099,83 3107,262 3128,613 3139,307 3133,26 3131,71 3132,913 3126,538 3123,688 3123,633 3164,745 3181,89 3181,968 3179,468 3231,21 3275,903 3347,62 3432 3378,255 3290,258 3253,333 3237,958 3231,06 3221,522 3204,605 3176,45 3146,902 3126,9 3116,985 3107,192 3095,198 3085,49 3080,397 3075,395 3069,848 3066,57 3064,645 3061,83 3059,805 3060,242 3068,623 3108,005 3171,522 3109,41 3045,2 2988,19 2920,42 2862,445 2820,922 2802,317 2788,46 2766,155 2741,152 2721,492 2719,92 2722,442 2722,41 
2397,965 2364,198 2334,545 2299,705 2268,35 2232,877 2179,06 2118,68 2063,13 2006,435 1957,72 1925,693 1908,87 1893,873 1876,2 1881,287 1904,088 1937,36 1972,127 2019,347 2088,198 2169,15 2244,077 2310,718 2360,867 2413,66 2461,542 2498,78 2535,792 2582,292 2617,78 2657,62 2700,01 2765,907 2827,343 2863,228 2854,835 2860,02 2871,202 2908,35 2963,59 2976,09 2979,278 3023,167 3081,18 3056,09 2976,698 2920,44 2893,31 2874,395 2857,44 2852,887 2840,502 2810,345 2782,72 2749,387 2718,325 2690,77 2658,085 2643,635 2646,895 2641,64 2654,5 2679,615 2743,808 2788,808 2813,732 2865,982 2904,78 2952,9 3005,93 2964,655 2871,65 2802,78 2747,867 2706,33 2688,995 2682,03 2660,343 2652,775 2657,843 2660,458 2663,587 2674,58 2704,312 2729,442 2733,718 2746,518 2749,387 2753,595 2764,22 2793,99 2867,643 2943,715 3015,075 3058,73 3105,777 3158,978 3157,407 3189,242 3178,615 3136,647 3147,54 3164,413 3173,067 3175,425 3171,66 3175,407 3180,615 3172,853 3157,848 3151,555 3164,49 3197,75 3201,962 3207,933 3218,032 3267,255 3324,802 3423,992 3435,712 3388,52 3326,205 3274,555 3254,42 3241,58 3230,087 3214,755 3191,177 3158,302 3129,77 3117,045 3109,427 3099,875 3088,945 3081,165 3076,683 3074,01 3072,728 3070,39 3067,135 3068,685 3075,343 3101,488 3174,74 3138,575 3071,575 3015,712 2959,165 2916,488 2872,163 2822,365 2790,607 2781,175 2753,345 2736,96 2733,218 2730,617 2747,36 2764,295 
2416,865 2385,535 2346,087 2315,038 2280,695 2227,25 2171,953 2114,265 2056,91 2006,44 1962,32 1929,532 1908,35 1894,302 1881,08 1882,86 1899,805 1957,55 2008,682 2046,042 2100,245 2189,393 2272,79 2330,29 2375,945 2427,962 2481,913 2532,223 2582,47 2632,3 2656,913 2686,982 2733,315 2778,83 2802,692 2802,318 2808,433 2808,742 2822,585 2859,035 2912,135 2940,188 2956,782 3015,005 3062,728 3064,133 3006,59 2948,59 2895,89 2874,743 2859,218 2832,768 2804,548 2782,127 2760,377 2736,505 2719,667 2696,995 2670,512 2663,562 2667,962 2666,762 2684,09 2726,13 2824,762 2901,222 2931,415 2976,435 2999,1 3045,01 3079,847 2994,325 2909,21 2835,15 2783,885 2739,423 2728,77 2715,64 2689,33 2684,127 2688,893 2698,703 2716,762 2739,012 2773,643 2802,55 2814,218 2819,288 2814,018 2823,117 2851,715 2880,4 2924,982 2992,348 3069,812 3090,973 3137,873 3236,62 3245,942 3264,938 3236,942 3206,903 3207,973 3216,232 3215,065 3212,445 3209,925 3201,53 3196,167 3190,17 3179,302 3174,442 3201,42 3233,173 3237,14 3254,308 3291,605 3359,653 3432,173 3485,785 3439,015 3384,137 3348,407 3310,36 3282,183 3256,22 3238,305 3218,998 3195,277 3167,623 3144,135 3127,877 3116,933 3106,347 3095,27 3087,89 3083,49 3081,022 3079,14 3076,728 3076,448 3081,268 3099,292 3144,633 3218,018 3147,74 3097,105 3049,455 2983,808 2930,193 2903,155 2866,67 2810,242 2774,518 2759,335 2747,708 2742,248 2741,587 2765,975 2815,1 
2424,8 2386,877 2342,96 2307,877 2273,403 2227,038 2177,093 2117,188 2063,643 2011,348 1967,042 1935,792 1911,96 1898,655 1886,69 1888,833 1902,453 1971,26 2032,863 2058,03 2107,127 2195,462 2272,76 2340,138 2388,353 2442,595 2494,728 2527,975 2568,41 2602,688 2618,708 2660,978 2721,605 2746,182 2763,812 2772,133 2784,175 2776,765 2788,183 2830,66 2862,3 2889,265 2928,885 3001,758 3029,302 3040,4 3037,613 2999,155 2947,823 2906,308 2852,667 2803,73 2784,958 2774,288 2755,292 2740,08 2720,865 2707,837 2689,438 2683,29 2694,385 2697,615 2722,887 2773,902 2863,595 2963,87 3027,998 3063,77 3093,04 3128,94 3142,715 3056,762 2980,465 2909,15 2845,81 2796,695 2784,21 2765,008 2741,15 2730,79 2740,353 2758,578 2779,242 2809,402 2837,317 2894,062 2905,835 2906,772 2899,472 2919,545 2931,062 2960,073 3003,16 3065,152 3111,317 3119,5 3171,38 3293,065 3332,76 3317,448 3292,295 3268,488 3257,637 3248,903 3242,778 3247,042 3245,353 3227,143 3212,29 3204,43 3203,317 3209,012 3255,528 3288,945 3282,818 3292,163 3317,423 3375,41 3444,805 3509,17 3447,057 3384,742 3355,415 3328,567 3302,532 3273,097 3247,988 3223,46 3194,958 3169,25 3156,423 3143,208 3129,92 3119,508 3107,627 3098,663 3092,623 3088,47 3086,752 3087,272 3095,305 3106,705 3141,027 3186,9 3260,8 3199,557 3133,722 3078,397 3020,302 2962,113 2939,758 2920,907 2870,018 2817,527 2795,095 2777,127 2753,91 2757,8 2776,087 2824,745 
2433,847 2396,738 2339,515 2297,395 2265,058 2235,522 2188,163 2126,522 2081,26 2026,463 1979,812 1947,807 1925,805 1922,917 1906,912 1896,72 1917,312 1972,545 2026,56 2062,498 2116,22 2202,557 2280,917 2350,67 2400,23 2442,505 2479,325 2513,17 2544,768 2561,59 2586,413 2634,407 2690,288 2724,33 2746,285 2749,882 2767,992 2773,353 2781,663 2816,127 2848,115 2871,99 2908,7 2997,635 3037,53 3025,107 3052,107 3053,37 2979,205 2893,558 2843,593 2819,245 2795,84 2780,698 2766,942 2753,917 2741,907 2733,375 2721,248 2719,177 2729,817 2745,272 2784,032 2814,79 2886,34 2950,605 2971,35 2993,82 3051,38 3113,672 3147,76 3097,555 3014,393 2938,623 2879,455 2863,127 2837,645 2813,527 2800,157 2794,528 2808,172 2824,52 2846,595 2874,585 2899,29 2972,362 2990,683 2984,795 2981,01 3003,01 3008,042 3016,465 3069,863 3126,312 3138,265 3160,308 3242,877 3329,43 3333,4 3317,613 3303,873 3290,43 3274,225 3261,897 3265,715 3270,02 3265,075 3247,805 3233,2 3224,193 3244,165 3271,137 3330,137 3353,732 3342,04 3339,393 3350,348 3379,765 3416,397 3487,367 3464,393 3391,905 3360,252 3337,468 3310,863 3281,825 3257,083 3228,685 3197,905 3172,65 3164,208 3158,788 3149,742 3138,728 3121,685 3106,205 3098,985 3096,062 3096,3 3102,61 3117,777 3129,302 3186,01 3262,373 3309,655 3268,248 3185,317 3108,245 3049,843 3006,423 2988,407 2981,185 2926,27 2873,12 2835,21 2816,305 2800,458 2803,058 2807,433 2830,01 
2459,167 2403,147 2347,488 2301,968 2277,472 2248,917 2202,782 2149,635 2098,998 2049,955 2018,597 1995,688 1967,617 1960,297 1932,643 1912,407 1942,89 1998,738 2030,31 2069,248 2128,715 2203,232 2285,825 2348,798 2392,64 2416,215 2465,72 2511,78 2543,375 2564,567 2587,31 2637,482 2669,72 2700,44 2712,508 2723,433 2750,137 2783,672 2817,915 2851,175 2871,71 2887,475 2908,68 2987,19 3059,772 3065,615 3074,613 3040,21 2977,86 2898,212 2861,407 2829,262 2807,295 2798,075 2795,107 2789,22 2779,61 2782,343 2777,475 2764,177 2766,012 2800,585 2828,748 2847,13 2863,03 2881,772 2894,413 2916,232 2953,827 3005,59 3068,998 3095,808 2999,335 2946,955 2912,683 2895,87 2871,395 2867,175 2884,71 2879,427 2873,488 2886,172 2908,63 2926,21 2959,49 3057,315 3075,88 3060,045 3067,907 3089,955 3100,752 3103,24 3136,607 3182,195 3185,765 3233,89 3312,038 3343,062 3332,85 3324,113 3313,88 3302,347 3284,413 3278,205 3280,488 3276,57 3265,72 3252,42 3243,855 3245,758 3284,938 3334,52 3368,59 3398,567 3421,458 3418,837 3403,82 3406,3 3422,018 3471,4 3512,458 3419,508 3367,085 3337,63 3310,275 3283,522 3262,915 3235,975 3206,455 3184,215 3173,375 3169,488 3164,413 3157,337 3135,897 3110,848 3103,305 3105,45 3110,897 3124,288 3144,245 3149,72 3209,883 3325,157 3371,725 3297,328 3213,305 3154,373 3115,165 3072,455 3052,465 3047,768 2996,052 2939,118 2894,375 2883,385 2872,018 2851,455 2841,195 2853,073 
2471,33 2422,548 2380,605 2345,055 2308,34 2276,413 2236,188 2191,488 2141,03 2102,18 2102,15 2055,95 2003,105 1986,53 1935,818 1923,998 1946,858 2002,667 2027,718 2083,52 2159,955 2234,778 2299,965 2349,552 2384,055 2398,583 2433,157 2486,695 2536,285 2575,915 2605,272 2638,672 2655,79 2683,18 2715,405 2742,598 2778,867 2835,31 2887,28 2930,185 2924,595 2925,738 2942,328 3006,72 3095,902 3099,385 3084,617 3026,992 2955,005 2910,56 2886,675 2869,532 2848,175 2835,32 2836,74 2841,185 2864,287 2870,583 2871,45 2847,127 2824,907 2834,85 2842,63 2858,248 2873,093 2883,448 2894,375 2915,538 2950,188 2980,675 3006,96 3055,11 3016,14 2987,837 2955,18 2938,67 2928,147 2957,067 2966,772 2952,632 2946,14 2967,427 2988,785 2998,14 3060,515 3150,732 3177,815 3149,86 3165,583 3188,368 3193,973 3197,06 3221,417 3235,603 3247,335 3315,54 3364,188 3366,775 3350,772 3339,8 3331,195 3322,78 3307,965 3300,837 3293,627 3285,268 3268,657 3256,988 3257,263 3283,032 3317,905 3353,413 3382,485 3417,032 3442,778 3454,68 3444,552 3436,595 3448,558 3475,877 3515,235 3461,245 3383,04 3341,995 3308,045 3279,587 3261,488 3242,725 3219,605 3198,232 3185,763 3180,23 3175,115 3172,417 3159,19 3131,393 3121,458 3128,08 3148,715 3180,645 3187,51 3184,552 3236,522 3354,797 3368,248 3319,308 3274,13 3235,808 3208,248 3179,695 3150,795 3140,27 3084,445 3016,782 2990,18 2981,847 2969,027 2930,292 2910,85 2915,215 
2452,688 2416,968 2400,147 2374,475 2344,175 2322,45 2275,195 2229,093 2187,652 2157,88 2139,7 2074,458 2043,552 1996,873 1933,645 1925,9 1949,14 1990,787 2031,932 2089,545 2159,17 2224,99 2286 2348,748 2398,26 2415,522 2438,785 2475,71 2527,875 2578,47 2621,81 2650,333 2667,603 2682,712 2762,343 2820,323 2850,755 2905,97 2963,84 3008,195 2988,883 2976,823 2994,975 3065,04 3154,42 3127,422 3094,115 3013,433 2954,44 2929,63 2912,91 2905,993 2900,218 2892,3 2895,863 2920,005 2962,157 2966,945 2961,89 2938,547 2900,012 2888,468 2876,683 2871,34 2888,845 2907,19 2915,76 2936,073 2968,893 2998,63 3021,478 3042,115 3042,143 3026,262 3008,262 3004,288 3019,887 3022,74 3013,462 3032,735 3047,587 3069,073 3101,17 3133,95 3177,052 3222,907 3270,16 3250,99 3262,127 3278,022 3281,425 3275,637 3259,705 3263,297 3313,387 3376,762 3387,143 3380,025 3366,04 3355,127 3349,058 3346,235 3335,768 3322,093 3322,345 3323,825 3314,02 3297,845 3304,545 3340,805 3375,772 3397,93 3430,16 3452,765 3462,357 3472,242 3476,768 3479,43 3493,6 3503,25 3514,027 3478,968 3406,363 3357,913 3309,208 3272,417 3255,945 3244,488 3229,692 3208,462 3195,86 3191,555 3187,103 3185,085 3182,745 3188,093 3188,745 3202,235 3211,317 3238,5 3231,778 3235,823 3277,475 3343,125 3333,407 3281,182 3228,183 3188,435 3161,44 3153,052 3155,885 3135,815 3141,423 3104,61 3087,2 3077,18 3044,377 2989,62 2971,427 2970,97 
2420,587 2409,348 2399,123 2376,99 2354,052 2328,557 2283,33 2238,567 2200,815 2179,235 2146,478 2084,35 2059,12 1991,098 1921,77 1919,695 1940,843 1974,895 2033,465 2092,7 2174,985 2257,962 2334,677 2387,232 2431,373 2448,455 2476,353 2523,542 2558,515 2606,948 2645,373 2666,44 2672,41 2695,657 2786,153 2896,672 2955,17 2991,732 3033,36 3085,052 3061,192 3044,475 3060,363 3157,175 3216,685 3171,22 3111,57 3030,073 2979,402 2954,35 2936,34 2933,833 2939,462 2938,01 2952,192 3005,502 3024,288 3030,445 2999,915 2965,587 2947,897 2940,03 2927,55 2914,68 2932,97 2944,585 2947,95 2975,49 3010,593 3035,853 3055,222 3064,31 3059,93 3055,935 3055,103 3064,425 3074,853 3074,355 3107,42 3155,913 3166,075 3176,607 3200,073 3239,508 3283,1 3316,302 3345,155 3335,04 3324,92 3339,812 3345,725 3314,817 3295,518 3320,445 3385,93 3402,14 3395,893 3384,722 3372,722 3364,438 3361,217 3363,815 3366,81 3362,562 3368,875 3374,205 3373,613 3364,545 3383,865 3413,228 3417,698 3429,395 3479,922 3500,275 3486,218 3489,065 3505,623 3539,282 3565,29 3548,6 3533,4 3508,528 3443,83 3382,56 3315,593 3271,87 3253,333 3244,337 3233,663 3217,538 3205,505 3201,422 3198,157 3196,782 3202,578 3219,48 3190,047 3161,765 3155,595 3188,192 3242,725 3294,258 3336,1 3296,677 3231,482 3193,915 3149,522 3130,535 3086,357 3065,735 3065,51 3044,495 3050,047 3063,64 3057,607 3027,757 2994,51 2923,223 2889,63 2873,22 
2406,765 2390,573 2373,705 2345,827 2320,22 2291,472 2254,995 2205,722 2176,32 2157,095 2113,973 2088,383 2045,735 1964,318 1919,09 1920,325 1942,745 1975,698 2055,83 2120,633 2191,688 2280,812 2359,54 2421,155 2468,377 2492,938 2520,42 2563,065 2615,485 2693,125 2723,02 2737,67 2724,745 2735,812 2794,547 2878,475 2972,39 3082,985 3122,757 3156,972 3150,198 3145,712 3149,07 3234,835 3257,665 3197,613 3121,255 3060,328 3021,23 3000,8 2987,973 2983,245 2986,805 2991,317 3026,685 3087,855 3078,558 3058,135 3021,333 2979,373 2965,698 2961,518 2964,143 2975,995 2994,085 2988,123 3009,208 3056,61 3098,223 3109,673 3098,75 3086,208 3067,18 3066,54 3074,002 3093,327 3110,337 3119,927 3133,657 3178,988 3233,083 3250,25 3265,035 3290,032 3331,103 3346,185 3341,188 3306,475 3292,71 3305,77 3357,672 3369,897 3376,808 3409,875 3426,058 3417,152 3405,907 3393,502 3381,782 3375,645 3375,6 3383,488 3393,288 3395,042 3398,705 3401,585 3407,482 3416,51 3443,498 3452,973 3444,37 3458,95 3521,383 3544,962 3519,915 3513,262 3531,485 3577,538 3612,248 3591,802 3551,907 3490,075 3453,17 3416,07 3335,815 3283,815 3259,468 3247,155 3236,23 3225,595 3216,1 3212,005 3210,607 3211,34 3201,92 3150,9 3127,445 3108,965 3104,56 3131,795 3203,992 3280,323 3310,84 3248,495 3180,405 3123,432 3073,85 3043,91 3002,792 2983,538 2954,275 2954,188 2979,877 3008,208 2995,805 2934,96 2899,583 2848,98 2808,448 2777,617 
2377,448 2352,198 2326,1 2294,925 2267,643 2242,215 2223,248 2188,042 2155,325 2134,7 2103,085 2076,47 2015,075 1942,532 1920,715 1925,307 1948,802 1982,662 2069,33 2132,58 2195,615 2278,73 2363,025 2432,978 2495,1 2569,59 2605,268 2637,18 2679,395 2762,887 2810,522 2822,653 2790,488 2769,425 2802,617 2870,38 2974,535 3091,535 3129,545 3163,272 3196,547 3232,887 3208,475 3193,627 3186,163 3191,835 3163,167 3118,692 3089,44 3095,098 3099,512 3058,357 3048,39 3065,278 3117,135 3135,448 3115,663 3091,723 3057,653 3009,093 2990,205 2995,823 3014,702 3048,995 3037,635 3042,185 3096,688 3144,087 3169,038 3159,575 3136,887 3103,235 3085,385 3082,758 3090,883 3108,328 3124,212 3133,268 3154,135 3175,725 3236,18 3279,643 3294,145 3306,995 3313,373 3287,44 3275,512 3270,965 3272,837 3274,68 3299,71 3371,755 3426,103 3457,18 3447,265 3426,565 3410,325 3398,757 3391,252 3390,695 3398,475 3412,455 3411,58 3408,4 3411,258 3415,198 3424,323 3435,65 3452,365 3506,873 3515,625 3531,478 3594,887 3603,598 3576,89 3576,808 3597,927 3633,045 3632,812 3599,705 3539,123 3471,55 3424,385 3389,147 3360,42 3307,138 3277,302 3257,445 3242,677 3233,998 3228,085 3226,315 3228,887 3230,73 3180,032 3115,355 3085,073 3064,073 3072,28 3107,302 3165,272 3243,657 3245 3193,965 3132,325 3107,52 3041,165 2993,232 2948,275 2935,63 2902,03 2893,942 2917,607 2961,28 2935,917 2863,962 2812,7 2776,113 2743,255 2723,33 
2332,403 2298,71 2272,125 2248,762 2227,795 2205,137 2184,985 2157,883 2141,768 2144,058 2135,785 2096,615 2014,022 1936,05 1924,1 1931,57 1964,098 1990,208 2077,495 2141,785 2206,205 2287,772 2366,038 2445,292 2503,925 2579,363 2649,867 2694,855 2744,888 2801,86 2855,647 2885,772 2845,95 2831,775 2866,8 2949,613 3045,495 3059,085 3051,77 3075,153 3120,137 3195,992 3155,083 3130,365 3119,625 3121,47 3136,245 3097,623 3062,312 3063,125 3106,208 3146,792 3151,348 3182,927 3206,748 3183,4 3173,508 3168,512 3153,627 3103,285 3064,188 3082,94 3103,048 3108,742 3092,177 3100,948 3160,485 3205,445 3222,448 3212,712 3204,445 3184,978 3146,235 3126,98 3131,625 3144,887 3150,17 3158,627 3181,785 3198,955 3232,988 3256,038 3248,775 3251,863 3243,835 3250,89 3257,53 3260,035 3259,877 3261,823 3271,475 3308,225 3377,94 3430,165 3433,613 3421,377 3409,275 3405,177 3403,022 3409,04 3429,27 3466,06 3439,343 3421,84 3418,863 3423,34 3434,652 3447,897 3461,625 3499,667 3553,518 3591,335 3622,008 3659,688 3683,087 3683,715 3639,21 3576,703 3535,527 3498,988 3475,97 3438,11 3393,05 3343,113 3312,493 3314,595 3306,705 3286,688 3263,508 3249,05 3246,63 3247,893 3251,32 3210,265 3129,397 3082,498 3047,748 3031,583 3051,938 3088,723 3134,837 3220,185 3208,87 3155,093 3105,417 3095,288 3030,938 2962,36 2916,488 2896,157 2872,008 2847,94 2850 2871,375 2856,795 2806,268 2749,123 2712,265 2679,542 2663,807 
2287,27 2258,223 2238,522 2210,035 2187,45 2163,637 2146,922 2148,607 2171,738 2164,308 2136,835 2093,817 2008,492 1937,468 1927,343 1937,465 1985,218 2010,305 2084,198 2144,33 2207,2 2298,195 2387,365 2457,808 2502 2555,692 2618,857 2662,595 2705,955 2757,13 2820,22 2889,008 2902,08 2919,775 2953,39 3005,8 3029,215 2984,805 2986,35 3006,135 3058,525 3132,54 3120,92 3098,988 3088,03 3079,855 3095,677 3090,988 3038,565 3020,508 3046,22 3108,728 3176,085 3234,212 3279,43 3259,375 3252,522 3222,422 3194,248 3171,7 3148,692 3136,285 3132,765 3130,11 3139,018 3176,417 3227,413 3268,135 3285,02 3294,665 3309,663 3292,46 3246,93 3220,823 3220,058 3217,74 3210,99 3231,137 3244,083 3230,317 3208,792 3192,2 3187,96 3195,823 3214,488 3233,85 3245,297 3250,968 3250,228 3250,445 3257,28 3277,875 3333,777 3425,88 3426,328 3414,5 3414,403 3418,028 3426,38 3450,147 3500,895 3542,528 3479,565 3439,53 3429,385 3431,015 3440,66 3457,6 3473,41 3501,512 3554,647 3589,528 3614,21 3646,55 3724,31 3688,035 3591,805 3518,778 3470,712 3436,445 3403,44 3382,462 3353,97 3307,24 3267,395 3245,79 3258,988 3293,565 3311,712 3302,218 3291,54 3292,663 3245,08 3161,78 3092,232 3051,545 3023,353 3014,703 3044,118 3082,792 3134,343 3206,875 3138,405 3078,087 3065,33 3058,65 3015,663 2930,647 2890,757 2861,323 2831,208 2811,637 2795,8 2797,933 2783,955 2745,55 2691,393 2659,238 2625,14 2613,382 
2245,88 2222,728 2203,473 2179,708 2163,598 2151,427 2154,867 2174,03 2167,698 2152,703 2129,95 2079,167 2003,843 1944,172 1933,137 1943,883 1999,958 2040,948 2089,665 2148,92 2213,485 2301,465 2390,82 2446,422 2482,075 2520,888 2567,948 2613,327 2657,387 2709,732 2778,833 2837,348 2880,53 2932,157 2989,652 3007,475 2961,03 2928,198 2930,68 2946,325 2988,153 3060,8 3095,973 3085,452 3074,097 3059,752 3052,855 3089,448 3048,74 3005,933 3003,04 3046,028 3115,643 3185,48 3263,675 3315,137 3287,29 3237,458 3216,677 3193,775 3176,097 3169,54 3165,308 3169,643 3197,812 3262,527 3325,252 3349,21 3349,018 3320,988 3307,573 3304,992 3293,14 3296,157 3308,755 3298,71 3314,39 3300,99 3272,71 3203,863 3182,035 3176,575 3174,062 3180,792 3193,28 3211,468 3228,268 3234,788 3236,275 3237,33 3243,545 3264,15 3349,815 3424,562 3388,708 3379,248 3416,478 3447,938 3479,865 3521,815 3567,415 3593,525 3519,55 3463,555 3445,312 3440,585 3447,218 3463,95 3487,505 3527,667 3590,445 3617,195 3624,58 3654,438 3724,552 3673,72 3564,703 3489,2 3453,915 3421,21 3393,367 3358,005 3325,812 3284,865 3245,73 3220,962 3217,91 3238,107 3286,51 3339,363 3326,998 3277,723 3222,788 3127,245 3075,032 3035,907 3014,29 3003,542 3038,075 3089,897 3159,982 3196,045 3112,505 3021,155 2982,058 2954,385 2927,285 2884,998 2861,167 2843,173 2801,63 2758,86 2734,06 2731,208 2712,933 2669,413 2628,9 2610,238 2588,617 2575,465 
2223,805 2194,285 2176,62 2163,64 2156,43 2154,14 2164,402 2174,71 2160,417 2156,845 2135,643 2073,965 2012,24 1956,443 1938,573 1948,557 1988 2035,79 2080,92 2158,495 2231,633 2297,972 2364,55 2405,732 2440,883 2478,618 2519,062 2566,953 2617,39 2667,268 2720,027 2777,422 2826,535 2895,427 2936,873 2958,255 2920,973 2885,46 2882,587 2890,903 2918,125 2993,895 3060,677 3086,802 3064,265 3033,055 3029,395 3054,685 3068,453 3009,042 2984,157 3011,038 3055,31 3132,425 3209,025 3243,56 3283,968 3272,052 3266,965 3252,67 3232,443 3217,988 3216,01 3221,75 3245,853 3310,12 3356,335 3365,625 3315,538 3280,935 3263,772 3249,355 3249,637 3260,56 3289,6 3337,92 3303,292 3238,255 3208,167 3175,223 3160,27 3159,825 3160,51 3163,57 3165,705 3176,93 3195,692 3203,135 3215,147 3221,893 3230,9 3269,125 3355,115 3357,855 3328,667 3317,328 3350,36 3380,15 3420,868 3481,045 3510,442 3528,522 3548,902 3501,07 3476,49 3459,825 3462,837 3486,9 3527,555 3579,65 3644,285 3652,86 3643,617 3669,402 3694,877 3652,357 3565,653 3488,605 3456,825 3435,62 3390,89 3348,268 3309,448 3275,907 3241,72 3220,712 3207,675 3206,652 3239,045 3294,232 3293,25 3247,667 3182,93 3119,21 3071,672 3031,583 3010,442 2993,12 3025,382 3101,045 3132,935 3125,965 3093,425 2995,12 2941,923 2908,688 2869,985 2838,28 2822,512 2814,047 2767,485 2718,557 2682,7 2655,675 2634,185 2604,272 2573,193 2564,893 2545,907 2524,518 
2221,905 2183,702 2169,87 2164,772 2165,632 2172,488 2180,268 2192,663 2173,235 2167,32 2138,19 2085,812 2038,103 1984,97 1956,603 1950,617 1967,827 1993,56 2041,54 2124,808 2212,137 2281,173 2342,905 2390,09 2408,18 2441,542 2477,078 2515,788 2571,708 2620,155 2668,518 2723,705 2783,44 2842,788 2886,012 2906,64 2884,06 2860,782 2843,952 2840,48 2856,657 2914,99 2998,228 3051,857 3065,167 3017,835 2996,53 3005,45 3040,847 3027,952 2982,817 2993,56 3015,113 3053,97 3120,853 3185,228 3255,56 3328,705 3347,982 3312,97 3273,655 3265,715 3263,52 3259,242 3279,663 3290,315 3283,817 3296,532 3269,165 3237,64 3223,825 3217,208 3223,683 3233 3241,37 3294,688 3277,18 3198,005 3166,95 3149,978 3144,85 3144,167 3145,583 3145,53 3144,848 3139,683 3163,335 3181,907 3196,792 3205,86 3223,078 3290,38 3353,665 3321,473 3308,615 3300,715 3308,893 3337,52 3391,808 3456,032 3455,978 3463,752 3497,97 3485,81 3451,335 3406,38 3393,335 3423,685 3461,972 3517,38 3601,365 3646,323 3642,9 3603,403 3573,135 3562,192 3552,02 3513,617 3478,607 3451,672 3394,252 3324,6 3280,97 3264,085 3244,495 3220,375 3202,68 3192,188 3201,382 3259,705 3269,038 3247,655 3189,468 3124,877 3070,905 3024,288 2998,367 2989,692 3001,68 3051,863 3085,005 3072,68 3061,038 2996,755 2939,6 2903,228 2865,198 2830,173 2801,817 2778,748 2742,02 2708,83 2659,172 2597,275 2573,195 2554,663 2534,137 2522,873 2506,052 2475,968 
2213,868 2189,01 2189,837 2186,867 2191,16 2198,083 2206,018 2209,66 2204,938 2197,762 2170,172 2130,462 2074,558 2025,248 1989,323 1968,06 1980,002 2021,8 2017,7 2088,798 2163,92 2238,28 2309,905 2372,812 2406,113 2424,647 2448,65 2478,92 2527,107 2582,798 2630,833 2682,848 2748,778 2813,397 2833,603 2858,715 2832,01 2821,53 2808,055 2802,895 2813,945 2865,82 2959,147 3023,695 3035,198 3010,905 2976,05 2961,615 2961,685 3011,735 2979,052 2988,92 3002,962 3023,715 3069,337 3140,525 3220,542 3325,515 3400,248 3366,652 3335,425 3320 3320,85 3335,545 3306,528 3270,262 3253,132 3236,49 3224,515 3200,5 3195,185 3197,998 3204,79 3209,587 3208,485 3217,442 3229,255 3173,695 3139,835 3135,49 3133,43 3132,917 3134,1 3132,675 3131,88 3132,965 3145,353 3167,143 3180,413 3185,973 3228,165 3328,167 3333,755 3296,305 3290,7 3289,64 3296,182 3315,177 3366,14 3419,48 3420,692 3432,367 3432,98 3391,59 3346,897 3318,85 3329,823 3365,802 3412,32 3456,165 3514,652 3559,31 3578,038 3524,417 3484,152 3479,972 3527,133 3522,613 3484,295 3442,927 3383,27 3324,042 3269,562 3249,14 3235,58 3209,933 3191,337 3180,005 3180,762 3236,805 3242,917 3227,5 3199,615 3131,462 3055,823 3007,853 2985,617 2985,853 2986,288 3013,778 3010,532 3016,47 3016,397 3023,775 2986,328 2922,522 2857,183 2829,63 2786,097 2740,885 2713,03 2672,195 2623,91 2565,698 2533,655 2518,11 2505,875 2487,015 2465,71 2434,942 
2234,58 2212,605 2222,263 2229,002 2244,968 2240,225 2239,7 2235,805 2227,34 2223,8 2205,895 2165,157 2114,373 2072,96 2034,657 1999,302 2017,27 2063,738 2045,52 2046,82 2113,288 2180,555 2252,502 2330,355 2402,228 2429,93 2440,765 2458,853 2507,36 2560,485 2591,825 2636,522 2700,863 2752,312 2782,212 2815,645 2779,262 2769,86 2773,715 2772,812 2791,317 2848,848 2933,35 3005,67 2994,695 2973,492 2949,208 2928,055 2931,74 2982,185 2968,292 2983,368 2993,785 3014,863 3059,482 3120,235 3212,157 3315,515 3393,895 3382,448 3363,137 3361,13 3382,49 3332,962 3295,223 3261,578 3234,965 3211,917 3193,203 3182,285 3179,518 3180,86 3184,347 3186,49 3180,683 3167,285 3149,555 3123,853 3118,25 3120,285 3121,518 3121,57 3122,698 3120,87 3119,948 3125,18 3135,8 3147,468 3156,32 3169,677 3241,078 3298,312 3265,16 3259,19 3262,677 3269,198 3279,113 3291,75 3332,01 3388,363 3398,31 3412,172 3374,535 3308,468 3274,268 3268,897 3291,605 3334,675 3356,5 3369,478 3407,532 3470,272 3509,248 3456,2 3409,337 3422,215 3489,728 3519,735 3510,375 3455,657 3372,407 3321,21 3277,317 3246,843 3224,08 3197,512 3180,308 3162,712 3152,015 3181,79 3179,317 3185,945 3201,647 3138,335 3047,81 2989,235 2969,167 2977,61 2973,788 2982,693 2964,36 2935,607 2943,87 2962,61 2959,612 2927,87 2857,77 2798,29 2751,99 2706,058 2672,76 2628,228 2574,268 2528,275 2491,165 2478,71 2469,018 2445,613 2419,607 2392,845 
2267,238 2240,643 2257,067 2273,21 2282,688 2278,748 2279,105 2280,565 2281,955 2270,32 2242,203 2199,218 2161,37 2116,448 2075,277 2040,355 2048,468 2080,478 2069,688 2037,098 2084,645 2155,317 2210,323 2285,525 2353,792 2410,508 2439,275 2453,143 2489,902 2522,28 2545,008 2592,805 2651,018 2702,645 2752,49 2800,182 2759,7 2738,92 2735,532 2746,375 2772,968 2849,768 2922,64 2977,04 2981,777 2933,863 2917,062 2913,13 2920,695 2942,843 2958,77 2976,562 2988,237 3011,347 3053,37 3115,382 3209,062 3314,712 3408,77 3410,482 3403,593 3433,685 3433,337 3333,137 3282,585 3253,617 3220,117 3192,905 3180,775 3171,317 3166,442 3166,047 3166,172 3163,137 3154,047 3136,795 3116,81 3103,297 3102,45 3105,277 3103,968 3101,902 3102,137 3105,757 3107,93 3111,743 3123,25 3129,235 3130,522 3159,17 3239,32 3244,093 3222,27 3232,113 3241,715 3253,45 3266,06 3279,468 3301,673 3354,198 3379,037 3399,4 3348,462 3271,28 3241,11 3234,348 3247,53 3248,465 3268,355 3296,442 3337,573 3404,46 3426,618 3388,262 3341,132 3359,222 3412,902 3446,518 3480,48 3497,637 3418,165 3335,607 3283,44 3249,067 3219,192 3189,012 3170,01 3142,7 3115,018 3088,1 3073,812 3111,552 3154,953 3113,282 3036,01 2971,333 2952,95 2959,445 2951,895 2954,835 2940,235 2901,518 2874,938 2874,555 2872,022 2857,09 2817,938 2768,765 2728,808 2681,308 2636,153 2580,755 2529,567 2477,11 2441,335 2419,902 2402,925 2386,522 2362,652 2337,768 
2265,607 2275,748 2288,958 2309,885 2324,873 2313,665 2326,88 2332,4 2335,03 2320,777 2273,065 2232,223 2189,547 2154,067 2118,323 2085,315 2067,962 2090,603 2086,32 2037,615 2071,792 2139,212 2205,812 2259,772 2336,61 2390,993 2437,647 2453,945 2464,365 2483,857 2513,123 2557,777 2617,015 2664,47 2703,6 2750,498 2736,705 2715,2 2704,85 2721,18 2759,22 2802,265 2839,85 2888,92 2943,458 2909,785 2896,703 2894,567 2907,433 2929,953 2950,998 2970,34 2988,34 3011,285 3053,615 3135,265 3235,005 3336,103 3453,36 3499,272 3497,455 3498,68 3436,2 3346,518 3278,402 3241,137 3208,828 3179,745 3170,67 3161,195 3155,04 3152,917 3151,135 3143,435 3131,857 3116,6 3100,737 3089,748 3085,452 3082,973 3075,055 3069,653 3075,24 3089,353 3096,992 3098,337 3104,657 3110,28 3111,93 3146,685 3208,667 3187,812 3198,143 3217,605 3230,637 3244,887 3260,653 3276,498 3292,203 3311,623 3347,71 3391,732 3349,415 3262,712 3223,93 3205,795 3195,292 3192,27 3221,413 3267,407 3288,425 3313,552 3315,63 3298,055 3274,022 3298,022 3338,975 3361,105 3396,763 3455,895 3465,315 3406,12 3338,81 3263,36 3210,105 3167,955 3141,51 3111,645 3083,613 3058,44 3034,083 3051,16 3107,198 3058,748 2997,11 2954,147 2938,167 2936,055 2932,328 2939,095 2913,86 2866,367 2826,82 2819,785 2814,87 2797,718 2768,097 2723,397 2683,927 2632,853 2567,873 2524,315 2474,155 2424,87 2389,54 2364,305 2344,59 2330,185 2312,34 2293,925 
2274,728 2297,683 2321,907 2343,262 2377,198 2372,248 2382,125 2391,623 2392,635 2369,083 2315,268 2267,615 2229,025 2195,203 2161,462 2123,99 2090,032 2091,438 2093,43 2040,635 2065,765 2138,218 2203,17 2251,837 2317,445 2376,443 2410,905 2432,833 2447,993 2471,317 2503,48 2536,377 2578,795 2629,475 2658,99 2684,655 2693,24 2682,248 2674,38 2686,1 2703,652 2733,018 2771,465 2812,708 2861,695 2862,31 2861,635 2880,4 2905,617 2927,705 2948,635 2969,567 2993,46 3016,062 3064,212 3170,442 3266,333 3361,603 3465,228 3484,212 3460,785 3446,265 3441,032 3413,902 3329,525 3240,498 3202,64 3174,117 3160,65 3151,268 3144,718 3140,078 3135,402 3126,952 3115,26 3100,512 3085,625 3075,865 3069,815 3063,145 3056,675 3054,785 3061,105 3073,262 3081,665 3087,715 3090,473 3095,958 3103,107 3145,495 3171,13 3167,032 3187,35 3205,13 3217,558 3237,502 3258,087 3278,442 3298,73 3315,685 3340,025 3376,335 3314,125 3256,417 3221,718 3195,032 3169,46 3164,812 3182,205 3217,578 3191,955 3170,19 3181,025 3183,268 3203,458 3240,677 3263,705 3279,877 3315,208 3363,105 3400,235 3402,593 3380,01 3312,792 3229,567 3152,978 3108,6 3075,845 3049,323 3034,89 3020,032 3014,647 3054,6 3056,895 2989,042 2943,985 2929,04 2924,917 2924,39 2918,9 2875,827 2824,452 2782,805 2761,913 2754,9 2741,877 2712,228 2665,837 2620,58 2569,805 2512,655 2464,347 2411,535 2375,913 2344,185 2320,317 2299,652 2277,558 2261,68 2237,232 
2301,82 2315,448 2350,683 2380,552 2432,657 2462,647 2459,542 2462,22 2459,272 2424,448 2384,738 2339,522 2289,623 2243,613 2206,603 2162,228 2133,087 2119,498 2102,43 2052,14 2053,647 2108,195 2167,348 2233,167 2281,93 2342,653 2369,282 2388,275 2408,985 2432,883 2455,857 2476,165 2519,393 2575,988 2598,268 2607,34 2615,31 2628,913 2636,953 2639,173 2663,498 2703,923 2735,143 2756,073 2792,698 2824,417 2841,462 2872,65 2898,72 2929,458 2955,962 2978,105 3002,978 3037,235 3099,215 3214,19 3311,812 3401,887 3470,097 3473,775 3456,255 3426,877 3404,163 3389,55 3356,488 3276,025 3210,262 3175,195 3151,823 3142,548 3135,677 3128,587 3119,087 3107,433 3095,938 3081,262 3066,465 3060,51 3057,167 3050,795 3047,498 3049,097 3050,688 3055,917 3061,7 3069,962 3073,718 3077,96 3086,708 3114,77 3141,993 3169,285 3183,59 3197,825 3201,802 3218,243 3243,282 3273,065 3303,597 3328,92 3367,13 3410,373 3328,507 3265,7 3224,12 3191,53 3164,698 3147,235 3145,02 3158,438 3119,353 3087,143 3096,238 3120,715 3141,205 3165,087 3187,653 3209,025 3235,055 3277,677 3314,55 3306,873 3328,3 3324,22 3235,022 3148,347 3080,972 3041,992 3023,085 3002,118 2993,265 2971,968 2979,635 3022,897 3021,035 2954,01 2927,915 2915,927 2905,425 2893,315 2853,445 2801,265 2757,913 2726,83 2705,01 2682,788 2644,155 2609,485 2547,468 2499,775 2446,45 2399,627 2360,518 2336,938 2305,353 2281,078 2255,567 2229,172 2200,988 2176,383 
2308,235 2330,627 2368,125 2415,115 2480,817 2545,297 2541,59 2542,653 2541,308 2505,808 2459,637 2402,585 2343,488 2290,337 2262,36 2208,715 2165,125 2149,867 2118,62 2074,145 2049,647 2081,343 2133,635 2213,397 2275,405 2323,72 2348,645 2363,863 2378,948 2395,163 2410,035 2427,565 2462,56 2502,853 2525,85 2527,46 2544,468 2562,578 2582,2 2617,23 2646,575 2675,025 2709,91 2739,272 2773,223 2806,315 2829,282 2865,23 2902,312 2945,282 2975,615 2999,435 3029,43 3089,49 3172,905 3266,745 3374,242 3459,607 3474,53 3467,062 3456,045 3435,37 3405,252 3377,167 3339,12 3280,55 3225,123 3180,427 3145,308 3134,205 3125,702 3114,27 3099,022 3083,843 3073,705 3062,125 3049,775 3044,917 3042,027 3036,073 3034,525 3036,775 3036,165 3035,52 3039,897 3046,698 3055,38 3060,275 3072,368 3099,478 3129,893 3160,473 3169,958 3188,083 3195,752 3204,57 3243,54 3307,603 3348,618 3376,577 3431,243 3456,31 3364,462 3288,792 3239,525 3197,595 3163,135 3135,955 3121,6 3128,823 3096,393 3057,077 3066,887 3079,735 3086,288 3093,525 3121,63 3141,305 3159,333 3208,93 3244,357 3235,57 3243,31 3271,115 3219,5 3120,657 3047,933 3026,308 2991,067 2928,192 2907,575 2926,452 2923,107 2954,47 3007,81 2969,652 2922,208 2893,225 2869,802 2855,195 2839,48 2801,823 2762,885 2727,35 2689,91 2641,215 2591,385 2551,52 2494,67 2439,05 2390,275 2352,143 2324,7 2295,96 2266,133 2243,955 2221,042 2186,083 2154,955 2118,315 
2322,67 2346,502 2404,105 2444,353 2524,093 2606,607 2616,41 2618,123 2623,498 2578,333 2504,002 2445,277 2406,09 2361,163 2339,002 2277,115 2201,47 2166,7 2140,218 2095,518 2062,735 2077,615 2121,562 2171,532 2224,465 2274,933 2303,315 2324,675 2353,407 2371,675 2362,982 2386,01 2407,02 2436,32 2456,028 2470,95 2491,62 2518,09 2554,505 2584,84 2620,828 2669,425 2710,812 2741,24 2770,633 2809,337 2851,728 2903,103 2960,712 2997,147 3016,405 3051,48 3099,94 3184,785 3258,433 3344,448 3419,96 3455,787 3469,297 3458,22 3448,63 3434,038 3423,18 3401,87 3338,185 3273,01 3218,212 3178,17 3142,335 3127,405 3117,312 3100,123 3082,703 3067,958 3055,535 3042,153 3028,663 3023,913 3024,615 3022,915 3023,94 3026,268 3025,275 3019,685 3021,732 3026,812 3036,315 3044,855 3065,062 3090,542 3121,345 3146,417 3150,512 3170,157 3179,38 3209,683 3285,657 3339,653 3334,712 3354,09 3434,56 3492,403 3422,025 3335,762 3286,235 3233,357 3165,528 3130,683 3101,958 3091,025 3055,225 3035,155 3041,64 3049,518 3050,277 3044,103 3063,488 3079,377 3093,843 3135,165 3173,145 3179,48 3181,667 3177,637 3159,317 3104,843 3020,145 2995,8 2954,48 2883,542 2845,105 2872,83 2888,962 2915,673 2956,532 2988,377 2922,738 2882,185 2853,905 2821,008 2806,83 2787,625 2756,18 2715,565 2676,327 2618,633 2561,268 2513,865 2463,605 2402,235 2348,09 2312,012 2283,47 2256,59 2230,848 2214,84 2196,952 2150,802 2121,85 2083,545 
2343,653 2368,218 2420,93 2465,535 2564,735 2653,357 2684,205 2681,552 2666,562 2627,777 2553,945 2485,958 2451,617 2421,18 2384,34 2325,048 2246,883 2195,415 2166,547 2135,57 2082,48 2083,163 2119,625 2152,032 2179,745 2213,44 2241,905 2260,475 2278,093 2279,725 2284,74 2302,992 2330,1 2357,038 2383,705 2407,115 2431,688 2463,665 2502,315 2547,397 2604,157 2655,353 2691,89 2753,115 2804,22 2873,395 2924,44 2965,337 3014,768 3052,188 3088,682 3131,935 3186,095 3270,195 3342,242 3388,978 3390,637 3388,46 3430,848 3444,9 3431,152 3411,188 3378,867 3350,308 3339,488 3314,857 3248,478 3186,633 3137,965 3118,445 3103,468 3083,89 3066,637 3054,242 3040,735 3024,61 3008,32 3001,88 3007,343 3010,757 3013,025 3015,1 3014,252 3008,57 3008,657 3011,855 3018,11 3029,755 3047,72 3073,06 3110,498 3131,3 3134,9 3149,405 3169,425 3255,843 3318,765 3297,965 3293,718 3315,975 3400,69 3488,958 3482,26 3401,988 3333,938 3252,625 3164,565 3120,825 3091,275 3069,2 3044,047 3022,438 3020,992 3025,512 3023,808 3018,52 3013,545 3019,57 3031,105 3067,677 3125,958 3135,703 3117,48 3107,833 3081,39 3040 2970,212 2931,265 2900,34 2850,98 2820,833 2818,547 2853,578 2899,745 2945,788 2997,795 2946,482 2878,867 2833,677 2798,92 2765,802 2752,295 2721,593 2681,383 2636,203 2584,045 2530,565 2482,472 2433,512 2371,74 2317,205 2281,478 2256,853 2237,46 2202,835 2190,07 2170,133 2105,337 2064,545 2022,758 
2378,3 2390,698 2435,427 2496,238 2591,438 2681,552 2714,323 2679,218 2648,955 2628,47 2579,927 2525,575 2489,468 2456,645 2408,252 2351,52 2286,97 2229,538 2190,89 2156,75 2108,1 2084,005 2109,345 2134,11 2147,07 2168,323 2214,083 2221,047 2223,37 2240,645 2254,498 2273,073 2302,397 2335,708 2366,262 2391,573 2406,268 2422,725 2450,618 2501,69 2558,183 2624,583 2705,435 2815,525 2861,585 2871,703 2888,245 2915,373 2938,708 2994,712 3099,255 3209,29 3266,593 3337,732 3389 3367,943 3353,812 3342,915 3388,865 3442,927 3395,623 3375,215 3337,942 3312,098 3290,29 3296,252 3281,932 3230,782 3154,45 3099,735 3083,43 3067,323 3051,377 3037,88 3023,84 3009,218 2996,208 2987,613 2988,85 2995,752 2998,347 2999,402 2999,795 2998,867 2998,853 2999,223 3009,482 3022,927 3035,395 3064,907 3096,57 3111,6 3119,61 3125,018 3157,045 3224,052 3255,728 3258,853 3272,985 3296,13 3384,35 3472,44 3522,3 3450,38 3367,407 3266,597 3184,175 3137,373 3095,8 3058,473 3039,67 3007,328 3003,545 3003,502 3000,71 2994,788 2982,198 2973,103 2981,07 3026,647 3092,765 3114,465 3078,675 3056,965 3030,752 2986,343 2927,73 2874,16 2846,2 2815,152 2811,397 2809,738 2848,442 2897,188 2966,215 3007,127 2957,77 2899,933 2838,57 2783,347 2742,288 2704,055 2673,41 2632,21 2587,833 2548,385 2490,018 2435,67 2396,927 2347,442 2286,09 2256,395 2233,637 2208,848 2181,778 2170,135 2130,152 2064,495 2019,312 1982,47 
2415,29 2417,47 2468,188 2523,3 2621,323 2704,883 2699,083 2648,88 2608,87 2583,903 2562,812 2532,27 2502,59 2475,012 2424,073 2369,448 2318,103 2272,275 2221,222 2180,925 2137,853 2111,387 2104,613 2128,647 2141,955 2151,062 2169,897 2192,288 2218,775 2247,22 2267,468 2291,84 2320,998 2350,458 2381,373 2405,348 2423,885 2437,988 2445,212 2460,113 2522,455 2618,61 2724,56 2811,827 2845,762 2849,18 2869,6 2905,962 2937,078 2983,312 3069,433 3227,073 3324,867 3406,357 3402,752 3352,76 3329,402 3313,173 3318,375 3367,972 3328,397 3314,873 3289,698 3279,65 3269,438 3253,22 3228,788 3200,875 3155,448 3088,065 3064,98 3055,377 3043,488 3027,88 3008,765 2993,763 2979,637 2972,238 2967,712 2977,91 2982,808 2983,12 2985,502 2988,703 2989,738 2988,235 3002,755 3021,058 3037,605 3061,605 3081,177 3096,272 3106,44 3111,357 3142,208 3196,083 3225,373 3249,883 3260,73 3278,725 3381,558 3480,482 3526,827 3445,91 3362,405 3284,107 3220,895 3181,002 3134,558 3057,885 3018,63 2993,018 2986,167 2988,48 2975,603 2962,855 2956,965 2946,28 2943,84 2990,56 3057,067 3112,67 3068,732 3017,175 2991,833 2949,167 2901,792 2847,655 2805,85 2783,885 2791,323 2799,675 2849,07 2908,525 2978,635 2977,02 2915,015 2890,228 2838,945 2767,165 2711,515 2667,348 2625,312 2592,975 2555,79 2512,02 2448,3 2391,802 2352,252 2309,83 2256,615 2225,377 2204,212 2180,578 2155,868 2143,868 2102,558 2053,613 2010,978 1994,802 
2439,825 2456,272 2487,188 2556,653 2643,518 2717,567 2688,21 2642,232 2607,855 2573,35 2560,595 2536,235 2510,752 2484,53 2441,605 2395,01 2348,75 2317,292 2264,333 2212,933 2170,39 2133,21 2116,492 2122,795 2136,61 2151,347 2168,715 2195,002 2219,692 2245,695 2271,95 2294,147 2318,088 2344,26 2374,545 2405,367 2434,363 2455,55 2471,617 2482,782 2508,887 2566,027 2673,817 2756,232 2815,698 2858,202 2881,942 2902,052 2937,535 3003,215 3085,343 3194,8 3295,407 3382,76 3398,008 3338,03 3304,665 3287,062 3273,085 3269,975 3267,97 3253,823 3251,825 3242,052 3235,377 3223,798 3200,875 3168,742 3136,123 3101,663 3069,02 3049,238 3033,35 3019,435 3000,975 2982,14 2961,455 2939,52 2936,51 2955,117 2966,895 2969,498 2972,453 2977,667 2978,855 2978,515 2993,995 3015,16 3034,635 3051,68 3070,785 3089,21 3096,502 3113,925 3144,095 3192,42 3220,325 3240,625 3254,472 3277,188 3358,343 3447,78 3516,59 3478,875 3409,305 3348,88 3288,775 3241,47 3157,927 3073,23 3018,528 2981,34 2966,635 2969,873 2955,942 2935,778 2935,795 2933,015 2926,075 2958,117 3028,375 3093,265 3060,91 2999,377 2960,965 2917,14 2864,297 2808,47 2764,095 2740,932 2748,982 2779,133 2846,5 2897,895 2961,502 2921,225 2870,9 2832,462 2779,21 2713,445 2661,72 2631,357 2602,25 2564,05 2526,113 2470,615 2412,8 2357,975 2310,5 2266,498 2224,562 2194,755 2167,685 2138,795 2118,552 2101,863 2081,238 2053,945 2009,16 1990,525 
2436,73 2482,41 2507,735 2581,123 2656,823 2729,755 2687,55 2660,183 2633,867 2593,485 2569,175 2555,975 2527,77 2502,442 2471,192 2423,988 2372,552 2336,728 2299,515 2248,12 2199,82 2158,208 2135,893 2139,105 2164,925 2168,515 2170,995 2190,575 2218,93 2241,828 2266,135 2287,742 2318,99 2356,203 2401,308 2420,708 2439,235 2468,46 2486,192 2502,095 2515,587 2526,917 2590,955 2702,32 2772,248 2828,847 2875,485 2884,843 2942,71 3064,163 3140,195 3236,015 3263,645 3290,17 3385,11 3348,183 3293,337 3269,975 3249,367 3229,952 3217,788 3210,163 3210,86 3219,495 3205,762 3184,7 3166,59 3146,9 3127,657 3100,353 3070,877 3046,558 3025,312 3008,35 2990,337 2967,285 2945,9 2925,84 2916,065 2932,8 2949,51 2954,877 2959,425 2964,795 2967,79 2970,44 2981,938 3003,972 3028,515 3040,887 3064,065 3085,188 3101,548 3127,64 3155,058 3183,08 3204,77 3226,927 3254,163 3297,915 3369,305 3432,52 3462,672 3463,903 3403,762 3328,01 3250,375 3204,205 3164,885 3104,393 3038,603 2982,245 2951,208 2946,078 2941,36 2920,78 2911,52 2910,768 2915,152 2937,105 2988,478 3060,55 3072,88 3011,18 2946,415 2891,703 2824,88 2759,645 2726,32 2707,485 2718,99 2768,735 2830,215 2868,695 2899,722 2864,945 2807,835 2768,02 2721,788 2669,617 2637,583 2610,615 2582,738 2552,218 2491,482 2428,672 2374,185 2328,82 2279,288 2231,91 2195,73 2171,235 2141,9 2099,96 2078,12 2062,815 2048,317 2008,975 1971,008 1932,33 
2436,49 2469,805 2527,518 2590,692 2662,85 2754,333 2734,225 2690,288 2663,427 2630,725 2611,835 2593,522 2556,615 2524,055 2490,968 2454,228 2410,817 2377,845 2344,615 2292,848 2240,097 2198,248 2172,515 2165,515 2180,028 2178,932 2191,025 2213,393 2244,55 2283,907 2324,755 2364,823 2397,59 2425,347 2489,002 2519,397 2508,355 2492,52 2493,522 2509,618 2531,39 2547,92 2563,205 2634,27 2733,782 2803,137 2853,882 2879,555 2965,99 3106,11 3207,508 3265,63 3231,948 3238,465 3317,468 3362,94 3304,455 3269,167 3243,1 3218,393 3200,672 3189,978 3183,155 3179,715 3176,357 3156,988 3130,368 3116,252 3102,35 3080,575 3053,92 3034,735 3023,27 3005,987 2983,89 2952,885 2927,425 2915,488 2905,53 2908,967 2928,498 2940,387 2945,275 2949,03 2954,522 2959,46 2966,578 2988,39 3015,795 3031,645 3056,292 3073,948 3093,905 3114,837 3153,36 3181,83 3206,933 3236,593 3284,39 3350,703 3389,993 3389,453 3388,988 3411,415 3379,085 3306,353 3229,93 3168,67 3116,815 3081,782 3055,755 3005,835 2957,532 2938,027 2932,387 2917,77 2893,09 2883,272 2913,765 2919,893 2939,393 2992,75 3023,72 2976,915 2908,865 2858,78 2794,8 2723,163 2691,985 2683,893 2713,643 2759,593 2802,725 2831,92 2838,885 2811,782 2764,988 2721,135 2677,698 2641,353 2608,667 2591,268 2564,765 2519,962 2471,67 2410,065 2350,23 2304,47 2258,188 2205,502 2164,667 2136,732 2090,823 2060,728 2046,593 2030,762 2001,752 1956,973 1907,965 1866,835 
2451,36 2471,218 2527,525 2596,902 2665,665 2759,19 2807,505 2769,425 2737,46 2701,28 2682,245 2673,505 2634,797 2583,42 2534,355 2498,922 2471,993 2436,07 2390,223 2337,077 2294,745 2247,988 2212,738 2187,355 2188,308 2204,45 2230,808 2256,05 2298,44 2347,275 2392,015 2430,775 2463,295 2518,272 2577,147 2608,715 2599,065 2544,145 2506,927 2523,052 2548,355 2565,145 2589,067 2613,268 2679,932 2771,458 2833,73 2901,262 3001,85 3110,845 3214,147 3227,603 3208,235 3210,778 3250,917 3340,333 3333,515 3284,26 3252,107 3223,55 3198,515 3182,792 3170,998 3159,298 3150,225 3131,613 3104,59 3089,317 3075,637 3056,752 3029,397 3011,427 3005,577 2979,528 2962,835 2944,972 2920,34 2904,9 2896,4 2881,393 2908,058 2926,515 2929,683 2929,025 2935,893 2943,17 2952,212 2971,855 2997,498 3030,205 3046,105 3059,15 3079,785 3114,29 3144,923 3183,462 3235,867 3284,335 3341,133 3345,955 3321,505 3311,145 3319,85 3346,123 3375,94 3320,157 3252,302 3199,61 3147,825 3103,393 3048,723 3008,505 2966,022 2935,31 2919,718 2903,79 2883,41 2868,613 2891,275 2880,073 2905,78 2932,468 2971,083 2954,058 2888,4 2834,857 2769,008 2696,938 2666,18 2671,245 2702,423 2716,29 2762,22 2796,73 2797,138 2766,26 2728,333 2691,02 2643,475 2616,015 2592,205 2565,16 2529,43 2476,778 2434,058 2379,845 2326,267 2278,55 2230,645 2173,255 2131,25 2096,655 2049,015 2024,985 2004,695 1985,72 1944,828 1895,175 1860,997 1871,56 
2475,96 2503,32 2549,575 2607,462 2671,775 2764,39 2849,665 2838,845 2803,387 2780,963 2765,538 2747,198 2704,508 2642,575 2578,073 2542,958 2504,208 2457,2 2414,848 2369,027 2327,028 2291,575 2259,323 2221,597 2217,743 2243,248 2282,657 2334,325 2413,905 2426,79 2452,15 2482,445 2525,995 2597,445 2638,802 2661,745 2658,365 2611,455 2554,587 2549,465 2560,147 2576,43 2611,57 2645,075 2668,212 2727,217 2805,515 2899,833 2991,225 3098,555 3185,31 3214,383 3192,507 3184,665 3198,18 3266,387 3315,925 3298,958 3264,265 3228,325 3198,837 3180,157 3163,73 3145,905 3127,397 3113,685 3095,72 3073,06 3042,6 3020,012 2984,85 2946,86 2946,19 2928,617 2911,603 2924,585 2922,63 2904,13 2887,677 2862,89 2894,482 2918,367 2913,617 2906,315 2911,583 2917,875 2944,93 2969,567 3006,143 3027,552 3041,552 3061,13 3086,68 3118,36 3148,955 3191,57 3240,39 3293,758 3374,498 3322,557 3290,667 3273,015 3257,127 3271,782 3309,87 3266,262 3211,78 3174,768 3143,847 3114,1 3068,768 2990,192 2947,16 2922,02 2891,143 2877,31 2863,705 2852,797 2861,205 2853,422 2865,405 2887,657 2907,907 2912,735 2875,593 2827,84 2761,893 2687,2 2647,367 2649,363 2663,377 2669,725 2713,925 2755,518 2749,775 2709,772 2673,115 2647,698 2617,99 2598,347 2578,11 2537,958 2487,205 2437,137 2395,58 2346,982 2299,83 2253,97 2206,317 2156,103 2116,835 2075,09 2024,742 1983,735 1961,05 1929,735 1886,262 1860,057 1862,302 1918,87 
2524,482 2544,048 2550,333 2608,6 2671,685 2761,995 2846,067 2805,177 2759,527 2744,43 2736,91 2719,042 2668,913 2616,065 2567,515 2533,403 2498,748 2464,49 2430,31 2387,16 2351,927 2342,25 2303,917 2263,758 2256,95 2300,613 2353,34 2432,16 2486,5 2508,7 2516,657 2537,095 2577,435 2657,547 2709,987 2713,123 2697,97 2661,792 2625,82 2594,958 2574,857 2605,835 2651,512 2673,573 2686,022 2704,91 2777,28 2850,032 2966,268 3077,56 3162,333 3183,732 3156,363 3154,62 3164,052 3198,145 3241,03 3307,573 3273,68 3224,805 3193,915 3173,125 3152,59 3131,5 3110,665 3089,34 3073,788 3050,91 2998,403 2952,18 2939,225 2925,718 2914,952 2902,613 2885,335 2877,198 2868,012 2862,532 2865,135 2850,145 2853,292 2907,328 2905,052 2890,735 2887,258 2897,755 2947,015 2997,943 3031,363 3041,772 3050,555 3059,062 3065,28 3091,195 3128,508 3169,978 3212,86 3289,752 3363,46 3311,718 3273,39 3249,405 3224,485 3215,817 3247,047 3218,46 3166,32 3136,948 3116,603 3084,97 3039,68 2977,948 2915,962 2893,198 2861,127 2846,025 2834,657 2829,833 2827,345 2820,657 2822,405 2854,222 2864,095 2861,748 2843,42 2803,567 2753,738 2685,35 2627,43 2616,887 2625,272 2628,27 2665,34 2711,047 2699,885 2663,958 2632,627 2609,113 2587,97 2570,407 2546,625 2503,975 2448,455 2409,688 2371,337 2320,693 2278,238 2232,35 2186,275 2146,762 2105,387 2045,493 1994,057 1954,955 1918,965 1886,245 1861,927 1871,19 1893,403 1973,065 
2583,877 2561,567 2547,415 2583,218 2649,395 2740,633 2806,558 2760,498 2721,228 2701,58 2689,8 2672,262 2640,625 2601,558 2557,272 2517,527 2489,758 2453,698 2428,875 2409,972 2392,022 2376,29 2329,085 2302,53 2318,405 2353,812 2424,982 2484,002 2539,265 2577,202 2594,208 2603,758 2634,57 2696,71 2764,795 2731,933 2687,867 2661,083 2643,36 2647,22 2648,065 2658,268 2692,177 2701,16 2705,613 2716,288 2748,91 2810,797 2925,165 3063,53 3128,593 3117,33 3099,548 3115,613 3133,405 3150,575 3180,643 3240,82 3267,757 3212,205 3182,555 3160,5 3138,762 3115,955 3087,317 3062,475 3053,505 3021,74 2974,52 2931,968 2926,065 2917,775 2903,08 2884,282 2864,312 2843,65 2822,837 2813,817 2826,512 2832,382 2818,473 2848,94 2910,65 2898,465 2873,518 2869,61 2928,01 3014,007 3033,755 3010,828 3006,363 3027,508 3042,152 3075,765 3110,97 3137,542 3175,643 3251,288 3341,037 3336,465 3277,883 3238,965 3201,042 3179,212 3182,863 3197,225 3144,903 3102,907 3084,465 3057,915 3010,845 2964,738 2928,413 2867,772 2838,833 2813,835 2801,833 2798,328 2789,887 2786,093 2773,055 2801,052 2828,218 2827,223 2812,45 2786,135 2745,653 2673,397 2617,103 2593,768 2597,595 2599,895 2619,33 2660,74 2653,562 2630,127 2613,302 2590,902 2569,69 2546,165 2506,083 2466,77 2423,84 2387,507 2356,167 2316,188 2271,417 2220,52 2183,772 2139,512 2068,203 2000,137 1966,47 1926,242 1894,89 1867,88 1875,085 1918,412 1943,775 2021,04 
2623,6 2579,022 2553,223 2572,885 2642,722 2745,675 2799,485 2748,41 2698,385 2672,275 2655,495 2636,515 2609,595 2572,698 2529,177 2490,795 2464,385 2446,265 2442,692 2433,38 2431,047 2388,155 2355,792 2359,23 2384,177 2427,948 2493,712 2536,46 2602,532 2657,32 2684,758 2710,402 2709,15 2759,96 2784,413 2746,64 2702,89 2673,455 2675,458 2703,868 2734,492 2720,3 2726,39 2728,72 2731,317 2739,5 2750,647 2790,992 2901,98 3010,78 3078,922 3064,01 3060,105 3083,11 3102,833 3126,232 3151,498 3186,478 3250,573 3204,185 3170,812 3144,54 3122,298 3101,532 3080,61 3057,195 3035,395 3008,805 2975,117 2948,485 2934,675 2921,22 2906,59 2888,245 2866,35 2841,978 2816,758 2802,965 2798,29 2805,305 2801,367 2798,67 2857,052 2906,365 2876,07 2856,47 2906,215 3023,528 3049,585 2998,375 2973,8 2995,192 3019,06 3059,53 3085,843 3113,155 3178,002 3269,875 3372,248 3389,47 3327,505 3275,147 3202,018 3149,74 3145,183 3158,915 3139,23 3077,248 3044,47 3027,145 2982,46 2952,955 2919,607 2871,495 2826,843 2795,945 2772,153 2763,672 2756,268 2749,195 2727,323 2748,328 2780,632 2783,625 2773,258 2754,825 2724,17 2669,248 2616,052 2584,748 2572,43 2582,41 2588,815 2612,255 2628,9 2612,14 2591,5 2570,627 2547,535 2522,76 2481,73 2439,047 2399,417 2372,942 2361,425 2304,993 2253,325 2204,147 2167,508 2110,482 2025,623 1968,2 1930,33 1901,35 1880,282 1868,01 1897,073 1954,393 1997,04 2079,037 
2660,098 2595,29 2575,225 2605,047 2666,238 2752,885 2817,005 2773,6 2711,94 2655,172 2619,065 2589,995 2564,073 2547,522 2517,887 2495,218 2476,782 2466,923 2460,725 2459,992 2453,798 2410,135 2397,185 2416,242 2455,15 2498,833 2550,468 2594,65 2661,945 2731,94 2782,28 2841,75 2802,995 2793,27 2804,48 2767 2741,27 2730,275 2741,175 2766,913 2795,02 2768,688 2762,367 2756,538 2751,15 2756,393 2759,663 2778,345 2876,073 2997,643 3057,05 3049,67 3054,37 3067,633 3081,498 3111,31 3134,08 3167,403 3256,94 3216,433 3161,195 3134,41 3112,99 3097,133 3080,177 3060,907 3042,323 3020,363 2994,68 2968,52 2949,427 2933,225 2917,242 2897,475 2873,927 2848,375 2821,603 2800,16 2793,015 2781,945 2783,353 2773,12 2793,587 2847,4 2868,17 2846,357 2894,605 3009,16 3044,843 2976,922 2957,09 2972,597 3003,252 3033,84 3057,41 3116,677 3198,5 3288,667 3374,655 3373,465 3330,232 3281,44 3208,242 3126,25 3114,137 3121,28 3122,712 3060,087 3016,722 2997,71 2968,268 2937,472 2911,688 2893,438 2846,985 2799,14 2759,913 2735,157 2725,373 2713,425 2691,048 2693,607 2732,39 2742,135 2725,19 2708,655 2687,038 2656,61 2619,405 2579,71 2550,565 2550,465 2555 2574,405 2587,15 2579,828 2562,805 2544,598 2522,195 2500,05 2465,348 2425,458 2389,155 2376,522 2340,82 2287,985 2233,988 2180,948 2137,6 2083,62 2019,637 1967,713 1916,535 1889,637 1871,133 1886,233 1924,265 1987,608 2044,117 2137,075 
2658,152 2610,262 2607,328 2643,775 2685,445 2745,137 2838,047 2812,03 2740,998 2651,748 2601,205 2575,222 2567,292 2549,527 2530,985 2531,327 2515,11 2502,897 2482,688 2486,617 2467,433 2433,475 2431,637 2464,163 2513,005 2556,83 2607,74 2662,985 2739,613 2815,748 2877,488 2906,377 2861,002 2834,867 2816,945 2795,57 2797,573 2800,837 2807,683 2817,278 2807,13 2785,703 2783,515 2773,42 2763,073 2765,36 2767,27 2777,448 2873,663 3013,348 3049,723 3043,333 3043,4 3051,788 3061,907 3092,21 3113,012 3154,12 3248,292 3225,09 3164,975 3138,672 3112,423 3098,82 3082,58 3064,842 3047,278 3027,48 3008,272 2988,13 2969,218 2951,647 2934,775 2913,635 2887,883 2864,598 2841,252 2815,895 2794,915 2780,972 2764,43 2755,865 2758,542 2789,018 2832,055 2832,615 2884,752 2964,025 2987,328 2940,057 2935,417 2962,028 2997,815 3007,54 3050,24 3113,82 3182,417 3266,285 3343,925 3295,758 3258,705 3241,31 3174,732 3106,147 3096,135 3088,075 3091,508 3057,685 3009,7 2987,538 2971,15 2945,328 2946,545 2944,725 2892,097 2813,53 2762,643 2722,047 2699,163 2678,905 2655,782 2649,452 2684,192 2692,938 2676,52 2660,985 2645,02 2632,002 2618,397 2578,635 2540,132 2507,125 2507,107 2534,132 2547,343 2540,71 2528,415 2512,54 2497,663 2480,627 2453,72 2414,405 2381,778 2357,647 2327,817 2280,7 2214,927 2161,36 2121,06 2075,205 2019,818 1969,193 1914,505 1885,593 1876,603 1912,665 1960,24 2018,57 2086,64 2177,86 
2649,165 2628,035 2630,317 2646,835 2687,772 2751,56 2839,885 2795,035 2735,458 2660,397 2623,742 2605,573 2598,685 2576,278 2583,578 2581,73 2559,13 2544,635 2519,365 2509,495 2476,933 2441,833 2457,58 2503,27 2550,458 2594,68 2648,725 2709,298 2823,88 2910,312 2940,545 2895,087 2860,688 2838,532 2830,478 2834,218 2832,935 2850,205 2847,802 2834,795 2806,335 2799,823 2793,552 2780,555 2770,48 2771,978 2773,752 2783,752 2912,732 3060,465 3026,527 3026,26 3029,53 3039,988 3052,377 3080,885 3107,24 3139,218 3221,968 3209,337 3177,963 3152,172 3115,617 3098,03 3083,478 3067,84 3050,79 3032,297 3013,752 2997,785 2984,605 2968,455 2949,185 2924,998 2898,073 2882,94 2868,157 2853,613 2821,185 2792,39 2769,143 2744,365 2734,05 2748,518 2777,113 2810,315 2882,873 2931,465 2928,065 2912 2910,665 2948,07 2990,472 3023,975 3064,12 3097,802 3172,583 3254,795 3317,637 3259,453 3201,792 3184,06 3130,458 3088,925 3080,127 3069,603 3068,762 3040,77 3011,218 3021,712 2999,657 2984,652 2980,062 2959,788 2899,15 2818,785 2766,465 2728,792 2686,395 2655,22 2623,337 2608,587 2631,09 2651,873 2641,425 2626,615 2608,027 2590,355 2568,343 2544,573 2514,57 2476,455 2461,54 2487,343 2508,567 2497,63 2486,395 2479,643 2471,265 2453,25 2424,448 2390,28 2358,847 2346,948 2311,06 2256,958 2200,905 2148,633 2108,405 2067,032 2004,81 1954,255 1904,655 1883,015 1886,083 1933,295 1995,843 2055,177 2125,347 2204,988 
2660,41 2649,075 2646,573 2654,038 2696,785 2775,348 2836,68 2791,633 2735,453 2693,978 2670,353 2670,695 2642,297 2620,953 2615,613 2599,738 2579,84 2568,5 2540,688 2524,13 2487,327 2463,663 2486,567 2534,735 2579,442 2624,715 2682,54 2763,012 2862,81 2952,005 2909,825 2878,152 2866,262 2851,248 2852,675 2849,452 2855,163 2866,75 2852,725 2823,17 2812,385 2807,515 2798,942 2789,555 2783,228 2782,172 2780,785 2796,603 2954,18 3044,07 3003,262 3009,03 3018,127 3031,745 3042,708 3071,458 3117,052 3153,022 3188,86 3225,402 3207,698 3182,613 3134,782 3104,165 3087,138 3071,343 3055,042 3038,705 3021,607 3006,875 2994,512 2979,792 2958,89 2930,305 2902,667 2885,482 2874,583 2868,073 2851,03 2816,252 2775,133 2746,042 2723,945 2720,938 2744,475 2801,575 2871,998 2915,2 2913,988 2897,123 2894,718 2927,415 2972,913 2998,607 3038,478 3076,89 3155,445 3235,877 3293,772 3249,672 3176,653 3143,1 3089,58 3057,562 3050,248 3050,173 3047,585 3010,375 2991,805 3008,208 3020,222 3000,865 2970,85 2929,742 2874,297 2814,768 2770,573 2731,69 2685,417 2646,585 2606,252 2568,703 2578,1 2594,655 2585,215 2565,955 2539,695 2517,61 2500,667 2483,85 2469,61 2431,21 2417,482 2440,365 2457,76 2448,383 2443,252 2440,363 2430,067 2413,54 2381,265 2351,923 2331,85 2315,698 2269,63 2228,028 2178,32 2122,988 2081,627 2043,627 1978,38 1922,302 1894,66 1881,508 1896,625 1954,073 2021,772 2084,118 2148,995 2221,38 
2676,2 2667,7 2660,163 2670,94 2713,567 2793,953 2801,915 2752,16 2732,985 2718,1 2711,115 2694,08 2662,103 2648,482 2641,295 2624,58 2598,672 2590,262 2571,807 2551,913 2524,185 2509,275 2517,627 2573,285 2613,04 2645,29 2726,538 2833,685 2909,23 2907,105 2881,19 2882,63 2875,63 2865,57 2856,14 2846,835 2838,89 2830,27 2823,183 2822,317 2818,56 2812,743 2805,61 2803,12 2800,438 2795,262 2791,637 2826,635 2968,045 2990,488 2979,248 2995,147 3004,297 3017,573 3025,475 3051,538 3125,827 3174,27 3197,137 3245,555 3262,382 3232,995 3188,15 3143,705 3105,817 3080,02 3058,422 3041,585 3025,685 3012,65 3004,51 2994,958 2978,757 2960,66 2921,92 2888,438 2869,13 2855,145 2841,515 2817,143 2774,618 2745,76 2715,53 2708,8 2734,812 2799,32 2838,835 2869,59 2901,438 2890,868 2883,97 2905,32 2957,458 2968,095 3011,302 3054,58 3127,552 3205,022 3266,828 3237,175 3167,337 3116,298 3065,923 3033,475 3023,11 3016,867 3001,965 2984,29 2972,345 2956,59 2968,762 2974,397 2939,905 2894,442 2851,458 2813,185 2766,615 2719,14 2671,19 2625,13 2580,792 2539,522 2519,867 2530,413 2524,578 2494,405 2462,808 2448,455 2441,5 2426,835 2410,095 2377,198 2369,748 2386,805 2398,922 2394,79 2387,853 2380,9 2375,7 2370,903 2343,775 2303,673 2290,123 2269,92 2237,647 2196,14 2140,258 2090,565 2047,825 2000,895 1944,208 1899,525 1887,35 1890,11 1919,417 1976,925 2046,765 2110,755 2181,478 2255,2 
2699,26 2693,82 2686,183 2696,89 2729,565 2804,74 2814,268 2766,3 2737,295 2719,52 2712,125 2695,8 2679,01 2670,92 2665,25 2652,46 2631,657 2622,67 2609,555 2596,775 2576,995 2558,627 2541,03 2583,288 2640,73 2664,873 2723,78 2796,405 2867,742 2872,577 2882,758 2887,397 2883,317 2876,41 2868,145 2856,95 2842,785 2829,107 2823,17 2821,768 2818,133 2813,83 2812,29 2815,478 2814,887 2807,873 2806,245 2847,728 2905,732 2937,945 2972,093 2986,375 2992,605 3004,615 3017,12 3066 3154,265 3202,52 3222,623 3262,607 3314,417 3263,68 3220,702 3189,895 3153,442 3113,413 3084,478 3059,478 3041,468 3024,46 3024,992 3024,298 3035,01 3049,647 2996,78 2932,07 2874,222 2848,542 2825,212 2802,567 2771,962 2739,607 2708,153 2699,165 2726,377 2772,75 2797,165 2823,327 2848,618 2877,12 2883,63 2901,175 2951,705 2959,788 3002,905 3052,562 3116,095 3191,47 3241,975 3211,083 3142,282 3081,81 3034,75 2999,288 2991,575 2973,623 2951,805 2929,89 2924,838 2908,45 2902,96 2916,248 2902,865 2856,343 2811,413 2766,55 2731,262 2682,078 2631,012 2582,422 2536,82 2495,137 2457,24 2469,075 2461,627 2436,857 2408,943 2392,61 2382,945 2372,48 2355,292 2331,255 2321,312 2325,578 2332,492 2326,008 2319,41 2313,847 2307,92 2305,423 2282,165 2257,548 2248,195 2228,92 2194,343 2148,417 2094,833 2054,353 2009,19 1960,91 1916,157 1887,93 1884,89 1906,887 1938,122 2004,892 2079,42 2133,938 2203,452 2269,792 
2721,075 2718,48 2719,82 2724,032 2753,653 2848,425 2842,147 2792,205 2756,488 2732,595 2728,228 2711,893 2699,137 2693,69 2683,31 2680,703 2671,998 2663,652 2654,415 2655,942 2659,11 2616,688 2586,15 2613,902 2660,6 2696,4 2725,163 2788,705 2848,468 2876,46 2887,81 2893,32 2892,222 2887,683 2881,39 2872,1 2856,847 2841,045 2828,927 2822 2818,165 2816,5 2821,165 2825,575 2824,923 2816,815 2819,73 2864,002 2908,24 2940,57 2966,755 2980,232 2990,705 3003,53 3023,735 3075,502 3164,718 3222,915 3248,857 3305,032 3376,962 3326,425 3275,65 3258,815 3239,968 3177,528 3154,34 3143,51 3122,08 3092,75 3074,383 3087,735 3121,645 3115,05 3078,18 3000,385 2913,748 2865,92 2829,905 2802,65 2765,857 2736,75 2706,43 2689,815 2712,027 2738,76 2755,748 2795,107 2807,315 2851,695 2879,042 2907,387 2935,208 2957,61 2991,92 3051,212 3124,137 3200,625 3223,555 3174,14 3125,485 3058,562 3012,205 2979,835 2970,667 2941,818 2908,485 2877,907 2858,752 2853,133 2843,312 2847,663 2854,085 2815,238 2762,188 2724,13 2675,4 2617,49 2566,495 2524,718 2487,135 2450,708 2409,89 2393,387 2390,36 2375,368 2355,887 2340,185 2326,105 2317,89 2302,328 2287,44 2267,107 2263,438 2253,532 2242,945 2236,257 2229,008 2221,985 2226,873 2222,38 2211,583 2194,75 2170,353 2140,062 2104,518 2060,84 2020,642 1972,98 1931,565 1897,838 1884,81 1898,068 1920,627 1961,133 2027,305 2104,055 2169,867 2221,325 2278,823 
2741,157 2744,685 2747,655 2747,8 2785,843 2880,075 2855,292 2802,363 2760,06 2755,192 2748,805 2737,308 2720,055 2710,203 2709,35 2723,452 2722,775 2716,933 2713,565 2729,355 2715,107 2651,55 2640,645 2671,617 2728,882 2777,29 2803,988 2845,508 2881,962 2891,66 2896,093 2902,345 2903,805 2900,877 2896,938 2892,775 2884,455 2868,837 2849,81 2836,208 2830,377 2829,157 2833,853 2834,433 2831,817 2823,005 2843,613 2887,948 2914,512 2936,988 2962,502 2978,13 2989,745 3005,285 3033,705 3113,933 3209,788 3267,46 3310,55 3375,68 3377,817 3303,96 3253,397 3223,573 3222,785 3236,208 3257,435 3250,208 3235,515 3182,1 3145,465 3160,74 3183,81 3171,03 3102,915 3022,657 2940,103 2878,465 2846,53 2809,9 2764,663 2737,265 2709,63 2685,618 2697,54 2728,917 2732,22 2766,96 2783,255 2810,792 2852,07 2893,083 2924,755 2959,46 2988,123 3051,883 3125,015 3191,663 3198,212 3143,09 3099,845 3042,65 2989,643 2968,353 2949,135 2922,08 2886,022 2841,265 2824,235 2805,62 2787,45 2773,018 2787,36 2759,583 2717,762 2666,67 2607,56 2556,873 2511,8 2470,162 2433,652 2399,877 2372,397 2335,732 2325,66 2309,97 2290,91 2273,583 2264,442 2253,798 2244,953 2237,472 2211,99 2203,808 2190,413 2177,383 2162,657 2158,438 2154,76 2153,038 2166,04 2160,925 2134,16 2113,655 2098,203 2072,448 2030,113 1986,53 1939,093 1901,965 1895,522 1903,253 1923,22 1938,55 1990,055 2069,363 2137,337 2209,752 2261,945 2303,058 
2769,385 2775,005 2772,643 2770,97 2812,863 2901,752 2880,823 2822,897 2781,432 2784,02 2771,345 2759,52 2750,235 2746,637 2767,6 2778,317 2779,135 2781,315 2787,728 2790,53 2733,23 2689,992 2698,703 2731,542 2803,262 2860,427 2888,36 2893,323 2903,985 2907,403 2909,425 2913,863 2915,532 2913,327 2910,635 2908,41 2905,558 2895,973 2881,087 2867,067 2857,06 2851,173 2847,988 2843,53 2839,145 2834,68 2864,795 2892,777 2913,968 2942,007 2967,775 2983,777 2998,348 3022,96 3076,298 3179,145 3272,955 3342,7 3387,9 3404,853 3357,31 3283,66 3215,97 3176,038 3157,37 3162,633 3196,078 3241,71 3253,323 3213,067 3201,42 3221,952 3263,828 3215,663 3126,117 3038,64 2957,145 2893,383 2860,79 2831,175 2781,255 2739,558 2715,5 2687,33 2679,792 2713,052 2721,2 2734,615 2766,092 2776,23 2822,715 2866,375 2907,297 2946,42 2989,478 3050,712 3092,415 3146,58 3173,73 3133,5 3084,268 3020,468 2976,78 2953,925 2937,635 2919,573 2865,683 2824,157 2795,1 2752,762 2717,567 2699,64 2714,005 2712,39 2657,633 2597,55 2549,732 2505,953 2462,478 2420,573 2384,292 2352,907 2328,242 2296,425 2271,26 2253,08 2232,268 2210,95 2199,64 2190,203 2192,212 2187,542 2167,16 2138,927 2125,198 2111,16 2100,047 2098,255 2094,11 2096,295 2102,085 2094,91 2077,692 2054,578 2042,85 2018,67 1981,96 1950,693 1910,7 1897,787 1904,887 1931,97 1967,732 1967,782 2019,015 2093,435 2167,725 2237,445 2287,028 2316,95 
2794,97 2797,01 2792,093 2787,64 2843,242 2942,645 2939,075 2870,323 2825,335 2816,823 2797,018 2786,205 2802,03 2825,66 2837,073 2831,54 2837,153 2858,05 2865,095 2839,952 2773,337 2746,587 2761,985 2799,627 2851,825 2899,847 2915,13 2917,808 2922,6 2925,647 2924,595 2925,015 2924,85 2922,163 2919,163 2915,42 2910,74 2903,607 2894,875 2885,153 2875,985 2867,695 2859,792 2853,917 2847,637 2849,257 2882,052 2907,41 2933,468 2960,695 2981,575 3000,015 3018,84 3051,812 3118,328 3213,353 3300,71 3395,593 3436,703 3387,79 3356,868 3315,325 3226,242 3157,76 3133,948 3115,762 3106,982 3128,63 3175,65 3214,85 3249,998 3256,69 3273,29 3192,917 3109,417 3035,163 2971,508 2922,84 2870,062 2831,927 2785,643 2742,238 2717,752 2694,558 2670,482 2675,66 2698,552 2714,988 2742,607 2752,92 2788,198 2831,555 2872,545 2922,542 2974,065 3020,465 3052,61 3095,073 3141,958 3121,235 3071,407 3021,545 2966,105 2940,37 2927,382 2907,262 2874,705 2837,788 2784,672 2723,48 2671,125 2627,675 2623,113 2637,77 2590,24 2542,442 2502,833 2459,55 2413,823 2371,165 2339,522 2315,025 2287,643 2263,312 2232,573 2210,623 2187,002 2163,663 2150,86 2145,665 2147,498 2135,6 2119,347 2092,555 2070,555 2050,9 2042,035 2037,065 2038,28 2038,913 2042,83 2039,885 2023,147 2002,875 1985,27 1965,677 1942,885 1927,267 1904,795 1900,708 1925,008 1968,61 1994,307 1993,938 2054,683 2113,605 2182,577 2265,692 2300,843 2324,512 
2810,76 2815,297 2806,915 2811,718 2915,34 2991,495 2956,738 2877,39 2859,215 2843,61 2838,85 2853,982 2875,995 2901,265 2908,427 2891,785 2902,6 2933,525 2939,067 2891,712 2826,735 2820,397 2835,745 2868,728 2902,758 2923,938 2933,32 2935,212 2937,685 2940,04 2937,718 2934,145 2930,308 2926,305 2921,817 2916,282 2910,275 2903,805 2896,375 2888,637 2880,873 2873,743 2868,337 2865,542 2861,22 2885,905 2937,455 2956,27 2976,198 3003,47 3022,927 3040,36 3062,833 3103,195 3167,328 3266,195 3347,853 3441,843 3456,265 3366,667 3339,345 3315,44 3249 3157,3 3120,038 3098,083 3081,462 3072,05 3088,222 3139,562 3168,897 3173,472 3197,982 3204,172 3140,32 3074,39 3012,402 2955,422 2892,107 2835,752 2792,75 2743,807 2713,528 2696,135 2670,765 2652,028 2662,728 2683,353 2711,935 2734,69 2742,917 2779,745 2836,155 2894,655 2933,317 2973,615 3012,735 3055,775 3110,5 3120,992 3060,075 3025,347 2981,143 2935,585 2915,12 2900,028 2873,617 2825,79 2781,562 2740,415 2692,76 2627,458 2555,185 2565,735 2532,002 2495,323 2457,282 2416,17 2367,775 2336,965 2308,782 2279,39 2249,157 2222,978 2194,295 2163,545 2150,295 2127,1 2106,002 2104,155 2093,605 2074,882 2063,89 2045,015 2028,488 2014,79 1995,185 1987,165 1975,073 1964,615 1968,328 1980,885 1969,198 1963,623 1952,997 1941,115 1925,01 1915,512 1912,438 1917,787 1937,55 1992,955 2006,133 2029,18 2097,745 2140,36 2198,252 2264,24 2303,345 2331,427 
2823,708 2835,65 2830,623 2859,282 2951,113 3025,823 2966,848 2910,482 2898,127 2888,615 2896,328 2920,31 2938,288 2966,317 2981,958 2967,407 2966,772 2989,123 2977,478 2935,19 2897,895 2889,33 2897,377 2916,153 2934,863 2946,353 2950,06 2949,155 2947,288 2947,545 2944,817 2939,335 2933,165 2927,627 2921,792 2916,315 2910,965 2904,877 2898,475 2891,18 2883,052 2876,85 2874,385 2876,083 2884,625 2938,532 3013,047 3035,52 3055,59 3072,765 3081,915 3093,877 3120,453 3171,002 3237,715 3320,86 3400,718 3452,865 3446,107 3355,578 3316 3291,748 3249,54 3178,328 3116,925 3090,02 3068,728 3049,98 3042,087 3060,643 3078,48 3082,735 3101,962 3187,7 3185,095 3138,157 3082,078 2998,705 2917,015 2856,355 2810,215 2765,975 2721,38 2684,58 2656,492 2638,895 2637,188 2652,653 2681,972 2709,302 2713,765 2735,18 2782,377 2845,518 2881,53 2919,07 2965,817 3010,725 3054,433 3090,528 3059,218 3012,48 2981,448 2930,182 2900,618 2870,462 2844,402 2798,827 2753,593 2698,31 2643,192 2591,927 2529,57 2496,655 2489,975 2456,48 2417,88 2370,87 2330,768 2308,175 2290,8 2258,113 2221,008 2176,228 2142 2107,527 2097,423 2081,698 2065,535 2059,788 2045,268 2032,725 2020,605 2013,302 1999,3 1986,975 1984,585 1993,312 1989,385 1988,637 1976,093 1962,162 1952,28 1946,358 1933,397 1925,43 1925,593 1928,855 1943,55 1956,125 1933,518 1974,162 2024,588 2055,51 2111,295 2152,147 2199,74 2252,265 2295,96 2333,302 
2842,377 2861,635 2864,565 2893,683 2945,345 2987,385 3002,565 2962,105 2946,488 2943,742 2961,028 2999,28 3016,58 3041 3050,958 3044,36 3032,718 3015,015 2998,282 2966,208 2946,395 2940,732 2942,478 2949,502 2957,847 2962,25 2961,448 2956,607 2950,562 2948,718 2946,57 2941,635 2935,615 2929,215 2923,635 2918,222 2912,548 2907,702 2902,91 2896,7 2888,83 2882,538 2879,025 2884,495 2908,4 2999,167 3071,125 3089,198 3124,367 3150,817 3161,285 3169,945 3186,46 3239,37 3309,683 3368,417 3409,12 3432,073 3441,577 3357,55 3291,078 3268,992 3242,415 3199,073 3134,942 3094,745 3064,27 3042,675 3029,935 3020,718 3023,825 3034,853 3039,298 3088,103 3128,73 3157,315 3118,262 3029,127 2949,9 2895,907 2844,005 2800,69 2753,337 2698,943 2647,715 2621,578 2619,165 2628,205 2653,4 2681,065 2693,675 2702,762 2736,223 2791,985 2835,1 2860,21 2907,54 2951,39 2986,093 3014,79 3006,792 2967,69 2927,988 2902,547 2877,877 2837,22 2806,448 2772,788 2723,377 2652,782 2590,25 2537,825 2496,77 2443,565 2428,69 2419,478 2378,87 2341,905 2312 2278,823 2252,2 2218,21 2185,9 2144,897 2106,01 2074,743 2052,522 2040,093 2035,412 2027,15 2018,002 2010,12 1999,307 1997,318 2000,36 1998,005 2004,412 2000,228 2000,465 1996,35 1987,983 1979,07 1976,532 1973,703 1967,39 1959,853 1954,155 1963,375 1980,417 1983,24 1967,367 1937,55 2014,13 2058,877 2113,232 2158,26 2201,893 2251,635 2302,107 2337,475 
2863,335 2886,788 2888,825 2905,09 2937,153 2967,587 3004,905 3029,093 3009 3011,403 3038,29 3075,758 3079,663 3070,932 3061,855 3056,605 3040,83 3023,86 3007,44 2991,268 2978,805 2974,218 2974,118 2974,305 2975,127 2973,81 2969,235 2961,653 2954,28 2951,095 2948,035 2942,965 2937,005 2931,103 2925,4 2920,087 2915,675 2910,92 2907,712 2903,84 2900,973 2898,362 2893,755 2905,28 2953,665 3015,137 3043,218 3061,875 3104,853 3187,357 3244,863 3273,287 3277,045 3292,343 3307,897 3330,845 3361,387 3388,06 3399,998 3346,34 3274,508 3245,745 3223,982 3193,2 3152,353 3103,67 3062,917 3038,573 3027,343 3014,825 3000,37 2998,12 3008,83 3017,405 3060,955 3080,742 3086,55 3036,268 2973,915 2913,525 2853,417 2802,835 2767,135 2716,97 2656,972 2614,425 2602,545 2607,99 2625,3 2652,667 2670,688 2678,575 2698,8 2745,837 2780,515 2801,045 2843,175 2889,03 2916,487 2942,4 2938,177 2915,062 2884,027 2867,632 2837,823 2797,64 2769,657 2731,573 2664,827 2598,715 2539,402 2492,215 2451,637 2413,935 2368,975 2355,353 2337,77 2308,395 2280,393 2245,31 2201,545 2170,462 2133,67 2096,518 2069,665 2049,363 2031,505 2018,425 2009,12 2007,573 2009,927 2010,208 2018,208 2028,03 2026,275 2020,762 2027,367 2027,127 2031,422 2027,105 2016,873 2006,665 2003,713 2009,358 2009,377 2001,363 2005,228 2018,603 2018,498 2010,012 2003,613 1946,225 1964,492 2050,208 2106,425 2158,14 2197,393 2248,312 2301,052 2343,708 
2885,502 2892,14 2898,933 2906,212 2943,907 2993,71 3020,505 3090,245 3084,817 3084,575 3107,108 3111,68 3095,618 3078,998 3066,117 3055,275 3045,222 3034,005 3018,897 3007,05 2998,682 2993,03 2990,765 2987,008 2983,39 2981,643 2975,562 2966,743 2960,09 2955,958 2950,542 2944,137 2938,12 2932,17 2926,74 2923,357 2919,093 2915,797 2912,242 2911,505 2914,817 2916,683 2923,587 2953,55 2982,79 3006,935 3026,413 3050,61 3094,683 3181,015 3262,127 3312,527 3302,093 3288,545 3293,448 3306,093 3326,613 3351,982 3334,867 3293,817 3264,587 3231,02 3198,703 3173,63 3148,427 3114,547 3074,578 3042,8 3025,605 3011,172 2994,413 2976,35 2977,74 2987,147 2997,7 3012,978 3017,815 2992,39 2948,073 2899,298 2844,315 2794,468 2759,448 2726,415 2664,78 2615,61 2591,113 2589,308 2601,522 2621,775 2641,625 2654,123 2667,045 2701,535 2739,218 2749,365 2776,903 2820,99 2855,982 2882,518 2887,702 2868,645 2841,047 2819,765 2795,407 2764,22 2731,657 2676,61 2609,925 2553,275 2508,672 2464,032 2423,39 2381,688 2337,89 2298,188 2301,448 2276,962 2247,82 2203,35 2154,938 2121,777 2091,015 2056,39 2032,47 2024,518 2023,357 2027,22 2051,67 2076,552 2073,593 2058,718 2055,562 2057,86 2055,703 2063,012 2072,093 2079,873 2083,685 2079,177 2072,897 2075,318 2058,4 2055,748 2058,985 2062,653 2076,167 2081,507 2060,095 2054,8 2029,652 1982,9 1946,725 2037,73 2103,027 2162,812 2207,445 2259,532 2306,015 2349,692 
2917,578 2916,068 2915,715 2922,772 2989,163 3042,857 3055,985 3126,692 3167,027 3159,417 3149,373 3130,248 3105,745 3087,27 3072,295 3058,438 3049,29 3039,677 3026,56 3016,757 3009,388 3003,547 2998,137 2991,295 2986,795 2984,26 2977,935 2969,665 2964,8 2960,127 2953,402 2946,562 2939,56 2933,103 2929,893 2926,877 2923,405 2922,045 2918,917 2920,305 2924,04 2924,795 2937,817 2968,597 2987,25 3002,627 3027,175 3066,272 3149,335 3251,922 3310,348 3307,047 3302,232 3298,025 3300,015 3307,255 3318,188 3343,855 3322,468 3271,288 3245,01 3213,515 3182,192 3159,345 3146,5 3128,115 3099,705 3058,45 3025,738 3003,14 2984,542 2965,328 2956,845 2965,875 2971,88 2966,09 2957,688 2951,26 2934,623 2897,468 2847,482 2785,285 2743,962 2726,065 2681,238 2625,75 2589,482 2574,027 2578,145 2591,905 2607,698 2624,22 2644,038 2665,295 2694,507 2708,087 2725,035 2752,79 2796,837 2827,518 2839,64 2826,968 2803,065 2776,535 2759,675 2731,578 2685,407 2620,155 2563,505 2516,805 2473,045 2423,345 2395,04 2374,118 2333,325 2281,045 2250,945 2239,56 2194,74 2148,188 2112,47 2091,115 2066,91 2037,22 2047,235 2062,077 2075,312 2096,82 2136,077 2141,19 2127,37 2122,18 2111,485 2111,298 2126,837 2138,792 2139,857 2157,06 2173,482 2162,488 2152,843 2148,942 2130,652 2117,252 2120,13 2135,363 2148,893 2136,33 2120,062 2096,93 2043,61 2002,575 1958,387 2036,052 2096,333 2151,93 2211,75 2261,357 2315,917 2357,135 
2965,173 2961,72 2951,815 2970,788 3039,765 3079,71 3097,445 3168,353 3220,05 3195,752 3176,133 3144,448 3115,442 3096,715 3079,873 3062,94 3051,475 3041,153 3030,748 3023,567 3017,637 3011,183 3004,085 2996,25 2990,555 2985,26 2978,505 2972,265 2968,623 2963,757 2957,445 2950,643 2942,32 2936,532 2934,413 2930,363 2928,848 2929,84 2932,427 2934,65 2933,022 2932,655 2947,22 2984,478 3003,33 3017,115 3064,923 3129,667 3218,775 3305,062 3306,312 3296,627 3294,275 3294,748 3298,518 3305,655 3314,07 3321,79 3306,815 3261,547 3228,655 3209,948 3191,093 3169,927 3150,74 3132,185 3108,478 3065,458 3024,188 2981,938 2963,045 2951,94 2937,385 2947,067 2957,508 2958,382 2924,417 2923,277 2907,73 2874,518 2827 2773,895 2745,857 2712,078 2682,15 2636,615 2592,355 2567,022 2557,723 2564,485 2573,062 2586,458 2608,752 2634,988 2655,643 2668,417 2680,36 2698,69 2730,772 2772,8 2801,427 2808,382 2779,8 2746,542 2719,927 2686,325 2635,975 2584,272 2543,667 2494,465 2450,95 2407,265 2372,913 2338,725 2294,185 2251,975 2204,097 2195,125 2160,062 2114,527 2093,135 2063,502 2049,728 2066,938 2096,46 2124,562 2143,67 2169,973 2203,708 2211,087 2194,065 2200,748 2195,075 2197,91 2210,238 2219,78 2222,885 2239,885 2253,695 2239,863 2225,87 2223,982 2199,825 2184,995 2188,677 2217,728 2232,633 2197,067 2162,808 2111,738 2057,362 2012,973 1962,195 2022,275 2081,058 2138,137 2201,448 2244,885 2299,067 2351,788 
3024,742 3020,955 3015,01 3026,468 3080,195 3121,647 3144,165 3197,9 3263,067 3226,482 3204,683 3161,105 3127,05 3106,16 3089,143 3071,927 3054,932 3041,627 3033,903 3028,528 3023,98 3017,505 3009,508 3001,49 2994,64 2987,292 2980,377 2975,462 2972,583 2968,518 2963,795 2957,98 2950,302 2944,797 2942,812 2941,03 2939,965 2941,61 2947,115 2950,103 2945,508 2946,347 2982,623 3027,135 3043,26 3084,865 3154,5 3218,812 3294,22 3305,46 3291,407 3286,532 3285,115 3286,958 3290,985 3295,915 3301,96 3305,093 3330,012 3266,51 3236,835 3220,435 3204,058 3183,27 3159,88 3145,867 3123,98 3065,065 3005,885 2946,35 2932,907 2927,53 2912,683 2913,953 2932,812 2928,39 2900,04 2894,552 2876,933 2851,558 2807,13 2765,188 2729,038 2693,238 2663,468 2637,917 2609,738 2576,538 2551,567 2543,387 2547,51 2551,065 2568,35 2594,188 2613,51 2634,643 2651,627 2655,762 2673,005 2715,735 2755,325 2774,482 2743,617 2715,302 2684,212 2651,698 2610,502 2563,782 2519,978 2475,357 2440,667 2405,485 2363,843 2317,397 2263,752 2215,123 2167,643 2141,995 2118,637 2093,163 2078,895 2052,343 2088,117 2125,978 2177,478 2209,958 2225,27 2253,363 2291,265 2292,323 2266,45 2263,712 2267,867 2273,35 2290,948 2300,113 2310,925 2319,868 2322,15 2322,647 2307,903 2294,21 2281,84 2268,975 2274,853 2303,453 2300,708 2245,048 2182,44 2123,232 2072,505 2026,732 1970,115 2026,438 2078,535 2142,545 2211,877 2256,613 2281,995 2311,565 
3093,615 3081,188 3078,308 3095,19 3134,932 3170,455 3188,605 3249,22 3299,72 3268,425 3238,988 3178,403 3139,03 3111,98 3098,71 3084,427 3063,67 3047,528 3038,228 3032,802 3028,46 3021,38 3012,738 3004,587 2996,435 2989,078 2983,2 2978,948 2976,92 2974,825 2972,765 2970,08 2964,82 2960,28 2959,258 2960,647 2960,357 2953,502 2955,583 2959,605 2957,188 2968,527 3042,66 3109,893 3130,397 3186,462 3260,72 3325,48 3321,297 3288,252 3281,545 3279,123 3277,573 3276,837 3277,045 3276,877 3278,115 3279,718 3312,555 3288,653 3262,295 3248,37 3234,025 3209,843 3171,82 3132,395 3086,465 3035,885 2992,722 2936,357 2912,047 2901,073 2884,415 2879,605 2886,093 2881,555 2864,815 2862,712 2842,493 2811,64 2774,593 2744,927 2712,292 2687,36 2661,615 2642,395 2629,855 2608,502 2574,757 2543,143 2529,598 2525,475 2533,195 2550,095 2571,015 2594,17 2619,373 2630,175 2639,292 2670,28 2713,288 2734,82 2723,333 2704,458 2668,865 2632,953 2587,485 2543,56 2503,188 2465,377 2428,845 2383,135 2337,425 2291,652 2244,762 2194,417 2145,055 2109,8 2093,305 2063,192 2064,21 2086,74 2136,988 2184,685 2255,598 2310,095 2325,725 2350,363 2371,502 2366,52 2348,812 2331,032 2328,99 2339,35 2355,385 2368,79 2380,6 2381,42 2397,268 2399,652 2388,15 2376,433 2361,945 2360,595 2366,335 2379,175 2336,718 2274,522 2202,272 2136,62 2077,492 2035,55 1975,045 2006,508 2060,897 2124,933 2207,548 2272,05 2325,66 2352,55 
3143,475 3137,71 3141,008 3175,365 3209,145 3230,5 3244,9 3322,728 3294,99 3262,777 3230,857 3185,958 3145,333 3118,208 3109,615 3096,522 3077,62 3062,228 3048,488 3039,132 3032,667 3023,728 3015,03 3006,542 2996,962 2990,993 2985,853 2982,465 2981,198 2981,528 2982,558 2982,355 2979,757 2977,94 2979,453 2978,763 2977,643 2965,837 2964,53 2967,867 2966,965 2996,66 3082,985 3159,797 3219,17 3275,2 3343,623 3331,618 3293,357 3277,262 3271,748 3269,427 3266,2 3262,742 3258,34 3255,248 3254,48 3256,032 3264,387 3287,738 3305,185 3301,948 3297,2 3279,532 3209,073 3136,093 3084,242 3043,08 3002,45 2957,797 2909,62 2882,083 2861,008 2846,277 2844,323 2847,982 2841,208 2833,127 2814,39 2772,833 2740,285 2724,847 2715,83 2706,8 2675,98 2664,05 2661,795 2654,492 2620,413 2578,95 2546,397 2519,38 2505,285 2514,855 2535,357 2552,902 2571,153 2587,688 2600,103 2629,873 2668,545 2704,798 2711,117 2687,35 2645,88 2607,202 2571,433 2530,958 2493,44 2459,86 2412,427 2365,42 2319,042 2277,89 2244,84 2203,597 2129,758 2085,018 2058,39 2085,85 2133,002 2177,518 2213,88 2237,218 2327,055 2380,025 2404,145 2426,958 2437,595 2430,865 2420,018 2407,458 2391,927 2402,465 2416,795 2441,545 2454,715 2450,375 2462,31 2468,067 2459,995 2447,87 2438,292 2445,493 2441,568 2416,73 2366,087 2297,895 2220,18 2143,732 2083,008 2037,005 1988,823 2025,67 2057,113 2108,29 2186,958 2269,328 2350,808 2395,913 
3191,71 3198,137 3218,518 3248,992 3278,295 3296,55 3315,335 3333,095 3292,01 3263,77 3227,2 3184,985 3146,955 3129,018 3121,782 3108,123 3091,285 3076,02 3062,302 3048,94 3037,472 3025,208 3017,865 3009,172 2999,585 2994,837 2990,39 2988,23 2986,673 2987,942 2991,75 2993,17 2991,458 2991,305 2994,19 2998,647 2999,472 2989,465 2982,953 2984,367 2980,81 3019,3 3109,465 3194,585 3263,962 3332,475 3374,397 3305,635 3283,885 3268,938 3263,12 3259,073 3253,817 3249,407 3243,82 3239,328 3238,917 3237,685 3240,67 3254,26 3282,677 3325,5 3362,65 3336,92 3262,152 3202,68 3151,73 3103,933 3041,488 2974,225 2919,075 2893,93 2861,802 2832,755 2817,333 2813,988 2817,045 2819,672 2805,795 2764,702 2735,935 2732,005 2728,02 2716,973 2698,925 2696,825 2713,055 2705,963 2666,325 2623,885 2589,61 2554,07 2516,26 2486,117 2490,468 2513,788 2526,18 2532,907 2555,942 2586,16 2624,052 2669,65 2692,975 2669,868 2623,223 2585,07 2559,593 2524,505 2489,18 2453,52 2409,348 2366,558 2308,88 2260,865 2214,48 2157,292 2107,667 2068,292 2096,205 2166,177 2228,877 2269,88 2289,508 2287,653 2362,21 2438,695 2465,53 2477,365 2477,725 2479,667 2472,94 2464,877 2457,317 2468,69 2482,837 2501,988 2512,19 2515,915 2522,502 2528,58 2525,545 2519,76 2512,9 2512,472 2482,115 2440,308 2393,785 2326,073 2231,893 2151,875 2094,16 2039,89 2001,507 2044,417 2067,41 2118,133 2201,765 2284,777 2358,7 2413,758 
3276,71 3276,07 3301,655 3322,235 3353,472 3375,708 3372,923 3334,623 3290,615 3260,712 3223,558 3179,59 3148,107 3139,677 3134,67 3120,823 3100,465 3082,948 3072,507 3059,085 3041,36 3026,672 3019,815 3010,945 3004,01 3000,833 2999,06 2997,922 2995,268 2996,058 3002,005 3005,245 3003,425 3001,728 3000,548 3007,9 3015,985 3016,492 3009,18 3003,05 3000,305 3056,268 3143,345 3215,24 3244,395 3305,9 3363,535 3297,295 3273,262 3261,795 3254,837 3250,12 3244,873 3240,812 3234,38 3227,605 3223,062 3220,752 3222,18 3232,272 3247,508 3279,938 3349,615 3327,61 3278,375 3243,165 3202,695 3135,887 3073,663 3007,277 2934,188 2898,875 2872,573 2842,13 2813,145 2800,712 2795,605 2788,337 2777,84 2760,41 2746,475 2742,558 2737,345 2734,48 2735,35 2745,615 2740,34 2721,403 2688,585 2651,647 2617,703 2587,647 2548,365 2500,795 2467,448 2474,68 2493,265 2488,775 2515,047 2542,43 2575,518 2623,942 2664,152 2641,047 2598,193 2568,993 2546,665 2517,502 2483,095 2445,167 2411,765 2363,815 2314,175 2260,748 2201,985 2142,573 2089,075 2091,91 2149,12 2238,16 2312,468 2349,945 2368,705 2355,575 2374,502 2486,05 2520,495 2528,565 2528,335 2526,48 2523,417 2518,98 2519,255 2531,423 2551,07 2564,583 2580,337 2586,895 2585,21 2588,103 2589,978 2588,125 2584,348 2563,865 2507,34 2452,615 2406,765 2331,925 2235,195 2163,442 2105,712 2052,065 2007,203 2052,73 2087,17 2127,373 2208,877 2295,667 2379,232 2435,435 
3391,513 3375,025 3387,938 3392,83 3390,335 3382,812 3359,745 3321,522 3284,765 3249,38 3218,942 3184,8 3159,365 3151,62 3149,08 3136,712 3114,877 3095,395 3082,825 3073,35 3049,738 3031,998 3022,748 3013,885 3008,618 3007,218 3007,847 3007,248 3004,995 3007,607 3014,288 3017,692 3015,425 3013,8 3012,242 3022,165 3030,945 3034,01 3028,202 3017,75 3035,295 3113,375 3169,165 3208,56 3244,258 3302,137 3345,518 3291,573 3264,68 3251,252 3247,22 3244,897 3241,18 3236,422 3227,895 3216,33 3206,39 3200,745 3197,94 3203,188 3222,285 3241,993 3298,75 3265,58 3217,982 3180,505 3145,232 3125,518 3096,527 3030,085 2944,91 2900,208 2881,407 2862,837 2833,482 2807,988 2797,74 2787,335 2771,755 2759,512 2757,318 2761,74 2769,975 2776,833 2776,24 2761,972 2756,792 2757,245 2725,992 2681,095 2643,945 2611,367 2579,143 2538,357 2494,552 2455,9 2453,25 2453,865 2478,272 2502,31 2529,98 2580,683 2625,853 2616,47 2592,295 2570,96 2543,1 2509,083 2475,15 2441,422 2403,357 2361,31 2316,472 2252,83 2185,295 2115,045 2090,63 2136,698 2208,627 2298,22 2386,837 2416,17 2427,285 2412,625 2412,527 2521,258 2568,427 2577,95 2577,823 2572,52 2571,587 2574,522 2580,82 2595,067 2609,015 2628,312 2644,925 2656,28 2659,058 2658,525 2665,552 2666,183 2641,55 2585,653 2517,422 2451,48 2395,395 2324,292 2235,032 2169,583 2115,203 2066,22 2012,65 2059,32 2100,11 2151,13 2209,995 2294,655 2388,567 2461,835 
3471,4 3463,025 3434,248 3409,83 3385,938 3361,297 3332,212 3297,252 3267,41 3241,473 3218,515 3193,91 3173,337 3165,41 3161,277 3151,062 3134,405 3115,688 3096,01 3089,775 3071,728 3051,78 3038,982 3027,493 3016,887 3013,037 3013,163 3013,078 3014,47 3020,94 3027,198 3030,195 3028,422 3028,468 3036,32 3045,498 3047,492 3041,725 3033,808 3027,38 3066,067 3144,06 3198,87 3235,12 3279,63 3355,698 3365,815 3291,61 3250,88 3237,982 3238,435 3237,413 3232,54 3224,565 3215,157 3206,6 3199,402 3192,587 3186,12 3181,557 3186,498 3205,83 3272,24 3258,225 3199,39 3148,615 3116,302 3102,198 3084,618 3028,907 2958,365 2922,498 2896,19 2878,275 2856,627 2830,22 2815,257 2800,857 2785,198 2779,837 2787,407 2802,47 2813,825 2810,87 2793,475 2797,05 2796,032 2788,765 2760,49 2726,195 2681,468 2651,67 2616,752 2584,55 2543,672 2494,31 2444,98 2421,792 2443,295 2468,735 2486,665 2528,78 2575,76 2583,445 2577,93 2554,675 2529,8 2501,67 2476,505 2435,385 2378,367 2325,337 2266,105 2213,34 2157,968 2091,55 2121,725 2198,78 2299,02 2369,9 2450,93 2481,44 2489,715 2463,89 2456,98 2553,468 2607,56 2622,715 2629,18 2631,157 2628,147 2632,897 2644,817 2661,58 2674,445 2692,907 2713,252 2735,992 2743,81 2739,115 2738,243 2713,228 2660,59 2586,167 2511,925 2448,853 2393,103 2321,505 2237,79 2168,685 2117,16 2077,748 2018,88 2041,615 2109,772 2173,59 2226,4 2307,238 2397,13 2478,215 
3493,048 3494,288 3467,74 3429,958 3391,522 3361,192 3324,323 3287,343 3262,712 3239,36 3216,942 3196,345 3180,837 3175,12 3168,988 3158,255 3143,005 3125,37 3106,38 3096,143 3086,055 3074,01 3062,607 3049,262 3030,49 3019,757 3016,16 3017,333 3023,66 3032,757 3037,772 3039,975 3039,882 3040,583 3051,047 3060,547 3058,603 3048,772 3038,555 3035,853 3078,188 3166,01 3231,468 3272,34 3308,05 3327,532 3339,278 3304,802 3235,198 3225,84 3228,195 3226,52 3220,44 3212,535 3204,647 3195,795 3185,34 3177,087 3173,032 3171,61 3170,458 3178,435 3235,98 3273,525 3201,943 3144,57 3102,857 3086,988 3061,255 3015,12 2975,83 2949,578 2908,887 2883,542 2863,607 2850,538 2842,577 2839,248 2833,962 2829,055 2830,845 2834,85 2838,607 2836,552 2831,68 2829,683 2816,188 2798,625 2782,775 2753,11 2710,34 2684,69 2647,83 2610,755 2573,415 2534,032 2480,645 2415,218 2403,798 2430,35 2456,337 2483,055 2531,665 2550,19 2547,635 2536,913 2517,235 2492,828 2459,49 2410,2 2339,795 2279,802 2215,058 2144,03 2093,82 2111,69 2165,425 2268,005 2371,995 2443,695 2507,777 2540,198 2539,968 2507,32 2497,238 2586,798 2650,208 2676,265 2695,495 2704,198 2698,468 2706,547 2717,85 2731,165 2755,605 2773,555 2789,123 2798,72 2799,377 2785,917 2758,397 2719,312 2665,46 2594,635 2520,258 2452,167 2382,032 2314,683 2240,84 2170,972 2122,08 2083,995 2041,37 2032,41 2114,877 2170,295 2230,1 2314,575 2396,958 2474,485 
3489,81 3491,5 3469,19 3435,518 3405,01 3375,655 3340,465 3298,583 3263,502 3231,61 3209,845 3196,873 3186,357 3180,462 3173,938 3160,73 3140,74 3121,752 3106,528 3096,645 3089,357 3080,012 3071,772 3060,44 3041,958 3029,35 3024,022 3026,01 3036 3043,675 3045,442 3045,38 3045,377 3046,388 3058,893 3069,212 3068,512 3065,152 3064,323 3065,57 3117,04 3220,547 3258,08 3244,262 3253,065 3269,415 3291,285 3285,478 3228,675 3218,712 3219,443 3216,955 3212,435 3206,698 3199,75 3190,13 3178,222 3168,73 3164,407 3162,172 3159,905 3159,855 3184,71 3242,885 3192,78 3137,078 3090,992 3056,942 3029,2 2990,593 2967,042 2952,15 2929,495 2898,915 2880,49 2873,522 2871,75 2863,472 2858,218 2851,048 2848,917 2845,435 2855,88 2851,643 2854,605 2859,508 2854,828 2837,847 2802,607 2755,927 2729,512 2705,998 2671,742 2630,758 2589,49 2546,845 2503,613 2448,905 2387,008 2390,742 2421,298 2447,68 2489,448 2516,995 2525,805 2519,808 2499,255 2462,065 2415,552 2353,85 2289,703 2238,975 2171,252 2103,147 2114,58 2150,465 2223,547 2320,455 2416,475 2505,117 2570,24 2590,152 2573,325 2557,595 2540,065 2606,177 2701,01 2738,347 2762,065 2774,685 2779,195 2797,103 2783,417 2782,615 2830,09 2843,312 2837,792 2828,015 2808,692 2786,978 2747,29 2707,085 2661,493 2599,288 2528,752 2462,53 2388,12 2315,79 2244,268 2169,778 2119,51 2088,16 2048,353 2032,597 2117,85 2191,788 2246,195 2314,873 2397,63 2474,07 
3472,2 3470,83 3447,815 3429,58 3409,808 3383,677 3353,427 3318,913 3273,223 3233,002 3211,38 3199,6 3190,485 3184,722 3179,333 3162,855 3135,43 3116,817 3107,045 3099,802 3092,583 3082,685 3074,405 3065,165 3051,752 3044,837 3045,03 3045,405 3052,438 3053,778 3050,262 3047,117 3046,218 3051,96 3068,175 3079,055 3080,573 3084,39 3095,248 3106,438 3123,745 3167,232 3191,558 3193,225 3212,33 3217,502 3223,8 3234,23 3217,857 3213,613 3211,282 3207,853 3203,637 3198,375 3191,633 3183,29 3174,27 3166,938 3160,952 3155,005 3149,738 3146,323 3147,782 3199,867 3194,035 3133,917 3092,52 3058,808 3029,192 2999,975 2975,527 2963,723 2948,758 2919,585 2904,03 2898,853 2890,31 2882,425 2874,185 2861,992 2854,278 2861,782 2876,545 2867,672 2882,317 2914,958 2908,94 2880,58 2842,012 2779,04 2739,593 2722,435 2684,55 2641,098 2602,627 2570,978 2528,335 2477,637 2412,92 2361,21 2376,405 2395,407 2429,83 2473,948 2497,018 2489,665 2461,453 2411,86 2347,455 2285,06 2225,498 2171,778 2115,482 2110,55 2170,435 2209,357 2278,098 2366,29 2455,062 2546,788 2622,817 2635,468 2624,848 2611,922 2593,25 2621,732 2724,58 2784,675 2813,782 2841,655 2849,625 2826,177 2803,723 2837,615 2903,203 2893,32 2863,167 2834,222 2808,33 2773,147 2731,328 2696,843 2649,765 2595,823 2529,16 2462,688 2381,177 2313,18 2242,73 2169,743 2120,4 2087,993 2053,732 2031,32 2115,445 2203,455 2269,025 2329,953 2406,205 2483,938 
3464,42 3460,163 3444,333 3431,673 3413,377 3388,527 3361,153 3331,22 3295,277 3259,5 3225,105 3208,835 3200,135 3191,708 3188,942 3167,325 3136,595 3123,645 3112,677 3108,038 3101,328 3092,973 3086,04 3077,93 3066,475 3070,145 3075,925 3066,558 3065,242 3061,703 3054,262 3049,78 3053,44 3062,857 3077,893 3087,973 3091,613 3098,478 3107,82 3122,847 3135,64 3146,165 3160,27 3172,228 3182,343 3190,397 3198,575 3205,805 3209,23 3209,48 3205,83 3201,198 3195,827 3189,902 3182,982 3175,465 3168,785 3161,345 3153,005 3144,968 3138,022 3131,665 3126,948 3141,167 3196,965 3156,85 3110,853 3076,217 3046,883 3017,258 2994,377 2977,815 2961,853 2943,933 2929,715 2916,36 2907,177 2899,522 2890,11 2874,56 2870,527 2881,007 2887,488 2884,403 2918,38 2974,427 2956,805 2915,347 2873,317 2796,975 2759,54 2724,275 2690,235 2654,155 2622,07 2589,768 2539,653 2493,512 2441,843 2372,4 2331,972 2338,083 2358,172 2403,902 2438,71 2440,185 2397,627 2344,998 2286,82 2240,387 2181,58 2129,098 2123,995 2159,933 2219,415 2276,005 2331,615 2437,22 2529,97 2598,498 2665,692 2675,617 2674,468 2667,855 2646,41 2649,18 2721,127 2805,93 2869,468 2887,51 2868,492 2841,893 2849,353 2912,555 2956,827 2921,32 2879,23 2823,133 2799,83 2766,998 2731,312 2695,083 2649,995 2602,81 2527,492 2448,125 2371,363 2308,397 2239,633 2174,45 2120,365 2085,75 2051,59 2041,78 2126,183 2204,905 2280,625 2351,183 2416,02 2496,985 
3450,04 3448,04 3442,995 3435,032 3420,895 3401,593 3373,925 3346,317 3314,225 3283,195 3258,067 3242,31 3224,143 3216,005 3210,595 3184,348 3161,522 3149,195 3132,745 3127,24 3118,593 3110,3 3106,855 3107,39 3099,42 3098,087 3100,855 3090,173 3076,393 3071,637 3062,222 3059,183 3074,87 3086,87 3091,99 3100,42 3103,272 3110,703 3119,42 3130,08 3141,558 3154,205 3166,927 3176,77 3185,09 3193,32 3200,867 3208,077 3213,19 3212,393 3206,675 3199,505 3191,675 3183,375 3175,565 3168,502 3161,095 3150,968 3139,938 3130,395 3122,532 3115,88 3110,57 3106,748 3140,88 3182,225 3141,07 3105,883 3070,595 3038,42 3018,433 3005,085 2991,415 2973,765 2953,427 2940,988 2942,14 2938,365 2929,66 2907,427 2913,565 2920,323 2905,988 2910,383 2964,305 3026,37 2998,593 2926,275 2875,422 2826,64 2787,597 2744,805 2698,92 2668,345 2644,845 2603,593 2547,718 2502,653 2463,502 2403,708 2338,605 2298,448 2302,665 2323,333 2362,38 2365,895 2336,98 2281,89 2220,897 2174,672 2128,468 2130,61 2172,53 2208,433 2272,33 2343,113 2417,198 2506,71 2587,677 2661,762 2700,853 2704,262 2699,775 2699,627 2680,722 2681,025 2715,58 2809,132 2905,183 2898,117 2863,94 2868,2 2910,083 2985,502 2992,752 2949,212 2893,768 2845,157 2807,323 2769,86 2736,978 2694,535 2651,522 2609,238 2532,903 2445,325 2362,93 2298,397 2229,032 2170,42 2124,328 2086,558 2059,052 2041,843 2115,708 2213,492 2299,255 2372,135 2432,978 2508,448 
3400,595 3429,542 3434,675 3427,75 3420,718 3404,93 3384,782 3365,98 3340,305 3312,045 3292,915 3279,27 3262,155 3252,43 3237,11 3207,855 3187,585 3172,705 3155,887 3144,695 3135,83 3130,853 3130,515 3133,855 3125,407 3117,81 3116,903 3108,397 3094,56 3087,865 3077,508 3078,725 3104,317 3116,022 3115,323 3116,075 3115,198 3120,132 3129,583 3141,953 3149,812 3156,275 3171,295 3181,68 3189,052 3197,21 3207,28 3217,73 3223,75 3222,097 3214,413 3203,805 3191,91 3180,208 3170,115 3161,18 3150,492 3137,052 3124,125 3114,065 3106,718 3100,985 3096,47 3091,455 3085,423 3113,82 3156,373 3153,345 3115,58 3068,82 3047,965 3036,493 3024,055 3007,78 2988,245 2975,093 2977,59 2972,99 2970,285 2977,39 2959,862 2932,165 2931,19 2948,27 3018,502 3069,212 3015,975 2952,81 2903,528 2853,05 2807,165 2764,938 2728,93 2694,935 2648,453 2594,365 2544,09 2510,518 2475,23 2417,028 2353,77 2295,883 2259,373 2263,337 2277,188 2297,863 2283,525 2235,377 2172,097 2125,308 2125,785 2172,405 2218,583 2268,865 2333,01 2399,165 2468,755 2554,647 2633,585 2701,32 2735,845 2728,297 2730,595 2727,255 2712,558 2716,805 2720,593 2807,823 2916,9 2918,16 2886,215 2896,22 2950,89 3040,518 3014,472 2975,13 2927,935 2875,27 2836,462 2779,81 2741,527 2696,415 2654,788 2600,5 2528,655 2437,845 2353,487 2282,17 2217,98 2167,365 2125,917 2092,315 2056,985 2066,972 2134,495 2226,995 2320,57 2388,873 2453,323 2518,615 
3335,465 3396,455 3409,198 3412,9 3413,73 3400,54 3389,935 3377,045 3360,425 3339,655 3319,67 3304,473 3290,035 3274,792 3254,192 3226,278 3207,335 3190,647 3175,025 3159,348 3150,16 3149,895 3151,067 3149,915 3139,355 3127,198 3121,643 3115,645 3108,955 3102,078 3094,855 3109,317 3133,022 3135,577 3132,077 3130,042 3126,127 3127,097 3139 3149,78 3162,498 3166,583 3180,21 3187,042 3189,772 3200,938 3220,597 3233,667 3238,488 3236,415 3228,09 3214,64 3198,185 3181,18 3166,268 3153,105 3139,645 3125,647 3114,08 3105,278 3097,925 3090,645 3083,453 3077,12 3069,7 3058,867 3064,17 3081,605 3081,417 3092,203 3096,998 3086,387 3070,278 3049,585 3027,107 3014,455 3006,955 3012,365 3035,57 3024,407 2981,153 2963,218 2968,33 2993,39 3074,032 3079,107 3023,042 2971,933 2921,927 2872,375 2831,495 2803,812 2773,348 2721,923 2656,985 2602,593 2557,365 2521,772 2485,055 2428,387 2374,49 2326,375 2272,103 2218,702 2196,587 2219,31 2209,657 2158,473 2126,685 2141,14 2176,205 2213,615 2272,17 2335,518 2402,627 2462,355 2523,228 2569,495 2633,577 2709,605 2764,14 2770,84 2776,897 2755,745 2741,185 2745,205 2754,42 2818,265 2933,508 2971,1 2945,25 2954,5 3003,445 3057,555 3024,375 2984,58 2960,518 2913,105 2858,53 2782,377 2732,805 2691,14 2649,812 2589,143 2516,295 2426,795 2348,36 2269,575 2208,498 2165,695 2129,502 2093,765 2058,58 2100,705 2159,552 2243,88 2325,035 2401,922 2472,147 2528,738 
3262,143 3332,782 3364,655 3396,478 3404,535 3402,72 3396,698 3383,625 3370,688 3354,677 3335,58 3317,585 3300,857 3283,427 3264,802 3241,728 3221,16 3203,223 3190,208 3176,11 3165,825 3163,147 3162,583 3158,825 3148,238 3134,792 3126,885 3122,198 3118,47 3114,397 3114,62 3136,335 3151,085 3149,785 3144,9 3141,173 3135,43 3136,522 3152,547 3165,308 3169,12 3173,19 3189,12 3199,67 3208,015 3223,558 3239,277 3248,73 3251,425 3248,96 3242,355 3231,185 3214,035 3189,625 3165,897 3146,867 3131,965 3120,222 3110,512 3101,788 3093,525 3084,972 3075,895 3067,72 3060,725 3052,177 3037,183 3025,278 3012,135 3022,975 3054,762 3075,69 3104,76 3094,32 3071,58 3053,455 3032,952 3043,157 3089,462 3044,22 3014,97 3011,97 3014,488 3044,948 3049,95 3024,172 2996,555 2957,9 2913,95 2879,98 2853,292 2843,143 2803,363 2752,562 2685,363 2614,61 2550,795 2501,71 2459,843 2408,992 2367,78 2324,188 2274,288 2219,975 2174,44 2147,752 2145,69 2139,232 2163,55 2203,552 2233,808 2273,407 2354,988 2420,255 2477,802 2539,377 2595,35 2637,857 2683,373 2721,26 2780,593 2824,812 2814,778 2798,632 2783,538 2783,522 2796,607 2861,182 2968,173 3044,623 3040,21 3046,393 3088,875 3081,438 3047,113 3008,167 2985,192 2947,113 2876,163 2792,853 2720,558 2675,982 2644,755 2580,885 2500,238 2420,382 2346,365 2259,95 2204,685 2167,165 2130,395 2090,365 2070,805 2120,76 2182,343 2262,157 2342,123 2416,775 2487,285 2552,335 
3201,677 3254,772 3306,427 3381,705 3404,593 3408,152 3402,145 3388,137 3374,478 3357,66 3337,045 3319,225 3302,655 3286,022 3270,587 3251,195 3230,545 3212,288 3203,175 3193,005 3182,083 3173,575 3167,47 3162,438 3153,823 3142,853 3134,36 3129,94 3127,272 3126,785 3134,08 3152,522 3161,702 3158,5 3154,268 3152,245 3145,965 3151,027 3166,978 3174,77 3174,827 3180,453 3200,455 3215,742 3226,185 3236,97 3247,485 3254,567 3257,742 3258,252 3256,902 3254,353 3249 3206,36 3169,4 3143,723 3127,615 3117,567 3108,88 3099,62 3089,877 3080,395 3070,998 3062,075 3053,103 3041,252 3023,925 2998,89 2968,14 2951,113 2971,68 2978,482 3006,09 3055,95 3073,3 3068,797 3055,367 3080,042 3123,593 3074,76 3033,615 3035,53 3067,175 3080,79 3031,045 2994,285 2972,29 2932,562 2901,075 2882,993 2875,808 2852,545 2821,955 2765,205 2697,228 2625,988 2550,778 2488,098 2435,607 2395,422 2360,522 2328,653 2276,962 2212,325 2162,69 2130,962 2134,435 2178,232 2217,047 2265,335 2304,532 2356,02 2445,88 2506,21 2556,39 2612,047 2660,328 2710,755 2754,132 2805,42 2825,808 2848,817 2846,885 2840,877 2835,002 2824,458 2838,663 2894,59 2992,667 3097,942 3141,913 3145,012 3153,405 3097,353 3071,183 3033,445 3005,72 2972,218 2892,532 2800,022 2712,562 2663,927 2635,745 2575,782 2493,083 2416,848 2337,167 2250,598 2197,097 2160,212 2125,415 2085,857 2079,02 2129,192 2204,633 2278,795 2360,538 2431,05 2496,725 2553,873 
3126,62 3198,422 3277,39 3382,708 3403,035 3407,933 3401,042 3386,667 3373,325 3353,66 3330,208 3314,255 3301,22 3287,33 3271,778 3252,518 3234,647 3220,18 3213,18 3204,345 3191,475 3179,188 3170,228 3163,228 3156,345 3148,75 3141,252 3137,153 3135,295 3137,625 3146,8 3159,26 3164,573 3163,712 3163,337 3161,462 3155,4 3162,525 3177,562 3180,922 3182,455 3188,672 3206,12 3221,99 3231,692 3240,797 3248,243 3254,77 3260,095 3264,3 3269,512 3278,38 3282,308 3230,058 3171,583 3141,292 3124,157 3114,113 3105,772 3096,54 3086,587 3076,712 3066,73 3056,657 3046,188 3031,613 3013,468 2990,335 2961,192 2937,248 2917,82 2910,14 2931,472 2965,965 2977,67 2974,312 2984,407 3028,938 3091,14 3097,93 3079,915 3084,962 3100,673 3095,107 3056,895 3001,445 2949,48 2921,14 2900,962 2892,808 2880,218 2866,193 2834,755 2775,28 2706,88 2640,022 2575,465 2508,67 2443,015 2383,992 2334,683 2304,703 2264,948 2209,573 2157,005 2135,12 2166,708 2230,11 2276,995 2324,77 2380,63 2460,762 2526,145 2580,002 2626,312 2674,843 2726,718 2771,32 2815,312 2853,625 2862,232 2862,13 2872,778 2871,353 2860,415 2851,13 2877,512 2953,478 3047,845 3136,41 3220,605 3232,643 3182,782 3105,235 3071,695 3048,973 3026,88 2980,768 2901,31 2807,645 2713,643 2657,705 2621,302 2566,302 2489,278 2410,935 2324,333 2243,038 2185,825 2145,305 2112,698 2077,887 2096,402 2141,883 2223,093 2297,228 2368,788 2429,39 2489,22 2547,095 
3084,26 3139,205 3251,433 3339,24 3378,135 3398,262 3389,288 3375,505 3362,405 3343,82 3324,13 3309,755 3297,195 3285,035 3268,712 3250,677 3237,54 3228,065 3218,288 3206,728 3191,973 3180,07 3171,91 3163,547 3158,137 3152,935 3147,23 3143,895 3142,945 3145,62 3152,73 3160,205 3164,355 3166,58 3168,135 3164,893 3162,302 3174,22 3190,167 3190,558 3193,702 3199,663 3207,938 3221,33 3230,877 3240,005 3248,365 3254,96 3261,343 3267,907 3274,65 3292,177 3300,775 3245,988 3180,808 3144,435 3126,405 3114,155 3103,927 3094,778 3085,15 3074,478 3063,427 3052,22 3040,337 3025,573 3007,92 2987,172 2966,17 2941,462 2901,637 2859,905 2855,8 2885,065 2876,028 2870,87 2906,93 2967,38 3023,285 3052,893 3054,805 3073,215 3063,328 3040,035 3019,755 2982,478 2935,83 2921,25 2909,867 2887,695 2868,35 2847,942 2808,992 2763,34 2700,407 2642,643 2578,482 2509,723 2437,367 2370,855 2318,58 2286,073 2249,68 2201,67 2156,41 2164,093 2196,703 2287,29 2342,547 2390,237 2473,448 2557,282 2610,683 2646,738 2690,383 2736,935 2788,762 2831,438 2870,012 2885,723 2877,525 2877,452 2894,705 2888,768 2886,843 2886,51 2932,13 3015,255 3098,867 3201,948 3284,18 3268,728 3192,8 3127,775 3091,402 3069,542 3023,78 2958,195 2883,328 2802,52 2714,26 2651,498 2605,875 2553,805 2492,515 2397,435 2306,353 2235,262 2176,745 2127,423 2087,038 2088,305 2131,042 2176,03 2244,712 2317,812 2377,37 2424,055 2474,073 2531,667 
3006,81 3065,86 3199,857 3256,775 3313,875 3373,655 3368,78 3357,435 3343,07 3328,4 3315,177 3300,935 3289,165 3280,245 3266,427 3253,11 3242,008 3230,348 3217,94 3204,39 3191,203 3182,385 3173,417 3165,478 3160,755 3156,6 3152,57 3150,238 3150,238 3152,203 3156,837 3162,047 3166,05 3168,613 3169,952 3165,96 3168,66 3187,232 3202,42 3203,16 3204,96 3208,665 3208,933 3218,238 3228,655 3239,21 3251,25 3258,435 3264,45 3272,522 3280,012 3328,97 3290,828 3236,27 3193,055 3159,792 3138,105 3122,812 3108,953 3098,038 3088,275 3076,093 3062,427 3049,633 3036,262 3020,442 3003,277 2979,66 2952,907 2920,07 2851,137 2805,465 2785,81 2797,587 2798,07 2805,295 2837,005 2906,435 2965,558 3000,603 3007,865 3016,31 3022,962 3000,51 2974,528 2958,5 2924,248 2918,538 2898,17 2865,1 2836,53 2811,925 2783,087 2745,215 2691,895 2635,018 2575,205 2506,155 2434,482 2367,51 2310,107 2267,355 2233,797 2197,885 2160,248 2195,565 2233,593 2318,615 2408,16 2474,137 2563,117 2634,052 2679,413 2715,33 2756,79 2800,085 2844,367 2914,843 2913,845 2907,24 2891,02 2891,245 2915,745 2919,567 2929,335 2933,927 3007,393 3106,268 3154,86 3242,188 3340,902 3311,03 3219,052 3150,788 3111,462 3059,92 2982,258 2915,988 2849,383 2777,815 2704,018 2647,663 2600,083 2542,117 2482,357 2385,698 2287,768 2215,522 2164,79 2106,26 2088,05 2099,345 2155,305 2222,3 2264,97 2310,875 2353,432 2392,14 2448,51 2515,242 
2962,008 3010,393 3104,502 3188,1 3260,98 3353,163 3356,725 3341,825 3324,005 3312,758 3301,89 3289,518 3282,61 3276,06 3266,062 3254,46 3241,84 3226,948 3214,698 3204,337 3193,402 3185,203 3176,308 3169,552 3164,488 3160,923 3157,77 3156,335 3156,377 3157,677 3161,51 3166,458 3169,712 3172,295 3174,97 3171,938 3179,935 3201,393 3213,033 3216,038 3213,875 3211,508 3210,17 3220,617 3234,992 3247,248 3259,038 3265,183 3271,808 3282,065 3295,36 3349,55 3289,113 3241,65 3212,32 3183,038 3158,583 3139,905 3124,478 3109,045 3097,31 3086,36 3071,04 3053,29 3036,77 3015,772 2989,938 2963,672 2934,637 2899,34 2838,65 2793,327 2777,877 2767,427 2762,015 2758,295 2769,295 2828,347 2904,82 2937,97 2946,01 2951,702 2963,992 2956,532 2935,79 2932,522 2913,285 2907,3 2872,462 2845,667 2819,695 2790,115 2754,277 2720,58 2676,902 2625,138 2563,66 2488,155 2418,238 2361,792 2307,03 2252,867 2210,047 2176,555 2173,367 2228,797 2277,485 2354,703 2451,97 2536,402 2625,065 2686,827 2733,518 2773,62 2813,873 2859,492 2917,508 2976,665 2933,317 2922,155 2904,13 2907,528 2935,758 2949,067 2959,2 2971,895 3029,72 3128,84 3200,155 3287,85 3374,36 3343,492 3253,25 3153,7 3081,47 3032,27 2952,585 2879,073 2819,597 2754,613 2686,812 2635,735 2592,583 2522,725 2461,35 2371,877 2267,482 2195,837 2144,022 2098,01 2113,61 2141,255 2161,657 2192,93 2221,575 2248,982 2288,343 2342,475 2410,645 2486,348 
2928,433 2964,032 3016,615 3111,708 3207,768 3289,19 3337,08 3328,095 3306,348 3298,562 3288,56 3279,183 3274,91 3268,985 3261,22 3249,958 3235,547 3220,557 3212,015 3203,76 3194,97 3186,985 3180,25 3173,942 3168,468 3165,125 3162,797 3162,028 3161,595 3162,942 3167,455 3172,663 3174,95 3178,48 3183,55 3181,685 3198,155 3219,795 3226,87 3226,482 3218,905 3211,505 3216,545 3238,035 3254,05 3260,155 3265,515 3273,495 3283,595 3293,465 3311,238 3359,775 3305,032 3256,95 3227,518 3204,845 3181,81 3159,242 3145,443 3131,677 3114,798 3098,715 3083,945 3062,86 3040,542 3013,83 2970,955 2926,218 2898,505 2872,018 2828,565 2797,067 2789,775 2780,94 2766,61 2750,8 2746,365 2765,228 2833,968 2861,345 2887,018 2902,585 2920,035 2920,225 2911,42 2904,775 2905,575 2897,812 2865,215 2843,23 2813,585 2769,18 2723,32 2687,688 2645,775 2605,133 2549,827 2476,103 2416,055 2358,12 2302,125 2245,603 2188,93 2176,01 2207,132 2265,113 2333,055 2405,438 2492,042 2567,025 2646,927 2703,285 2769 2819,365 2865,655 2927,123 2993,955 3000,792 2955,768 2950,375 2939 2952,53 2976,45 2980,33 2983,952 3007,91 3046,685 3121,952 3186,45 3274,53 3344,82 3321,61 3232,31 3151,617 3069,212 2985,643 2921,363 2851,415 2797,71 2732,357 2668,282 2618,522 2570,078 2496,083 2433,465 2355,453 2246,663 2173,58 2129,62 2102,95 2123,823 2173,042 2224,518 2254,73 2279,703 2297,245 2298,21 2314,395 2375,442 2443,46 
2910,49 2920,805 2954,473 3020,802 3121,13 3201,177 3286,823 3313,147 3291,695 3287,6 3278,035 3269,485 3266,095 3259,388 3250,865 3238,438 3223,275 3212,848 3205,218 3196,87 3191,113 3185,137 3180,765 3175,413 3169,568 3165,328 3163,98 3164,387 3165,135 3168,152 3173,96 3179,502 3181,538 3185,423 3190,103 3200,157 3225,312 3238,427 3239,93 3234,44 3223,847 3218,73 3238,96 3267,29 3277,04 3277,382 3279,38 3287,295 3294,635 3301,505 3322,43 3384,988 3350,593 3286,208 3246,992 3221,4 3199 3175,797 3161,022 3151,407 3141,627 3127,167 3113,055 3078,785 3044,635 3007,712 2952,81 2909,59 2883,482 2863,578 2838,855 2813,623 2794,962 2769,423 2744,683 2725,232 2716,208 2730,995 2779,9 2810,92 2826,545 2853,288 2870,45 2878,545 2876,208 2860,535 2864,203 2858,532 2838,147 2808,985 2776,66 2734,308 2684,675 2648,887 2618,74 2579,165 2523,39 2463,037 2411,248 2342,565 2272,79 2220,565 2185,788 2198,062 2242,44 2298,12 2374,078 2447,133 2517,597 2601,82 2671,268 2727,038 2805,098 2856,633 2917,375 3001,7 3050,817 3000,9 2976,718 2968,985 2973,758 2992,618 3003,728 3008,28 3005,752 3028,183 3061,012 3083,66 3145,853 3222,087 3309,395 3323,02 3229,657 3140,177 3043,85 2961,76 2885,31 2819,725 2768,663 2707,837 2641,157 2590,948 2535,427 2464,173 2392,103 2318,65 2227,085 2158,65 2123,49 2103,37 2142,815 2198,7 2261,025 2304,823 2339,335 2367,63 2371,875 2357,3 2367,83 2420,2 
2896,752 2893,695 2913,225 2944,907 3033,95 3134,097 3238,433 3304,91 3292,373 3279,22 3267,785 3262,038 3257,35 3251,665 3242,958 3226,37 3208,728 3201,988 3192,54 3181,135 3177,805 3175,525 3173,76 3170,478 3163,708 3159,272 3160,59 3162,56 3166,33 3172,277 3179,502 3185,498 3186,462 3186,2 3194,873 3226,53 3247,317 3253,7 3250,175 3239,923 3233,708 3241,897 3271,047 3291,927 3297,865 3295,06 3295,22 3300,475 3305,548 3311,2 3331,78 3376,735 3355,323 3315,587 3290,98 3258,835 3221,295 3192,19 3178,728 3176,157 3176,76 3196,165 3156,455 3099,785 3056,988 3020,007 2971,09 2925,05 2906,055 2887,665 2874,738 2834,982 2785,028 2748,145 2706,778 2686,97 2677,94 2685,08 2727,39 2775,163 2787,212 2800,03 2809,015 2812,538 2814,042 2800,123 2792,998 2786,695 2773,677 2749,935 2718,973 2679,42 2646,927 2621,02 2585,942 2532,897 2467,167 2404,665 2346,587 2287,153 2242,712 2198,433 2191,958 2228,475 2275,812 2335,922 2412,573 2477,585 2547,685 2631,022 2694,498 2761,597 2835,652 2892,133 2980,72 3065,948 3068,768 3030,52 3000,395 2993,952 3005,975 3013,873 3024,92 3024,47 3020,835 3044,3 3073,657 3089,522 3130,802 3237,25 3313,198 3273,688 3205,018 3129,603 3038,837 2945,3 2870,302 2803,325 2733,938 2674,21 2616,308 2568,86 2502,335 2429,897 2354,853 2283,94 2213,692 2154,525 2118,337 2115,88 2159,19 2216,153 2297,788 2358,505 2397,325 2427,527 2430,652 2416,562 2417,692 2426,815 
2880,478 2867,587 2870,87 2908,69 2971,855 3066,137 3184,343 3280,575 3297,478 3274,728 3258,093 3250,578 3246,855 3242,745 3233,715 3211,758 3195,575 3187,27 3172,208 3155,298 3152,757 3162,975 3161,285 3157,442 3149,828 3150,958 3154,192 3157,982 3166,09 3174,815 3182,77 3189,317 3187,255 3181,748 3200,863 3241,645 3255,58 3261,85 3253,795 3241,438 3247,462 3273,475 3294,047 3307,165 3311,012 3307,502 3305,827 3310,198 3315,993 3320,917 3329,155 3328,012 3288,637 3256,505 3243,895 3240,895 3234,742 3217,365 3214,635 3213,69 3217,025 3202,12 3163,94 3111,555 3073,808 3034,48 2987,042 2945,032 2921,56 2909,228 2896,828 2855,302 2801,33 2751,69 2701,625 2671,52 2645,058 2644,482 2673,395 2730,715 2751,07 2750,43 2759,8 2768,138 2760,265 2742,585 2731,685 2723,875 2719,103 2700,587 2671,285 2644,028 2617,515 2576,297 2519,69 2462,343 2409,56 2370,367 2322,95 2268,02 2221,33 2199,837 2229,05 2262,538 2311,62 2370,535 2439,333 2508,475 2567,518 2646,095 2722,643 2803,82 2868,087 2928,902 3019,073 3092,89 3075,63 3060,353 3039,095 3042,075 3039,105 3039,527 3044,9 3040,427 3048,6 3092,452 3104 3122,575 3140,01 3222,623 3282,875 3205,863 3141,12 3080,425 3008,875 2931,917 2853,423 2781,255 2712,275 2636,48 2576,548 2523,258 2460,042 2383,518 2312,403 2255,145 2196,495 2150,062 2116,44 2142,492 2179,703 2236,505 2316,125 2399,762 2458,962 2490,567 2490,087 2468,975 2467,573 2472,55 
2847,205 2839,183 2844,965 2880,958 2935,745 3002,863 3137,008 3241,062 3286,085 3273,245 3242,502 3226,167 3225,585 3225,343 3217,76 3198,218 3183,185 3169,965 3144,828 3129,282 3126,333 3128,1 3133,087 3140,782 3145,14 3150,39 3152,397 3156,677 3167,603 3175,347 3184,058 3193,6 3191,607 3185,948 3210,205 3262,732 3271,903 3272,742 3255,82 3252,675 3272,603 3298,455 3310,855 3318,085 3318,955 3314,538 3312,863 3319,225 3329,985 3350,5 3323,44 3285,812 3257,262 3223,375 3207,34 3201,025 3193,032 3175,125 3189,245 3185,22 3176,962 3152,985 3132,623 3098,552 3074,76 3059,047 3024,125 2983,708 2961,785 2935,238 2884,607 2846,712 2792,365 2741,323 2696,887 2664,475 2640,607 2622,998 2634,232 2677,052 2711,725 2724,132 2727,133 2728,663 2724,21 2709,82 2688,01 2678,96 2675,195 2658,33 2632,845 2598,935 2559,833 2504,295 2453,47 2407,36 2366,68 2323,377 2280,605 2240,058 2206,63 2226,078 2266,1 2302,288 2362,948 2431,272 2470,985 2520,738 2582,038 2666,81 2747,69 2828,11 2898,703 2970,905 3048,647 3125,143 3128,587 3093,147 3077,76 3068,28 3060,843 3058,265 3058,5 3057,685 3085,05 3152,245 3158,645 3163,785 3176,945 3228,073 3266,645 3171,667 3082,962 3021,883 2967,308 2894,925 2825,865 2759,535 2695,458 2626,79 2559,74 2486,633 2421,718 2354,427 2293,722 2239,328 2193,133 2145,417 2125,475 2162,295 2204,525 2260,492 2334,498 2424,555 2505,115 2559,415 2562,117 2543,895 2519,67 2519,225 
2817,01 2822,683 2824,105 2846,5 2893,185 2963,113 3092,798 3161,873 3191,012 3185,16 3177,13 3170,212 3184,51 3196,905 3194,062 3180,235 3165,785 3151,062 3131,828 3120,808 3115,433 3107,38 3117,665 3131,578 3138,555 3145,462 3151,232 3158,797 3169,155 3173,752 3186,95 3204,7 3205,53 3213,63 3265,595 3285,948 3286,075 3279,09 3275,65 3288,867 3303,163 3315,34 3324,865 3328,99 3327,728 3322,508 3323,438 3340,632 3368,9 3359,64 3296,635 3248,163 3227,137 3204,065 3189,583 3180,52 3174,025 3148,83 3122,427 3091,95 3092,305 3098,05 3075,235 3047,435 3032,59 3031,272 3025,74 2998,935 2969,61 2931,502 2861,468 2808,402 2758,812 2708,485 2677,215 2628,37 2601,115 2593,277 2602,837 2634,685 2664,728 2679,883 2687,038 2691,33 2685,005 2674,14 2660,08 2649,688 2639,26 2616,357 2579,653 2531,473 2479,833 2435,445 2395,407 2357,078 2321,945 2281,032 2242,68 2215,33 2237,212 2251,57 2298,535 2348,492 2421,75 2491,085 2548,3 2590,195 2642,065 2704,573 2771,433 2847,768 2926,812 3014,385 3086,083 3158,81 3147,76 3118,465 3103,282 3089,585 3078,405 3071,778 3072,982 3076,258 3107,715 3172,317 3205,65 3199,867 3213,308 3268,748 3261,498 3175,617 3084,357 3000,46 2932,21 2870,8 2799,933 2734,538 2676,183 2614,97 2538,683 2469,397 2405,647 2342,72 2279,508 2231,808 2187,095 2142,982 2137,565 2190,465 2237,317 2299,14 2357,155 2448,327 2534,353 2617,698 2636,958 2621,235 2581,427 2567,7 
2795,022 2807,942 2803,183 2811,788 2853,333 2926,125 3022,165 3066,63 3084,768 3081,377 3083,712 3074,22 3103,938 3166,805 3170,425 3162,49 3143,323 3134,25 3118,522 3109,137 3103,995 3096,175 3104,403 3120,365 3130,495 3141,718 3153,613 3163,143 3168,85 3172,66 3196,522 3224,005 3226,248 3278,722 3302,43 3300,468 3298,607 3293,508 3308,56 3321,72 3326,843 3330,98 3335,902 3337,138 3335,64 3333,458 3354,195 3385,61 3380,087 3313,113 3261,455 3233,22 3218,873 3198,843 3182,002 3165,927 3145,333 3123,165 3090,068 3040,94 3035,295 3039,083 3014,782 2987,268 2971,863 2962,927 2964,157 2940,385 2922,745 2897,417 2841,847 2798,23 2747,218 2697,905 2661,25 2618,08 2580,745 2562,778 2563,522 2595,175 2618,005 2626,29 2640,105 2646,232 2640,3 2633,188 2624,9 2615,48 2597,718 2561,24 2510,615 2465,35 2425,258 2389,08 2349,82 2314,275 2277,482 2238,83 2220,288 2238,677 2282,542 2296,468 2315,455 2386,672 2466,903 2536,66 2591,145 2638,252 2687,425 2746,948 2805,075 2867,07 2942,44 3037,595 3119,222 3179,367 3161,038 3134,635 3112,9 3100,915 3090,08 3087,093 3089,282 3096,953 3124,995 3177,56 3245,703 3252,823 3274,485 3263,022 3201,328 3133,745 3064,698 2986,907 2909,103 2842,262 2774,848 2715,312 2654,155 2582,698 2515,1 2448,308 2383,062 2313,552 2248,415 2209,613 2175,495 2132,643 2158,052 2238,975 2286,835 2344,027 2395,66 2458,525 2555,083 2641,663 2700,577 2699,59 2655,488 2632,263 
2747,127 2754,955 2771,188 2786,39 2811,167 2884,19 2944,353 2970,327 2985,9 2978,83 2967,308 2965,875 3020,022 3078,345 3136,75 3149,54 3124,55 3114,703 3105,078 3097,038 3091,382 3088,07 3090,933 3105,242 3122,62 3142,532 3159,147 3167,308 3168,6 3176,36 3217,772 3246,18 3249,93 3318,025 3314,478 3311,965 3312,38 3317,94 3329,198 3336,235 3340,167 3343,337 3345,078 3343,647 3342,657 3366,328 3401,92 3373,995 3317,973 3271,363 3237,31 3215,482 3201,968 3184,965 3165,107 3147,468 3127,595 3093,067 3045,985 3001,613 2999,583 2999,843 2971,165 2936,188 2910,66 2891,618 2869,22 2849,723 2840,655 2812,788 2775,39 2744,4 2706,595 2672,732 2626,98 2585,76 2540,377 2515,58 2509,917 2546,555 2568,998 2578,823 2592,547 2597,02 2596,45 2592,992 2588,887 2569,607 2542,288 2504,49 2460,895 2420,325 2384,505 2351,933 2316,38 2281,77 2244,317 2235,972 2256,868 2276,565 2311,725 2350,17 2363,038 2385,515 2466,492 2530,248 2582,252 2643,515 2712,8 2779,887 2833,343 2889,778 2956,847 3043,65 3125,238 3183,93 3187,65 3152,135 3125,135 3115,075 3104,675 3102,315 3107,387 3126,69 3153,988 3189,285 3266,137 3305,278 3283,203 3226,995 3157,575 3084,335 3028,587 2964,9 2885,415 2821,792 2749,637 2684,982 2622,462 2556,725 2486,475 2417,893 2351,19 2282,205 2222,252 2179,585 2146,635 2135,288 2205,427 2300,31 2348,495 2405,488 2449,252 2491,695 2592,393 2654,015 2728,605 2767,57 2743,255 2709,552 
2677,922 2682,933 2717,73 2760,962 2784,165 2823,85 2860,9 2893,573 2899,675 2884,765 2870,47 2864,14 2898,883 2963,113 3051,973 3144,942 3115,927 3090,688 3093,603 3086,385 3081,277 3083,438 3084,198 3092,735 3115,472 3143,095 3163,482 3170,585 3171,175 3188,545 3238,535 3263,998 3274,675 3341,115 3324,505 3319,703 3323,965 3333,877 3340,637 3343,897 3346,725 3349,995 3351,77 3351,69 3354,11 3400,18 3401,53 3325,212 3269,98 3225,897 3190,99 3167,125 3159,403 3151,285 3125,08 3110,335 3097,175 3061,897 3002,478 2961,16 2963,732 2947,438 2909,373 2879,695 2859,35 2837,052 2807,907 2781,902 2764,345 2739,995 2710,95 2676,188 2633,565 2599,427 2562,99 2535,005 2499,505 2464,657 2458,58 2481,778 2497,073 2510,665 2522,71 2531,762 2531,562 2526,3 2522,63 2509,26 2494,155 2467,252 2435,11 2398,758 2359,672 2325,095 2296,495 2259,607 2247,113 2268,67 2288,847 2328,18 2356,62 2390,643 2428,995 2416,67 2466,692 2540,583 2599,765 2651,152 2709,74 2786,127 2843,175 2897,55 2967,05 3024,215 3072,573 3148,712 3207,06 3181,07 3157,532 3143,782 3137,863 3137,012 3164,042 3194,995 3190,698 3217,442 3283,435 3264,353 3212,458 3188,435 3130,37 3061,31 2985,647 2923,097 2858,74 2800,87 2734,478 2663,19 2597,482 2534,46 2467,732 2394,133 2319,54 2252,44 2200,222 2156,53 2145,86 2183,548 2268,527 2369,185 2430,597 2479,277 2513,742 2549,323 2613,19 2699,262 2758,887 2818,593 2826,67 2791,377 
2608,515 2616,518 2644,17 2695,218 2745,305 2774,107 2801,083 2815,36 2826,005 2820,268 2804,657 2806,752 2827,275 2868,907 2958,98 3083,285 3107,695 3067,205 3067,607 3072,655 3076,92 3079,2 3078,98 3082,14 3102,683 3137,955 3166,607 3176,535 3178,765 3201,002 3251,778 3278,502 3293,66 3330,83 3332,192 3333,36 3342,413 3349,962 3351,84 3351,827 3352,49 3354,552 3357,095 3362,277 3371,857 3386,032 3386,18 3324,782 3251,055 3196,478 3164,015 3133,677 3105,792 3086,882 3072,52 3047,055 3016,4 2984,63 2954,152 2935,107 2920,333 2898,78 2867,462 2837,863 2807,03 2794,875 2776,377 2748,282 2716,198 2677,02 2636,883 2602,613 2567,018 2531,915 2495,6 2470,137 2452,865 2432,927 2419,363 2426,052 2432,423 2438,635 2448,85 2464,79 2469,83 2466,045 2465,215 2456,52 2440,965 2429,893 2406,875 2375,11 2336,657 2297,92 2265,113 2259,535 2291,482 2308,465 2341,402 2375,42 2419,942 2451,052 2489,625 2485,408 2493,145 2545,732 2629,262 2698,36 2758,438 2807,155 2859,938 2908,64 2962,357 2995,167 3047,397 3127,86 3210,327 3213,66 3195,855 3179,835 3182,848 3212,91 3235,585 3229,905 3219,708 3247,277 3246,417 3199,105 3144,163 3121,688 3096,712 3028,192 2947,722 2890,405 2831,292 2768,835 2709,965 2648,828 2580,407 2503,175 2428,843 2363,427 2296,317 2227,1 2175,64 2148,755 2176,21 2226,127 2300,817 2388,103 2466,558 2520,833 2567,945 2613,683 2638,245 2729,157 2810,75 2871,962 2899,125 2863,5 
2538,535 2545,652 2576,445 2617,84 2671,637 2718,76 2749,58 2758,218 2763,495 2754,498 2752,195 2759,552 2772,327 2800,57 2880,39 2996,125 3041,275 3017,76 3024,522 3047,44 3066,035 3071,183 3072,712 3074,2 3091,002 3135,268 3172,917 3185,442 3187,357 3214,052 3262,75 3288,67 3306,105 3318,958 3335,748 3348,86 3360,958 3366,863 3366,295 3362,835 3357,228 3354,828 3358,475 3370,367 3336,795 3304,28 3317,913 3290,69 3234,943 3173,212 3129,968 3074,15 3033,995 3013,698 2999,16 2978,988 2960,215 2932,675 2908,752 2890,305 2866 2840,41 2817,417 2785,317 2769,06 2754,542 2728,915 2694,152 2653,18 2610,61 2567,837 2531,02 2494,14 2459,677 2433,473 2421,468 2408,745 2393,532 2387,72 2386,517 2387,12 2385,837 2389,672 2404,637 2413,897 2409,96 2406,68 2398,222 2381,525 2365,01 2342,062 2312,597 2283,005 2262,765 2266,377 2307,532 2338,605 2368,607 2398,442 2434,81 2479,083 2519,505 2551,545 2564,395 2570,098 2578,065 2627,435 2710,867 2791,052 2852,64 2887,528 2920,665 2956,458 2999,768 3061,087 3138,348 3218,317 3256,31 3251,57 3232,27 3206,335 3173,173 3178,268 3192,982 3209,712 3197,645 3158,512 3115,032 3076,525 3053,647 3028,137 2984,172 2923,488 2868,085 2804,84 2735,317 2667,245 2614,965 2562,275 2482,268 2409,3 2332,742 2267,633 2210,125 2160,627 2170,323 2206,373 2260,032 2342,49 2448,455 2515,3 2571,165 2635,64 2679,542 2694,125 2750,042 2824,635 2896,875 2938,785 2901,067 
2493,355 2502,365 2528,462 2548,615 2577,452 2622 2664,3 2701,002 2700,948 2692,865 2697,907 2702,635 2718,353 2746,083 2836,34 2942,248 2975,88 2999,685 3009,135 3018,083 3040,19 3058,52 3065,728 3073,35 3095,667 3140,015 3179,78 3193,823 3194,482 3226,422 3273,095 3293,993 3311,145 3324,698 3338,84 3357,643 3374,147 3380,302 3382,288 3379,865 3363,835 3351,195 3336,938 3302,062 3239,02 3216,413 3231,07 3200,427 3157,635 3097,127 3058,365 3012,782 2982,23 2965,703 2949,598 2929,942 2914,23 2895,34 2877,01 2856,555 2822,578 2792,235 2768,33 2746,403 2722,56 2692,968 2664,402 2626,123 2582,093 2539,387 2497,843 2461,843 2431,417 2408,397 2396,373 2391,12 2383,932 2374,587 2364,915 2355,683 2351,005 2346,488 2345,61 2353,143 2365,145 2360,718 2351,47 2340,492 2324,597 2306,97 2289,71 2275,442 2276,468 2293,3 2317,815 2350,062 2387,72 2422,51 2452,177 2494,732 2535,667 2576,992 2606,465 2627,295 2647,445 2658,597 2663,92 2722,728 2806,123 2861,567 2895,772 2926,857 2962,718 3024,345 3097,375 3171,893 3247,147 3276,593 3224,833 3169,962 3136,018 3105,172 3098,545 3114,58 3131,205 3126,663 3075,24 3041,828 3016,705 2986,982 2961,152 2923,27 2879,915 2839,325 2779,255 2713,962 2651,57 2579,262 2513,438 2451,135 2390,132 2312,693 2248,515 2198,902 2159,295 2188,618 2235,778 2292,192 2388,808 2496,847 2567,875 2638,53 2697,927 2732,365 2757,14 2811,333 2873,7 2915,335 2946,065 2916,462 
2464,583 2486,427 2513,123 2535,885 2553,143 2572,53 2582,47 2605,397 2620,228 2626,882 2630,875 2647,637 2673,13 2703,863 2767,367 2842,245 2913,712 2983,045 3007,62 3011,262 3024,328 3044,86 3053,57 3064,382 3096,212 3148,032 3186,205 3201,66 3202,645 3228,25 3287,855 3308,625 3323,347 3333,123 3343,343 3358,807 3386,805 3416,37 3436,675 3422,595 3356,39 3285,205 3222,45 3180,38 3144,502 3135,248 3127,597 3101,09 3071,137 3033,938 3003,695 2978,498 2955,97 2939,438 2920,093 2899,91 2882,433 2870,095 2852,62 2823,632 2785,39 2763,393 2736,97 2711,12 2667,575 2627,415 2591,823 2548,775 2506,333 2471,61 2435,488 2411,123 2394,105 2386,28 2382,26 2379,442 2376,312 2370,163 2362,692 2350,565 2341,845 2338,275 2335,39 2324,975 2318,538 2318,292 2311,19 2302,555 2292,073 2283,337 2284,647 2307,265 2320,062 2335,867 2364,03 2388,857 2431,782 2474,317 2508,093 2548,16 2593,508 2621,022 2642,885 2670,35 2695,395 2717,345 2729,258 2761,405 2815,238 2862,655 2903,417 2938,532 2978,188 3048,755 3128,087 3193,505 3253,948 3253,212 3185,7 3143,032 3111,075 3082,525 3068,015 3063,25 3072,593 3059,413 3024,71 2997,265 2962,905 2933,325 2903,79 2881,995 2849,847 2811,805 2763,087 2702,56 2630,12 2557,913 2483,067 2411,798 2348,79 2288,438 2239,485 2187,755 2174,617 2234,92 2292,637 2351,03 2421,17 2527,15 2610,535 2677,133 2734,718 2779,453 2821,62 2865,147 2944,45 2984,913 2956,01 2938,812 
2493,177 2512,985 2528,32 2541,413 2556,115 2570,208 2581,105 2588,873 2601,57 2610,985 2614,02 2626,718 2659,605 2705,515 2740,062 2773,712 2822,607 2890,172 2964,065 3006,095 3022,552 3039,06 3049,355 3064,125 3093,107 3143,46 3187,347 3206,81 3215,48 3223,1 3287,44 3321,56 3332,337 3337,735 3344,68 3358,695 3394,357 3449,665 3407,14 3370,883 3285,292 3210,985 3181,913 3150,488 3120,43 3102,562 3082,97 3058,262 3028,195 3010,032 2991,255 2974,307 2958,968 2935,617 2906,87 2884,895 2856,652 2837,115 2816,348 2788,92 2746,532 2716,448 2692,192 2648,99 2609,9 2564,748 2522,995 2485,31 2457,427 2438,462 2407,627 2394,49 2391,772 2390,765 2396,877 2404,902 2407,945 2404,465 2397,77 2397,903 2395,815 2389,177 2380,495 2362,66 2345,505 2331,89 2323,825 2322,367 2315 2304,067 2322,105 2351,212 2364,165 2383,15 2411,258 2449,203 2475,025 2517,54 2561,515 2602,255 2634,055 2651,355 2678,938 2710,117 2731,435 2751,183 2780,105 2805,637 2841,2 2873,735 2901,595 2944,077 2985,498 3045,183 3115,848 3179,673 3247,475 3269,495 3211,008 3159,482 3128,887 3104,81 3074,522 3042,485 3037,018 3017,143 2991,755 2968,93 2936,715 2897,492 2862,443 2823,72 2793,95 2782,6 2755,155 2699,448 2617,815 2542,667 2467,498 2392,002 2321,647 2266,525 2214,238 2181,667 2215,52 2288,45 2364,925 2416,527 2491,095 2563,647 2641,96 2708,915 2765,712 2820,093 2889,557 2937,34 3007,328 3024,19 2961,208 2954,34 
2502,97 2548,833 2551,248 2556,527 2572,52 2576,442 2586,962 2600,52 2611,035 2618,465 2626,788 2636,615 2645,052 2678,103 2738,52 2774,762 2805,94 2843,105 2895,67 2976,64 3014,125 3037,165 3053,488 3069,292 3108,508 3149,982 3190,683 3213,867 3224,58 3231,23 3280,66 3328,907 3336,732 3341,39 3351,052 3363,285 3397,83 3396,073 3344,14 3305,425 3248,125 3210,942 3175,593 3141,305 3114,44 3090,012 3067,195 3035,86 3005,685 2995,27 2978,55 2967,123 2956,942 2938,093 2911,228 2879,58 2853,018 2829,655 2790,098 2744,627 2710,095 2664,825 2630,15 2586,288 2546,945 2508,82 2473,75 2452,98 2433,795 2412,663 2400,103 2401,868 2416,498 2440,537 2458,79 2468,115 2470,593 2468,232 2468,035 2467,675 2460,31 2446,23 2432,755 2428,47 2413,485 2391,552 2379,343 2375,097 2364,635 2343,292 2359,808 2394,797 2406,635 2431,4 2461,61 2497,118 2533,13 2557,532 2603,635 2641,515 2667,135 2688,03 2711,545 2726,292 2744,117 2771,558 2806,208 2845,635 2871,758 2894,16 2911,07 2926,828 2961,22 3004,647 3073,328 3155,987 3247,367 3313,545 3262,512 3190,513 3156,36 3133,77 3083,257 3038,362 3022,383 3000,512 2971,64 2950,825 2927,545 2881,847 2839,087 2797,89 2755,208 2716,205 2708,797 2686,43 2612,693 2528,413 2451,258 2375,365 2305,45 2252,485 2200,647 2204,46 2257,893 2321,975 2405,195 2469,453 2545,143 2610,14 2671,748 2734,64 2790,355 2850,7 2927,33 3004,47 3064,238 3026,5 2978,693 2991,312 
2507,825 2547,008 2579,83 2582,843 2579,64 2592,805 2598,59 2605,297 2616,698 2625,297 2632,675 2644,212 2653,698 2668,505 2714,965 2757,202 2790,61 2816,38 2850,7 2902,96 2994,672 3041,942 3061,833 3091,48 3134,905 3175,73 3201,485 3221,065 3231,788 3238,817 3279,635 3328,532 3347,032 3361,107 3368,155 3370,058 3396,762 3355,688 3291,58 3267,708 3235,515 3208,288 3181,265 3152,34 3119,38 3077,195 3044,887 3012,845 2982,315 2970,7 2957,93 2946,413 2945,127 2937,74 2890,695 2861,992 2837,035 2799,032 2751,3 2701,735 2657,86 2616,975 2571,982 2530,973 2501,135 2472,345 2444,965 2423,86 2409,018 2406,157 2416,07 2447,232 2488,432 2512,155 2526,835 2536,995 2538,265 2540,87 2543,728 2541,672 2541,432 2524,288 2505,175 2505,505 2489,208 2460,16 2447,703 2435,542 2411,373 2384,795 2394,098 2427,315 2446,56 2480,21 2512,23 2539,525 2565,365 2605,75 2622,087 2660,455 2694,377 2719,13 2741,13 2756,458 2771,363 2799,91 2827,883 2862,103 2898,692 2908,575 2928,792 2942,147 2962,41 2989,69 3047,51 3141,743 3223,795 3300,74 3280,535 3229,762 3197,87 3161,317 3100,03 3051,677 3028,798 3005,495 2982,708 2953,282 2923,958 2889,34 2843,462 2798,417 2742,68 2686,647 2642,077 2616,052 2567,522 2506,84 2429,66 2353,43 2287,065 2237,455 2198,63 2226,61 2285,34 2340,915 2406,153 2479,65 2553,72 2620,685 2689,083 2749,847 2807,18 2863,69 2933,115 3021,172 3088,992 3053,367 3027,22 3037,62 
2556,985 2578,002 2604,558 2610,498 2598,815 2586,48 2599,927 2615,147 2622,633 2629,587 2636,647 2646,863 2662,24 2676,83 2700,425 2728,147 2751,812 2783,225 2815,11 2847,797 2952,873 3040,282 3065,47 3101,99 3148 3190,98 3213,317 3228,627 3243,225 3248,828 3285,6 3335,19 3364,965 3381,387 3384,058 3373,748 3359,175 3306,735 3259,97 3237,883 3205,218 3176,948 3157,475 3137,735 3121,738 3083,998 3038,945 2995,232 2972,083 2956,188 2937,633 2915,23 2911,13 2905,692 2860,605 2828,897 2787,22 2744,417 2703,478 2660,43 2618,573 2574,047 2526,04 2487,165 2462,455 2442,2 2422,895 2414,685 2423,665 2446,485 2482,288 2528,512 2557,295 2576,762 2590,333 2598,7 2601,778 2611,47 2609,96 2604,788 2614,045 2593,182 2575,27 2568,93 2551,965 2537,422 2525,445 2497,058 2447,232 2409,475 2432,04 2464,77 2497,64 2533,672 2563,212 2587,55 2603,76 2639,587 2657,755 2674,4 2717,285 2745,913 2773,603 2796,093 2812,867 2830,01 2849,59 2877,248 2911,978 2926,073 2938,083 2962,845 2984,328 2998,355 3039,627 3128,465 3215,505 3303,51 3297,355 3262,08 3227,133 3173,837 3128,038 3090,505 3063,76 3049,958 3012,002 2975,08 2942,655 2903,28 2851,77 2800,228 2748,132 2699,715 2639,438 2573,795 2507,8 2450,68 2399,175 2330,083 2267,23 2221,165 2202,623 2248,525 2305,522 2374,2 2447,703 2513,877 2587,177 2652,655 2718,445 2770,337 2827,133 2892,902 2972,198 3033,19 3101,44 3102,943 3060,65 3020,252 
2582,27 2624,14 2657,735 2663,115 2646,88 2625,103 2610,84 2608,522 2615,815 2629,895 2644,705 2658,265 2671,125 2685,948 2708,282 2729,485 2748,387 2766,965 2785,605 2812,703 2880,427 2974,395 3037,552 3090,883 3159,542 3204,585 3222,95 3236,65 3249,397 3254,103 3290,972 3339,482 3375,495 3396,073 3394,385 3376,613 3339,357 3286,735 3235,282 3200,755 3158,85 3134,07 3120,157 3098,762 3068,347 3043,71 3027,657 3010,615 2970,74 2937,103 2909,613 2889,623 2865,215 2848,885 2813,962 2771,395 2731,877 2692,297 2653,81 2614,132 2577,802 2535,542 2493,495 2455,41 2430,145 2427,843 2428,772 2450,905 2484,265 2526,093 2568,067 2596,482 2615,272 2628,51 2640,075 2651,742 2665,275 2673,275 2673,49 2683,125 2684,68 2652,927 2643,61 2638,35 2621,175 2604,188 2566,663 2501,655 2450,115 2426,512 2468,67 2508,655 2549,73 2587,6 2613,165 2633,43 2645,718 2671,802 2691,995 2702,073 2734,843 2763,948 2794,893 2823,745 2847,913 2868,942 2878,038 2892,107 2919,998 2943,46 2978,147 2990,97 3005,79 3020,758 3053,532 3139,578 3231,018 3324,145 3375,547 3326,333 3279,13 3211,718 3171,183 3147,335 3131,675 3109,285 3052,165 3016,213 2958,785 2907,922 2857,74 2797,677 2749,042 2714,18 2656,675 2590,335 2515,51 2442,272 2369,302 2306,802 2255,567 2214,393 2230,297 2270,89 2330,377 2398,16 2476,078 2543,208 2621,228 2697,393 2753,685 2798,288 2855,527 2931,14 3022,92 3102,895 3122,065 3073,547 3029,65 3006,035 
2597,925 2629,83 2676,28 2700,123 2708,32 2710,995 2682,755 2655,05 2638,8 2639,147 2660,085 2681,208 2688,89 2699,078 2728,427 2744,18 2759,18 2772,257 2782,62 2810,578 2844,623 2889,66 2957,83 3057,863 3163,175 3227,995 3242,555 3250,03 3257,465 3265,775 3297,647 3345,312 3387,468 3410,722 3403,67 3379,183 3318,005 3252,812 3216,565 3173 3136,643 3118,24 3098,885 3070,04 3031,135 2997,492 2986,147 2970,7 2954,198 2927,53 2890,24 2859,883 2831,85 2795,88 2770,905 2723,51 2679,835 2637,025 2596,863 2557,97 2524,425 2491,975 2462,385 2438,972 2441,953 2458,6 2476,802 2523,825 2566,515 2603,885 2629,672 2645,925 2662,03 2679,373 2697,325 2714,15 2725,925 2730,422 2745,907 2770,095 2742,478 2706,375 2710,038 2711,83 2692,643 2646,188 2578,772 2502,627 2460,67 2449,538 2504,363 2556,093 2600,087 2633,91 2654,397 2672,71 2692,058 2716,712 2729,948 2740,143 2756,498 2787,577 2823,167 2852,828 2868,758 2881,042 2910,667 2932,218 2949,167 2969,585 3015,762 3031,188 3032,958 3051,673 3074,058 3137,777 3242,195 3336,335 3418,797 3393,478 3324,607 3257,615 3225,147 3219,865 3204,085 3151,08 3097,272 3051,055 2989,765 2927,055 2876,515 2811,595 2769,012 2737,897 2668,69 2590,485 2505,54 2430,357 2363,022 2297,348 2246,145 2221,728 2253,18 2303,357 2369,795 2420,723 2486,473 2564,357 2645,55 2717,968 2773,255 2821,377 2882,193 2962,052 3053,99 3135,78 3119,395 3067,265 3049,745 3030,732 
2626,647 2644,73 2676,022 2708,49 2719,692 2766,03 2754,868 2732,228 2723,018 2713,982 2715,23 2718,925 2713,492 2717,383 2754,15 2764,357 2767,98 2780,53 2791,015 2827,127 2861,67 2882,573 2907,988 2977,718 3133,377 3234,778 3260,482 3266,188 3270,24 3282,365 3305,795 3349,913 3399,695 3374,305 3340,58 3310,058 3294,328 3241,325 3199,113 3154,56 3121,8 3100,417 3075,232 3047,805 3016,512 2982,065 2961,5 2938,055 2912,047 2893,498 2859,81 2823,453 2796,35 2757,598 2719,577 2672,865 2624,675 2585,13 2548,698 2511,2 2486,95 2468,33 2465,137 2464,34 2477,637 2505,305 2549,887 2593,683 2634,625 2661,65 2679,51 2697,7 2716,397 2736,705 2755,305 2771,807 2776,165 2785,97 2805,605 2820,153 2787,07 2768,093 2767,903 2748,855 2706,665 2643,36 2567,532 2503,53 2463,397 2478,047 2543,15 2597,735 2639,755 2664,692 2682,985 2706,518 2740,095 2754,88 2761,785 2772,363 2787,877 2813,712 2853,835 2869,228 2879,965 2885,683 2919,655 2974,922 2988,797 3003,652 3048,922 3080,958 3061,548 3076,603 3093,13 3134,995 3224,405 3323,35 3398,978 3363,84 3330,615 3308,337 3290,13 3260,325 3181,16 3119,417 3087,157 3071,16 3003,748 2954,702 2908,627 2846,513 2810,88 2754,748 2674,53 2587,285 2497,417 2416,69 2347,903 2284,818 2237,302 2244,695 2283,73 2316,58 2374,438 2446,425 2513,715 2582,218 2656,867 2728,062 2786,64 2841,292 2902,895 2970,397 3052,965 3137,343 3140,125 3102,375 3094,945 3091,323 
2653,343 2672,732 2684,955 2709 2726,252 2777,465 2803,587 2789,683 2782,495 2760,39 2757,73 2754,57 2741,893 2739,865 2779,288 2788,502 2779,565 2789,445 2808,083 2849,275 2885,765 2893,153 2914,46 2949,785 3041,038 3179,998 3270,837 3296,76 3291,347 3295,21 3309,085 3346,65 3346,12 3285,615 3240,47 3215,92 3216,375 3239,04 3202,08 3139,328 3092,562 3060,11 3031,777 2998,657 2968,867 2941,172 2902,518 2880,525 2865,823 2851,383 2817,91 2781,92 2744,635 2716,845 2668,843 2619,75 2585,165 2552,755 2525,397 2508,495 2494,03 2491,837 2493,64 2501,31 2526,71 2577,853 2625,17 2660,2 2688,61 2714,43 2737,15 2749,99 2764,935 2782,83 2801,998 2815,695 2833,297 2858,82 2866,585 2846,297 2822,032 2800,305 2765,917 2717,047 2672,472 2619,51 2553,393 2491,353 2468,46 2509,788 2575,458 2632,097 2666,055 2688,768 2710,607 2740,613 2771,21 2784,05 2785,78 2810,56 2815,843 2826,465 2850,488 2866,095 2886,827 2892,853 2912,132 2980,035 3039,637 3067,343 3105,578 3134,308 3100,107 3102,09 3115,13 3155,897 3247,255 3322,333 3341,458 3286,547 3262,552 3251,117 3232,98 3220,927 3181,265 3126,788 3092,24 3053,77 3022,845 2992,188 2935,275 2874,12 2828,65 2760,062 2676,242 2579,885 2487,685 2403,85 2329,24 2273,482 2234,167 2274,532 2322,657 2368,49 2406,498 2446,598 2502,12 2576,897 2652,83 2731,578 2789,627 2852,488 2922,445 2991,603 3066,095 3149,893 3190,603 3165,708 3172,613 3183,775 
2675,555 2689,228 2702,522 2720,578 2735,26 2807,992 2835,337 2849,268 2811,985 2789,117 2786,525 2784,583 2777,242 2779,445 2805,695 2813,3 2807,04 2809,597 2852,03 2890,02 2909,812 2909,472 2927,265 2964,3 2993,145 3066,527 3192,97 3299,597 3317,585 3309,877 3300,275 3299,782 3261,047 3196,72 3158,535 3136,69 3130,067 3160,325 3189,357 3149,748 3087,758 3045,623 3014,805 2981,323 2950,73 2921,085 2881,153 2852,415 2829,667 2803,268 2767,738 2736,71 2701,442 2662,01 2615,82 2577,285 2552,375 2539,665 2530,135 2517,83 2519,395 2525,805 2531,83 2561,75 2601,41 2639,77 2675,692 2710,725 2740,032 2763,815 2784,565 2797,575 2810,297 2824,522 2844,938 2874,275 2895,34 2908,765 2892,195 2850,02 2813,74 2778,062 2728,96 2673,395 2620,403 2569,875 2513,29 2480,117 2496,475 2538,167 2603,725 2661,57 2688,823 2713,885 2739,78 2770,002 2803,413 2821,857 2811,833 2830,907 2837,96 2850,36 2869,495 2873,587 2885,63 2909,552 2929,425 2960,705 3025,703 3096,555 3153,738 3166,018 3134,357 3130,587 3138,545 3187,75 3269,603 3288,498 3267,655 3230,165 3203,65 3200,863 3186,6 3176,025 3171,54 3142,81 3094,438 3055,032 3020,17 2970,188 2924,633 2885,925 2835,615 2757,425 2670,61 2573,495 2483,99 2389,435 2317,115 2266,06 2240,637 2304,022 2361,782 2405,195 2446,9 2500,915 2540,933 2574,083 2627,975 2706,552 2784,157 2860,285 2940,093 3020,28 3104,635 3177,702 3233,95 3252,765 3260,365 3275,177 
2704,823 2717,278 2721,625 2736,565 2764,345 2854,47 2866,613 2877,772 2826,345 2811,89 2805,863 2810,163 2808,397 2806,31 2823,998 2834,443 2834,163 2845,705 2901,635 2925,812 2928,89 2925,302 2943,84 2982,573 3011,125 3045,317 3109,048 3243,188 3288,89 3275,992 3227,157 3205,107 3198,095 3158,453 3112,022 3078,71 3056,728 3068,757 3096,49 3104,002 3093,7 3062,167 3028,25 2999,61 2969,405 2923,597 2867,488 2826,92 2795,498 2754,393 2716,097 2681,13 2642,663 2612,515 2580,883 2560,295 2551,32 2541,262 2534,362 2535,115 2544,75 2559,098 2587,695 2625,823 2658,337 2690,055 2724,85 2759,012 2783,46 2803,573 2826,353 2848,198 2858,277 2873,41 2899,06 2925,26 2926,885 2901,285 2864,843 2832,042 2797,603 2749,998 2691,153 2634,18 2575,312 2522,218 2489,75 2496,312 2525,302 2571,373 2634,3 2686,282 2717,03 2743,15 2773,127 2796,365 2810,675 2845,587 2854,06 2848,607 2859,91 2868,47 2877,177 2878,505 2893,262 2913,282 2939,212 2970,665 3009,123 3058,317 3131,645 3183,15 3162,573 3162,417 3170,097 3226,558 3234,973 3219,525 3213,762 3197,6 3168,712 3156,44 3139,272 3141,725 3130,165 3107,725 3078,363 3050,585 3017,69 2961,742 2910,85 2865,5 2811,94 2737,99 2660,808 2584,588 2496,857 2395,365 2313,883 2261,21 2249,772 2333,165 2396,778 2438,012 2486,692 2544,92 2600,49 2658,192 2687,05 2711,018 2786,19 2869,97 2947,097 3008,525 3071,295 3142,53 3216,302 3288,377 3321,935 3314,848 
2734,61 2752,615 2752,965 2762,42 2825,607 2904,453 2909,19 2892,853 2845,587 2837,735 2823,02 2831,067 2833,58 2832,083 2847,835 2854,775 2848,993 2883,677 2936,44 2953,393 2949,615 2945,035 2995,18 3026,94 3048,198 3068,177 3093,88 3194,008 3202,927 3196,107 3174,893 3131,107 3119,205 3110,637 3087,795 3043,397 3017,738 2998,603 2999,495 3025,147 3038,775 3028,68 3012,513 2995,393 2967,002 2919,893 2875,115 2829,685 2780,785 2727,198 2666,305 2617,723 2599,895 2587,208 2574,218 2567,795 2559,56 2550,772 2558,147 2562,738 2579,205 2607,663 2645,11 2674,485 2703,647 2740,31 2778,265 2799,785 2816,107 2843,455 2871,215 2888,863 2906,647 2928,055 2945,677 2940,925 2932,073 2889,982 2848,27 2815,083 2769,107 2709,145 2652,683 2596,597 2544,22 2502,34 2496,395 2514,538 2551,245 2591,488 2639,062 2691,545 2735,448 2764,475 2787,762 2806,002 2820,36 2852,048 2869,68 2867,238 2873,367 2884,3 2887,348 2900,505 2914,86 2928,552 2950,4 2989,788 3026,627 3043,85 3116,635 3208,637 3220,748 3208,292 3218,002 3236,22 3191,798 3175,385 3168,637 3157,442 3134,555 3122,047 3100,27 3083,998 3073,853 3064,225 3037,065 3021,51 2990,61 2948,63 2902,143 2846,505 2780,058 2706,333 2644,383 2577,258 2489,25 2395,038 2313,258 2257,395 2255,405 2340,988 2417,782 2467,95 2523,738 2590,54 2660,133 2727,367 2774,147 2785,393 2807,258 2861,965 2924,083 2981,083 3044,568 3124,522 3210,478 3288,942 3339,36 3346,397 
2772,655 2780,018 2785,103 2786,39 2843,562 2930,85 2929,032 2898,025 2873,433 2877,56 2878,135 2876,288 2866,63 2868,85 2884,808 2887,613 2876,945 2919,52 2959,087 2962,7 2962,887 2964,975 3038,87 3084,978 3081,82 3096,817 3140,765 3167,127 3152,315 3128,942 3108,585 3082,82 3066,863 3053,117 3042,583 3019,145 2996,298 2978,183 2953,613 2939,922 2939,363 2947,532 2946,605 2933,345 2924,107 2880,785 2844,755 2800,903 2748,51 2687,163 2638,665 2608,355 2599,758 2593,28 2583,052 2578,052 2567,035 2565,76 2580,835 2598,498 2634,615 2668,633 2695,637 2718,532 2753,788 2790,127 2826,225 2844,113 2859,873 2876,995 2899,752 2928,968 2961,597 2982,562 2964,95 2945,55 2922,657 2868,183 2825,098 2785,14 2726,73 2666,078 2612,94 2565,913 2523,705 2501,015 2508,827 2533,607 2579,255 2624,538 2651,745 2685,172 2733,38 2780,507 2806,325 2827,75 2858,555 2872,84 2884,545 2903,76 2901,363 2905,635 2910,045 2919,71 2930,005 2946,68 2969,208 3016,323 3049,085 3061,383 3100,975 3207,058 3282,188 3274,59 3259,84 3220,205 3174,012 3148,452 3133,58 3117,788 3095,798 3076,133 3050,27 3034,05 3020,81 3011,075 2995,095 2977,047 2956,472 2931,202 2889,042 2826,485 2740,623 2665,94 2599,71 2540,255 2462,863 2377,992 2309,087 2256,962 2261,887 2344,218 2433,368 2501,39 2553,305 2617,745 2695,268 2768,1 2834,863 2868,482 2881,228 2894,605 2946,775 2995,948 3063,99 3135,712 3221,468 3274,433 3283,093 3287,612 
2800,355 2799,605 2802,647 2801,11 2830,475 2914,715 2938,17 2937,113 2912,685 2917,752 2920,265 2913,427 2903,402 2937,335 2928,05 2926,513 2928,56 2966,585 2981,705 2978,018 2980,455 2989,613 3060,75 3144,49 3130,155 3162,765 3203,1 3171,738 3134,635 3109,96 3090,645 3073,76 3059,567 3046,12 3033,075 3015,827 2996,672 2977,103 2950,897 2926,045 2902,61 2877,465 2868,35 2852,585 2845,19 2818,653 2780,77 2734,73 2688,68 2649,248 2631,365 2622,215 2611,885 2602,167 2593,183 2583,558 2576,893 2588,085 2610,65 2655,547 2694,232 2723,43 2746,877 2768,365 2797,943 2828,443 2860,552 2886,13 2900,703 2922,077 2942,302 2966,73 2987,837 2975,06 2957,59 2945,105 2899,407 2847,805 2806,873 2757,712 2694,093 2633,62 2586,728 2543,02 2511,468 2509,103 2529,732 2565,69 2611,88 2661,522 2692,425 2716,268 2743,972 2778,198 2816,652 2859,94 2891,538 2902,65 2913,107 2926,333 2933,035 2926,66 2930,19 2937,623 2951,347 2973,675 2998,385 3038,143 3062,718 3075,935 3092,933 3196,51 3294,042 3269,05 3224,812 3189,087 3153,222 3111,167 3099,052 3076,5 3035,85 3031,31 2997,07 2975,81 2972,655 2966,265 2957,712 2946,583 2922,732 2899,458 2862,887 2789,99 2722,893 2660,107 2583,343 2500,962 2443,038 2373,51 2308,732 2258,002 2278,032 2344,46 2438,065 2520,325 2579,265 2636,09 2706,225 2779,36 2853,965 2915,935 2959,475 2993,978 3038,688 3074,95 3120,93 3184,438 3218,762 3192,55 3190,137 3203,445 
2822,958 2819,623 2816,005 2814,242 2841,395 2949,16 2980,698 2985,248 2963 2951,857 2965,285 2957,06 2962,913 2998,86 2959,885 2969,875 2990,547 3007,185 3017,995 3015,44 3008,265 3007,683 3067,343 3172,788 3213,445 3231,89 3240,58 3203,4 3140,172 3105,495 3091,35 3077,288 3062,245 3048,305 3034,087 3016,08 2996,17 2975,877 2952,083 2925,925 2901,883 2878,24 2849,192 2816,085 2781,998 2751,14 2717,935 2681,405 2656,922 2647,587 2640,07 2630,64 2618,242 2608,015 2598,893 2591,915 2604,307 2624,02 2671,917 2717,75 2742,667 2764,098 2787,345 2810,518 2837,755 2862,548 2889,545 2928,647 2940,77 2958,225 2977,085 2978,998 2960,062 2944,853 2931,855 2918,698 2864,735 2826,367 2784,208 2729,53 2667,085 2607,905 2566,625 2527,495 2515,498 2527,28 2560,155 2602,485 2646,647 2686,083 2723,302 2752,96 2778,435 2799,373 2825,867 2861,152 2890,425 2901,637 2929,248 2957,55 2988,075 2976,56 2964,13 2975,028 2988,073 3006,295 3029,478 3047,135 3074,387 3094,728 3105,343 3174,965 3258,417 3224,873 3192,623 3151,232 3116,36 3068,965 3040,933 3014,288 2984,995 2973,443 2960,965 2949,188 2943,948 2936,645 2926,238 2912,085 2893,91 2867,28 2823,085 2767,335 2709,857 2650,992 2568,255 2484,535 2415,242 2363,708 2302,797 2265,333 2300,422 2360,14 2457,058 2528,667 2598,228 2662,288 2727,21 2796,118 2855,965 2909,45 2952,2 2987,167 3032,203 3063,325 3092,69 3121,312 3131,775 3115,252 3105,422 3119,907 
2846,768 2842,012 2836,65 2831,16 2876,2 2993,343 3040,732 3046,087 3036,532 3013,915 3029,958 3030,49 3036,575 3030,03 2999,3 3011,968 3025,762 3038,445 3047,775 3041,022 3031,897 3031,32 3116,64 3231,625 3283,69 3283,315 3260,625 3199,302 3144,61 3111,353 3095,917 3083,468 3069,375 3058,902 3042,262 3018,833 2994,638 2972,145 2946,748 2915,768 2881,357 2851,032 2818,843 2787,062 2752,305 2718,765 2684,395 2670,387 2662,917 2655,417 2647,228 2636,867 2623,262 2611,905 2611,02 2623,67 2641,275 2688,208 2733,855 2767,427 2788,042 2805,155 2823,64 2843,385 2870,01 2894,143 2924,222 2961,018 2976,317 2984,32 2991,998 2971,292 2954,893 2925,55 2896,718 2871,15 2838,495 2802,837 2755,66 2693,087 2632,393 2588,05 2547,705 2524,958 2530,597 2552,445 2591,265 2634,55 2676,865 2715,525 2745,728 2776,985 2805,808 2827,863 2847,127 2864,312 2884,46 2896,907 2926,4 2970,073 3030,19 3038,742 3017,083 3022,725 3042,25 3058,078 3073,083 3088,578 3104,802 3119,547 3117,962 3172,35 3247,93 3198,735 3158,01 3104,91 3063,93 3030,353 3012,683 2992,998 2966,863 2949,4 2945,663 2939,667 2929,14 2915,353 2901,745 2886,835 2875,635 2843,1 2790,22 2734,052 2675,345 2610,032 2529,745 2465,593 2400,633 2340,482 2283,305 2278,137 2322,383 2379,26 2468,777 2551,093 2612,867 2682,1 2744,72 2797,015 2843,578 2891,073 2931,5 2954,113 2972,127 2985,44 3005,688 3025,635 3045,462 3042,393 3035,355 3037,79 
2870,73 2864,833 2857,657 2862,635 2918,597 3043,123 3115,627 3115,795 3111,552 3091,18 3086,195 3087,425 3108,458 3066,255 3034,9 3042,27 3053,538 3063,14 3065,11 3057,705 3054,065 3070,025 3136,788 3266,573 3327,863 3315,262 3267,182 3210,32 3169,502 3136,627 3117,42 3105,855 3089,468 3078,7 3062 3039,607 3014,113 2984,665 2946,157 2900,63 2865,393 2824,153 2781,828 2748,853 2727,268 2701,56 2684,692 2677,952 2671,348 2663,965 2655,562 2642,683 2623,81 2625,268 2646,382 2670,488 2688,653 2715,865 2766,792 2804,57 2823,21 2838,833 2862,52 2883,058 2908,755 2938,34 2973,367 3008,73 3019,603 3013,835 3000,438 2989,43 2949,062 2894,522 2865,202 2830,077 2801,36 2766,275 2708,73 2651,08 2606,92 2572,058 2540,21 2535,96 2553,105 2581,772 2621,385 2663,305 2706,242 2747,038 2774,335 2799,71 2822,405 2844,24 2860,922 2871,45 2886,905 2905,978 2929,177 2959,752 3014,562 3067,985 3089,61 3099,46 3111,09 3117,54 3123,625 3154,212 3159,958 3152,782 3156,252 3203,667 3224,618 3180,07 3121,052 3071,385 3036,002 3017,098 2997,863 2981,93 2953,7 2941,203 2932,907 2923,167 2917,222 2905,208 2885,165 2871,27 2857,712 2812,663 2756,438 2698,468 2643,345 2575,645 2511,535 2450,97 2383,083 2312,468 2273,757 2303,425 2353,817 2412,028 2484,095 2571,805 2629,895 2697,238 2751,738 2793,498 2828,55 2862,91 2901,705 2929,222 2947,347 2957,333 2967,958 2974,82 2982,333 2977,373 2972,335 2971,1 
2891,945 2887,028 2879,527 2902,768 2952,683 3061,825 3175,98 3199,015 3180,177 3138,15 3130,683 3140,315 3166,348 3119,095 3067,715 3067,87 3074,167 3079,31 3073,298 3068,455 3074,49 3111,223 3178,92 3281,12 3346,812 3325,123 3269,737 3233,38 3194,39 3161,958 3150,235 3141,853 3128,76 3116,665 3094,775 3071,93 3046,008 3015,562 2972,29 2914,13 2867,065 2821,25 2771,27 2732,073 2705,84 2697,782 2693,49 2687,29 2680,188 2671,797 2660,215 2643,302 2635,583 2662,127 2687,83 2710,972 2735,268 2743,238 2765,472 2823,183 2856,17 2875,495 2910,018 2937,04 2967,777 2992,455 3023,765 3042,155 3020,837 3011,952 3014,985 2997,15 2944,23 2895,933 2859,07 2821,987 2777,04 2725,54 2671,005 2627,047 2589,83 2555,617 2540,865 2554,817 2575,922 2608,573 2649,857 2691,135 2734,573 2777,508 2800,345 2820,462 2850,038 2857,973 2867,175 2880,41 2901,127 2914,835 2933,55 2955,847 2992,725 3049,232 3094,242 3140,938 3179,772 3180,975 3178,527 3229,23 3228,573 3219,03 3206,383 3179,202 3160,682 3143,46 3100,902 3053,445 3029,113 3007,788 2983,062 2962,83 2935,07 2920,475 2918,49 2913,585 2903,792 2888,917 2857,152 2843,96 2811,782 2770,815 2723,195 2671,855 2622,603 2567,272 2503,562 2431,99 2353,038 2285,73 2304,607 2334,98 2377,172 2440,62 2512,44 2596,28 2650,452 2695,192 2737,435 2771,77 2805,25 2844,865 2874,667 2891,788 2901,125 2911,945 2916,117 2918,61 2917,532 2914,278 2905,48 2907,593 
2903,275 2903,68 2913,453 2964,983 3008,413 3095,875 3187,487 3266,623 3218,873 3175,075 3176,353 3187,055 3203,027 3148,42 3096,33 3087,96 3093,448 3096,002 3092,738 3093,725 3105,623 3151,198 3246,28 3328,195 3375,855 3333,413 3287,855 3254,515 3219,188 3186,097 3180,373 3179,38 3176,095 3174,893 3152,355 3129,575 3108,365 3066,683 3005,768 2939,635 2882,475 2823,328 2766,837 2718,203 2712,413 2708,363 2702,748 2696,647 2688,743 2675,992 2660,058 2660,868 2686,238 2709,742 2725,19 2750,005 2777,71 2807,845 2818,7 2842,98 2886,453 2928,258 2966,54 3002,405 3039,59 3060,913 3072,113 3038,23 3010,38 3003,488 3003,208 2973,583 2934,708 2906,528 2867,532 2818,573 2766,272 2709,86 2656,907 2613,772 2577,012 2553,94 2549,093 2571,68 2601,167 2628,448 2666,675 2714,42 2757,808 2802,825 2823,985 2840,95 2876,115 2880,6 2878,66 2890,867 2907,972 2915,815 2937,09 2972,1 2992,885 3021,802 3062,587 3087,453 3149,015 3219,867 3275,075 3320,58 3312,85 3268,627 3196,055 3155,195 3123,237 3105,765 3089,167 3060,815 3026,535 2989,865 2969,93 2945,458 2921,402 2909,458 2894,962 2891,715 2878,202 2858,405 2818,61 2795,905 2764,265 2730,508 2689,258 2644,725 2599,752 2547,015 2475,252 2402,603 2320,387 2300,113 2341,04 2373,685 2429,583 2463,328 2538,107 2600,895 2645,552 2681,347 2711,258 2736,992 2770,9 2809,698 2829,998 2835,145 2842,565 2848,225 2848,397 2842,788 2836,265 2835,548 2833,117 2837,375 
2927,265 2939,27 2973,647 3025,167 3077,363 3153,83 3265,345 3312,11 3235,458 3203,502 3206,193 3211,047 3207,203 3162,655 3115,125 3098,965 3103,77 3113,417 3122,587 3125,335 3133,95 3188,413 3280,113 3388,99 3428,155 3375,86 3317,355 3285,188 3251,402 3224,137 3219,387 3227,105 3234,43 3201,857 3166,302 3155,232 3115,265 3057,395 3008,13 2942,26 2867,823 2807,377 2752,593 2724,238 2721,42 2716,59 2712,107 2706,745 2696,32 2677,46 2684,458 2711,962 2737,238 2751,855 2768,157 2797,585 2824,482 2868,455 2887,235 2906,103 2920,155 2967,698 3004,195 3053,913 3097,698 3100,97 3078,722 3028,962 3007,677 2991,028 2976,607 2955,7 2928,85 2904,38 2862,98 2806,595 2752,512 2697,863 2650,538 2605,482 2572,907 2556,12 2558,76 2588,788 2626,952 2654,555 2680,28 2713,685 2767,373 2816,58 2839,09 2863,055 2899,688 2902,425 2899,938 2907,302 2922,607 2935,26 2973,25 2999,647 3014,802 3026,432 3054,68 3076,327 3107,22 3172,593 3263,975 3342,067 3355,25 3268,238 3197,255 3145,49 3112,92 3081,65 3056,075 3031,045 3001,65 2974,94 2955,758 2927,305 2904,978 2880,88 2872,067 2865,815 2842,66 2814,458 2789,555 2756,63 2724,327 2686,057 2646,117 2604,407 2558,363 2506,198 2449,38 2383,833 2312,015 2310,72 2358,683 2395,433 2445,105 2486,475 2526,995 2575,07 2621,35 2656,567 2679,735 2701,143 2728,788 2754,765 2773,925 2781,337 2772,562 2767,275 2762,498 2749,3 2752,117 2753,532 2758,77 2772,92 
2996,123 3009,183 3037,18 3072,302 3134,12 3211,65 3303,36 3320,61 3245,17 3228,237 3224,397 3230,225 3247,698 3214,27 3137,883 3125,57 3134,042 3139,845 3142,647 3148,455 3164,65 3242,353 3318,228 3433,343 3466,193 3425,22 3371,08 3321,64 3277,915 3259,162 3258,43 3269,078 3220,478 3148,045 3103,298 3091,695 3075,825 3031,6 2975,27 2915,685 2849,718 2787,885 2738,29 2731,258 2728,425 2724,195 2721,087 2715,958 2701,232 2698,848 2727,528 2761,785 2783,373 2795,208 2820,228 2856,848 2881,952 2923,742 2942,075 2954,535 2970,953 3005,192 3036,292 3082,748 3081,748 3071,238 3064,113 3029,575 3001,508 2982,837 2959,3 2932,705 2909,317 2884,535 2843,835 2786,445 2730,85 2682,812 2638,137 2596,92 2571,562 2563,002 2571,387 2607,367 2653,785 2688,94 2712,877 2733,865 2765,363 2816,123 2851,765 2880,7 2922,675 2922,887 2919,295 2923,653 2945,045 2968,175 2988,565 3015,708 3036,123 3045,922 3061,433 3090,45 3115,845 3150,962 3202,448 3276,245 3341,59 3291,347 3211,435 3149,895 3097,715 3049,47 3013,965 2994,07 2979,11 2955,255 2932,453 2908,603 2881,875 2850,847 2834,015 2824,258 2796,208 2764,36 2737,78 2708,002 2671,833 2638,025 2607,728 2567,407 2526,868 2486,36 2432,673 2368,337 2309,127 2297,37 2342,995 2376,797 2424,093 2463,94 2505,147 2551,133 2585,97 2614,192 2627,59 2647,473 2673,975 2696,163 2711,442 2709,823 2686,415 2672,365 2663,235 2655,857 2664,607 2670,792 2684,255 2704,95 
3060,14 3070,72 3094,232 3131,478 3185,532 3278,255 3364,222 3337,995 3270,26 3252,883 3238,252 3247,297 3292,415 3282,515 3182,712 3162,87 3165,4 3166,68 3162,695 3162,35 3198,625 3278,185 3350,567 3471,627 3493,085 3468,595 3428,333 3361,268 3304,528 3287,258 3259,218 3213,097 3150,785 3092,805 3060,27 3038,445 3025,282 2990,275 2944,913 2892,452 2833,167 2767,165 2740,042 2738,55 2735,667 2732,652 2728,415 2722,33 2716,935 2743,04 2767,425 2798,84 2815,877 2828,145 2863,64 2918,515 2950,81 2990,857 3006,795 2996,413 3014,955 3049,9 3088,127 3111,038 3069,333 3046,355 3042,005 3027,462 2990,78 2971,578 2951,157 2928,823 2897,375 2851,347 2809,062 2757,327 2710,052 2666,985 2624,008 2590,167 2572,998 2575,72 2589,12 2632,228 2680,198 2722,52 2745,718 2773,845 2788,402 2823,897 2869,545 2893,623 2933,415 2952,625 2954,085 2951,828 2972,245 2992,17 3004,163 3026,617 3050,508 3058,647 3068,373 3106,087 3131,97 3161,323 3202,965 3266,292 3319,387 3285,185 3222,615 3147,915 3091,79 3046,09 2987,337 2947,9 2932,2 2921,172 2899,308 2882,44 2851,173 2817,482 2791,677 2771,67 2746,495 2719,472 2683,29 2656,285 2631,655 2607,72 2579,147 2546,478 2502,555 2450,145 2407,705 2354,328 2309,512 2301,073 2341,137 2376,192 2393,992 2435,583 2470,373 2504,042 2532,317 2548,975 2562,125 2575,565 2604,57 2622,667 2624,127 2614,95 2588,95 2576,395 2570,13 2560,305 2569,61 2588,103 2610,28 2633,425 
3116,663 3132,812 3165,525 3211,84 3264,065 3340,75 3437,587 3365,63 3295,152 3280,195 3267,7 3278,988 3331,347 3280,283 3210,917 3185,127 3186,167 3185,993 3178,643 3194,52 3253,163 3322,723 3396,047 3466,895 3459,4 3438,062 3379,595 3333,893 3294,907 3246,133 3208,375 3164,7 3109,238 3057,823 3013,238 2982,268 2964,828 2946,795 2917,172 2871,56 2810,91 2753,397 2747,208 2745,82 2743,938 2740,927 2733,525 2726,98 2740,58 2782,975 2807,512 2828,873 2846,762 2868,948 2913,475 2973,685 3027,508 3066,095 3056,675 3045,845 3060,48 3097,147 3134,06 3117,282 3067,357 3051,17 3038,663 3011,46 2989,735 2969,522 2952,95 2923,698 2884,558 2842,235 2794,325 2736,778 2689,672 2650,522 2614,155 2588,58 2580,593 2597,23 2622,252 2663,53 2707,545 2747,223 2780,25 2802,297 2820,77 2843,7 2869,345 2897,992 2929,835 2965,538 2987,535 2995,33 3008,407 3020,06 3025,427 3044,045 3067,64 3077,222 3088,77 3128,12 3153,76 3180,95 3224,458 3290,373 3265,917 3223,657 3174,228 3116,542 3062,567 3012,188 2968,682 2931,823 2905,48 2882,92 2871,2 2843,15 2813,67 2782,06 2749,395 2718,885 2697,835 2679,598 2644,53 2615,298 2595,96 2570,475 2544,855 2517,218 2485,395 2445,3 2402,66 2369,35 2326,095 2306,172 2329,535 2360,272 2379,275 2399,395 2425,453 2439,67 2452,692 2465,175 2475,16 2498,305 2522,68 2533,562 2524,765 2509,455 2501,965 2501,762 2497,593 2499,167 2509,817 2525,328 2545,295 2565,975 
3152,68 3183,46 3223,18 3277,268 3338,135 3397,248 3452,55 3364,765 3322,655 3310,518 3311,275 3358,73 3375,978 3311,605 3245,442 3203,73 3197,542 3199,042 3202,23 3246,31 3313,395 3368,25 3422,19 3427,277 3417,585 3398,645 3351,573 3299,49 3249,347 3210,825 3184,935 3145,735 3100,367 3050,87 2998,505 2958,847 2934,643 2910,165 2880,27 2838,05 2782,558 2755,163 2757,022 2755,288 2752,995 2748,245 2737,772 2736,755 2770,05 2818,203 2847,087 2870,583 2891,272 2922,43 2962,675 2991,107 3039,03 3097,78 3091,64 3092,672 3111,53 3147,117 3152,062 3114,54 3077,257 3053,337 3019,105 2986,41 2967,297 2949,82 2932,018 2904,228 2870,438 2830,038 2778,815 2728,115 2680,34 2639,847 2611,415 2595,353 2595,6 2616,042 2645,087 2679,047 2716,317 2754,248 2795,363 2824,107 2845,695 2861,82 2874,407 2896,103 2926,488 2963,265 2986,635 3019,255 3066,975 3073,683 3074,29 3079,105 3090,345 3102,387 3117,825 3155,9 3187,865 3210,165 3248,23 3269,958 3207,33 3177,373 3142,643 3094,385 3056,225 3012,185 2968,703 2922,455 2890,36 2854,64 2838,075 2807,895 2775,302 2742,462 2715,255 2686,393 2663,125 2645,597 2614,735 2583,015 2561,403 2540,94 2519,738 2495,788 2477,175 2463,427 2431,933 2390,248 2341,397 2311,103 2324,66 2361,123 2372 2379,587 2388,742 2391,792 2399,698 2407,76 2417,917 2436,145 2448,688 2454,76 2460,135 2466,225 2478,9 2500,065 2507,585 2499,98 2498,94 2501,917 2509,442 2520,965 
3199,385 3227,098 3268,59 3337,593 3400,895 3442,507 3418,94 3360,323 3345,188 3351,12 3403,093 3445,453 3397,635 3334,175 3276,84 3240,725 3223,157 3222,57 3244,475 3310,013 3370,413 3379,438 3368,308 3370,692 3368,84 3357,765 3334,353 3291,8 3248,11 3206,387 3172,812 3136,145 3096,62 3053,123 3006,745 2963,525 2925,163 2896,183 2857,55 2814,522 2766,877 2765,883 2766,732 2765,093 2761,823 2754,347 2743,595 2759,96 2806,025 2848,743 2882,692 2908,532 2934,085 2966,657 2997,843 3022,195 3049,857 3076,677 3105,02 3143,715 3173,89 3183,383 3142,97 3116,97 3095,175 3057,41 3013,133 2975,63 2946,96 2929,212 2912,56 2892,177 2860,327 2821,82 2775,06 2725,328 2673,732 2635,387 2613,87 2610,28 2615,877 2625,143 2656,905 2688,88 2721,107 2765,208 2800,385 2836,173 2860,462 2874,215 2886,762 2900,31 2925,76 2954,415 2979,045 3010,145 3046,643 3097,843 3139,54 3144,88 3127,302 3139,195 3158,78 3189,625 3213,538 3229,968 3251,895 3224,663 3177,032 3139,53 3111,24 3086,305 3059,887 3018,768 2974,36 2927,698 2883,53 2838,435 2798,472 2772,052 2739,478 2715,515 2692,182 2666,12 2643,688 2621,877 2587,615 2559,097 2539,732 2521,817 2504,71 2497,21 2500,2 2492 2455,883 2409,34 2360,377 2322,735 2342,488 2391,855 2397,235 2400,955 2417,505 2427,305 2428,505 2422,905 2425,357 2437,462 2456,562 2473,885 2495,885 2510,125 2531,258 2554,33 2568,993 2554,742 2533,778 2524,183 2515,843 2519,877 
3255,23 3281,005 3320,225 3393,93 3465,708 3464,3 3400,17 3378,252 3377,547 3411,897 3476,873 3462,25 3396,75 3349,183 3310,368 3283,752 3267,565 3267,89 3307,558 3360,88 3367,788 3331,795 3315,683 3314,637 3315,875 3311,113 3301,455 3293,88 3270,552 3221,823 3167,802 3122,992 3092,308 3052,587 3017,137 2966,45 2909,67 2879,54 2844,945 2798,192 2771,755 2774,812 2775,607 2775,32 2770,672 2761,43 2756,56 2792,567 2832,277 2874,65 2906,557 2942,278 2974,775 3010,675 3035,25 3058,025 3083,442 3098,895 3127,925 3196,103 3210,345 3179,7 3147,762 3125,92 3095,133 3049,655 3004,113 2968,7 2937,188 2922,51 2916,597 2891,843 2860,06 2822,995 2769,153 2714,348 2667,538 2633,69 2616,01 2624,152 2637,453 2642,16 2672,377 2705,595 2731,183 2765,373 2814,34 2855,312 2875,083 2890,2 2904,183 2924,743 2931,025 2949,567 2978,55 3010,455 3023,093 3050,863 3098,778 3146,385 3172,337 3177,905 3189,107 3217,278 3237,893 3253,833 3247,42 3191,315 3152,488 3115,103 3088,857 3070,488 3033,515 2991,617 2956,288 2922,163 2873,185 2822,195 2783,96 2738,827 2708,758 2689,21 2664,627 2637,915 2613,232 2586,845 2560,413 2539,708 2526,288 2522,083 2528,33 2538,353 2554,617 2531,328 2479,603 2430,22 2376,15 2335,903 2358,028 2414,875 2423,495 2431,468 2454,893 2482,613 2494,555 2494,73 2485,49 2492,645 2512,35 2532,673 2556,06 2574,305 2594,4 2615,195 2635,552 2639,828 2620,343 2601,062 2571,195 2556,002 
3310,008 3341,248 3372,75 3443,115 3506,613 3450,762 3412,258 3405,198 3417,75 3483,258 3525,835 3483,875 3413,442 3370,785 3340,823 3314,343 3300,333 3318,087 3331,998 3323,245 3310,56 3280,097 3268,195 3262,698 3264,252 3262,688 3257,738 3249,002 3239,422 3242,91 3194,725 3137,657 3096,508 3053,518 3017,048 2970,348 2923,448 2883,502 2845,347 2794,175 2780,79 2785,02 2788,532 2787,927 2780,66 2773,512 2777,635 2816,92 2848,792 2896,817 2949,295 2993,538 3027,49 3056,522 3076,21 3099,902 3118,337 3131,458 3166,067 3190,45 3174,282 3164,952 3143,975 3102,113 3082,498 3050,63 3015,125 2962,805 2947,812 2934,68 2910,218 2880,547 2865,458 2823,91 2757,907 2705,752 2663,123 2633,325 2620,7 2633,795 2655,73 2665,167 2679,825 2708,775 2733,627 2762,185 2808,54 2860,575 2886,79 2898,525 2924,132 2949,645 2952,755 2962,833 2980,24 3008,748 3028,617 3043,587 3064,087 3101,9 3142,308 3171,927 3225,855 3272,643 3294,373 3297,745 3225,81 3172,62 3134,495 3104,147 3067,33 3030,718 2989,1 2946,218 2918,455 2885,848 2847,323 2804,188 2757,615 2710,383 2682,347 2662,535 2637,76 2604,46 2578,35 2559,728 2545,44 2539,558 2542,323 2555,188 2580,16 2599,482 2613,01 2579,042 2515,823 2457,403 2392,062 2354,185 2373,637 2438,032 2454,62 2483,972 2508,752 2542,657 2552,268 2559,335 2577,327 2574,613 2584,367 2597,873 2618,103 2645,845 2667,16 2688,088 2706,17 2725,695 2714,157 2685,693 2654,135 2624,982 
3389,333 3417,29 3441,953 3490,635 3527,52 3501,948 3478,355 3467,192 3492,703 3577,61 3586,68 3514,03 3439,183 3396,065 3367,828 3348,13 3343,612 3321,34 3293,745 3276,805 3248,427 3233,893 3227,065 3220,29 3215,98 3213,722 3212,493 3205,15 3186,6 3182,922 3195,39 3158,11 3119,333 3080,21 3042,417 3007,843 2976,468 2919,4 2864,573 2801,323 2799,677 2802,52 2805,133 2802,172 2791,873 2787,63 2803,015 2833,57 2861,44 2911,455 2966,96 3026,183 3068,683 3091,042 3111,295 3132,08 3147,625 3170,635 3213,2 3166,748 3143,605 3126,972 3109,212 3078,518 3053,302 3042,89 3020,333 2976,265 2958,258 2935,843 2903,772 2885,973 2865,75 2805,547 2744,448 2695,333 2657,317 2634,508 2628,232 2643,205 2667,895 2685,712 2698,035 2717,998 2741,863 2778,49 2815,042 2861,042 2890,827 2919,522 2956,2 2972,042 2974,177 2981,018 2991,812 3007,837 3033,485 3052,492 3065,905 3081,633 3106,532 3139,968 3184,94 3245,317 3288,225 3300,583 3219,265 3166,425 3138,518 3106,55 3060,61 3003,71 2955,305 2918,228 2887,52 2857,455 2827,488 2775,815 2720,272 2685,633 2661,042 2636,53 2609,272 2577,397 2561,627 2559,51 2563,15 2570,848 2588,022 2613,478 2648,02 2673,137 2680,877 2625,788 2552,083 2482,367 2410,863 2372,74 2390,737 2455,377 2477,228 2510,69 2562,355 2603,873 2631,857 2631,94 2659,56 2672,573 2679,748 2693,988 2704,268 2713,115 2735,098 2755,16 2777,99 2800,955 2802,155 2763,075 2724,837 2689,275 
3356,9 3389,27 3402,968 3448,115 3487,962 3491,487 3511,708 3555,16 3607,73 3668,133 3618,528 3533,933 3465,617 3423,042 3385,515 3359,458 3334,508 3301,53 3267,4 3245,285 3206,933 3183,882 3177,343 3180,913 3180,953 3175,422 3168,895 3155,195 3138,368 3119,073 3102,305 3103,87 3092,078 3057,28 3030,953 3006,323 2966,413 2924,19 2872,215 2829,445 2824,857 2820,593 2821,333 2817,772 2807,593 2802,605 2822,52 2857,48 2885,715 2930,055 2993,855 3066 3104,667 3120,607 3144,532 3164,637 3182,595 3215,46 3242,53 3190,28 3147,297 3091,04 3068,85 3057,238 3040,478 3021,458 2992,34 2968,825 2952,587 2935,758 2915,92 2895,183 2857,172 2791,522 2733,262 2683,64 2656,448 2641,823 2639,265 2650,587 2675,373 2702,41 2714,722 2732,075 2759,615 2796,123 2840,295 2872,65 2901,245 2939,688 2980,712 2986,958 2990,282 2998,615 3004,498 3013,805 3036,985 3061,123 3079,032 3094,58 3113,765 3142,018 3176,228 3217,252 3253,683 3268,835 3222,788 3182,11 3146 3102,387 3050,827 2986,135 2937,077 2902,778 2866,343 2838,825 2792,562 2738,873 2695,225 2664,89 2634,46 2606,738 2583,848 2571,49 2572,417 2597,035 2612,667 2625,162 2655,502 2692,123 2728,083 2748,275 2717,025 2647,627 2574,853 2502,002 2421,745 2388,863 2405,078 2470,34 2496,808 2539,17 2595,825 2661,328 2699,183 2717,155 2725,38 2733,532 2753,282 2775,788 2796,718 2799,34 2802,688 2825,305 2861,258 2891,34 2893,413 2834,015 2789,583 2747,495 
3293,55 3337,71 3361,637 3424,073 3450,505 3458,63 3471,67 3558,782 3664,347 3694,05 3610 3536,777 3463,047 3413,485 3370,685 3343,022 3310,675 3282,735 3248,938 3216,13 3171,962 3160,875 3153,915 3147,93 3147,845 3147,63 3138,26 3116,738 3098,183 3078,982 3050,277 3042,825 3045,035 3024,755 2998,595 2972,445 2940,96 2906,15 2862,86 2841,907 2837,583 2832,848 2833,067 2829,613 2821,133 2821,797 2843,363 2884,905 2925,015 2958,525 3021,482 3109,672 3161,095 3180,28 3210,232 3216,665 3231,03 3261,905 3253,328 3219,873 3139,183 3067,905 3044,762 3041,705 3035,597 3006,925 2974,823 2954,087 2940,81 2927,893 2911,075 2876,965 2832,393 2773,397 2716,698 2675,913 2660,782 2649,64 2650,778 2659,998 2682,123 2715,485 2746,135 2752,998 2782,65 2822,015 2867,298 2893,955 2901,015 2941,19 2985,855 2996,77 3005,79 3014,735 3017,865 3021,498 3037,04 3062,775 3088,885 3109,222 3127,012 3148,417 3178,755 3219,415 3260,09 3232,14 3169,327 3133,285 3113,56 3077,393 3035,353 2983,305 2933,198 2891,74 2858,625 2814,027 2758,433 2709,86 2672,48 2635,64 2606,393 2587,965 2580,4 2582,135 2601,507 2640,917 2671,297 2703,795 2751,573 2765,475 2784,633 2765,92 2717,883 2651,232 2579,525 2497,627 2430,873 2404,02 2429,475 2487,675 2513,23 2571,953 2620,035 2680,538 2732,835 2779,828 2804,607 2818,728 2846,223 2862,627 2888,42 2896,2 2890,833 2897,835 2940,34 2981,675 2976,027 2905,815 2852,89 2808,66 
3257,765 3299,96 3343,045 3413,758 3426,243 3437,417 3446,768 3512,22 3635,035 3684,215 3609,282 3539,25 3461,21 3408,897 3368,643 3335,442 3296,525 3268,625 3243,423 3203,242 3163,117 3153,31 3141,367 3125,275 3114,663 3108,64 3101,152 3084,935 3063,135 3043,972 3012,192 3001,67 3004,66 2994,413 2964,32 2938,625 2904,857 2878,823 2864,885 2855,758 2845,78 2841,89 2839,8 2836,027 2831,562 2842,25 2872,258 2910,833 2956,17 2991,242 3050,835 3150,298 3223,337 3244,83 3250,48 3252,615 3257,85 3248,423 3236,455 3215,887 3160,39 3077,107 3036,31 3029,485 3021,455 2997,01 2966,032 2936,182 2918,77 2906,057 2888,772 2858,99 2807,532 2751,42 2699,897 2673,032 2661,175 2654,083 2656,23 2672,51 2695,857 2727,255 2768,933 2794,032 2812,073 2850,265 2884,77 2898,28 2906,81 2946,265 2992,208 3005,385 3016,177 3023,65 3026,64 3030,777 3039,327 3061,817 3096,94 3124,295 3142,058 3161,172 3187,373 3230,445 3255,885 3191,3 3122,375 3082,748 3074,038 3054,77 3028,09 2987,482 2938,88 2890,593 2833,903 2780,177 2731,083 2685,218 2646,06 2616,26 2597,145 2589,02 2598,103 2620,008 2649,065 2703,982 2738,8 2787,512 2822,982 2812,248 2798,052 2744,473 2684,258 2618,218 2540,677 2467,565 2440,075 2427,225 2464,927 2521,225 2538,005 2578,44 2648,965 2692,725 2734,825 2791,33 2850,915 2886,625 2932,723 2969,93 2997,37 2994,285 2984,51 2981,23 3018,282 3045,012 3032,742 2968,113 2919,498 2881,708 
3239,39 3275,725 3337,988 3387,365 3407,012 3422,863 3433,228 3481,522 3610,155 3690,65 3657,262 3584,29 3495,718 3427,913 3374,637 3324,06 3285,147 3250,748 3234,513 3208,055 3170,558 3142,323 3125,147 3110,103 3098,465 3084,86 3071,123 3052,823 3029,512 3008,945 2981,982 2960,823 2956,265 2948,285 2928,688 2902,445 2885,805 2880,958 2873,723 2861,468 2853,615 2848,385 2843,81 2838,53 2843,265 2865,625 2896,96 2936,79 2988,62 3025,055 3077,532 3166,238 3246,282 3244,71 3234,498 3246,728 3231,49 3193,462 3180,57 3166,935 3146,65 3092,225 3030,96 3016,755 3004,225 2988,938 2966,578 2936,192 2910,49 2889,623 2858,305 2825,073 2780,498 2726,715 2689,067 2671,728 2662,16 2659,09 2668,032 2687,28 2714,462 2741,63 2781,755 2820,638 2840,498 2867,952 2897,24 2900,9 2924,05 2968,232 2996,708 3010,995 3027,762 3034,105 3039,208 3045,143 3052,143 3078,085 3124,25 3141,422 3157,275 3177,2 3203,925 3207,475 3193,385 3152,723 3094,312 3053,468 3034,337 3010,71 2984,387 2950,232 2902,055 2859,192 2804,845 2749,598 2701,518 2661,637 2631,085 2611,453 2600,012 2604,913 2633,192 2673,397 2713,238 2778,058 2819,438 2848,683 2838,073 2813,877 2776,55 2700,877 2627,463 2558,84 2494,022 2452,228 2447,897 2467,37 2503,208 2553,785 2594,655 2614,123 2648,897 2707,167 2757,073 2795,54 2844,495 2891,775 2941,085 3022,772 3088,07 3092,635 3087,83 3073,012 3103,817 3118,343 3107,527 3038,95 2989,05 2925,03 
3236,292 3287,14 3332,155 3370,433 3395,527 3416,147 3433,56 3480,448 3597,945 3670,095 3646,54 3569,81 3471,825 3414,877 3382,472 3348,218 3280,535 3242,475 3219,84 3199,917 3172,795 3125,695 3104,845 3102,218 3093,68 3077,14 3064,485 3039,998 3014,093 2988,613 2962,667 2951,53 2943,785 2934,157 2920,605 2904,75 2894,26 2886,137 2875,755 2866,87 2860,137 2853,147 2844,94 2847,583 2869,565 2901,138 2934,04 2971,788 3022,78 3056,442 3113,847 3181,198 3241,022 3216,698 3205,208 3215,307 3183,89 3153,677 3147,277 3138,105 3110,032 3073,78 3037,238 3020,78 3004,75 2990,285 2967,893 2940,762 2920,81 2894,31 2854,688 2800,393 2747,768 2706,542 2683,232 2671,635 2668,585 2672,567 2682,415 2701,555 2730,52 2771,755 2816,468 2840,087 2867,385 2889,25 2897,583 2902,208 2944,282 2993,81 3000,805 3020,942 3047,84 3053,788 3058,23 3060,712 3064,127 3086,03 3167,96 3191,015 3203,518 3225,938 3211,91 3158,537 3127,387 3107,285 3075,603 3035,8 3009,968 2978,095 2939,797 2908,008 2880,665 2839,302 2782,8 2729,978 2680,805 2648,438 2627,06 2615 2613,728 2637,125 2679,812 2738,95 2787,097 2831,067 2875,345 2866,51 2820,742 2783,532 2726,768 2655,353 2582,887 2527,397 2486,143 2490,083 2499,427 2519,935 2556,012 2610,278 2668,5 2686,443 2696,152 2725,337 2768,172 2810,538 2847,893 2879,502 2922,38 2971,962 3036,185 3098,348 3139,877 3161,995 3178,192 3198,675 3176,495 3096,26 3011,257 2941,337 
3227,647 3281,252 3322,877 3355,397 3383,17 3410,94 3437,292 3489,43 3566,645 3621,26 3624,177 3548,76 3456,512 3401,262 3376,712 3355,532 3315,495 3264,752 3199,935 3182,08 3166,512 3133,755 3104,268 3096,175 3086,762 3075,93 3057,377 3030,607 3007,35 2989,56 2970,705 2953,748 2942,552 2932,093 2920,265 2907,843 2898,23 2889,15 2879,445 2871,573 2864,732 2856,383 2854,512 2877,255 2923,925 2967,425 2998,415 3029,792 3056,397 3085,345 3146,24 3223,343 3235,298 3181,357 3163,927 3172,22 3153,18 3126,86 3116,583 3104,688 3083,3 3067,46 3036,285 3024,87 3009,73 2992,603 2966,788 2942,065 2925,198 2885,94 2832,113 2773,008 2725,808 2695,255 2683,272 2684,933 2685,68 2688,738 2696,585 2719,292 2767,163 2807,865 2846,512 2862,353 2876,913 2888,248 2909,403 2941,345 2985,645 3016,407 3021,63 3044,562 3069,103 3073,805 3074,265 3073,718 3074,78 3098,645 3189,867 3273,752 3276,663 3234,93 3188,88 3146,027 3121,762 3098,83 3069,92 3032,785 3003,725 2963,72 2906,623 2879,127 2852,482 2817,08 2776,015 2725,115 2677,585 2648,242 2630,292 2623,49 2640,62 2683,445 2738,363 2809,218 2858,53 2900,403 2910,847 2855,085 2788,887 2739,578 2679,998 2598,272 2547,032 2519,425 2514,208 2534,895 2553,345 2580,748 2620,135 2680,383 2740,135 2766,062 2769,77 2780,705 2798,992 2826,482 2866,345 2893,16 2923,875 2960,925 2994,33 3030,34 3067,435 3134,653 3200,143 3243,478 3202,942 3120,61 3034,975 2961,123 
3202,288 3241,978 3287,798 3336,407 3370,595 3405,235 3438,82 3478,57 3509,578 3554,847 3594,675 3550,985 3463,045 3385,13 3363,683 3347,275 3324,637 3285,177 3212,502 3166,032 3154,825 3134,86 3111,935 3097,205 3077,297 3066,308 3053,808 3023,498 2999,48 2986,317 2969,49 2951,857 2938,79 2928,857 2919,653 2911,1 2902,55 2892,88 2882,965 2877,205 2872,708 2879,21 2898,708 2922,91 2978,887 3035,3 3078,985 3086,962 3091,212 3110,885 3160,442 3220,183 3211,948 3172,68 3146,712 3146,058 3140,093 3121,948 3108,78 3082,038 3061,825 3049,8 3036,742 3026,103 3002,933 2982,573 2962,683 2940,417 2905,262 2851,08 2796,085 2747,597 2711,12 2694,455 2695,57 2705,215 2700,498 2701,103 2711,115 2745,895 2794,817 2825,382 2854,605 2870,248 2875,49 2892,223 2938,705 2988,462 3020,938 3032,897 3042,465 3062,78 3082,657 3088,9 3085,823 3086,695 3089,002 3119,055 3201,33 3300,015 3285,23 3236,115 3196,105 3158,312 3132,445 3106,905 3074,645 3033,155 2985,08 2950,385 2918,38 2895,99 2855,075 2805,978 2759,118 2714,44 2675,155 2649,095 2634,738 2639,425 2678,995 2738,472 2803,945 2864,845 2919,938 2937,797 2886,98 2816,817 2762,973 2698,482 2631,685 2575,562 2554,845 2533,035 2553,755 2590,817 2611,583 2642,062 2691,82 2758,547 2805,01 2842,637 2842,218 2835,25 2843,163 2867,555 2901,277 2922,23 2941,718 2974,297 3008,9 3034,43 3059,15 3089,413 3149,478 3222,228 3195,92 3129,228 3043,87 2974,445 
3151,453 3189,962 3230,055 3296,147 3343,21 3396,093 3435,758 3462,507 3484,465 3505,34 3530,125 3531,115 3440,785 3358,035 3339,87 3332,958 3317,685 3285,018 3235,143 3179,735 3150,343 3128,1 3118,85 3108,7 3077,855 3055,01 3044,715 3022,88 3001,873 2983,802 2965,768 2950,573 2939,775 2930,772 2921,43 2913,163 2904,802 2896,202 2891,812 2893,975 2906,045 2926,742 2949,61 2987,177 3049,58 3107,998 3146,407 3136,738 3124,823 3139,532 3173,155 3187,29 3185,785 3161,798 3149,87 3146,63 3144,083 3124,735 3097,065 3068,552 3052,275 3042,948 3034,34 3019,96 2995,31 2978,945 2951,36 2909,625 2865,637 2810,955 2764,355 2725,975 2705,97 2708,955 2714,21 2722,255 2713,825 2716,877 2737,005 2767,752 2798,06 2830,415 2858,435 2885,453 2894,015 2926,933 2980,735 3020,075 3042,315 3048,627 3056,29 3081,54 3098,19 3101,337 3098,1 3102,732 3108,598 3130,14 3213,407 3301,617 3318,04 3268,167 3223,613 3190,475 3162,133 3127,703 3092,53 3041,133 2995,952 2961,073 2941,698 2905,51 2848,407 2798,218 2754,56 2708,055 2671,65 2651,165 2646,177 2668,61 2722,17 2795,21 2864,215 2923,795 2964,862 2931,62 2855,62 2799,598 2741,218 2672,225 2613,637 2590,732 2568,857 2563,748 2602,873 2648,903 2676,94 2708,845 2750,525 2811,627 2867,145 2925,795 2916,115 2896,19 2891,82 2908,137 2935,848 2954,33 2972,018 3008,742 3038,538 3057,55 3082,465 3114,988 3174,917 3185,93 3132,593 3081,667 3024,805 2962,052 
3093,425 3126,015 3165,755 3226,58 3293,157 3363,665 3410,292 3445,11 3464,685 3478,77 3486,455 3451,953 3388,938 3343,445 3320,383 3316,72 3308,328 3287,38 3253,522 3210,458 3160,085 3126,137 3126,925 3117,245 3076,105 3045,417 3040,047 3029,955 3014,785 2994,407 2974,617 2959,245 2946,393 2936,215 2922,84 2914,54 2907,515 2907,63 2920,258 2933,765 2953,99 2979,183 3010,593 3059,152 3121,915 3173,415 3195,05 3183,052 3158,942 3155,085 3152,43 3151,84 3133,565 3114,06 3117,317 3135,208 3134,285 3106,48 3073,857 3052,495 3033,968 3019,677 3007,208 3003,058 2982,583 2952,68 2911,042 2867,008 2819,93 2778,758 2746,375 2716,005 2714,393 2726,903 2730,76 2737,307 2729,05 2735,305 2767,127 2792,415 2820,175 2835,32 2873,515 2911,705 2931,64 2971,458 3015,808 3048,188 3059,715 3064,49 3087,385 3109,792 3118,03 3114,2 3106,625 3112,775 3122,775 3138,145 3202,837 3269,265 3327,853 3306,232 3259,725 3221,735 3203,345 3139,815 3065,508 3009,823 2968,277 2938,442 2910,925 2883,425 2836,775 2791,348 2751,488 2704,657 2669,302 2656,74 2665,873 2705,823 2761,615 2831,46 2897,5 2966,397 2970,677 2905,573 2831,855 2783,137 2720,593 2656,035 2626,11 2608,448 2580,71 2599,6 2651,69 2709,028 2750,667 2777,22 2813,845 2866,002 2923,53 2994,665 2998,718 2965,21 2963,22 2980,492 2986,163 3000,73 3013,127 3057,435 3083,82 3101,597 3128,672 3167,02 3187,15 3127,56 3080,885 3039,37 2989,82 2938,88 
3026,225 3065,068 3120,045 3212,755 3296,945 3343,81 3386,027 3413,958 3438,597 3454,512 3453,167 3418,768 3371,325 3343,528 3320,113 3309,695 3297,99 3282,635 3264,623 3234,655 3193,715 3154,44 3141,692 3129,81 3085,335 3050,347 3043,26 3037,725 3026,225 3004,472 2985,288 2975,255 2962,738 2951,448 2939,44 2942,157 2952,36 2960,177 2972,637 2990,283 3009,005 3036,578 3072,627 3142,573 3175,907 3181,725 3172,458 3155,675 3129,465 3121,1 3118,917 3107,225 3065,633 3063,427 3063,583 3094,752 3118,315 3077,745 3030,095 3009,262 3000,08 2986,883 2979,595 2965,35 2941,817 2913,732 2875,218 2831,988 2792,018 2757,28 2737,315 2718,012 2726,48 2740,425 2744,542 2750,123 2747,77 2756,965 2793,38 2825,985 2839,692 2857,38 2891,837 2947,603 2982,275 3025,165 3061,68 3074,985 3081,87 3096,65 3115,79 3127,333 3131,093 3125,885 3118,562 3122,203 3132,64 3150,345 3177,875 3223,73 3319,978 3336,198 3298,663 3274,935 3246,982 3159,667 3068,167 2998,163 2964,915 2943,367 2916,393 2876,01 2830,377 2788,6 2747,06 2701,653 2671,377 2668,98 2693,127 2738,77 2795,863 2863,593 2919,758 2990,558 2955,475 2878,032 2814,835 2762,33 2695,578 2659,49 2640,962 2610,397 2600,073 2636,485 2698,56 2761,99 2806,583 2842,593 2874,935 2929,27 2986,215 3047,008 3076,968 3048,988 3057,68 3075,31 3053,66 3051,657 3085,427 3121,425 3137,973 3166,692 3201,593 3227,155 3169,295 3112,955 3070,292 3014,542 2963,865 2931,33 
2977,1 3030,478 3101,58 3229,2 3319,402 3370,94 3390,093 3388,345 3400,272 3424,272 3435,605 3450,913 3391,897 3345,282 3329,095 3313,21 3292,968 3273,493 3260,618 3237,55 3209,252 3180,167 3152,465 3136,615 3103,77 3065,913 3052,58 3047,745 3035,817 3007,01 2995,14 2990,047 2987,215 2990,39 2997,7 3002,155 3008,877 3024,627 3042,315 3061,415 3077,132 3104,228 3146,258 3201,25 3196,127 3147,617 3110,645 3090,815 3064,377 3058,005 3054,627 3050,805 3015,403 2999,645 2993,147 3027,688 3079,728 3052,86 3002,837 2976,488 2962,387 2950,992 2944,99 2926,43 2909,19 2877,605 2837,718 2797,422 2764,75 2739,623 2735,137 2734,99 2738,91 2752,26 2757,415 2764,8 2769,198 2780,242 2818,252 2851,335 2872,54 2881,542 2925,395 2978,165 3024,907 3065,232 3089,453 3098,92 3121,232 3129,298 3134,258 3138,965 3140,615 3137,83 3138,738 3141,185 3147,708 3160,44 3190,185 3247,515 3320,828 3367,367 3336,922 3310,362 3238,685 3148,992 3075,653 3022,025 2994,79 2975,243 2947,663 2889,735 2833,43 2791,933 2744,782 2703,837 2679,587 2694,438 2736,055 2781,768 2835,607 2896,475 2955,03 2998,272 2933,71 2866,873 2807,085 2737,508 2690,422 2679,423 2659,103 2625,538 2629,03 2686,66 2741,657 2801,627 2848,53 2901,905 2947,427 3009,387 3069,885 3111,087 3144,245 3136,525 3157,058 3162,692 3129,302 3129,343 3141,828 3168,538 3190,103 3223,302 3293,04 3248,297 3177,647 3111,353 3068,7 3017,51 2981,025 2959,715 
2958,708 3047,885 3141,13 3287,79 3372,577 3403,297 3361,462 3365,46 3363,785 3383,743 3409,66 3430,335 3455,065 3381,195 3351,458 3329,625 3304,775 3275,562 3253,522 3232,798 3211,56 3182,26 3157,63 3144,405 3117,255 3084,375 3069,032 3064,177 3055,58 3034,768 3033,355 3033,525 3033,965 3042,853 3046,242 3047,598 3066,845 3086,93 3109,738 3127,623 3152,828 3193,225 3222,5 3195,125 3155,32 3112,367 3076,917 3051,285 3008,667 2990,15 2983,775 2973,998 2973,657 2953,127 2937,073 2961,235 3029,335 3023,115 2981,535 2957,895 2938,833 2914,837 2901,127 2886,845 2865,285 2835,19 2799,588 2772,058 2747,715 2737,353 2737,84 2743,175 2749,53 2763,433 2771,26 2780,718 2793,377 2812,507 2842,815 2867,84 2889,13 2924,26 2973,53 3022,993 3070,085 3093,59 3108,242 3119,913 3147,29 3151,665 3152,022 3155,058 3152,7 3151,877 3153,65 3157,147 3162,893 3173,45 3209,145 3300,828 3347,37 3374,02 3322,325 3275,123 3227,347 3142,222 3083,347 3051,468 3033,69 3006,46 2953,768 2892,225 2837,335 2793,302 2746,542 2704,242 2697,663 2732,277 2777,17 2831,032 2884,682 2951,79 3011,258 2989,435 2916,38 2848,703 2784,11 2721,562 2705,32 2695,545 2682,633 2652,005 2660,758 2732,795 2785,688 2827,305 2864,992 2915,458 2970,708 3013,703 3041,18 3067,395 3114,988 3188,205 3243,415 3258,015 3250,482 3259,61 3242,613 3223,6 3223,25 3249,085 3312,245 3243,085 3171,8 3120,363 3076,712 3039,792 3010,14 2992,498 
2976,422 3099,305 3199,755 3273,777 3338,777 3335,228 3319,17 3332,413 3332,488 3331,55 3362,01 3386,5 3459,658 3441,665 3395,683 3336,4 3300,88 3288,542 3256,2 3234,25 3214,195 3192,315 3184,28 3182,56 3168,192 3157,12 3140,795 3122,232 3102,18 3088,755 3078,768 3073,265 3074,645 3079,448 3087,68 3113,143 3143,022 3147,72 3167,53 3187,258 3212,01 3185,495 3181,045 3143,245 3106,49 3073,84 3055,723 3016,64 2967,43 2936,675 2920,065 2902,97 2897,87 2886,098 2884,46 2920,25 2986,95 2987,258 2964,84 2939,143 2916,7 2894,725 2868,762 2854,925 2828,468 2796,255 2773,413 2754,94 2743,962 2749,663 2748,62 2748,455 2759,942 2774,22 2786,75 2798,932 2823,988 2842,708 2863,377 2883,845 2905,998 2958,202 3037,72 3097,042 3105,772 3121,228 3132,333 3142,093 3157,062 3182,373 3177,163 3178,865 3173,573 3169 3167,012 3167,24 3175,43 3191,535 3232,722 3325,025 3342,828 3310,735 3276,255 3240,565 3215,14 3171,643 3137,078 3099,05 3061,258 3010,522 2953,672 2900,547 2852,97 2805,965 2750,73 2717,27 2727,397 2779,515 2825,407 2881,667 2934,91 3005,655 3039,847 2982,01 2897,968 2827,797 2757,13 2720,01 2716,105 2705,673 2699,045 2675,312 2706,44 2768,263 2821,3 2839,735 2867,888 2904,728 2928,038 2951,958 2982,452 3029,302 3077,055 3143,56 3246,62 3342,055 3376,375 3378,962 3353,643 3326,893 3299,663 3321,245 3314,922 3237,387 3186,495 3141,375 3099,518 3064,07 3039,867 3013,518 
2944,905 3065,555 3149,163 3214,925 3307,837 3280,605 3280,26 3293,515 3297,5 3290,857 3306,055 3339,78 3398,407 3390,94 3339,042 3297,95 3239,257 3224,748 3233,745 3228,978 3222,49 3220,008 3207,327 3190,35 3170,968 3184,19 3172,3 3136,235 3127,425 3115,758 3098,525 3101,48 3104,607 3113,925 3139,55 3181,998 3161,512 3112,278 3101,433 3127,68 3161,018 3114,903 3108,14 3105,667 3062,405 3022,042 3017,505 2972,312 2932,73 2910,587 2871,462 2847,31 2828 2817,665 2825,877 2882,458 2946,482 2948,905 2940,67 2921,508 2905,08 2873,493 2847,54 2832,272 2802,465 2767,578 2751,663 2749,11 2754,93 2760,46 2759,413 2756,208 2772,782 2789,51 2805,353 2822,92 2857,498 2874,58 2887,032 2899,99 2915,518 2978,282 3085,093 3143,677 3134,625 3141,367 3156,478 3168,462 3178,575 3204,165 3202,343 3202,542 3195,343 3189,305 3187,538 3188,087 3194,088 3212,205 3259,998 3280,45 3260,39 3229,078 3206,343 3191,24 3168,578 3150,625 3131,292 3094,69 3053,33 3002,385 2951,047 2910,413 2867,405 2807,28 2754,162 2739,87 2767 2822,157 2884,157 2934,385 2999,482 3039,2 3000,943 2945,677 2882,647 2809,14 2746,605 2728,22 2721,472 2715,335 2712,228 2695,865 2741,53 2801,952 2835,05 2849,603 2872,407 2895,33 2917,595 2949,752 2996,165 3050,348 3106,39 3168,323 3252,758 3355,448 3450,203 3453,355 3409,885 3393,992 3412,63 3400,712 3320,69 3259,46 3215,133 3170,995 3128,435 3090,53 3067,415 3039,677 
2913,255 3017,448 3085,607 3184,805 3262,23 3236,542 3252,3 3267,295 3270,39 3268,532 3275,328 3299,127 3342,492 3371,438 3307,427 3275,835 3199,502 3168,505 3145,223 3133,748 3129,365 3142,825 3139,495 3129,153 3123,752 3114,485 3139,175 3105,232 3101,005 3116,833 3118,145 3134,732 3140,877 3160,985 3198,63 3197,468 3136,953 3085,505 3056,49 3077,068 3121,23 3085,105 3064,62 3050,163 3025,675 2990,44 2989,728 2934,695 2902,495 2871,663 2836,718 2813,84 2794,627 2778,478 2782,46 2807,12 2876,403 2905,745 2915,575 2908,242 2890,623 2861,367 2835,672 2819,8 2790,962 2766,172 2750,127 2758,637 2767,498 2771,425 2770,02 2770,955 2791,198 2814,677 2827,157 2851,865 2885,052 2898,915 2909,927 2918,748 2932,89 3005,05 3085,257 3156,905 3165,198 3166,647 3180,14 3190,703 3198,325 3224,885 3220,455 3216,08 3205,448 3206,01 3207,74 3210,052 3217,955 3235,732 3258,867 3202,815 3175,933 3160,282 3142,005 3115,2 3099,828 3089,175 3069,547 3050,718 3021,118 2984,397 2948,105 2905,788 2854,728 2792,595 2757,423 2767,085 2804,78 2863,938 2932,252 2986,33 3060,952 3050,502 2983,96 2949,045 2884,462 2813,167 2762,37 2740,087 2734,185 2730,55 2728,77 2719,585 2744,198 2814,5 2859,718 2906,652 2928,522 2943,828 2960,913 2997,627 3050,292 3119,655 3196,48 3251,578 3296,062 3370,825 3449,478 3486,08 3477,755 3472,683 3476,577 3427,835 3347,383 3289,24 3251,722 3211,792 3169,917 3134,9 3109,45 3082,183 
2894,535 2984,285 3087,165 3116,587 3195,562 3198,373 3214,425 3238,595 3253,633 3253,058 3260,698 3279,725 3303,772 3318,712 3256,472 3234,987 3170,785 3135,08 3111,647 3085,913 3055,212 3043,385 3040,765 3041,802 3071,175 3053,583 3069,5 3065,637 3055,095 3073,402 3102,962 3138,663 3128,093 3152,19 3164,938 3156,407 3105,527 3063,192 3039,235 3039,26 3055,355 3052,59 3031,12 3015,355 2991,22 2955,745 2947,413 2912,12 2868,297 2840,667 2812,218 2792,758 2776,94 2753,968 2739,262 2751,857 2831,922 2875,025 2888,752 2879,335 2855,47 2837,075 2820,927 2811,49 2789,355 2767,745 2755,05 2764,9 2775,92 2783,895 2786,232 2791,383 2812,5 2840,685 2851,962 2873,618 2895,817 2911,177 2925,37 2941,095 2958,498 3037,57 3107,558 3162,538 3196,788 3195,215 3200,005 3211,45 3219,27 3256,688 3254,42 3252,262 3244,86 3235,788 3231,922 3231,008 3237,525 3255,417 3256,14 3188,745 3136,868 3109,325 3092,025 3074,607 3058,603 3041,873 3024,942 3009,84 2989,76 2961,81 2928,985 2888,845 2838,065 2789,21 2769,978 2790,925 2834,42 2897,075 2966,968 3014,86 3081,328 3070,79 3014,607 2965,515 2890,242 2821,57 2773,802 2755,532 2752,565 2750,058 2754,28 2750,225 2772,817 2830,853 2895,042 2955,14 3009,047 3045,37 3055,62 3081,93 3135,632 3198,335 3241,52 3259,7 3279,718 3330,78 3422,288 3457,867 3452,58 3425,448 3416,06 3427,595 3377,54 3323,995 3286,485 3246,17 3207,385 3177,502 3148,527 3123,512 
2882,583 2971,59 3058,458 3056,04 3114,308 3137,405 3158,15 3193,022 3224,78 3227,542 3233,228 3258,18 3288,21 3288,737 3217,41 3175,135 3132,42 3089,462 3070,385 3050,285 3028,103 3009,583 2989,215 2970,228 2970,268 2991,98 3022,757 3013,938 2995,41 2985,175 3030,542 3071,238 3064,552 3071,683 3086,92 3105,587 3063,732 3040,107 3030,853 3018,745 2993,448 2974,192 2965,888 2957,532 2945,39 2941,545 2914,512 2886,538 2850,083 2814,465 2783,99 2763,465 2751,093 2724,532 2695,335 2712,935 2771,69 2812,01 2830,305 2837,995 2822,09 2810,07 2799,41 2798,067 2784,19 2771,47 2765,448 2771,078 2785,367 2798,257 2809,28 2818,565 2825,917 2854,005 2878,462 2884,232 2903,292 2919,115 2939,16 2964,255 2984,615 3047,667 3137,212 3190,877 3218,857 3225,13 3225,495 3232,062 3240,853 3294,015 3294,495 3291,438 3287,365 3284,745 3269,863 3255,712 3255,993 3263,195 3217,028 3183,167 3140,43 3102,698 3075,562 3053,535 3033,005 3010,807 2996,147 2978,988 2961,613 2936,427 2902,535 2864,772 2823,395 2789,255 2788,732 2805,538 2848,558 2914,355 2977,393 3037,397 3105,968 3107,43 3054,203 2982,163 2904,302 2835,66 2791,455 2774,653 2768,715 2767,953 2780,897 2780,67 2797,995 2856,052 2906,198 2947,583 2991,272 3049,29 3096,365 3123,61 3144,538 3168,585 3203,15 3236,32 3273,195 3335,865 3396,552 3376,823 3354,605 3345,728 3350,817 3391,257 3419,12 3374,867 3331,137 3291,405 3246,055 3220,052 3188,905 3157,6 
2917,552 2954,1 2999,985 3024,25 3044,965 3077,462 3102,728 3143,278 3183,675 3193,685 3192,32 3211,302 3250,173 3273,73 3203,788 3156,623 3111,282 3068,692 3050,71 3031,155 3013,85 2986,587 2959,548 2930,117 2922,363 2928,958 2954,242 2956,84 2927,36 2922,488 2951,252 3005,145 3028,51 3029,422 3037,927 3045,708 3017,927 3003,85 3013,933 3001,557 2978,48 2952,845 2928,405 2910,643 2904,022 2887,88 2869,528 2863,762 2855,33 2814,175 2772,373 2732,565 2703,752 2672,615 2645,145 2683,97 2704,83 2734,188 2780,495 2803,547 2796,215 2780,562 2766,797 2779,008 2774,268 2771,712 2778,848 2787,073 2800,847 2817,558 2833,945 2842,857 2837,913 2864,415 2883,637 2894,163 2909,177 2924,377 2945,765 2984,522 3012,955 3035,978 3077,91 3166,478 3239,615 3254,587 3249,42 3249,923 3265,16 3332,285 3349,587 3359,195 3364,045 3329,835 3303,425 3284,867 3273,615 3242,295 3174,558 3136,802 3111,67 3087,46 3068,218 3046,087 3020,948 2996,89 2977,722 2962,113 2941,002 2913,443 2877,532 2845,093 2815,745 2796,065 2803,708 2815,38 2855,785 2903,383 2954,23 3033,343 3116,615 3116,242 3051,13 2980,593 2911,195 2844,215 2812,472 2802,992 2796,738 2796,26 2809,235 2810,05 2829 2886,982 2934,47 2976,395 3020,17 3051,038 3060,143 3085,532 3118,54 3150,157 3185,225 3228,772 3297,74 3336,238 3306,163 3286,285 3286,15 3293,127 3304,935 3333,665 3373,357 3383,28 3379,015 3339,262 3291,085 3261,13 3227,232 3189,397 
2936,147 2971,458 3002,373 3023,532 3045,33 3068,002 3086,67 3110,135 3139,19 3161,738 3176,175 3192,657 3229,32 3263,373 3203,8 3154,393 3101,915 3062,535 3038,087 3019,945 3000,992 2979,985 2940,782 2911,802 2901,077 2890,327 2890,27 2888,81 2863,578 2865,808 2883,792 2913,475 2933,35 2944,988 2953,758 2960,588 2967,772 2978,617 2972,647 2981,945 2976,465 2939,895 2899,643 2877,258 2872,955 2849,93 2831,123 2833,902 2835,788 2813,305 2785,2 2741,292 2683,435 2629,528 2601,843 2641,355 2668,345 2701,603 2756,347 2778,635 2774,018 2755,688 2749,705 2761,812 2773,415 2786,927 2800,177 2805,618 2821,505 2842,502 2857,933 2863,895 2858,992 2871,277 2889,05 2906,883 2918,308 2939,032 2964,78 3014,95 3044,555 3065,248 3077,488 3122,44 3229,175 3279,865 3278,245 3279,9 3300,388 3383,867 3440,16 3450,542 3396,45 3331,025 3303,035 3297,69 3263,73 3215,823 3166,157 3124,955 3099,882 3082,695 3064,762 3040,83 3017,562 2986,175 2957,357 2942,85 2928,093 2895,792 2863,825 2838,203 2818,268 2809,625 2816,39 2830,968 2857,825 2896,44 2946,945 3013,405 3094,31 3097,302 3012,785 2961,387 2914,297 2860,675 2836,157 2834,938 2839,542 2837,975 2841,55 2847,81 2868,735 2914,03 2956,435 2991,927 3024,228 3044,712 3059,603 3086,705 3116,29 3145,488 3175,897 3229,37 3273,052 3254,103 3242,575 3250,538 3262,635 3273,337 3283,603 3298,297 3321,025 3344,905 3363,885 3363,49 3324,275 3297,343 3264,59 3220,435 
2940,042 2970,265 3004,42 3033,4 3059,248 3074,53 3086,922 3105,44 3126,857 3147,18 3167,89 3194,07 3234,708 3256,847 3191,78 3148,953 3102,373 3060,455 3031,4 3007,525 2987,667 2964,667 2932,71 2893,732 2881,258 2856,073 2841,798 2829,93 2818,157 2810,74 2815,89 2834,522 2854,223 2871,66 2888,913 2898,1 2915,99 2926,01 2929,927 2944,363 2947,235 2921,18 2881,23 2858,252 2840,79 2829,14 2800,373 2792,538 2807,367 2789,278 2762,927 2738,393 2678,28 2604,45 2575,808 2606,887 2653,9 2716,42 2768,743 2777,593 2761,92 2750,703 2748,272 2755,37 2779,288 2807,6 2823,71 2835,472 2848,055 2864,625 2881,22 2887,97 2885,345 2882,708 2895,365 2928,025 2953,688 2979,38 3013,913 3052,442 3077,015 3083,552 3101,69 3139,25 3226,695 3290,38 3306,368 3310,225 3344,922 3426,268 3477,712 3417,85 3348,835 3294,703 3274,3 3255,722 3232,71 3207,873 3170,413 3147,468 3129,643 3101,975 3086,188 3063,143 3041,232 2998,542 2959,137 2939,87 2918,565 2881,665 2850,53 2831,213 2817,975 2826,422 2845 2867,91 2898,157 2931,498 2960,58 2994,343 3057,005 3077,068 3010,02 2968,988 2924,845 2869,627 2857,37 2868,167 2875,688 2879,607 2878,29 2885,992 2902,998 2941,525 2981,393 3006,225 3028,742 3053,292 3074,105 3097,133 3120,883 3144,365 3168,435 3197,15 3211,857 3223,323 3236,637 3247,393 3258,87 3270,723 3278,982 3288,683 3310,887 3333,91 3351,735 3372,08 3348,873 3324,735 3297,635 3252,325 
2935,495 2972,032 3009,86 3043,277 3069,433 3081,472 3096,95 3113,298 3134,597 3154,76 3180,545 3212,78 3248,998 3214,768 3160,788 3131,15 3097,772 3060,448 3028,625 3003,965 2976,94 2949,667 2931,645 2888,772 2840,48 2812,395 2800,11 2788,482 2775,2 2754,005 2752,143 2768,58 2786,88 2801,433 2826,018 2849,11 2869,77 2885,07 2902,998 2910,927 2908,96 2898,188 2846,315 2819,435 2815,55 2809,23 2782,06 2743,927 2747,847 2735,627 2711,91 2692,735 2650,308 2584,14 2555,905 2596,893 2687,853 2726,877 2750,147 2757,155 2750,062 2747,222 2749,815 2764,005 2789,66 2828,945 2858,248 2868,43 2880,748 2888,95 2906,768 2910,177 2909,493 2904,625 2916,748 2972,058 3031,84 3077,62 3110,96 3109,792 3108,065 3104,015 3127,04 3151,998 3217,165 3278,097 3317,552 3336,718 3378,982 3442,708 3429,825 3359,23 3282,573 3224,755 3200,41 3204,12 3211,423 3195,512 3186,97 3188,14 3168,098 3149,62 3131,518 3110,248 3077,015 3018,593 2965,982 2937,637 2902,258 2869,45 2850,18 2833,095 2833,525 2862,5 2893,635 2917,593 2945,028 2970,325 2993,325 3015,98 3048,728 3090,613 3061,36 3015,95 2963,873 2896,255 2876,462 2891,955 2905,117 2918,26 2921,25 2928,022 2944,468 2974,825 3007,705 3030,393 3053,515 3075,665 3092,36 3109,69 3126,172 3141,647 3160,035 3180,54 3201,79 3221,942 3234,425 3244,33 3256,732 3270,633 3279,245 3290,34 3313,643 3332,762 3347,873 3368,992 3370,127 3345,452 3324,117 3286,167 
2928,328 2989,505 3039,748 3068,912 3088,045 3101,01 3118,442 3134,992 3150,755 3174,292 3207,022 3241,067 3284,965 3231,143 3160,008 3119,76 3093,298 3069,22 3038,448 3008,367 2982,583 2952,228 2922,018 2880,718 2826,198 2795,66 2776,973 2763,665 2746,24 2723,99 2704,558 2698,623 2709,36 2729,607 2754,575 2779,675 2803,593 2823,647 2854,078 2887,73 2884,913 2868,68 2820,143 2795,492 2793,275 2787,363 2769,982 2713,885 2686,288 2679,117 2661,21 2642,848 2608,045 2555,113 2531,798 2590,145 2687,04 2708,38 2709,335 2726,68 2749,535 2773,558 2779,192 2796,55 2819,235 2862,093 2903,74 2914,018 2918,942 2923,062 2931,815 2928,902 2930,272 2928,715 2944,083 3021,64 3128,845 3171,663 3162,955 3136,278 3136,127 3139,522 3167,945 3197,743 3241,422 3274,92 3313,38 3348,387 3385,768 3448,057 3381,305 3299,955 3220,005 3150,75 3126,165 3125,96 3149,968 3173,28 3191,722 3192,133 3201,105 3195,367 3166,215 3133,765 3101,502 3057,907 2993,155 2936,252 2904,823 2881,915 2867,71 2851,705 2853,357 2890,78 2936,758 2968,328 2983,683 3000,613 3021,435 3044,812 3072,17 3121,875 3119,653 3080,155 3019,175 2937,75 2903,623 2900,238 2910,047 2929,295 2944,708 2955,718 2976,94 3001,825 3025,74 3044,55 3067,232 3085,913 3103,052 3119,643 3130,812 3143,96 3156,3 3174,292 3197,748 3216,675 3226,71 3236,593 3253,075 3271,575 3281,917 3294,232 3314,455 3333,535 3351,69 3376,952 3403,203 3363,573 3346,66 3319,567 
2926,103 2983,363 3054,827 3126,29 3138,09 3152,768 3179,27 3180,13 3191,558 3219,92 3262,692 3305,328 3336,615 3269,532 3186,29 3127,922 3101,82 3080,25 3052,345 3019,653 2990,39 2959,777 2927,333 2891,558 2845,302 2810,415 2790,558 2776,282 2753,405 2716,177 2683,298 2657,595 2653,01 2662,57 2676,542 2696,268 2709,7 2736,455 2776,387 2842,51 2864,073 2840,988 2772,29 2756,23 2744,647 2732,052 2718,223 2672,285 2648,623 2640,867 2630,24 2604,067 2565,745 2522,887 2507,345 2584,748 2646,765 2677,577 2685,055 2720,573 2783,643 2813,827 2815,92 2861,573 2887,407 2905,49 2951,67 2964,905 2956,815 2963,32 2950,8 2942,052 2947,735 2947,75 2959,77 3015,417 3134,25 3243,195 3192,087 3163,7 3169,568 3212,23 3233,855 3245,653 3266,982 3283,468 3314,603 3352,282 3386,03 3428,315 3353,058 3262,528 3180,02 3105,865 3062,002 3051,945 3058,655 3087,137 3120,077 3117,048 3130,107 3154,99 3145,715 3130,565 3101,927 3058,028 3024,577 2979,363 2927,028 2900,633 2889,47 2876,762 2882,18 2912 2949,44 2994,407 3003,905 3016,522 3044,24 3076,318 3098,64 3142,123 3165,203 3113,085 3033,61 2958,295 2923,315 2914,203 2918,812 2935,48 2946,998 2959,353 2983,875 3006,692 3027,8 3051,913 3074,208 3091,875 3109,02 3123,745 3134,755 3143,385 3149,653 3169,143 3193,075 3207,155 3219,902 3235,167 3254,663 3272,778 3284,28 3298,175 3320,353 3348,302 3375,502 3420,765 3452,485 3395,74 3367,76 3352,73 
2954,307 3001,242 3063,72 3159,39 3212,078 3234,29 3249,283 3240,08 3246,363 3277,272 3320,137 3319,83 3324,188 3247,077 3193,285 3162,388 3135,16 3100,945 3066,798 3034,032 2998,198 2966,123 2933,57 2905,905 2869,777 2823,95 2808,103 2796,152 2761,647 2716,325 2691,73 2660,093 2633,68 2618,905 2614,965 2622,125 2640,11 2661,208 2700,44 2766,613 2817,965 2806,18 2731,312 2709,797 2694,435 2681,94 2675,323 2640,22 2618,058 2606,75 2598,792 2569,718 2537,81 2500,933 2486,095 2556,775 2611,28 2659,978 2706,22 2764,415 2825,045 2846,595 2857,288 2928,62 2950,77 2957,235 2981,92 2995,768 2981,328 2980,738 2974,583 2959,998 2961,53 2962,055 2979,902 3031,455 3128,708 3266,312 3227,69 3206,335 3223,12 3293,028 3288,958 3288,42 3294,777 3301,225 3324,742 3365,823 3398,022 3367,9 3302,782 3235,785 3164,723 3082,425 3029,857 3005,675 3000,973 3029,088 3046 3041,28 3054,25 3091,4 3118,208 3128,335 3105,607 3059,323 3039,367 3012,103 2954,11 2922,875 2910,035 2900,442 2900,617 2927,147 2967,585 3027,32 3029,84 3037,62 3067,208 3103,875 3122,508 3144,045 3175,925 3134,995 3056,137 2978,012 2948,79 2936,51 2942,738 2965,68 2970,21 2964,97 2976,547 2996,985 3022,427 3054,607 3081,315 3100,907 3113,742 3123,365 3131,538 3137,427 3145,913 3163,698 3180,363 3194,66 3215,855 3242,502 3262,115 3278,492 3298,225 3329,105 3375,57 3425,188 3463,922 3506,475 3514,98 3455,433 3394,527 3365,76 
3008,555 3050,58 3114,167 3192,28 3229,65 3252,19 3210,978 3177,3 3221,185 3242,445 3241,567 3230,355 3243,105 3238,005 3212,568 3185,103 3163,49 3128,985 3090,715 3051,782 3012,917 2976,048 2939,917 2908,575 2882,242 2858,617 2835,975 2833,212 2805,335 2741,63 2703,375 2684,123 2655,798 2613,72 2595,5 2583,177 2583,44 2599,728 2629,46 2685,14 2737,218 2781,585 2742,333 2688,132 2669,655 2657,643 2639,212 2614,018 2589,083 2575,4 2553,278 2537,635 2527,005 2500,212 2477,295 2531,268 2625,535 2693,525 2757,672 2829,02 2889,333 2904,312 2921,732 3005,83 3027,522 3005,268 3004,32 2998,115 2996,363 2997,093 2992,41 2984,69 2978,933 2979,863 3026,995 3086,04 3160,038 3283,15 3285,958 3252,02 3298,583 3343,345 3323,16 3329,058 3323,99 3324,115 3344,922 3386,32 3406,828 3361,018 3279,248 3194,765 3119,532 3056,485 3001,195 2974,417 2963,458 2977,9 2976,927 2971,982 2984,183 3007,61 3035,94 3065,038 3106,095 3084,205 3062,212 3026,68 2968,917 2936,473 2928,817 2923,347 2917,343 2936,04 2986,218 3064,982 3069,345 3066,25 3090,13 3123,03 3139,562 3156,02 3174,495 3164,725 3084,265 2998,505 2976,618 2969,47 2974,183 2986,02 2990,31 2986,393 2995,905 3018,587 3049,825 3089,012 3101,295 3109,125 3118,837 3121,452 3126,962 3135,245 3145,132 3161,232 3178,627 3195,347 3221,135 3257,215 3289,96 3323,745 3363,675 3410,198 3466,755 3535,857 3567,018 3519,913 3464,192 3421,222 3345,127 3305,635 
3081,887 3121,845 3176,107 3192,3 3152,752 3178,942 3151,64 3119,145 3131,375 3178,4 3169,758 3171,653 3192,305 3247,9 3266,1 3231,43 3211,038 3179,81 3126,325 3076,883 3039,335 3006,645 2973,482 2931,14 2895,28 2877,87 2870,755 2870,96 2855,29 2808,938 2753,11 2712,607 2684,71 2650,045 2625,627 2600,39 2564,438 2550,357 2571,172 2603,835 2649,797 2710,615 2754,228 2694,055 2655,55 2634,565 2617,278 2591,012 2569,917 2553,89 2516,998 2499,485 2510,917 2495,575 2466,413 2541,68 2622,837 2724,08 2836,995 2903,802 2966,097 2977,382 2999,245 3052,768 3060,828 3035,113 3014,805 3009,955 3011,825 3012,065 3006,282 3001,587 3000,933 3002,77 3068,525 3134,565 3195,29 3246,613 3278,97 3313,1 3361,155 3367,285 3349,377 3381,817 3371,545 3351,578 3370,79 3395,757 3373,333 3294,817 3236,038 3163,488 3082,677 3018,99 2973,755 2948,093 2931,43 2928,065 2912,012 2908,192 2909,748 2928,085 2959,535 2989,938 3059,397 3097,015 3095,653 3037,105 2970,423 2948,028 2943,683 2941,5 2937,953 2951,86 3008,683 3092,25 3111,012 3100,133 3121,875 3147,405 3161,575 3172,902 3177,92 3159,677 3094,015 3032,453 3003,305 3005,772 3008,52 3001,722 3001,975 3007,022 3023,823 3056,357 3091,323 3129,175 3176,825 3164,125 3146,468 3135,425 3137,013 3150,137 3161,643 3182,99 3208,512 3227,16 3267,925 3325,552 3368,147 3410,922 3447,397 3489,657 3543,635 3578,83 3514,855 3447,262 3382,865 3331,595 3272,853 3231,368 
3115,468 3137,653 3151,752 3152,77 3114,87 3115,837 3132,397 3092,585 3078,895 3107,548 3131,448 3147,895 3182,55 3260,728 3340,375 3315,625 3285,558 3238,73 3172,865 3117,097 3078,25 3053,12 3027,815 2961,9 2912,295 2896,215 2896,262 2882,448 2867,397 2846,015 2796,252 2750,88 2736,47 2705,802 2659,938 2616,22 2567,982 2535,647 2526,775 2550,812 2586,802 2664,302 2755,99 2701,52 2662,338 2628,698 2597,558 2577,118 2559,24 2535,145 2490,925 2471,097 2452,16 2444,132 2452,69 2529,695 2612,357 2702,157 2863,647 2973,383 3043,69 3050,547 3086,265 3117,33 3070,37 3042,25 3023,683 3024,49 3023,67 3026,05 3021,292 3018,282 3021,623 3029,698 3090,417 3126,875 3173,345 3232,005 3258,565 3274,145 3300,715 3343,805 3358,117 3389,527 3389,345 3368,962 3373,008 3355,305 3302,982 3246,3 3161,922 3096,325 3026,83 2969,34 2935,895 2924,817 2913,188 2885,855 2862,377 2849,167 2851,343 2865,075 2889,275 2919,093 2985,157 3016,302 3064,5 3055,047 2987,57 2958,285 2954,867 2956,103 2959,552 2974,407 3022,455 3101,708 3165,54 3162,835 3172,35 3176,512 3184,975 3189,712 3192,542 3183,833 3126,82 3065,47 3035,275 3032,948 3034,205 3024,975 3014,675 3018,518 3042,715 3083,748 3123,245 3156,245 3206,758 3236,69 3246,045 3207,13 3178,175 3186,153 3200,11 3220,752 3238,248 3270,04 3308,528 3343,728 3376,093 3407,15 3441,623 3483,765 3535,095 3509,188 3444,765 3379,377 3312,962 3252,8 3189,627 3174,4 
3124,045 3085,028 3072,677 3092,475 3090,28 3077,663 3098,763 3063,032 3050,877 3076,623 3107,19 3131,7 3193,792 3295,595 3391,952 3406,073 3335,44 3251,425 3172,24 3101,78 3037,647 3001,305 2979,7 2959,85 2943,492 2918,79 2903,625 2877,13 2864,137 2854,245 2818,998 2806,54 2776,603 2728,915 2674,117 2615,675 2568,045 2541,647 2511,347 2508,87 2539,95 2631,147 2757,183 2746,9 2684,61 2632,522 2603,683 2587,417 2560,555 2522,218 2473,863 2450,415 2438,3 2426,735 2455,538 2513,58 2592,788 2676,265 2829,975 2962,03 3069,492 3112,138 3150,982 3120,933 3067,673 3042,985 3042,272 3043,715 3038,415 3039,205 3036,617 3035,72 3042,257 3048,165 3099,915 3147,49 3183,812 3229,857 3279,4 3273,268 3253,087 3279,897 3304,268 3332,48 3348,425 3341,387 3320,488 3295,958 3218,865 3150,93 3084,46 3043,518 2999,03 2947,748 2905,28 2903,87 2885,345 2853,292 2831,298 2806,305 2793,812 2797,792 2808,448 2853,47 2899,865 2946,105 3003,425 3031,458 3001,465 2969,115 2966,547 2972,925 2986,893 3012,107 3055,665 3125,075 3190,498 3224,18 3225,77 3204,765 3209,11 3213,022 3219,47 3218,093 3176,57 3103,093 3064,078 3055,33 3058,712 3053,315 3040,262 3046,538 3073,157 3111,772 3144,788 3174,41 3219,052 3247,915 3308,137 3310,53 3254,485 3220,897 3226,08 3240,458 3251,93 3273,488 3309,79 3357,493 3395,942 3435,965 3487,075 3515,04 3483,395 3443,153 3374,617 3332,265 3257,498 3185,23 3138,515 3131,05 
3097,205 3051,062 3024,415 3016,36 3045,76 3044,415 3065,393 3030,935 3034,4 3055,64 3085,982 3123,975 3212,21 3329,605 3417,723 3384,035 3311,238 3231,71 3146,6 3075,127 2995,955 2939,89 2903,308 2882,555 2870,282 2861,63 2871,115 2838,843 2792,232 2788,03 2787,04 2784,44 2760,19 2737,468 2681,762 2616,48 2579,278 2536,68 2493,51 2477,853 2507,42 2594,385 2733,295 2806,318 2723,585 2653,218 2620,782 2581,57 2554,552 2521,715 2467,46 2441,315 2440,903 2412,202 2437,26 2497,887 2585,235 2667,808 2798,725 2923,847 3026,452 3128,645 3175,205 3112,42 3075,157 3064,825 3063,442 3063,583 3057,167 3049,637 3041,795 3051,485 3061,448 3069,965 3101,988 3173,873 3176,665 3214,78 3263,482 3223,373 3194,74 3207,93 3226,75 3266,69 3306,15 3305,032 3277,135 3233,93 3164,462 3093,282 3022,077 2981,402 2952,48 2913,895 2884,325 2871,113 2850,28 2832,005 2813,667 2789,29 2766,228 2751,667 2756,875 2783,875 2827,29 2871,65 2937,663 2988,105 3009,545 2985,97 2987,36 3001,19 3026,438 3058,67 3089,357 3125,478 3155,015 3174,405 3192,565 3216,417 3229,558 3239,215 3247,525 3248,285 3220,427 3131,413 3094,35 3077,315 3080,33 3075,748 3073,235 3085,13 3105,375 3132,205 3152,305 3185,355 3245,198 3286,13 3339,005 3405,758 3367,363 3302,962 3265,002 3262,72 3281,955 3305,542 3347,218 3387,688 3417,278 3471,748 3487,442 3442,935 3416,228 3392,085 3326,222 3266,222 3191,96 3127,203 3094,225 3084,502 
3046,633 3038,635 3017,105 2976,407 2975,625 2993,825 3001,752 2997,485 3014,405 3042,545 3079,603 3141,513 3242,61 3337,922 3372,775 3382,698 3307,558 3213,058 3125,27 3044,988 2971,683 2910,885 2867,315 2841,345 2829,215 2820,998 2799,252 2765,705 2716 2699,022 2706,018 2698,765 2679,12 2674,288 2679,635 2616,083 2563,903 2505,337 2473,468 2458,583 2485,075 2566,725 2708,295 2778,705 2719,893 2665,42 2616,405 2569,567 2543,188 2522,8 2475,855 2437,99 2439,89 2404,845 2408,853 2474,365 2573,855 2651,31 2778,8 2887,492 2993,698 3086,45 3158,377 3112,347 3106,588 3099,34 3088,038 3085,198 3080,94 3078,49 3077,72 3072,635 3080,292 3095,143 3119,843 3155,333 3175,922 3199,923 3180,65 3153,97 3130,998 3136,965 3144,605 3193,597 3256,26 3264,945 3261,492 3252,845 3166,468 3073,633 3005,735 2953,46 2920,02 2899,623 2877,113 2865,702 2844,615 2826,087 2806,498 2776,427 2760,855 2725,802 2719,575 2742,988 2763,005 2798,407 2865,745 2957,56 3018,79 3013,163 3018,17 3034,692 3058,488 3081,083 3104,94 3128,095 3150,57 3169,355 3187,265 3216,083 3244,92 3258,995 3268,685 3272,823 3258,502 3177,855 3130,333 3112,01 3105,475 3099,82 3100,057 3119,863 3134,985 3153,978 3187,413 3237,755 3318,722 3358,345 3415,425 3481,478 3459,022 3394,435 3325,785 3299,02 3309,078 3331,093 3362,212 3390,953 3423,055 3435,337 3384,123 3328,785 3333,257 3313,375 3275,007 3223,35 3146,58 3084,2 3058,965 3051,972 
2973,817 2964,44 2966,817 2944,08 2952,812 2951,875 2961,248 2974,775 2997,137 3031,623 3095,13 3185,675 3282,762 3315,877 3305,008 3321,11 3309,953 3244,823 3150,77 3050,817 2964,955 2903,778 2868,42 2845,808 2826,448 2806,69 2773,7 2738,667 2691,195 2657,218 2641,183 2622,62 2594,675 2581,133 2590,31 2571,05 2538,542 2510,498 2478,155 2445,223 2449,688 2516,373 2619,015 2698,163 2672,038 2638,843 2603,985 2557,935 2522,073 2502,508 2483,903 2436,05 2428,98 2405,012 2390,113 2445,005 2551,073 2629,032 2759,015 2860,975 2947,34 3050,765 3152,605 3155,362 3162,33 3142,833 3125,985 3115,413 3111,595 3113,76 3125,098 3134,948 3109,36 3116,725 3095,107 3074,53 3096,607 3107,905 3103,175 3123,573 3095,46 3077,36 3081,028 3128,405 3201,16 3228,02 3237,873 3239,087 3178,975 3096,038 3032,41 2983,465 2949,052 2925,335 2903,723 2887,55 2842,835 2801,41 2787,765 2759,605 2734,445 2695,312 2686,04 2694,347 2713,348 2740,163 2815,073 2905,018 2986,558 3028,74 3058,302 3068,448 3078,198 3099,907 3121,478 3132,607 3157,703 3182,755 3196,052 3226,815 3260,028 3276,627 3287,468 3298,498 3295,848 3237,308 3174,88 3148,522 3130,945 3129,245 3136,445 3162,683 3199,923 3233,393 3265,222 3301,98 3361,685 3442,323 3491,328 3471,478 3451,51 3461,663 3449,163 3420,297 3383,438 3370,16 3386,045 3419,55 3436,47 3373,425 3289,527 3239,145 3243,235 3257,903 3195,647 3156,272 3096,973 3044,475 3020,075 3012,913 
2894,758 2893,59 2898,873 2915,363 2937,637 2939,397 2949,94 2959,833 2985,627 3030,353 3120,18 3210,54 3298,958 3284,123 3260,075 3244,41 3223,565 3199,185 3171,327 3081,718 2979,21 2910,373 2871,183 2830,133 2800,942 2777,573 2754,46 2737,095 2683,732 2637,597 2611,52 2585,042 2558,538 2534,627 2508,85 2486,87 2478,663 2475,542 2472,837 2438,512 2427,68 2484,327 2567,683 2656,08 2639,09 2607,308 2566,083 2538,823 2490,397 2456,047 2449,485 2419,89 2407,025 2403,9 2374,59 2410,305 2509,278 2589,942 2723,85 2821,212 2924,395 3018,255 3102,333 3151,745 3188,22 3190,165 3177,863 3162,257 3164,325 3168,74 3174,205 3157,703 3122,837 3105,897 3060,905 3034,643 3025,262 3013,978 3027,035 3076,205 3080,13 3052,32 3047,032 3076,473 3148,725 3190,083 3218,52 3237,742 3215,038 3147,8 3074,31 3011,165 2953,218 2905,188 2873,508 2839,935 2779,78 2738,643 2729,038 2709,965 2686,598 2664,65 2648,938 2653,087 2665,59 2695,147 2774,18 2844,723 2905,6 2975,373 3057,475 3114,375 3140,805 3137,055 3141,01 3169,575 3207,097 3217,672 3229,74 3258,458 3281,85 3299,702 3315,798 3328,222 3337,51 3290,343 3213,7 3184,763 3169,075 3173,62 3181,725 3226,385 3286,917 3339,938 3357,76 3378,48 3407,225 3426,012 3437,865 3429,867 3423,913 3431,952 3454,49 3466,095 3464,953 3471,883 3490,7 3475,53 3427,61 3349,29 3254,285 3194,56 3177,117 3191,677 3140,153 3085,443 3029,96 2997,478 2983,16 2978,652 
2829,345 2846,343 2869,955 2897,093 2911,855 2913,24 2926,08 2945,593 2975,9 3041,43 3148,953 3239,56 3260,978 3228,625 3215,485 3212,403 3196,42 3152,965 3120,777 3082,478 3015,488 2961,055 2899,732 2847,393 2786,058 2755,018 2733,917 2699,328 2649,035 2624,48 2600,49 2567,215 2549,025 2528,785 2497,785 2465,775 2439,542 2415,837 2428,203 2426,737 2401,948 2457,435 2539,195 2619,103 2597,012 2563,722 2523,512 2490,94 2443,562 2404,012 2388,97 2391,238 2387,86 2385,785 2361,808 2394,738 2477,11 2572,995 2695,8 2794,76 2883,468 2975,573 3035,085 3078,647 3143,965 3200,09 3202,735 3157,778 3156,26 3168,647 3166,782 3105,623 3058,672 3034,525 3017,512 2993,92 2971,218 2948,282 2948,665 3004,04 3046,69 3026,365 3023,468 3027,732 3098,68 3167,812 3197,235 3216,667 3213,867 3136,605 3057,47 2984,61 2916 2857,752 2817,5 2780,143 2736,998 2690,808 2679,815 2666,052 2650,917 2629,123 2615,38 2617,61 2625,49 2657,73 2723,1 2784,36 2852,652 2932,278 3010,262 3090,945 3167,645 3163,13 3162,752 3194,44 3244,495 3250,68 3265,32 3285,137 3301,927 3321,935 3338,732 3351,28 3363,185 3328,028 3258,86 3221,403 3200,468 3204,805 3207,795 3214,357 3282,657 3366,53 3352,468 3359,348 3379,56 3396,097 3397,788 3401,042 3403,988 3409,655 3420,292 3435,657 3448,465 3465,433 3471,657 3424,972 3383,795 3321,41 3233,3 3158,927 3141,407 3149,062 3092,185 3035,292 2995,725 2959,288 2953,76 2950,405 
2790,645 2809,512 2839,3 2864,357 2883,11 2895,643 2907,157 2936,118 2983,975 3068,518 3161,845 3254,04 3216,455 3168,498 3150,085 3155,542 3146,837 3099,89 3071,638 3057,18 3040,385 3023,005 2966,103 2888,65 2792,083 2728,4 2702,183 2666,712 2636,005 2622,462 2597,853 2551,857 2532,677 2528,795 2500,615 2457,462 2424,335 2378,722 2359,708 2387,93 2376,857 2414,565 2497,265 2591,09 2573,137 2523,772 2477,96 2424,6 2377,877 2342,262 2335,373 2353,867 2365,055 2368,312 2346,725 2373,157 2454,13 2551,718 2665,68 2757,258 2851,85 2932,692 2982,512 3025,7 3087,333 3140,685 3131,732 3073,965 3057,458 3084,083 3116,363 3084,67 3015,79 2969,337 2937,157 2914,005 2894,792 2888,51 2883,145 2935,143 2975,203 2971,83 2978,75 2984,978 3036,54 3122,512 3166,58 3168,32 3163,777 3123,797 3045,143 2968,438 2897,468 2841,81 2797,353 2763,083 2724,147 2666,712 2643,968 2626,16 2617,035 2601,522 2585,357 2587,473 2604,495 2645,718 2696,89 2754,46 2827,64 2897,143 2973,357 3054,627 3141,625 3205,643 3199,703 3217,073 3265,785 3270,675 3285,292 3304,155 3318,09 3335,96 3352,857 3369,875 3391,84 3387,11 3350,882 3324,795 3286,522 3251,712 3241,647 3238,032 3258,488 3319,17 3333,23 3344,175 3359,792 3375,808 3377,37 3381,54 3389,917 3395,255 3398,04 3404,938 3415,093 3427,578 3400,275 3370,633 3349,35 3284,56 3202,645 3126,785 3108,715 3100,353 3036,837 2981,377 2955,312 2938,607 2937,538 2939,795 
2766,58 2775,927 2801,238 2836,163 2868,618 2878,86 2888,567 2926,198 3010,735 3089,263 3189,355 3267,765 3192,775 3147,152 3121,232 3095,048 3072,675 3041,215 3014,315 2993,16 2974,71 2985,02 2961,172 2873,145 2785,302 2724,268 2685,51 2658,195 2632,66 2617,823 2597,638 2550,232 2521,565 2520,2 2503,985 2449,353 2407,028 2359,1 2320,37 2321,11 2348,427 2383,848 2478,683 2579,433 2550,393 2503,373 2446,992 2386,192 2330,907 2292,065 2291,155 2316,127 2326,683 2338,065 2340,47 2358,468 2426,17 2523,262 2635,417 2729,393 2822,347 2893,245 2945,185 2977,657 3032,125 3080,583 3093,635 3039,738 3014,95 3014,958 3035,16 3032,82 2998,627 2933,698 2891,52 2853,24 2833,863 2828,35 2824,663 2835,795 2886,688 2905,73 2927,012 2943,357 2971,005 3051,135 3126,12 3110,797 3115,63 3134,683 3064,265 2981,095 2901,175 2845,2 2813,032 2766,323 2712,442 2656,82 2626,518 2610,873 2597,578 2588,3 2564,163 2566,728 2592,962 2633,105 2682,067 2738,975 2804,012 2876,925 2968,97 3038,455 3115,093 3196,677 3231,512 3264,835 3295,772 3296,357 3325,96 3323,61 3331,965 3355,325 3370,13 3389,623 3414,95 3434,417 3452,455 3437,373 3382,76 3329,768 3297,495 3272,635 3291,755 3314,902 3329,933 3336,442 3346,785 3358,78 3361,365 3363,005 3369,718 3369,805 3366,048 3364,95 3368,915 3344,917 3311,018 3303,557 3288,615 3245,255 3169,657 3103,265 3078,235 3055,705 3005,362 2934,703 2906,235 2914,268 2916,86 2925,022 
2740,645 2758,025 2788,578 2827,12 2853,945 2862,15 2884,54 2928,567 2999,39 3089,752 3187,682 3262,88 3196,173 3140,228 3111,078 3080,02 3047,42 3024,847 2995,445 2959,942 2941,71 2927,695 2942,675 2883,732 2818,49 2767,135 2711,515 2679,625 2630,28 2603,028 2575,555 2559,485 2535,867 2523,712 2494,513 2432,882 2378,583 2327,24 2300,075 2276,353 2292,243 2348,183 2467,585 2564,377 2530,105 2474,175 2417,873 2358,032 2310,07 2263,365 2243,2 2285,07 2301,77 2312,397 2328,532 2347,292 2414,172 2497,145 2592,768 2700,508 2807,762 2878,025 2890,002 2930,847 2980,445 2996,035 3020,495 3014,73 2997,025 2985,663 2983,033 2958,038 2955,125 2934,645 2884,212 2838,802 2807,373 2788,657 2778,843 2774,19 2808,047 2846,575 2870,405 2872,17 2899,03 2998,86 3092,1 3085,427 3085,18 3132,567 3086,65 3004,718 2924,837 2862,765 2809,21 2757,518 2694,645 2641,155 2616,98 2590,97 2576,387 2562,312 2542,587 2548,245 2578,768 2620,857 2671,323 2731,498 2808,018 2886,327 2960,393 3038,985 3122,88 3193,057 3237,712 3275,36 3282,95 3280,462 3273,55 3257,6 3274,133 3341,498 3355,54 3372,79 3404,258 3457,903 3504,32 3515,897 3475,002 3443,917 3423,405 3371,478 3336,185 3324,155 3328,528 3332,593 3339 3346,345 3349,71 3348,54 3342,192 3336,137 3323,48 3293,83 3278,393 3252,045 3231,07 3219,698 3208,618 3199,57 3133,625 3070,282 3038,545 3009,012 2965,075 2907,708 2876,94 2899,812 2899,35 2880,363 
2724,155 2754,093 2790,643 2830,795 2846,792 2854,965 2893,67 2938,965 3006,25 3103,498 3212,545 3252,46 3225,875 3150,77 3113,147 3073,137 3032,228 3007,518 2993,815 2958,63 2924,19 2916,33 2903,518 2876,087 2849 2796,252 2726,468 2700,225 2651,308 2590,643 2553,403 2537,492 2523,157 2507,978 2469,778 2406,857 2346,817 2289,615 2262,08 2251,45 2258,5 2316,96 2417,19 2497,617 2502,945 2446,15 2394,593 2334,188 2293,413 2237,985 2199,41 2238,47 2272,583 2281,098 2304,968 2329,67 2386,265 2474,885 2567,735 2673,81 2782,49 2812,617 2819,647 2877,17 2901,76 2909,703 2981,045 2988,882 2981,17 2981,742 2971,755 2927,262 2901,528 2892,08 2869,455 2836,75 2813,135 2779,347 2744,3 2736,55 2754,225 2782,657 2822,508 2797,655 2852,27 2967,208 3019,887 3017,465 3041,913 3125,435 3112,085 3032,445 2956,403 2881,35 2810,225 2748,208 2692,633 2646,778 2610,462 2575,445 2547,188 2535,175 2517,288 2528,427 2558,2 2600,485 2659,413 2735,607 2816,375 2894,917 2971,732 3037,975 3102,305 3164,115 3198,475 3210,397 3204,282 3189,84 3187,3 3175,157 3219,325 3260,452 3267,135 3287,185 3339,252 3401,238 3469,89 3546,565 3558,193 3506,795 3440,3 3373,782 3338,93 3325,567 3324,975 3328,59 3333,538 3338,465 3341,607 3337,403 3316,22 3294,41 3252,91 3220,693 3210,578 3187,235 3167,955 3143,7 3126,84 3100,337 3066,393 3021,705 2990,433 2964,335 2923,69 2886,942 2866 2870,88 2845,06 2829,203 
2700,91 2732,752 2781,562 2815,195 2829,97 2859,473 2888,555 2940,032 3015,038 3129,92 3209,768 3209,11 3228,377 3197,022 3159,938 3094,917 3031,488 3000,653 2992,348 2952,315 2895,552 2884,008 2882,817 2833,812 2766,145 2727,833 2679,567 2650,118 2638,548 2576,07 2544,433 2529,337 2515,482 2491,212 2440,145 2385,518 2324,573 2268,252 2236,01 2224,095 2239,805 2296,887 2360,425 2405,018 2434,343 2419,13 2358,328 2295,578 2244,028 2189,755 2155,445 2173,535 2223,77 2254,448 2274,768 2301,575 2355,375 2438,245 2529,047 2647,15 2734,478 2727,675 2734,29 2803,275 2816,188 2876,115 2969,633 2972,748 2949,232 2964,232 2957,965 2903,8 2880,502 2861,933 2842,695 2794,417 2777,435 2782,465 2756,265 2714,93 2710,16 2708,887 2730,667 2739,883 2801,833 2898,11 2933,812 2943,823 3001,015 3110,417 3118,623 3046,56 2972,75 2903,008 2824,593 2752,978 2690,242 2639,397 2600,665 2556,865 2514,157 2507,45 2496,82 2506,888 2531,53 2577,223 2647,21 2734,118 2802,958 2869,285 2944,48 3012,945 3076,175 3118,137 3128,768 3138,288 3120,527 3111,67 3103,427 3094,518 3140,062 3160,788 3185,37 3229,387 3285,897 3357,915 3446,512 3534,863 3538,92 3495,877 3428,64 3358,473 3332,02 3321,37 3320,135 3322,965 3327,367 3332,657 3337,285 3328,958 3300,545 3244,157 3179,417 3135,12 3122,28 3116,228 3098,357 3068,38 3047,675 2995,288 2965,01 2962,252 2938,59 2912,035 2873,75 2847,248 2840,282 2814,782 2786,968 2773,095 
