ncols        109
nrows        108
xllcorner    625080.348754761741
yllcorner    5174399.999877895229
cellsize     250.000000000000
NODATA_value -9999
2583.990478515625 2483.3203125 2368.330078125 2344.232666015625 2437.850341796875 2557.5380859375 2739.313232421875 2797.205810546875 2801.811767578125 2840.40771484375 2876.757568359375 2988.747802734375 2919.0947265625 2816.465576171875 2721.8076171875 2699.1962890625 2663.89208984375 2626.085693359375 2595.218505859375 2536.3994140625 2539.1259765625 2637.71337890625 2574.098876953125 2480.433349609375 2392.093505859375 2254.74365234375 2113.570556640625 1959.3951416015625 1800.6141357421875 1759.6473388671875 1781.6170654296875 1928.1826171875 2085.214111328125 2243.66796875 2392.56494140625 2483.6181640625 2579.30078125 2651.157470703125 2716.377197265625 2780.614501953125 2880.50830078125 3036.37451171875 3184.291259765625 3082.203125 2982.146484375 2968.056884765625 2965.144775390625 2948.693115234375 2950.8095703125 2843.750732421875 2736.630859375 2631.245361328125 2612.02783203125 2620.177490234375 2690.973876953125 2738.98095703125 2672.966552734375 2612.217529296875 2548.411376953125 2457.55419921875 2381.60302734375 2276.188232421875 2108.262451171875 1936.8487548828125 1859.670654296875 1893.1529541015625 1992.3607177734375 2102.1982421875 2187.614501953125 2226.70556640625 2174.16943359375 2072.1484375 1953.1546630859375 1859.900146484375 1870.470458984375 2007.524658203125 2227.156005859375 2374.1171875 2501.490966796875 2588.90673828125 2747.279296875 2902.89306640625 2865.029052734375 2801.379638671875 2823.2958984375 2828.748291015625 2849.919921875 2840.611083984375 2714.348388671875 2618.667724609375 2495.284912109375 2371.305908203125 2353.866943359375 2384.985595703125 2463.570556640625 2579.83203125 2653.83447265625 2772.342529296875 2740.744384765625 2754.602294921875 2716.238037109375 2587.048828125 2448.95458984375 2372.238037109375 2288.10107421875 2173.978759765625 2048.197509765625 1912.824462890625 1786.12744140625 
2591.755859375 2506.2724609375 2391.60986328125 2341.63427734375 2419.66064453125 2550.625244140625 2710.380859375 2810.931884765625 2853.364990234375 2901.53271484375 2933.243408203125 3030.505859375 2994.35302734375 2923.96630859375 2768.403564453125 2681.04541015625 2633.834716796875 2597.923095703125 2593.102294921875 2560.260498046875 2628.88037109375 2742.277587890625 2673.537109375 2564.85888671875 2442.68359375 2301.960693359375 2136.480712890625 1984.1824951171875 1814.886474609375 1759.6588134765625 1768.241455078125 1900.3314208984375 2075.810791015625 2231.044189453125 2338.091064453125 2473.019287109375 2633.674560546875 2761.010498046875 2849.410400390625 2895.619140625 2995.389404296875 3042.26220703125 3193.312255859375 3116.447021484375 2971.856201171875 2949.97412109375 2924.674072265625 2840.655517578125 2819.88330078125 2771.015625 2692.739501953125 2653.930908203125 2655.64404296875 2697.716796875 2784.849609375 2695.4912109375 2628.1630859375 2570.896240234375 2485.17578125 2392.977294921875 2312.46240234375 2193.570068359375 2029.7177734375 1889.6807861328125 1912.13623046875 2032.336181640625 2131.5458984375 2235.929443359375 2326.526123046875 2361.074462890625 2314.068115234375 2223.599853515625 2094.80517578125 1955.2049560546875 1885.7158203125 1940.4593505859375 2117.162353515625 2268.835205078125 2389.56884765625 2534.31103515625 2651.511962890625 2797.464111328125 2890.759521484375 2947.041748046875 2914.788330078125 2897.2041015625 2920.2802734375 2810.21044921875 2682.269775390625 2552.11181640625 2453.39013671875 2426.052001953125 2467.15185546875 2563.27783203125 2624.676513671875 2756.438232421875 2737.646484375 2829.078369140625 2871.116455078125 2875.578125 2691.437255859375 2557.272216796875 2497.39111328125 2429.895263671875 2337.55078125 2227.555419921875 2101.75 1974.6776123046875 1861.476318359375 
2626.44775390625 2523.267333984375 2419.366943359375 2356.826416015625 2400.31787109375 2512.47802734375 2618.633056640625 2696.913330078125 2773.048828125 2825.620361328125 2849.487548828125 2912.75732421875 2955.058349609375 3006.313232421875 2849.153076171875 2735.41064453125 2676.34423828125 2657.634521484375 2636.732666015625 2663.3681640625 2709.225341796875 2740.526123046875 2665.015625 2564.3857421875 2441.61962890625 2296.3984375 2130.02197265625 1980.94921875 1833.870361328125 1759.657470703125 1778.2000732421875 1908.19482421875 2055.845703125 2187.004638671875 2297.609375 2414.530517578125 2574.649169921875 2710.7177734375 2755.422607421875 2799.4375 2921.540771484375 3030.249267578125 3162.11376953125 3024.193115234375 2924.543701171875 2908.210205078125 2884.2177734375 2842.142822265625 2784.7724609375 2734.557861328125 2704.250732421875 2696.931640625 2729.611083984375 2854.227783203125 2800.53125 2750.687744140625 2666.5302734375 2552.96630859375 2449.19580078125 2352.841064453125 2285.623779296875 2164.383056640625 1993.6109619140625 1900.2237548828125 2012.3226318359375 2136.53759765625 2239.80419921875 2337.755126953125 2419.166259765625 2502.99560546875 2434.56201171875 2338.607421875 2226.27099609375 2085.04541015625 1945.106689453125 1921.3109130859375 2020.0203857421875 2173.682373046875 2349.88525390625 2489.700927734375 2591.0791015625 2660.764892578125 2771.813720703125 2917.74462890625 2946.52490234375 2880.328857421875 2827.90966796875 2723.91455078125 2639.129638671875 2547.459716796875 2546.3203125 2586.820556640625 2648.02587890625 2708.9072265625 2790.5146484375 2896.689697265625 2915.518798828125 2876.486083984375 2939.052001953125 2900.214111328125 2715.605712890625 2610.48779296875 2562.46142578125 2441.084228515625 2348.042724609375 2245.84375 2150.26025390625 2035.509521484375 1908.417724609375 
2621.75 2537.375244140625 2434.261962890625 2369.4072265625 2380.28515625 2469.015380859375 2542.984130859375 2585.09765625 2648.871337890625 2698.989990234375 2747.197509765625 2807.916259765625 2882.8095703125 2997.357177734375 2891.96923828125 2821.0205078125 2783.932861328125 2775.31787109375 2790.551513671875 2786.05126953125 2637.814453125 2629.20556640625 2613.92236328125 2525.66748046875 2401.20068359375 2259.288818359375 2113.392822265625 1978.1514892578125 1840.41357421875 1759.857421875 1785.8165283203125 1925.490234375 2055.489501953125 2140.598388671875 2242.80615234375 2364.712890625 2541.281982421875 2579.241455078125 2654.49609375 2764.937744140625 2947.060546875 3091.745361328125 3149.18017578125 3016.563720703125 2938.92333984375 2879.81201171875 2844.048583984375 2814.948974609375 2789.59033203125 2757.777099609375 2722.640380859375 2724.974609375 2836.275146484375 2933.674072265625 2842.579345703125 2844.79052734375 2734.8564453125 2564.68701171875 2419.579345703125 2311.5751953125 2201.395263671875 2072.110595703125 1944.8319091796875 1951.669189453125 2098.475341796875 2214.890380859375 2331.991455078125 2440.318115234375 2485.053955078125 2555.65966796875 2508.342041015625 2449.63232421875 2313.932373046875 2192.02880859375 2049.210205078125 1963.0279541015625 1985.487060546875 2131.67626953125 2323.50732421875 2481.054931640625 2569.18701171875 2672.34033203125 2803.833251953125 2910.403564453125 2903.3125 2829.093017578125 2781.44677734375 2695.8173828125 2642.3203125 2645.3740234375 2640.193359375 2658.4404296875 2792.522705078125 2846.218017578125 2889.34521484375 2927.661376953125 2983.0322265625 2914.00244140625 2963.804443359375 2957.608154296875 2819.143798828125 2748.68212890625 2598.663818359375 2436.303955078125 2329.705810546875 2240.437744140625 2169.531494140625 2081.7744140625 1976.114501953125 
2601.19921875 2570.52783203125 2470.34716796875 2392.913818359375 2386.54150390625 2458.30029296875 2516.695068359375 2536.724609375 2581.446044921875 2719.0732421875 2775.2421875 2787.97607421875 2909.5126953125 3040.58544921875 2940.89697265625 2893.343994140625 2912.041015625 2941.660888671875 2888.249755859375 2729.453125 2574.535400390625 2537.418212890625 2496.1083984375 2414.730224609375 2364.663330078125 2252.98388671875 2086.652587890625 1960.174072265625 1828.3380126953125 1759.637451171875 1786.36083984375 1893.9566650390625 2026.7437744140625 2124.93505859375 2183.092041015625 2336.007568359375 2462.488525390625 2529.423583984375 2625.644287109375 2803.37451171875 2962.454345703125 3002.423828125 3018.0224609375 3046.710205078125 3012.268798828125 2947.455322265625 2891.992431640625 2841.28955078125 2810.021728515625 2785.110107421875 2750.70361328125 2811.812255859375 2860.885498046875 2807.1474609375 2750.117919921875 2720.32568359375 2644.560302734375 2500.7236328125 2365.603759765625 2257.991943359375 2112.614990234375 1986.173095703125 1937.12744140625 2041.1383056640625 2182.512939453125 2306.9658203125 2434.400146484375 2531.168701171875 2551.85595703125 2587.156982421875 2576.3515625 2539.501708984375 2433.601806640625 2290.196533203125 2155.603271484375 2039.862548828125 2003.212646484375 2117.22119140625 2316.6044921875 2495.94580078125 2651.53125 2792.517333984375 2889.58349609375 2895.1923828125 2981.361328125 2893.6376953125 2778.197998046875 2697.968017578125 2667.39794921875 2665.96044921875 2683.28515625 2749.293701171875 2957.291259765625 3023.96240234375 3042.645263671875 3051.037841796875 2951.0947265625 2807.120849609375 2793.85693359375 2874.402099609375 2861.771240234375 2708.388427734375 2512.88818359375 2365.44189453125 2261.45458984375 2195.742431640625 2146.78125 2109.9814453125 2032.91357421875 
2716.280517578125 2715.014404296875 2569.90869140625 2446.35009765625 2409.7109375 2439.593017578125 2509.0498046875 2556.326904296875 2603.07470703125 2706.60205078125 2828.5732421875 2844.7841796875 2919.885009765625 2954.884033203125 2862.08447265625 2862.012939453125 2872.5625 2880.783203125 2877.029541015625 2722.72265625 2574.4609375 2510.282958984375 2465.677490234375 2411.7626953125 2330.02880859375 2207.96875 2069.27880859375 1940.5430908203125 1823.921142578125 1759.6246337890625 1781.803466796875 1899.9351806640625 1994.1087646484375 2113.458740234375 2203.990966796875 2360.398681640625 2473.2763671875 2580.281982421875 2686.7353515625 2837.628173828125 2874.394775390625 2884.853759765625 2900.4423828125 2929.508544921875 3040.557861328125 3089.882080078125 3090.672119140625 2976.90576171875 2901.677978515625 2870.728271484375 2883.072265625 2815.69140625 2763.095703125 2705.752685546875 2615.19482421875 2577.240478515625 2522.073974609375 2423.244140625 2300.96240234375 2176.43994140625 2030.199462890625 1948.049072265625 2001.0927734375 2129.735107421875 2271.603271484375 2398.23486328125 2497.7275390625 2603.2265625 2651.115966796875 2727.087158203125 2736.84912109375 2590.756591796875 2480.5927734375 2376.3125 2232.900146484375 2123.608642578125 2110.739501953125 2232.698486328125 2400.9765625 2597.144775390625 2776.65478515625 2805.318359375 2793.688720703125 2814.090087890625 2961.60595703125 2943.18359375 2800.828857421875 2735.7568359375 2712.50634765625 2738.423095703125 2782.526123046875 2854.272705078125 3073.753662109375 3137.2509765625 3140.72412109375 3006.87255859375 2909.240478515625 2764.57421875 2714.646240234375 2708.96826171875 2668.977294921875 2565.350341796875 2402.757080078125 2264.646484375 2171.61279296875 2113.0205078125 2094.42529296875 2088.2373046875 2026.51904296875 
2649.6611328125 2756.708984375 2692.010986328125 2586.260009765625 2482.621337890625 2440.892333984375 2482.453125 2549.7958984375 2633.909423828125 2754.1220703125 2874.936767578125 2960.438720703125 2997.274658203125 2929.760986328125 2806.5478515625 2783.461669921875 2773.242431640625 2787.447998046875 2763.276611328125 2727.813720703125 2636.529296875 2589.23095703125 2498.830322265625 2466.741943359375 2332.9306640625 2160.4912109375 2065.279296875 1947.8148193359375 1837.9788818359375 1759.632568359375 1775.4864501953125 1891.8548583984375 1988.31640625 2111.5283203125 2238.92529296875 2371.3779296875 2508.531982421875 2601.333740234375 2751.2001953125 2874.3681640625 2799.604248046875 2805.518310546875 2848.211669921875 2855.721923828125 2960.368408203125 3118.388916015625 3118.04736328125 3085.725830078125 3058.0712890625 3040.16943359375 2903.3369140625 2793.08056640625 2769.89404296875 2704.633544921875 2570.677490234375 2492.378662109375 2428.811279296875 2330.204345703125 2236.6708984375 2104.462646484375 1973.0067138671875 1992.9130859375 2077.71826171875 2209.08935546875 2370.34423828125 2475.511962890625 2567.61181640625 2670.064453125 2800.797607421875 2900.749755859375 2855.6767578125 2685.849853515625 2542.581787109375 2425.55029296875 2330.013427734375 2257.52978515625 2224.16943359375 2259.250732421875 2413.145751953125 2577.87109375 2706.396240234375 2735.59326171875 2739.374755859375 2754.516357421875 2872.607177734375 2971.48095703125 2899.53466796875 2859.508544921875 2846.685791015625 2875.61376953125 2868.84521484375 3005.65478515625 3107.8828125 3009.41650390625 3032.480224609375 2941.4248046875 2844.2021484375 2771.511474609375 2707.52783203125 2639.09765625 2551.46923828125 2470.864501953125 2306.39306640625 2176.27099609375 2098.83447265625 2022.757080078125 2000.4091796875 1984.39404296875 1924.23291015625 
2570.3349609375 2670.333251953125 2728.4443359375 2734.35205078125 2655.49462890625 2531.594482421875 2529.862548828125 2599.545166015625 2707.392333984375 2889.55078125 3023.7783203125 3026.237548828125 3015.58642578125 2843.618408203125 2745.02490234375 2719.406982421875 2728.16796875 2684.548583984375 2655.8642578125 2712.025146484375 2725.240966796875 2661.91259765625 2575.350341796875 2466.775634765625 2313.724853515625 2168.587158203125 2045.715087890625 1947.9998779296875 1838.639404296875 1760.0029296875 1764.8175048828125 1865.73583984375 1993.303466796875 2110.99609375 2272.254638671875 2436.885009765625 2590.53076171875 2703.316650390625 2767.282470703125 2764.60302734375 2766.971923828125 2797.437744140625 2825.81591796875 2877.833740234375 3018.801025390625 3012.507568359375 2970.577392578125 2928.179931640625 2917.881591796875 2936.730224609375 2953.50146484375 2951.01806640625 2903.566650390625 2691.038818359375 2562.69091796875 2470.35693359375 2380.85986328125 2229.85009765625 2126.15966796875 2017.7244873046875 2003.052001953125 2065.95703125 2188.53564453125 2324.62841796875 2452.08203125 2573.696533203125 2676.001220703125 2799.833984375 2949.862548828125 3074.248779296875 2956.53466796875 2795.3212890625 2663.873046875 2589.87890625 2582.008544921875 2536.251708984375 2427.751220703125 2368.026611328125 2397.871337890625 2566.852783203125 2676.56982421875 2689.5869140625 2710.2861328125 2756.05810546875 2815.786865234375 2920.80224609375 2993.640625 2991.178466796875 2967.5625 2949.683349609375 2995.0224609375 3102.448486328125 3066.7705078125 2982.260986328125 2958.966064453125 2980.615478515625 2881.289306640625 2798.913330078125 2689.46240234375 2610.091552734375 2516.81787109375 2395.697265625 2248.86865234375 2121.24853515625 2013.378662109375 1919.29150390625 1901.0079345703125 1875.4124755859375 1766.2557373046875 
2642.081298828125 2672.85205078125 2829.67529296875 2887.802490234375 2804.046630859375 2663.365966796875 2629.809814453125 2644.99853515625 2805.164794921875 2959.258056640625 3021.681396484375 2905.42431640625 2929.42529296875 2888.140625 2752.329833984375 2643.389404296875 2644.865478515625 2661.582763671875 2613.70556640625 2596.1513671875 2623.854248046875 2599.882080078125 2540.274658203125 2458.46435546875 2325.192138671875 2142.113037109375 2016.0767822265625 1945.1129150390625 1829.6004638671875 1759.6004638671875 1759.8104248046875 1831.4840087890625 2000.5318603515625 2144.807373046875 2309.82666015625 2429.317138671875 2512.64892578125 2586.315185546875 2611.13720703125 2640.097412109375 2701.219482421875 2754.98583984375 2848.19921875 3015.773681640625 3157.8212890625 3066.804931640625 2971.37353515625 2903.364013671875 2870.22265625 2854.363037109375 2879.935546875 2954.20458984375 2844.90625 2658.403564453125 2561.876953125 2447.778564453125 2323.20361328125 2177.755126953125 2042.2822265625 1987.4739990234375 2051.4609375 2161.982421875 2293.416015625 2420.233154296875 2542.35400390625 2658.241943359375 2787.525390625 2950.49462890625 3040.180908203125 3046.850830078125 3060.401611328125 2957.460693359375 2852.67626953125 2850.7841796875 2835.42822265625 2793.27490234375 2649.49755859375 2572.12841796875 2492.384521484375 2556.306884765625 2632.944091796875 2678.026123046875 2755.491455078125 2809.26025390625 2860.736083984375 2961.987060546875 3043.070068359375 3034.258544921875 3017.19677734375 3030.153076171875 3080.25537109375 3034.5703125 2971.683837890625 2906.7783203125 2888.67333984375 2892.97705078125 2822.93408203125 2817.997314453125 2664.0771484375 2531.76318359375 2450.432861328125 2331.460205078125 2185.13623046875 2063.291748046875 1950.543212890625 1836.631103515625 1803.9559326171875 1726.23974609375 1590.3773193359375 
2667.441162109375 2709.527587890625 2861.76708984375 2984.81982421875 2937.855224609375 2799.998291015625 2714.908935546875 2710.14208984375 2880.079833984375 3011.630859375 2947.08984375 2871.49267578125 2808.839111328125 2746.8359375 2764.74755859375 2700.125244140625 2615.96923828125 2584.973876953125 2536.021240234375 2539.5712890625 2526.640380859375 2506.957763671875 2455.947998046875 2394.48583984375 2291.948486328125 2125.864990234375 2030.1365966796875 1934.5345458984375 1799.797607421875 1759.63134765625 1759.6748046875 1832.309326171875 2035.5491943359375 2192.895751953125 2285.7958984375 2345.357666015625 2441.40185546875 2511.982177734375 2560.3388671875 2619.791015625 2659.257568359375 2728.399169921875 2856.39794921875 2987.982421875 3188.60986328125 3264.284912109375 3121.830322265625 2920.433837890625 2841.337890625 2797.019287109375 2797.023681640625 2837.89013671875 2824.1015625 2675.52490234375 2521.01220703125 2407.97900390625 2258.625244140625 2101.146728515625 1995.279296875 2004.01708984375 2129.414794921875 2280.516845703125 2390.859130859375 2490.742919921875 2631.840576171875 2755.741455078125 2871.04052734375 3024.0869140625 3051.919189453125 2958.572265625 2973.62646484375 3005.664794921875 2987.6708984375 2994.9677734375 2976.806396484375 2934.94287109375 2761.878173828125 2619.091796875 2533.287353515625 2573.07470703125 2657.88671875 2793.877685546875 2876.026611328125 2905.294921875 2967.566650390625 3069.019287109375 3099.444580078125 3076.263671875 3111.5654296875 3037.150390625 2996.883544921875 2986.837158203125 2941.744384765625 2868.52392578125 2796.1416015625 2808.00341796875 2785.259521484375 2763.313720703125 2676.625244140625 2508.724609375 2353.271484375 2237.33056640625 2121.255859375 1990.234619140625 1880.25048828125 1749.61572265625 1670.51416015625 1576.02734375 1533.3466796875 
2710.34033203125 2778.54638671875 2850.83544921875 2915.139892578125 3023.229736328125 2920.15869140625 2790.41455078125 2776.018798828125 2825.990966796875 2962.012939453125 2895.891845703125 2811.27978515625 2765.69384765625 2694.447021484375 2657.897705078125 2706.908203125 2672.12646484375 2556.84423828125 2470.970947265625 2462.8564453125 2432.026123046875 2367.3154296875 2295.739501953125 2248.4609375 2198.192626953125 2123.02783203125 2019.4617919921875 1874.439453125 1763.798828125 1759.5782470703125 1759.8419189453125 1855.2578125 2069.48681640625 2245.012939453125 2360.036865234375 2366.3212890625 2405.993896484375 2487.988525390625 2537.53076171875 2586.566650390625 2636.04736328125 2730.32421875 2814.843505859375 2951.4482421875 3140.7275390625 3253.5087890625 3196.3115234375 3019.04248046875 2860.334716796875 2776.69189453125 2732.287109375 2717.0634765625 2664.457763671875 2573.293212890625 2457.371826171875 2348.869140625 2182.94921875 2032.1982421875 2028.7296142578125 2096.476806640625 2288.503173828125 2474.43994140625 2585.1220703125 2653.01220703125 2813.71875 2942.117431640625 3040.9638671875 3128.58984375 3033.951904296875 2914.176025390625 2880.31005859375 2863.5595703125 2865.861083984375 2868.593994140625 2864.345458984375 2838.867431640625 2704.142333984375 2605.164794921875 2596.727783203125 2625.7587890625 2762.552490234375 2973.314208984375 2998.78564453125 3005.7626953125 3082.8388671875 3178.330810546875 3179.41064453125 3203.8125 3152.33251953125 3033.522705078125 2936.294677734375 2914.403564453125 2890.337890625 2777.072509765625 2694.57958984375 2706.713623046875 2731.301513671875 2702.8193359375 2615.31005859375 2469.446044921875 2321.12548828125 2186.349853515625 2038.7164306640625 1922.1212158203125 1774.92626953125 1639.72314453125 1564.362548828125 1557.859375 1642.37353515625 
2733.073486328125 2811.994873046875 2889.58837890625 2935.506591796875 2998.885986328125 2969.325439453125 2919.312255859375 2896.197265625 2963.031494140625 3057.72119140625 2982.70751953125 2839.504150390625 2758.702880859375 2690.732666015625 2625.9248046875 2595.05126953125 2569.444580078125 2513.501953125 2419.031494140625 2370.43603515625 2306.485595703125 2225.40869140625 2178.694580078125 2156.865234375 2119.69775390625 2081.162109375 2003.6700439453125 1845.735107421875 1759.94384765625 1759.5738525390625 1763.6815185546875 1898.431640625 2102.310302734375 2292.171142578125 2475.946533203125 2454.756591796875 2441.019287109375 2483.882080078125 2554.0673828125 2610.47265625 2694.7822265625 2786.1298828125 2883.827392578125 2953.16162109375 3155.50048828125 3111.579833984375 3089.465087890625 2966.25634765625 2901.21630859375 2792.051513671875 2751.372314453125 2688.583740234375 2560.927978515625 2480.914306640625 2412.108642578125 2276.7841796875 2109.986328125 2025.076904296875 2088.89404296875 2215.447265625 2439.727294921875 2599.405029296875 2801.30322265625 2889.06982421875 2978.649169921875 3125.87060546875 3132.838623046875 3090.603515625 2994.129150390625 2944.388916015625 2899.72119140625 2858.749755859375 2821.942138671875 2799.60107421875 2753.69287109375 2735.336669921875 2658.614501953125 2630.99609375 2629.962646484375 2688.70361328125 2901.56298828125 3103.9765625 3101.427978515625 3071.53271484375 3233.84521484375 3267.85595703125 3255.65283203125 3212.451171875 3083.594482421875 2960.137451171875 2876.2705078125 2821.544677734375 2822.098388671875 2800.723876953125 2687.15185546875 2629.37744140625 2645.035400390625 2605.646728515625 2536.402587890625 2390.464111328125 2276.4208984375 2136.990478515625 1973.400390625 1808.7547607421875 1657.473388671875 1559.1090087890625 1601.9561767578125 1682.971435546875 1833.5614013671875 
2819.2158203125 2855.869140625 2892.3525390625 2875.010986328125 2836.372314453125 2838.1025390625 2939.081298828125 3028.93798828125 2982.3681640625 2982.91845703125 3051.003662109375 3005.763671875 2867.84375 2743.897216796875 2649.013427734375 2570.222412109375 2516.97705078125 2417.447998046875 2327.9091796875 2263.5888671875 2237.77734375 2233.2783203125 2235.475341796875 2224.531982421875 2189.88916015625 2168.457763671875 2050.148193359375 1865.942626953125 1760.8048095703125 1759.550048828125 1785.7882080078125 1949.6185302734375 2170.1484375 2359.062744140625 2550.282958984375 2613.849853515625 2583.43017578125 2563.2216796875 2619.162841796875 2709.10986328125 2826.108154296875 2932.14404296875 3036.260986328125 3085.270263671875 3133.618408203125 3060.1787109375 2976.22119140625 2842.374755859375 2804.318115234375 2771.677978515625 2689.77001953125 2647.716064453125 2614.596435546875 2479.917724609375 2352.952392578125 2190.8642578125 2047.142822265625 2055.870849609375 2145.934814453125 2335.658203125 2498.32568359375 2659.759521484375 2863.7783203125 3107.790283203125 3170.98974609375 3167.23779296875 3100.279052734375 3031.143310546875 3005.421142578125 2974.84375 2908.264892578125 2833.302490234375 2793.92626953125 2745.925048828125 2716.075439453125 2671.700439453125 2679.433349609375 2675.933837890625 2670.7529296875 2824.458740234375 3034.42822265625 3212.8779296875 3157.107177734375 3129.6181640625 3217.264892578125 3173.7822265625 3143.526611328125 3073.23388671875 2986.21142578125 2899.42724609375 2869.388427734375 2839.99267578125 2794.35302734375 2777.426025390625 2713.55224609375 2627.29833984375 2580.851806640625 2483.798583984375 2407.39697265625 2319.218017578125 2189.8857421875 2037.7529296875 1882.74267578125 1700.2904052734375 1579.8671875 1593.654296875 1688.8699951171875 1820.1474609375 1945.76611328125 
2703.538818359375 2707.11962890625 2718.11083984375 2723.25048828125 2713.468017578125 2774.43408203125 2924.023681640625 2955.834228515625 2887.14111328125 2909.23486328125 2922.53759765625 2939.931884765625 2810.01171875 2785.222412109375 2738.66796875 2612.279296875 2449.312744140625 2343.7666015625 2271.622802734375 2284.3330078125 2326.150390625 2343.18359375 2360.84375 2368.906982421875 2352.110107421875 2279.163330078125 2111.29443359375 1893.536865234375 1763.249755859375 1759.6051025390625 1820.716552734375 2006.443603515625 2192.239501953125 2373.56689453125 2570.039794921875 2729.060302734375 2758.329345703125 2712.461669921875 2752.923095703125 2852.043701171875 2997.724853515625 3104.38134765625 3196.275634765625 3254.142578125 3154.63916015625 3111.58642578125 3005.036865234375 2832.353271484375 2780.294921875 2751.307373046875 2714.47900390625 2677.069580078125 2620.75048828125 2500.7607421875 2338.70361328125 2149.59716796875 2053.414306640625 2076.548583984375 2253.111572265625 2416.779541015625 2550.44287109375 2723.098388671875 2934.407470703125 3135.248046875 3282.1484375 3264.329345703125 3139.4072265625 3050.08349609375 3028.062255859375 2990.423095703125 2905.04638671875 2819.645751953125 2780.87939453125 2748.67578125 2719.655029296875 2694.31640625 2707.3515625 2707.04638671875 2702.659423828125 2839.859375 3054.346923828125 3159.0986328125 3127.3193359375 3149.9228515625 3219.522705078125 3130.509033203125 3089.391845703125 3034.123046875 2967.07861328125 2911.383544921875 2890.637451171875 2845.080322265625 2790.472412109375 2776.129638671875 2696.25927734375 2607.103515625 2550.383056640625 2459.666015625 2353.024658203125 2231.705810546875 2090.913818359375 1930.124755859375 1749.881103515625 1606.25830078125 1580.824462890625 1661.520263671875 1806.9984130859375 1952.924560546875 2076.660888671875 
2535.764404296875 2543.459228515625 2567.739990234375 2636.056640625 2685.422119140625 2782.816162109375 2979.324462890625 2903.184814453125 2827.610107421875 2832.971923828125 2829.216064453125 2833.044677734375 2756.9423828125 2687.536865234375 2642.227783203125 2536.935302734375 2374.73583984375 2324.51904296875 2359.20751953125 2401.16015625 2474.015869140625 2519.431396484375 2558.60205078125 2557.303466796875 2421.8720703125 2261.2119140625 2086.914794921875 1903.6845703125 1767.1402587890625 1759.93701171875 1855.8319091796875 2043.9498291015625 2203.903076171875 2377.83837890625 2545.25146484375 2712.4482421875 2843.12451171875 2780.93115234375 2745.084716796875 2871.2177734375 3038.517333984375 3135.817626953125 3207.956787109375 3341.688720703125 3257.267822265625 3234.48583984375 3090.04638671875 2871.447265625 2774.3525390625 2735.63525390625 2705.326416015625 2666.345947265625 2622.866943359375 2534.177001953125 2332.4912109375 2132.672119140625 2062.795166015625 2130.983642578125 2375.90087890625 2561.77197265625 2683.871337890625 2791.83740234375 2916.78759765625 3032.334228515625 3224.619873046875 3318.04150390625 3196.942138671875 3121.80908203125 3099.787109375 2988.565185546875 2867.223876953125 2820.58837890625 2795.099853515625 2772.237060546875 2739.370849609375 2715.21337890625 2721.04296875 2737.51806640625 2763.396728515625 2800.529052734375 2926.6162109375 3012.8876953125 3023.59521484375 3091.921142578125 3195.84130859375 3132.53271484375 3071.570556640625 3021.412109375 2952.49658203125 2899.549072265625 2852.716552734375 2796.718017578125 2737.91455078125 2690.232177734375 2619.901123046875 2553.007080078125 2543.673583984375 2480.552978515625 2360.759521484375 2192.224609375 2003.47021484375 1828.311767578125 1667.5404052734375 1587.989990234375 1643.1773681640625 1796.5430908203125 1942.138427734375 2110.8486328125 2224.73388671875 
2389.4755859375 2434.258544921875 2537.61279296875 2645.29052734375 2723.723876953125 2857.5 2990.40185546875 2881.704833984375 2786.893798828125 2767.115966796875 2744.70166015625 2726.846923828125 2668.20068359375 2620.5625 2526.72314453125 2415.11083984375 2348.709716796875 2399.936767578125 2492.955078125 2579.226318359375 2669.134765625 2714.983642578125 2724.984130859375 2561.1962890625 2373.437744140625 2211.466796875 2059.672607421875 1903.6302490234375 1770.5010986328125 1761.4495849609375 1865.6785888671875 2055.1875 2196.29833984375 2321.7138671875 2460.30029296875 2593.144775390625 2683.892578125 2656.241943359375 2682.07373046875 2806.041015625 2939.2685546875 3075.06494140625 3216.95166015625 3358.499755859375 3260.791015625 3178.653564453125 3164.502685546875 3018.099609375 2885.43212890625 2888.48779296875 2750.682373046875 2602.775390625 2543.046142578125 2461.3291015625 2256.672119140625 2144.634033203125 2091.01318359375 2217.34716796875 2410.856689453125 2562.100830078125 2681.947509765625 2764.85595703125 2882.833740234375 3033.6337890625 3214.045166015625 3332.489501953125 3253.158447265625 3219.076904296875 3168.416748046875 3017.769775390625 2942.591796875 2882.336181640625 2880.458984375 2853.2666015625 2816.543212890625 2785.161376953125 2736.818603515625 2758.511962890625 2785.023681640625 2805.02978515625 2831.15771484375 2888.602294921875 2969.629150390625 3060.424560546875 3221.99658203125 3153.33251953125 3062.09765625 3007.5595703125 2936.842041015625 2844.479248046875 2773.6552734375 2719.643798828125 2673.083740234375 2616.348388671875 2523.776611328125 2460.915771484375 2427.977294921875 2413.765625 2302.7900390625 2140.780517578125 1943.33642578125 1758.4708251953125 1633.345703125 1619.4156494140625 1756.3955078125 1931.8258056640625 2095.91650390625 2246.612060546875 2378.25146484375 
2339.085205078125 2400.817626953125 2476.371337890625 2567.9384765625 2674.6083984375 2816.328857421875 2911.181884765625 2823.441162109375 2757.419677734375 2736.673095703125 2710.30615234375 2676.94775390625 2600.13232421875 2527.087646484375 2437.720947265625 2406.149658203125 2429.482421875 2536.447021484375 2668.4609375 2782.275390625 2840.759521484375 2871.81103515625 2746.93310546875 2558.8662109375 2389.427001953125 2207.8037109375 2047.913818359375 1885.0888671875 1776.042236328125 1762.0040283203125 1888.4881591796875 2076.351806640625 2210.973388671875 2327.24072265625 2439.28466796875 2549.46142578125 2620.642822265625 2625.89013671875 2707.95703125 2843.185302734375 2985.814208984375 3111.654541015625 3194.44091796875 3268.468994140625 3241.218017578125 3093.874267578125 3013.64453125 3004.06787109375 2991.119384765625 2931.008056640625 2754.75439453125 2580.3583984375 2473.556640625 2351.06298828125 2226.2265625 2168.856201171875 2151.57861328125 2303.2802734375 2519.39990234375 2700.8466796875 2800.449462890625 2846.486572265625 2971.05859375 3144.954345703125 3203.44970703125 3316.39111328125 3355.41015625 3296.20654296875 3185.4970703125 3054.094482421875 3008.8974609375 2975.832275390625 2952.418701171875 2931.375244140625 2925.968505859375 2935.41015625 2816.364013671875 2794.31103515625 2823.05322265625 2844.94384765625 2859.73095703125 2892.719970703125 3011.7412109375 3079.69970703125 3120.9267578125 3038.367431640625 3015.903076171875 3040.043701171875 2975.4248046875 2857.80322265625 2753.18212890625 2643.5498046875 2546.701416015625 2518.616455078125 2437.171142578125 2366.5986328125 2287.277587890625 2261.1357421875 2215.666259765625 2048.728515625 1875.287109375 1727.80517578125 1625.62353515625 1692.1396484375 1856.10107421875 1997.8424072265625 2180.556884765625 2360.44873046875 2515.547607421875 
2429.40087890625 2533.650146484375 2551.096435546875 2619.59423828125 2738.22802734375 2895.63037109375 2950.06494140625 2822.431884765625 2752.39306640625 2712.086669921875 2689.113037109375 2640.71826171875 2580.467529296875 2485.838623046875 2447.556396484375 2480.43505859375 2582.760009765625 2767.800537109375 2864.829345703125 2786.06982421875 2726.609375 2738.260986328125 2724.904052734375 2607.866455078125 2441.920654296875 2286.4111328125 2125.12890625 1922.3966064453125 1769.035888671875 1762.581787109375 1892.81787109375 2101.760009765625 2264.126220703125 2403.031982421875 2511.44482421875 2570.60205078125 2623.18212890625 2702.25927734375 2807.181396484375 2961.2255859375 3159.66259765625 3229.546875 3113.707763671875 3110.515625 3176.953857421875 3060.65625 2918.349609375 2854.807861328125 2843.616455078125 2776.5400390625 2650.30419921875 2486.848876953125 2368.627685546875 2305.812744140625 2285.62353515625 2203.7939453125 2223.120361328125 2373.25341796875 2577.735107421875 2776.91650390625 2969.99072265625 3004.171875 3106.267822265625 3125.572021484375 3104.59912109375 3175.789306640625 3313.78466796875 3267.8173828125 3156.143310546875 3074.535400390625 3041.037841796875 3006.20654296875 2987.390380859375 2980.014892578125 3069.564208984375 3098.31640625 2972.578369140625 2854.244873046875 2874.7099609375 2889.616943359375 2890.379150390625 2943.060546875 3091.59912109375 3030.205078125 3004.750244140625 2962.4638671875 2923.60986328125 2937.340576171875 3021.597412109375 2946.0439453125 2787.44140625 2606.9677734375 2481.42919921875 2414.923583984375 2359.051025390625 2270.65234375 2166.85595703125 2091.317138671875 2053.469970703125 1947.213134765625 1819.78076171875 1695.353515625 1669.0821533203125 1814.374755859375 1934.3392333984375 2057.03173828125 2225.13818359375 2410.8798828125 2546.90771484375 
2587.1875 2680.71630859375 2650.214111328125 2694.596435546875 2790.65625 2975.40478515625 2977.80419921875 2841.81494140625 2757.092529296875 2663.414306640625 2640.25732421875 2575.068603515625 2533.625 2519.46533203125 2535.767822265625 2612.39501953125 2723.31005859375 2846.095703125 2915.837158203125 2815.048828125 2694.364013671875 2646.324462890625 2601.162109375 2535.25 2430.814208984375 2329.043212890625 2155.337158203125 1955.980224609375 1784.479736328125 1764.8157958984375 1880.768798828125 2086.291748046875 2311.2958984375 2542.63720703125 2695.055419921875 2705.6484375 2715.498046875 2827.192626953125 2975.468017578125 3167.7919921875 3312.37890625 3151.90673828125 3027.854248046875 2994.97900390625 3016.688720703125 3024.744873046875 2869.671875 2782.256103515625 2771.76708984375 2711.16015625 2567.38037109375 2416.37646484375 2359.868896484375 2402.1435546875 2325.380615234375 2239.685302734375 2296.551513671875 2460.5537109375 2684.218017578125 2840.585693359375 3001.306396484375 3133.978271484375 3174.0234375 3053.58447265625 3044.59619140625 3072.917236328125 3242.4169921875 3210.728271484375 3160.8076171875 3101.41015625 3070.6376953125 3036.634765625 3021.722412109375 3055.166748046875 3187.798828125 3115.921630859375 2982.295166015625 2907.94287109375 2915.571044921875 2918.541259765625 2929.220947265625 2962.32763671875 3066.275390625 3010.826416015625 2929.251953125 2906.39892578125 2852.421875 2868.649169921875 2910.0224609375 2906.139892578125 2782.166015625 2653.38525390625 2519.10205078125 2393.5068359375 2274.59423828125 2194.08154296875 2066.1787109375 1961.60302734375 1909.6002197265625 1832.7779541015625 1745.3463134765625 1678.0955810546875 1770.839111328125 1915.116455078125 2009.1077880859375 2144.564453125 2309.308837890625 2447.9345703125 2540.520263671875 
2666.344970703125 2790.26904296875 2738.947021484375 2798.193359375 2832.306396484375 3002.379150390625 2971.5126953125 2850.764404296875 2795.293212890625 2704.6494140625 2658.339599609375 2607.156494140625 2595.640380859375 2617.919921875 2653.170166015625 2711.6767578125 2832.802001953125 2924.35302734375 2906.156494140625 2851.451416015625 2733.966064453125 2632.1962890625 2574.301513671875 2519.25341796875 2450.5595703125 2363.907958984375 2189.67138671875 1977.434326171875 1802.85498046875 1774.917724609375 1889.0257568359375 2070.52880859375 2309.489013671875 2499.17431640625 2680.958251953125 2825.67236328125 2843.733154296875 2938.635498046875 3104.8046875 3326.54541015625 3255.111328125 3080.796630859375 3002.065185546875 2930.501220703125 2899.859130859375 2947.53515625 2790.72509765625 2705.33251953125 2681.83056640625 2621.956298828125 2507.834228515625 2406.416748046875 2430.685302734375 2472.80078125 2351.5234375 2294.289794921875 2377.469482421875 2530.66748046875 2715.368896484375 2838.54638671875 2933.076171875 3014.730712890625 3051.3125 2994.33349609375 2996.34619140625 3003.84228515625 3124.899658203125 3208.76953125 3153.173828125 3126.12451171875 3119.155517578125 3105.318359375 3092.3779296875 3168.616455078125 3221.2265625 3125.30517578125 2993.346435546875 2946.21875 2937.61376953125 2955.02197265625 2965.649169921875 2999.834716796875 3123.576904296875 3061.916015625 2930.085693359375 2861.969970703125 2801.4091796875 2799.491455078125 2813.23291015625 2825.87158203125 2718.1689453125 2643.49609375 2495.88232421875 2329.046875 2200.5419921875 2073.989990234375 1964.2459716796875 1866.5582275390625 1768.529541015625 1699.0770263671875 1693.520263671875 1750.0252685546875 1858.1041259765625 1987.1107177734375 2106.068603515625 2251.342529296875 2405.340087890625 2537.412841796875 2610.83642578125 
2618.65673828125 2828.7724609375 2902.838623046875 2896.0380859375 2931.100341796875 2947.608642578125 2912.013671875 2934.82666015625 2903.593994140625 2756.52734375 2717.34716796875 2721.56689453125 2717.805419921875 2698.742919921875 2780.826171875 2881.5439453125 2856.012451171875 2787.532958984375 2747.140869140625 2710.887939453125 2691.94775390625 2688.276611328125 2664.190673828125 2609.45849609375 2489.713623046875 2375.302490234375 2212.886962890625 2007.3359375 1825.1871337890625 1809.1312255859375 1900.9022216796875 2095.953857421875 2304.144775390625 2488.21728515625 2665.209228515625 2710.714599609375 2753.699462890625 2876.171630859375 3081.153076171875 3229.97802734375 3324.73486328125 3146.010498046875 2971.358154296875 2898.758544921875 2833.658203125 2845.5576171875 2756.949951171875 2646.571533203125 2604.396240234375 2531.892333984375 2460.93310546875 2453.581787109375 2541.062255859375 2593.0595703125 2443.662841796875 2387.40234375 2467.130615234375 2575.9814453125 2705.031005859375 2807.072265625 2838.820068359375 2877.45703125 2934.49072265625 2943.061767578125 2956.135498046875 2964.3955078125 2990.0087890625 3058.669189453125 3111.39111328125 3206.183349609375 3234.875244140625 3218.52294921875 3228.807861328125 3190.695068359375 3172.512939453125 3144.33154296875 3031.512451171875 2987.03857421875 2990.843994140625 2989.704345703125 2989.135498046875 3022.24658203125 3011.769775390625 2918.613525390625 2841.9345703125 2754.7568359375 2736.540771484375 2734.771240234375 2730.233154296875 2721.5888671875 2686.234375 2558.172607421875 2408.206298828125 2258.838623046875 2114.577392578125 1988.9630126953125 1880.5731201171875 1757.1058349609375 1718.060302734375 1788.2138671875 1779.0218505859375 1829.96875 1929.15185546875 2061.2490234375 2192.186279296875 2339.550048828125 2505.587890625 2639.87451171875 2722.293212890625 
2640.750244140625 2833.04833984375 2971.475341796875 2874.573486328125 2807.188720703125 2775.709716796875 2793.251953125 2852.43798828125 2939.99462890625 2876.9755859375 2840.62158203125 2815.15576171875 2770.96240234375 2785.161376953125 2915.645263671875 3012.123046875 2867.34521484375 2781.168212890625 2708.327880859375 2642.341064453125 2629.298828125 2609.116455078125 2581.230712890625 2515.379150390625 2405.9697265625 2313.50244140625 2167.238037109375 1992.9742431640625 1859.1014404296875 1834.2215576171875 1939.3743896484375 2157.5546875 2377.414306640625 2508.18359375 2586.510009765625 2623.405029296875 2727.565673828125 2863.3857421875 2962.494384765625 3094.0830078125 3264.059326171875 3173.67236328125 2990.33544921875 2884.358642578125 2787.142333984375 2758.0048828125 2665.96923828125 2609.62939453125 2541.221923828125 2495.214599609375 2511.333251953125 2572.859130859375 2688.994140625 2738.862548828125 2583.859619140625 2522.580078125 2538.875244140625 2570.31201171875 2657.2626953125 2752.95556640625 2806.35107421875 2845.296142578125 2887.9365234375 2921.657470703125 2942.076171875 2962.466552734375 3006.81982421875 3057.2958984375 3078.39990234375 3163.05322265625 3339.74609375 3314.408935546875 3259.009521484375 3181.30078125 3153.9814453125 3131.130126953125 3075.09228515625 3031.311767578125 3025.576904296875 3016.240966796875 3015.246337890625 3048.650390625 2967.146484375 2857.072509765625 2790.059814453125 2709.478271484375 2665.10107421875 2653.240234375 2607.1943359375 2600.190673828125 2582.261474609375 2456.21435546875 2338.18310546875 2190.437744140625 2031.48974609375 1911.47314453125 1791.755859375 1710.593994140625 1855.802001953125 1885.888427734375 1866.32763671875 1921.6937255859375 2002.5323486328125 2162.185791015625 2303.27099609375 2420.63427734375 2525.42529296875 2657.800537109375 2835.1953125 
2657.39013671875 2801.7744140625 2860.351318359375 2778.952880859375 2710.73583984375 2699.475830078125 2762.47705078125 2857.154052734375 2957.43603515625 3041.63623046875 2930.047607421875 2855.058349609375 2885.309814453125 2958.848388671875 2999.91162109375 3068.48291015625 2969.45556640625 2896.598876953125 2801.221923828125 2689.944091796875 2582.83203125 2541.26171875 2485.467529296875 2399.287841796875 2297.94921875 2190.922607421875 2071.19580078125 1942.8480224609375 1887.3961181640625 1885.6470947265625 2006.445556640625 2212.181396484375 2377.044921875 2461.880859375 2517.23388671875 2614.513427734375 2760.4345703125 2873.33251953125 2999.3251953125 3131.5712890625 3167.4951171875 3061.40576171875 2973.437255859375 2907.341796875 2752.061767578125 2702.408447265625 2670.659912109375 2600.59228515625 2548.88720703125 2554.4853515625 2609.528076171875 2713.6455078125 2810.32861328125 2757.138671875 2646.911865234375 2595.6435546875 2580.97119140625 2620.0908203125 2667.814208984375 2734.0791015625 2821.65380859375 2852.220458984375 2902.4228515625 2933.25537109375 2948.72265625 2994.5439453125 3073.573974609375 3080.5126953125 3096.3173828125 3164.44384765625 3341.508056640625 3323.03271484375 3242.575439453125 3182.065673828125 3154.666015625 3132.121337890625 3080.080322265625 3056.6708984375 3044.49560546875 3038.232177734375 3039.48779296875 3116.320068359375 3049.98583984375 2941.537109375 2824.242431640625 2718.86083984375 2683.421142578125 2635.450439453125 2562.650390625 2493.594970703125 2428.2880859375 2351.451904296875 2268.525634765625 2143.140380859375 1977.676025390625 1814.549072265625 1719.592529296875 1770.676025390625 1923.28076171875 1952.8428955078125 1962.9722900390625 2029.6119384765625 2107.84765625 2275.30419921875 2433.278564453125 2545.337890625 2584.103271484375 2692.8486328125 2902.548095703125 
2526.1357421875 2632.771240234375 2681.553466796875 2679.923583984375 2663.442626953125 2690.3671875 2775.348388671875 2899.635986328125 3018.19482421875 3133.999267578125 3073.14599609375 3025.335205078125 3078.001953125 3122.177490234375 3042.805908203125 2937.490234375 2913.35400390625 2971.123046875 2893.139404296875 2762.43359375 2610.38134765625 2499.005126953125 2431.912109375 2348.09326171875 2277.61865234375 2182.6728515625 2048.370849609375 1937.1348876953125 1888.9500732421875 1908.8463134765625 2006.9766845703125 2194.57421875 2343.78369140625 2445.501953125 2508.217529296875 2623.211181640625 2774.55908203125 2908.449951171875 2997.04736328125 3079.07861328125 3101.02880859375 2975.69482421875 2900.460205078125 2868.294921875 2765.8173828125 2706.9111328125 2654.698974609375 2615.22998046875 2636.67724609375 2685.8388671875 2748.559326171875 2855.151123046875 2758.23779296875 2673.37548828125 2623.781494140625 2614.277587890625 2619.953857421875 2652.803955078125 2683.53125 2748.553466796875 2908.791259765625 3006.74755859375 3046.0205078125 3038.732421875 3053.077392578125 3106.45654296875 3116.09912109375 3108.927978515625 3151.725830078125 3181.22265625 3326.360595703125 3357.168212890625 3239.41259765625 3209.709228515625 3157.94482421875 3120.09326171875 3087.841796875 3072.38330078125 3060.608642578125 3056 3076.853515625 3155.302001953125 3000.795654296875 2849.13720703125 2784.3251953125 2722.727783203125 2716.4013671875 2625.484375 2565.56689453125 2489.30908203125 2380.6220703125 2254.7392578125 2163.8349609375 2040.016845703125 1891.2711181640625 1752.9088134765625 1723.8857421875 1838.9095458984375 1964.00146484375 2023.5743408203125 2083.60009765625 2170.615478515625 2270.894287109375 2350.189453125 2473.649658203125 2582.984375 2652.092529296875 2805.185302734375 2992.851318359375 
2392.742919921875 2469.001708984375 2561.2509765625 2639.8564453125 2655.04443359375 2672.914794921875 2787.150634765625 3012.16357421875 3115.7314453125 3111.183349609375 3030.199462890625 2995.481201171875 2986.241943359375 3004.710205078125 2991.418212890625 2900.605712890625 2833.01708984375 2843.113037109375 2873.812744140625 2738.60009765625 2619.825927734375 2522.076171875 2443.115234375 2373.886474609375 2288.539794921875 2170.83740234375 2030.38037109375 1930.0279541015625 1887.5845947265625 1910.98828125 2020.5262451171875 2185.1005859375 2350.34228515625 2477.586181640625 2587.963134765625 2676.45166015625 2788.570556640625 2823.639892578125 2859.890625 2945.831298828125 3041.79736328125 2995.851806640625 2890.462646484375 2834.769775390625 2778.024169921875 2717.543212890625 2664.496826171875 2666.092041015625 2762.5625 2907.89404296875 3002.38232421875 2986.2490234375 2804.515869140625 2718.758056640625 2682.138671875 2692.719970703125 2741.900390625 2796.14892578125 2806.45654296875 2867.539306640625 3020.60107421875 3143.732421875 3236.815185546875 3195.083251953125 3201.17236328125 3199.28173828125 3187.531494140625 3176.5517578125 3228.201171875 3277.65625 3427.764892578125 3384.076171875 3285.50927734375 3234.744140625 3177.11376953125 3125.74755859375 3099.35400390625 3082.275146484375 3076.49365234375 3082.215576171875 3167.429931640625 3087.978515625 2953.0419921875 2851.271728515625 2771.551513671875 2740.332275390625 2779.83837890625 2719.7705078125 2637.795166015625 2551.8671875 2449.753662109375 2318.6640625 2156.088623046875 1985.056884765625 1832.256591796875 1742.2259521484375 1776.1219482421875 1923.639404296875 2072.61083984375 2164.99609375 2215.833251953125 2313.35498046875 2413.2099609375 2453.152587890625 2517.78076171875 2597.493896484375 2704.541748046875 2836.865966796875 2935.579345703125 
2282.73828125 2386.31640625 2531.240234375 2637.809326171875 2670.178466796875 2744.746337890625 2809.554443359375 3026.563232421875 3169.40087890625 3099.203857421875 2959.539794921875 2911.15869140625 2896.6640625 2909.04296875 2923.33154296875 2876.579833984375 2799.004150390625 2745.4267578125 2844.198974609375 2840.307373046875 2721.907470703125 2603.1181640625 2495.17724609375 2392.74169921875 2283.462646484375 2186.80810546875 2056.59423828125 1963.2012939453125 1920.19580078125 1935.8343505859375 2050.656982421875 2205.258056640625 2373.85888671875 2477.20703125 2558.01220703125 2641.731689453125 2726.394775390625 2761.233642578125 2815.34716796875 2882.833984375 3015.06201171875 3051.276123046875 2933.366455078125 2820.03564453125 2780.470458984375 2754.088623046875 2734.87744140625 2763.81005859375 2853.456787109375 2955.385986328125 3055.7353515625 3073.06689453125 2912.11962890625 2844.2509765625 2821.4873046875 2841.587158203125 2906.58984375 3007.298095703125 3015.29638671875 3050.804443359375 3145.7060546875 3262.323486328125 3326.55322265625 3291.32861328125 3267.831298828125 3260.07763671875 3233.509521484375 3292.982666015625 3361.943115234375 3371.35107421875 3457.345947265625 3407.717041015625 3321.114990234375 3255.393310546875 3188.14208984375 3159.6669921875 3132.3330078125 3100.64111328125 3106.001953125 3147.264892578125 3296.278076171875 3185.815673828125 3046.767578125 2984.746337890625 2870.462158203125 2822.396728515625 2831.539306640625 2898.7490234375 2798.53515625 2651.46630859375 2503.38671875 2328.364990234375 2129.579345703125 1932.64404296875 1786.0447998046875 1780.4095458984375 1864.28857421875 2056.487060546875 2245.602294921875 2359.404052734375 2377.1650390625 2453.432373046875 2517.207275390625 2565.9423828125 2645.300048828125 2685.725830078125 2821.806884765625 2950.01123046875 2962.4921875 
2242.23681640625 2409.66357421875 2603.778076171875 2713.795654296875 2813.656982421875 2840.61328125 2934.97900390625 3207.40185546875 3150.97998046875 3061.72509765625 2934.52783203125 2880.845703125 2835.40625 2842.555908203125 2836.00048828125 2797.482421875 2729.407958984375 2656.0869140625 2725.623046875 2786.968994140625 2708.92041015625 2608.8515625 2504.9736328125 2419.4189453125 2346.5908203125 2260.453369140625 2156.4140625 2071.690185546875 1960.7774658203125 1955.5640869140625 2064.01513671875 2235.470458984375 2376.49169921875 2448.14208984375 2559.475830078125 2644.65478515625 2719.957763671875 2843.923095703125 2963.269775390625 2970.282958984375 3093.985107421875 3079.875 2941.08349609375 2894.058349609375 2880.4990234375 2926.3291015625 2915.83935546875 2874.434326171875 2881.58203125 2915.123291015625 2981.828857421875 3038.490966796875 3004.845458984375 2993.89892578125 3014.557373046875 3047.11474609375 3125.76953125 3232.107421875 3245.527587890625 3251.2509765625 3284.157470703125 3374.59716796875 3355.173828125 3337.4052734375 3318.72900390625 3303.5908203125 3315.980224609375 3388.701904296875 3452.48974609375 3469.09423828125 3493.495849609375 3466.529541015625 3329.30029296875 3257.236328125 3214.971923828125 3188.043212890625 3178.837158203125 3169.636962890625 3194.937255859375 3235.405029296875 3329.776123046875 3238.90673828125 3161.589599609375 3124.029541015625 3055.26806640625 3000.28955078125 2936.099609375 2869.279052734375 2731.828369140625 2606.014892578125 2447.96337890625 2217.535888671875 2007.5814208984375 1852.47314453125 1775.2430419921875 1834.9024658203125 1957.075439453125 2118.657958984375 2347.10302734375 2502.529296875 2556.938232421875 2564.267822265625 2630.712890625 2664.946044921875 2768.76611328125 2812.688232421875 2938.313232421875 3046.451904296875 3059.700439453125 
2262.347412109375 2447.98779296875 2639.848388671875 2762.0302734375 2945.898681640625 3009.7626953125 3112.874755859375 3260.80126953125 3143.552734375 3050.5849609375 2949.160400390625 2873.911865234375 2822.5302734375 2790.6982421875 2778.146728515625 2710.107421875 2618.11767578125 2563.42529296875 2601.630859375 2628.723388671875 2606.896484375 2533.74951171875 2429.93115234375 2377.974365234375 2317.2421875 2242.21240234375 2160.538330078125 2077.720947265625 1942.1748046875 1946.6766357421875 2092.220703125 2281.4833984375 2449.61767578125 2550.844970703125 2672.38671875 2750.5302734375 2776.369873046875 2983.29736328125 3131.8271484375 3158.903564453125 3212.740478515625 3132.541748046875 3036.90869140625 3008.451171875 3036.091064453125 3083.394287109375 3009.26025390625 2973.385009765625 2997.46630859375 3037.8642578125 3112.8232421875 3088.583740234375 3076.096435546875 3109.916259765625 3163.583251953125 3251.431396484375 3305.49462890625 3313.1875 3298.21484375 3361.7158203125 3420.676513671875 3405.300048828125 3382.249755859375 3390.999267578125 3398.18408203125 3409.863037109375 3453.295654296875 3496.703857421875 3547.958251953125 3560.17529296875 3598.0478515625 3487.34033203125 3366.961181640625 3266.045654296875 3232.41845703125 3216.407470703125 3200.84326171875 3118.344970703125 3118.865234375 3261.42431640625 3199.836669921875 3073.646728515625 2983.782470703125 2949.583740234375 2983.447509765625 2874.43603515625 2780.7861328125 2719.571533203125 2620.074462890625 2512.474365234375 2336.46875 2133.659423828125 1960.6170654296875 1815.6949462890625 1812.449462890625 1942.135009765625 2125.616943359375 2223.006591796875 2310.57421875 2547.36328125 2701.68359375 2690.6064453125 2776.89208984375 2792.072509765625 2896.48876953125 2974.338134765625 3071.056640625 3097.557373046875 3069.985595703125 
2286.94189453125 2471.000732421875 2626.4169921875 2784.156982421875 2946.974609375 3050.13427734375 3148.888427734375 3100.984375 3045.22412109375 3027.596435546875 3023.171875 2994.22998046875 2878.666259765625 2785.418212890625 2733.57470703125 2707.19677734375 2651.64208984375 2562.87451171875 2546.264404296875 2540.6396484375 2494.59814453125 2437.04296875 2348.364990234375 2269.39013671875 2209.000244140625 2164.09521484375 2155.064697265625 2079.716552734375 1934.6934814453125 1975.5443115234375 2115.104736328125 2298.628662109375 2479.873046875 2622.2333984375 2745.9501953125 2869.38623046875 2910.480712890625 3013.52783203125 3017.327392578125 3126.70849609375 3103.62353515625 3100.540283203125 3044.446533203125 3115.697021484375 3226.593017578125 3222.943115234375 3161.171142578125 3119.10693359375 3129.028564453125 3213.697021484375 3269.4951171875 3249.750244140625 3198.3271484375 3205.838623046875 3219.291748046875 3214.29248046875 3220.7021484375 3247.279052734375 3253.287109375 3299.383544921875 3424.396484375 3415.29296875 3439.861328125 3498.72021484375 3431.80078125 3441.060546875 3490.66943359375 3593.65283203125 3679.56494140625 3603.27197265625 3474.742919921875 3397.344482421875 3299.434814453125 3273.659423828125 3289.174560546875 3269.72607421875 3137.57373046875 3033.559326171875 3069.35205078125 3180.762939453125 3084.120849609375 3000.840576171875 2883.852294921875 2820.410400390625 2806.791015625 2708.1591796875 2635.708984375 2584.8759765625 2506.865478515625 2399.25439453125 2233.521728515625 2044.937255859375 1863.240234375 1816.90380859375 1920.2735595703125 2086.13330078125 2245.0712890625 2382.938720703125 2412.66748046875 2483.928955078125 2638.525634765625 2782.1845703125 2890.862548828125 2944.91943359375 3035.96484375 3130.0654296875 3160.23388671875 3083.9423828125 2977.48486328125 
2298.571533203125 2503.678955078125 2694.19970703125 2788.703369140625 2838.705078125 2939.222900390625 3069.9013671875 3030.48388671875 2976.103271484375 2935.70556640625 2930.444091796875 2978.44677734375 2961.26220703125 2863.44384765625 2808.1806640625 2836.799560546875 2801.5048828125 2620.80322265625 2518.69189453125 2455.04541015625 2382.359619140625 2337.510498046875 2267.22265625 2196.4345703125 2163.798095703125 2171.86669921875 2162.452880859375 2075.5576171875 1956.8189697265625 1984.67431640625 2111.2392578125 2296.580322265625 2422.277099609375 2513.3359375 2633.81103515625 2767.08935546875 2903.648681640625 2912.5234375 2878.318115234375 2977.04931640625 3064.705078125 3027.154052734375 3031.384033203125 3013.061767578125 3150.034912109375 3268.87353515625 3275.554443359375 3230.470458984375 3244.429443359375 3325.123291015625 3288.2451171875 3245.320556640625 3269.977783203125 3287.81201171875 3185.019775390625 3156.5537109375 3160.64794921875 3186.577392578125 3214.91748046875 3287.982177734375 3341.3759765625 3347.449951171875 3452.267333984375 3516.571044921875 3473.71630859375 3439.913818359375 3527.6328125 3640.584716796875 3647.05126953125 3555.35400390625 3449.065673828125 3340.00146484375 3256.27490234375 3208.59375 3261.08837890625 3241.52685546875 3095.501220703125 3006.380859375 3053.663330078125 3110.98095703125 2972.23193359375 2872.506591796875 2809.6123046875 2718.4375 2631.23291015625 2569.615234375 2523.048828125 2445.054931640625 2376.33251953125 2252.541015625 2081.654296875 1896.0196533203125 1848.9188232421875 1921.57177734375 2048.88916015625 2208.84814453125 2364.048583984375 2494.76513671875 2552.770263671875 2571.9208984375 2602.865478515625 2673.650390625 2801.86376953125 2959.29296875 3090.431396484375 3206.0224609375 3210.611083984375 3137.924560546875 2991.92333984375 
2287.861083984375 2499.32861328125 2629.79541015625 2669.2890625 2785.28076171875 2899.9775390625 3050.607666015625 2973.081787109375 2923.818603515625 2869.994140625 2871.144287109375 2863.1728515625 2929.130859375 3014.60693359375 2967.230224609375 2962.95361328125 2871.666015625 2751.0205078125 2589.4970703125 2461.52734375 2398.7509765625 2337.361572265625 2273.277099609375 2215.345458984375 2222.5283203125 2231.334228515625 2221.532470703125 2150.982666015625 2039.003662109375 2015.2884521484375 2057.185791015625 2203.15625 2369.2470703125 2445.818115234375 2540.338623046875 2656.1826171875 2786.8740234375 2803.246826171875 2782.219482421875 2867.009033203125 3006.217529296875 2956.01904296875 2964.122802734375 2983.97998046875 3044.26220703125 3223.779052734375 3383.509033203125 3357.828125 3313.51123046875 3239.0595703125 3195.6162109375 3186.24462890625 3189.356201171875 3167.74609375 3124.557861328125 3124.107666015625 3123.486572265625 3139.636474609375 3171.89501953125 3284.864013671875 3270.58984375 3285.285400390625 3368.752685546875 3409.592041015625 3315.800048828125 3306.4794921875 3381.95166015625 3494.035888671875 3452.822998046875 3486.2041015625 3471.2919921875 3321.201171875 3235.8564453125 3182.65283203125 3176.481201171875 3191.670166015625 3087.7958984375 2979.37353515625 2983.91552734375 2964.564453125 2961.489501953125 2853.7080078125 2738.068115234375 2635.540283203125 2518.171630859375 2471.40185546875 2412.353271484375 2311.1103515625 2242.81298828125 2084.918212890625 1904.900634765625 1838.5155029296875 1975.5697021484375 2089.1865234375 2167.734619140625 2357.884765625 2491.907470703125 2651.457763671875 2688.512939453125 2657.27587890625 2635.87548828125 2662.5234375 2751.6123046875 2841.102783203125 2984.884033203125 3161.171630859375 3108.9560546875 3010.64501953125 2926.604248046875 
2291.62646484375 2431.575927734375 2559.92041015625 2634.10546875 2746.678466796875 2864.08740234375 3020.105224609375 2937.0263671875 2883.976318359375 2853.134765625 2831.70654296875 2789.475341796875 2814.283203125 2939.757568359375 2958.6962890625 2862.260986328125 2774.388671875 2774.691162109375 2675.18994140625 2532.584716796875 2445.975341796875 2373.516357421875 2310.232666015625 2280.735595703125 2326.531982421875 2340.073486328125 2336.713623046875 2239.351318359375 2144.092041015625 2081.906982421875 2063.66015625 2143.9521484375 2299.865234375 2424.026123046875 2475.07080078125 2559.868408203125 2677.6181640625 2722.65283203125 2706.326171875 2786.4423828125 2893.3681640625 2889.450927734375 2920.693359375 2972.0078125 3041.709716796875 3248.775390625 3460.610595703125 3461.48828125 3331.38916015625 3206.845947265625 3163.0595703125 3149.8046875 3133.1220703125 3097.341796875 3079.951171875 3070.789306640625 3088.989990234375 3102.39892578125 3135.98046875 3194.025634765625 3221.903076171875 3261.4072265625 3309.97607421875 3364.01611328125 3243.09521484375 3193.098876953125 3233.33935546875 3270.701171875 3264.0390625 3319.046630859375 3404.875244140625 3389.582763671875 3245.8857421875 3131.2529296875 3061.68115234375 3056.310791015625 3029.3828125 2939.117431640625 2931.087158203125 2854.999267578125 2801.372802734375 2748.044921875 2637.143798828125 2504.914794921875 2395.230712890625 2334.8447265625 2287.50341796875 2202.786865234375 2051.6494140625 1918.0911865234375 1853.201904296875 1936.629150390625 2088.068115234375 2241.21435546875 2305.702880859375 2410.951416015625 2591.44287109375 2753.902587890625 2803.024169921875 2749.9482421875 2782.48291015625 2740.92724609375 2763.69189453125 2821.646728515625 2912.48193359375 3072.72802734375 2969.338134765625 2888.352294921875 2842.446533203125 
2349.173095703125 2433.0869140625 2591.77734375 2732.945556640625 2827.4619140625 2919.82275390625 2993.97998046875 2943.536376953125 2882.0771484375 2859.128173828125 2832.898193359375 2795.49658203125 2735.13134765625 2764.56005859375 2805.64794921875 2808.6953125 2740.373046875 2710.801025390625 2641.288330078125 2509.75634765625 2424.4541015625 2372.58251953125 2312.306640625 2333.11572265625 2440.892578125 2521.781982421875 2498.574462890625 2380.826416015625 2263.2099609375 2161.3486328125 2088.351318359375 2096.175048828125 2245.561279296875 2351.72314453125 2400.83447265625 2447.85986328125 2534.15576171875 2566.5595703125 2612.604248046875 2687.10205078125 2766.511962890625 2840.291015625 2927.8740234375 3000.2509765625 3125.61376953125 3358.248046875 3469.552001953125 3431.382568359375 3359.7939453125 3219.69287109375 3142.245849609375 3116.64892578125 3084.71142578125 3054.997802734375 3042.55810546875 3039.838623046875 3043.92822265625 3060.146728515625 3093.1962890625 3158.5791015625 3192.710205078125 3255.681884765625 3347.516357421875 3411.93115234375 3259.93310546875 3164.904296875 3130.001708984375 3073.99365234375 3097.419921875 3139.995849609375 3207.76123046875 3260.161865234375 3241.265869140625 3064.064697265625 2972.655517578125 2936.6396484375 2987.3955078125 2925.814697265625 2871.952880859375 2798.379638671875 2708.169921875 2607.84423828125 2481.391845703125 2364.8701171875 2289.76171875 2227.1630859375 2150.829833984375 2048.060546875 1890.5906982421875 1853.38037109375 1985.681884765625 2095.23046875 2225.707275390625 2375.408935546875 2481.02734375 2507.447265625 2657.989501953125 2788.358154296875 2868.189208984375 2861.835693359375 2883.519775390625 2818.263427734375 2891.535888671875 2965.14453125 3030.558349609375 3124.0859375 2983.1337890625 2883.050537109375 2813.568359375 
2429.257080078125 2407.942626953125 2539.89013671875 2702.138916015625 2784.082275390625 2843.060546875 2882.0595703125 2975.944580078125 2913.5888671875 2869.268798828125 2819.789306640625 2803.707763671875 2716.928955078125 2666.477783203125 2656.837646484375 2649.141845703125 2639.423583984375 2600.591064453125 2568.934814453125 2518.28955078125 2431.228271484375 2394.164306640625 2346.302490234375 2384.187744140625 2528.822265625 2677.834716796875 2633.012939453125 2498.535888671875 2403.646484375 2257.492431640625 2151.1298828125 2092.325439453125 2162.278564453125 2236.593505859375 2273.118896484375 2306.53369140625 2374.956787109375 2434.145263671875 2516.64892578125 2647.97216796875 2798.859375 2901.68212890625 3003.41455078125 3149.625 3317.517333984375 3380.672119140625 3429.519287109375 3396.528076171875 3332.9599609375 3250.607421875 3129.37548828125 3079.194580078125 3042.127685546875 3007.4208984375 3004.825439453125 3010.408203125 3006.7197265625 3018.697265625 3061.87744140625 3123.47802734375 3159.902099609375 3277.7626953125 3307.54248046875 3470.179443359375 3371.504638671875 3178.111083984375 3080.21044921875 3023.266357421875 3019.13720703125 3009.567626953125 3046.347412109375 3125.89453125 3082.8603515625 2965.52587890625 2862.18212890625 2831.0107421875 2933.490234375 2943.778076171875 2815.986083984375 2734.76220703125 2643.097412109375 2517.5478515625 2390.79443359375 2275.3310546875 2213.0625 2146.93701171875 2033.380859375 1934.569091796875 1858.158203125 1949.4071044921875 2129.816650390625 2252.494873046875 2376.808349609375 2500.823974609375 2620.0615234375 2676.74560546875 2765.5361328125 2822.321044921875 2925.4033203125 2994.28564453125 3015.0546875 2942.1533203125 3051.840087890625 3177.80810546875 3157.099365234375 3130.46435546875 3037.8798828125 2866.13623046875 2768.53369140625 
2484.99169921875 2482.067626953125 2619.286376953125 2718.560546875 2746.114990234375 2852.80908203125 2888.036865234375 3001.614501953125 3005.186279296875 2891.813232421875 2812.946044921875 2768.8662109375 2738.55224609375 2668.788330078125 2615.96484375 2557.642333984375 2541.5419921875 2499.97998046875 2469.97314453125 2438.902587890625 2423.493896484375 2434.4794921875 2413.45654296875 2452.059326171875 2598.020751953125 2687.54833984375 2595.64404296875 2535.59375 2458.0625 2340.361572265625 2226.400634765625 2130.52197265625 2134.520751953125 2172.168212890625 2233.760498046875 2292.074462890625 2363.843994140625 2430.51318359375 2472.367431640625 2593.5703125 2797.272705078125 2878.303955078125 2974.9189453125 3209.760498046875 3381.704345703125 3313.9833984375 3294.125 3270.92333984375 3248.302978515625 3204.3759765625 3117.9384765625 3050.616455078125 3010.64501953125 2966.05419921875 2954.7705078125 2973.3271484375 2980.4892578125 2998.091552734375 3045.849365234375 3090.587158203125 3134.12646484375 3220.595947265625 3274.855224609375 3457.52587890625 3423.914794921875 3259.2041015625 3109.84765625 2988.775390625 2966.333251953125 2939.44775390625 2955.111572265625 3076.19140625 2988.45947265625 2868.261474609375 2765.001708984375 2797.6513671875 2928.58837890625 2882.904541015625 2757.932861328125 2640.60107421875 2549.430419921875 2419.176025390625 2297.25634765625 2202.817138671875 2138.1103515625 2081.56494140625 1993.3458251953125 1895.3472900390625 1902.88720703125 2074.690185546875 2224.4033203125 2382.201171875 2508.235107421875 2636.30908203125 2743.837158203125 2851.028076171875 2903.03857421875 2912.819091796875 3000.949951171875 3058.1396484375 3117.155029296875 3049.28759765625 3154.12060546875 3239.12255859375 3094.237548828125 3003.427490234375 3001.81396484375 2940.3876953125 2801.099365234375 
2513.8876953125 2591.506591796875 2729.808349609375 2775.847900390625 2789.36279296875 2855.64697265625 2970.07958984375 3001.749267578125 2999.662841796875 2883.36279296875 2844.365234375 2775.442138671875 2732.56787109375 2689.742919921875 2656.255615234375 2586.38134765625 2572.066162109375 2560.861083984375 2558.471923828125 2536.068359375 2513.559814453125 2486.0537109375 2449.162841796875 2479.072998046875 2633.697021484375 2745.44580078125 2667.372314453125 2610.615478515625 2521.36328125 2426.55615234375 2325.447021484375 2212.16552734375 2177.26318359375 2204.90673828125 2282.64892578125 2378.678955078125 2482.113525390625 2526.3291015625 2508.121337890625 2553.5322265625 2682.48486328125 2847.60009765625 3046.002197265625 3233.503662109375 3275.280029296875 3313.19384765625 3232.93896484375 3189.870849609375 3173.4267578125 3126.879638671875 3083.216552734375 3029.140625 2985.12939453125 2928.1689453125 2904.655029296875 2935.993896484375 2947.043701171875 2967.19482421875 3022.630126953125 3072.389892578125 3136.504150390625 3219.504150390625 3320.85888671875 3367.364013671875 3381.188720703125 3239.59912109375 3112.277587890625 3000.36962890625 2932.6865234375 2892.61865234375 2905.948974609375 2980.58642578125 2938.08154296875 2782.784912109375 2687.612548828125 2750.87646484375 2824.3408203125 2755.296630859375 2651.489501953125 2580.76513671875 2481.15283203125 2342.70654296875 2220.19677734375 2121.10595703125 2042.735595703125 1980.954345703125 1889.8043212890625 1899.7249755859375 2011.0518798828125 2197.98193359375 2349.014404296875 2487.64306640625 2619.10205078125 2779.953369140625 2905.4833984375 2976.958251953125 3065.21923828125 3085.0751953125 3061.835693359375 3084.161865234375 3158.63623046875 3182.37255859375 3266.849853515625 3276.28857421875 3106.10791015625 3007.936767578125 2909.7431640625 2826.98828125 2737.4990234375 
2570.73486328125 2637.613525390625 2711.585205078125 2780.30029296875 2852.85693359375 2986.4970703125 2948.37158203125 2879.635009765625 2954.821044921875 2964.935791015625 2914.87744140625 2922.5791015625 2793.111572265625 2747.328125 2752.125 2735.82666015625 2776.541748046875 2734.949462890625 2676.341796875 2622.918212890625 2545.627197265625 2474.91552734375 2492.33837890625 2531.333984375 2641.56201171875 2817.082763671875 2761.908203125 2715.37060546875 2595.732421875 2497.041015625 2400.431884765625 2321.009521484375 2254.385009765625 2341.939208984375 2473.66943359375 2529.748046875 2662.6494140625 2673.96728515625 2591.970458984375 2606.572021484375 2674.87158203125 2790.884521484375 3029.98486328125 3178.954345703125 3170.709228515625 3263.4091796875 3245.5322265625 3173.15087890625 3122.718505859375 3077.22802734375 2993.649169921875 2936.07373046875 2900.846435546875 2881.12060546875 2860.258056640625 2897.524169921875 2895.9443359375 2947.032470703125 3026.419189453125 3056.495849609375 3120.42333984375 3226.2333984375 3333.91650390625 3254.888916015625 3247.5361328125 3182.3232421875 3104.707275390625 2980.7060546875 2884.45703125 2842.662109375 2830.41796875 2859.49462890625 2860.73876953125 2747.7724609375 2632.008056640625 2650.283447265625 2713.1396484375 2645.363037109375 2586.39111328125 2507.042236328125 2394.51611328125 2282.324951171875 2169.17822265625 2049.330810546875 1945.507080078125 1878.6448974609375 1928.8348388671875 2032.794189453125 2129.17578125 2322.244873046875 2481.309326171875 2596.40966796875 2706.544189453125 2841.557861328125 2979.318115234375 3049.180908203125 3042.25 3015.99951171875 3088.47314453125 3141.59130859375 3238.8662109375 3308.389404296875 3307.39013671875 3249.298095703125 3143.91357421875 3018.39892578125 2864.621337890625 2716.25634765625 2638.84326171875 
2614.865966796875 2684.210693359375 2771.617431640625 2899.135498046875 3002.799560546875 2933.010986328125 2870.3017578125 2809.66552734375 2858.8974609375 2967.68603515625 2966.78564453125 2958.120849609375 2977.993896484375 2944.072021484375 2882.262451171875 2903.015869140625 2857.73681640625 2764.332763671875 2720.568359375 2647.783203125 2577.591552734375 2578.8505859375 2604.02783203125 2588.794921875 2625.01611328125 2780.909423828125 2687.5673828125 2621.49365234375 2546.51123046875 2472.8818359375 2443.832763671875 2396.338134765625 2389.739501953125 2503.73876953125 2646.63037109375 2731.62890625 2771.818359375 2716.047607421875 2710.337890625 2736.54296875 2736.0302734375 2759.119384765625 2960.298828125 3068.52783203125 3091.521728515625 3151.556884765625 3225.676025390625 3142.289794921875 3089.973876953125 3036.7998046875 2966.789794921875 2923.56640625 2877.923828125 2819.60791015625 2800.215087890625 2808.481201171875 2874.350830078125 2923.70166015625 3015.595703125 2992.620849609375 3065.94873046875 3194.25830078125 3363.320068359375 3262.328125 3143.720458984375 3121.78173828125 3027.80029296875 2947.502685546875 2854.88720703125 2773.409912109375 2743.05859375 2740.849853515625 2766.826904296875 2706.539794921875 2599.697509765625 2572.507568359375 2608.924560546875 2582.501953125 2526.843017578125 2434.993896484375 2360.64892578125 2245.258056640625 2125.99365234375 1971.8502197265625 1889.2342529296875 1913.428466796875 2058.67919921875 2183.29736328125 2200.424560546875 2324.830078125 2442.38232421875 2541.022705078125 2642.5380859375 2732.001708984375 2812.55126953125 2858.283203125 2885.654296875 2947.80224609375 3032.58984375 3092.99560546875 3228.5810546875 3298.276123046875 3154.183349609375 3074.793701171875 3034.5576171875 2962.531982421875 2813.64794921875 2662.660400390625 2604.330078125 
2707.821533203125 2783.542724609375 2886.7373046875 2919.558837890625 2976.845947265625 2906.2841796875 2816.032958984375 2743.816162109375 2767.227294921875 2796.323486328125 2849.3525390625 2853.30029296875 2956.466064453125 2943.310791015625 2995.171142578125 2938.761962890625 2834.2587890625 2788.150634765625 2750.649658203125 2668.63916015625 2657.034423828125 2691.093505859375 2688.546142578125 2629.942626953125 2670.841064453125 2810.8974609375 2696.9765625 2603.9990234375 2570.653076171875 2545.733642578125 2504.544921875 2449.375244140625 2517.837158203125 2639.748779296875 2841.1455078125 2889.751220703125 2833.565673828125 2825.330810546875 2828.619384765625 2796.271484375 2774.1884765625 2773.469970703125 2968.216796875 3031.147705078125 3051.205078125 3113.66552734375 3214.63037109375 3146.009033203125 3089.879638671875 3048.498046875 3003.14306640625 2961.85693359375 2906.92822265625 2858.24169921875 2801.4970703125 2750.98876953125 2779.001220703125 2884.765625 2933.8525390625 2955.31494140625 3038.482421875 3181.389892578125 3290.62060546875 3187.30078125 3086.777099609375 3066.14990234375 3008.25048828125 2974.439453125 2914.758544921875 2763.8984375 2676.06494140625 2628.824462890625 2652.722900390625 2613.15380859375 2562.134521484375 2487.698486328125 2506.85791015625 2497.15625 2465.6904296875 2393.51611328125 2325.4375 2201.686767578125 2084.74365234375 1952.2369384765625 1887.5472412109375 1988.4813232421875 2161.517822265625 2317.5244140625 2327.206787109375 2413.587646484375 2472.465087890625 2494.12744140625 2555.2802734375 2636.809814453125 2709.33056640625 2767.097412109375 2858.652587890625 2941.9375 3044.21142578125 3122.092529296875 3193.2763671875 3232.864501953125 3100.76416015625 3000.93603515625 2901.83544921875 2824.30126953125 2769.923583984375 2683.896484375 2584.01123046875 
2852.41796875 2884.195556640625 2943.766357421875 2913.15380859375 2843.883544921875 2832.937255859375 2843.5126953125 2726.10791015625 2725.4404296875 2741.597412109375 2706.6259765625 2714.9521484375 2795.932373046875 2791.745849609375 2893.95947265625 2905.958740234375 2927.300048828125 2918.8515625 2870.6767578125 2763.842041015625 2764.071533203125 2768.11474609375 2719.472900390625 2674.163330078125 2702.31884765625 2797.655517578125 2723.9521484375 2688.58740234375 2649.886474609375 2610.66796875 2571.01318359375 2524.1435546875 2595.864501953125 2727.595458984375 2890.43896484375 2881.651123046875 2863.608642578125 2844.162109375 2824.589599609375 2812.006103515625 2804.26220703125 2803.54345703125 2955.0859375 2993.091796875 3020.8359375 3132.4189453125 3231.357421875 3232.924072265625 3135.73486328125 3067.0615234375 3023.482177734375 3003.029052734375 2964.3271484375 2873.753173828125 2822.219970703125 2741.09326171875 2724.7314453125 2828.46484375 2884.357177734375 2917.14501953125 2993.207275390625 3132.599365234375 3236.97802734375 3104.2353515625 3019.013427734375 2986.515380859375 2951.595947265625 2949.78271484375 2859.33154296875 2750.4794921875 2632.878173828125 2528.890625 2509.799560546875 2454.826171875 2419.762939453125 2372.654052734375 2375.053955078125 2369.954833984375 2353.681396484375 2296.348388671875 2240.684814453125 2127.1328125 2010.9605712890625 1903.2659912109375 1912.802734375 2058.167236328125 2224.125 2364.0712890625 2449.08984375 2569.800048828125 2631.834716796875 2597.249755859375 2622.1640625 2656.02294921875 2707.93994140625 2778.2099609375 2862.052001953125 3009.0908203125 3028.374267578125 3047.044677734375 3129.265869140625 3239.392333984375 3149.395751953125 3033.59130859375 2923.89892578125 2840.461669921875 2729.345703125 2630.359619140625 2526.402587890625 
2767.740234375 2788.63671875 2844.968017578125 2835.681884765625 2791.6259765625 2734.1435546875 2730.709716796875 2659.1533203125 2631.58984375 2693.57470703125 2646.15087890625 2632.895263671875 2669.290283203125 2701.754638671875 2818.139404296875 2860.461181640625 3003.05615234375 3040.21826171875 2926.638671875 2872.187744140625 2840.501953125 2765.51611328125 2733.627197265625 2738.625732421875 2768.067626953125 2846.002685546875 2756.26123046875 2728.8779296875 2708.082763671875 2709.72021484375 2704.568115234375 2648.794677734375 2688.291259765625 2791.8076171875 2878.986083984375 2899.29052734375 2894.66796875 2874.999755859375 2840.328857421875 2828.45068359375 2830.407958984375 2844.66357421875 2926.84619140625 2979.615966796875 3025.926513671875 3196.802734375 3329.068359375 3308.57666015625 3223.619873046875 3208.83056640625 3168.5908203125 3145.635009765625 3122.290771484375 2933.9140625 2823.544921875 2735.2880859375 2698.20849609375 2748.1767578125 2810.09423828125 2895.5986328125 2978.279541015625 3125.52685546875 3175.510498046875 3045.56494140625 2961.975830078125 2888.82958984375 2823.90478515625 2798.676025390625 2748.178955078125 2623.3037109375 2503.96923828125 2412.013427734375 2348.000244140625 2308.37060546875 2274.367431640625 2246.130859375 2211.602783203125 2184.595947265625 2174.7880859375 2168.170654296875 2116.764404296875 2033.805419921875 1930.175537109375 1904.6099853515625 1964.7904052734375 2132.9072265625 2278.0185546875 2425.385009765625 2538.531005859375 2665.049560546875 2760.31494140625 2783.579833984375 2787.81494140625 2775.758056640625 2752.053466796875 2784.263916015625 2828.312255859375 2915.130615234375 2962.804443359375 3002.8955078125 3108.3017578125 3240.66015625 3193.640380859375 3130.406005859375 3041.585693359375 2858.7451171875 2693.763671875 2598.850341796875 2484.49853515625 
2674.2353515625 2722.614990234375 2807.155029296875 2762.9345703125 2737.43017578125 2689.122314453125 2648.642578125 2589.052978515625 2586.11669921875 2618.936767578125 2605.229248046875 2598.309326171875 2639.336669921875 2699.4140625 2829.3251953125 2935.346435546875 3013.9580078125 2969.31298828125 2927.20751953125 2890.4033203125 2823.357177734375 2785.876953125 2783.96337890625 2798.865234375 2839.655517578125 2923.062255859375 2826.048095703125 2811.891845703125 2846.443359375 2857.98193359375 2861.050048828125 2773.1171875 2844.11328125 2916.909423828125 2926.80517578125 2926.68115234375 2920.55810546875 2909.23681640625 2888.599365234375 2867.732421875 2854.21728515625 2897.7138671875 2961.554443359375 3014.228271484375 3106.733154296875 3324.473876953125 3406.728759765625 3298.013916015625 3145.513916015625 3113.2109375 3172.869873046875 3228.579345703125 3156.719970703125 2983.736572265625 2853.16015625 2744.830322265625 2682.28564453125 2689.72705078125 2741.788330078125 2821.783203125 2941.02392578125 3048.103271484375 3122.892578125 3018.31201171875 2932.310302734375 2868.567626953125 2755.422607421875 2639.57763671875 2595.130615234375 2489.088134765625 2382.766845703125 2304.349609375 2236.149658203125 2176.05078125 2138.183837890625 2119.23828125 2070.684814453125 2032.894287109375 2019.9176025390625 2019.9678955078125 1987.1312255859375 1941.7109375 1908.7879638671875 1969.24560546875 2039.5506591796875 2194.23876953125 2316.27587890625 2438.6044921875 2569.9697265625 2711.06298828125 2791.71826171875 2907.2763671875 2989.885986328125 2982.99560546875 2914.44482421875 2835.19677734375 2854.72802734375 2915.1748046875 2972.156982421875 3018.096435546875 3165.927978515625 3239.700439453125 3190.595458984375 3121.80419921875 3026.987060546875 2897.632568359375 2721.1669921875 2611.961669921875 2462.595703125 
2662.20556640625 2708.132568359375 2760.525390625 2742.68505859375 2683.35986328125 2700.095947265625 2614.48974609375 2525.25830078125 2509.427001953125 2539.953857421875 2533.02001953125 2540.66650390625 2663.437744140625 2781.54541015625 2858.217529296875 3047.776611328125 3062.35546875 2988.22998046875 2924.9970703125 2860.44873046875 2836.645751953125 2821.425048828125 2819.625732421875 2851.466552734375 2917.464599609375 2981.782958984375 2933.68115234375 2975.875732421875 3019.32421875 3008.947021484375 2972.089599609375 2927.04833984375 2945.870849609375 2957.020751953125 2949.074951171875 2940.389892578125 2925.676513671875 2911.985595703125 2898.076171875 2882.349609375 2899.197021484375 3036.374755859375 3112.060791015625 3155.97900390625 3256.654296875 3397.820068359375 3390.3720703125 3271.3125 3158.39013671875 3065.95458984375 3036.031494140625 3049.470703125 3127.8662109375 3087.59423828125 2910.01171875 2784.45068359375 2672.33349609375 2627.201171875 2675.38818359375 2719.016845703125 2826.87451171875 2924.5 3017.80029296875 2977.53857421875 2892.710205078125 2811.8740234375 2691.330322265625 2550.107177734375 2452.8046875 2385.5439453125 2299.045166015625 2226.021240234375 2131.54150390625 2067.02001953125 2038.6417236328125 2016.256591796875 2005.6976318359375 1998.6126708984375 1998.1798095703125 1975.501708984375 1962.1597900390625 1951.3929443359375 1972.77978515625 1969.506103515625 2087.445068359375 2204.324951171875 2321.586181640625 2449.79638671875 2581.860107421875 2711.6376953125 2807.37255859375 2890.4521484375 3032.408935546875 3099.058349609375 3103.3369140625 3017.4638671875 2969.740478515625 2999.715576171875 3024.10888671875 3060.19580078125 3128.373779296875 3207.07568359375 3238.008056640625 3108.734375 3013.9755859375 2886.882080078125 2708.367919921875 2550.764892578125 2388.01904296875 
2585.82763671875 2647.15380859375 2715.52978515625 2718.579833984375 2608.37451171875 2587.303466796875 2543.73681640625 2467.255859375 2450.6904296875 2462.0283203125 2463.708251953125 2562.2431640625 2705.331298828125 2786.878173828125 2885.540283203125 2991.704345703125 3072.944091796875 2972.125 2910.85107421875 2883.85791015625 2869.698974609375 2858.165771484375 2869.21337890625 2900.88916015625 2940.999267578125 3045.741455078125 3105.016845703125 3109.975830078125 3073.5966796875 3045.127197265625 3014.111083984375 2994.893798828125 2985.48046875 2974.63671875 2958.6181640625 2944.505615234375 2929.917236328125 2920.349365234375 2914.236328125 2918.5859375 2968.015380859375 3030.029296875 3168.274658203125 3300.836669921875 3295.84716796875 3331.070068359375 3313.885986328125 3224.86669921875 3158.0791015625 3080.00927734375 3016.2431640625 2978.24609375 2990.794677734375 2998.459228515625 2920.945556640625 2793.403076171875 2693.532958984375 2595.430419921875 2606.77197265625 2648.083740234375 2711.4765625 2771.188720703125 2856.3662109375 2856.11181640625 2797.05615234375 2712.202392578125 2569.829345703125 2452.15625 2358.628173828125 2283.702392578125 2206.93798828125 2114.437744140625 2049.80517578125 2044.9390869140625 2080.548583984375 2076.27099609375 2076.402587890625 2092.328369140625 2105.1875 2088.103271484375 2074.316162109375 2090.787353515625 2068.237548828125 1982.961181640625 2072.199462890625 2211.30517578125 2333.34130859375 2462.533203125 2589.834716796875 2704.979248046875 2797.0419921875 2856.458251953125 2911.84375 2978.903076171875 3081.5654296875 3205.798095703125 3138.5751953125 3095.230712890625 3091.991455078125 3119.839599609375 3194.10791015625 3255.53955078125 3158.66357421875 3044.201416015625 2952.684326171875 2827.662841796875 2661.390869140625 2476.845458984375 2300.29150390625 
2541.525634765625 2604.068359375 2631.9326171875 2689.86669921875 2599.46630859375 2534.233154296875 2474.54150390625 2392.79052734375 2378.53076171875 2437.028076171875 2525.7744140625 2651.859375 2800.857177734375 2845.586669921875 2859.4375 3067.910888671875 3087.578369140625 2971.502685546875 2940.05126953125 2920.357421875 2919.1572265625 2931.327392578125 2988.9677734375 3004.807861328125 3046.234130859375 3142.193603515625 3234.538818359375 3157.99560546875 3094.04443359375 3054.33251953125 3029.9375 3014.87158203125 2996.25927734375 2979.936279296875 2969.135498046875 2955.77490234375 2942.414306640625 2938.427978515625 2943.69970703125 2952.058349609375 3030.643310546875 3137.932373046875 3284.63671875 3290.24755859375 3290.91162109375 3302.201904296875 3290.260009765625 3218.000732421875 3167.578369140625 3103.861083984375 2983.762451171875 2931.0615234375 2930.3759765625 2911.09619140625 2867.066162109375 2766.538818359375 2682.55712890625 2604.133056640625 2554.427978515625 2565.12646484375 2615.170654296875 2658.799560546875 2714.910400390625 2772.11865234375 2709.615478515625 2613.2978515625 2501.697998046875 2400.862060546875 2293.62939453125 2183.56591796875 2114.176513671875 2069.08642578125 2135.692138671875 2211.070556640625 2265.583251953125 2246.990234375 2260.57763671875 2286.337158203125 2301.707763671875 2274.265869140625 2252.6767578125 2266.70263671875 2144.893310546875 2012.7757568359375 2052.4794921875 2205.798583984375 2317.00244140625 2422.612548828125 2543.167236328125 2666.012939453125 2769.32177734375 2823.61865234375 2859.43505859375 2971.392333984375 3106.21044921875 3278.92724609375 3344.343017578125 3248.89013671875 3200.722412109375 3231.48046875 3334.551513671875 3295.32080078125 3118.4677734375 2977.36181640625 2854.47802734375 2710.210693359375 2592.1181640625 2428.468017578125 2287.039794921875 
2417.954345703125 2497.75537109375 2535.93603515625 2626.27978515625 2613.38720703125 2517.381591796875 2441.007568359375 2317.0908203125 2326.776611328125 2508.76513671875 2657.297119140625 2733.5615234375 2723.98046875 2835.742431640625 2867.596923828125 3019.276123046875 3097.03369140625 3055.739990234375 3031.022705078125 2987.647216796875 3004.33837890625 3062.667236328125 3139.91015625 3154.944091796875 3209.43798828125 3276.049560546875 3278.310302734375 3183.707763671875 3116.447021484375 3080.486328125 3046.660888671875 3023.89501953125 3002.232177734375 2987.40087890625 2982.99609375 2984.028564453125 2981.3369140625 2980.74169921875 2971.34716796875 3017.546630859375 3198.12109375 3325.43408203125 3285.044189453125 3266.563232421875 3257.42626953125 3251.826416015625 3270.265380859375 3302.84814453125 3250.942626953125 3107.889404296875 2984.176513671875 2886.764404296875 2843.14208984375 2835.253662109375 2792.263671875 2729.59375 2693.736572265625 2673.50341796875 2608.744873046875 2532.706298828125 2518.058837890625 2560.824462890625 2607.029541015625 2690.7548828125 2659.221435546875 2566.066162109375 2472.990478515625 2363.619873046875 2250.22998046875 2124.474609375 2099.0400390625 2199.415771484375 2297.50927734375 2417.72021484375 2441.177001953125 2417.033935546875 2426.69384765625 2463.0791015625 2477.71337890625 2463.911865234375 2450.419189453125 2365.124755859375 2180.96142578125 2031.9537353515625 2048.276123046875 2200.019287109375 2375.229736328125 2483.388916015625 2525.48828125 2601.214599609375 2705.355224609375 2789.818115234375 2859.031982421875 2949.927490234375 3134.425048828125 3290.81982421875 3448.50341796875 3447.35595703125 3390.900390625 3319.510986328125 3306.61083984375 3197.408203125 3139.538330078125 3001.381103515625 2828.809326171875 2689.482177734375 2548.397705078125 2383.81494140625 2271.14208984375 
2331.882080078125 2408.69677734375 2478.51123046875 2544.939697265625 2525.483154296875 2487.079833984375 2397.114990234375 2274.390625 2311.254638671875 2513.431396484375 2607.11865234375 2619.6943359375 2651.56201171875 2742.80126953125 2808.269775390625 2976.109375 2996.951171875 2944.55615234375 3072.251953125 3106.0927734375 3125.774169921875 3214.257080078125 3338.49853515625 3353.435546875 3370.90478515625 3354.25244140625 3266.830078125 3184.20947265625 3146.202880859375 3111.2568359375 3073.980224609375 3033.25927734375 3011.03564453125 3004.929931640625 3004.234619140625 3013.26708984375 3011.530517578125 3026.164794921875 3016.9423828125 3097.613525390625 3234.22998046875 3329.354736328125 3260.11474609375 3245.565185546875 3232.064453125 3212.707275390625 3210.114990234375 3266.364990234375 3262.86083984375 3162.024169921875 3046.0029296875 2903.496826171875 2841.0830078125 2797.43505859375 2767.7958984375 2759.490478515625 2762.535400390625 2755.462158203125 2693.37548828125 2604.59033203125 2508.897216796875 2464.521484375 2502.270263671875 2593.363037109375 2605.991455078125 2539.182373046875 2457.864990234375 2354.906982421875 2216.309814453125 2106.74462890625 2248.123291015625 2396.079345703125 2410.337158203125 2550.4951171875 2563.159423828125 2561.111083984375 2587.57177734375 2627.547607421875 2641.0810546875 2638.57373046875 2539.631591796875 2391.365234375 2198.401123046875 2054.52880859375 2079.440673828125 2220.682861328125 2422.718505859375 2567.89794921875 2588.1572265625 2599.41015625 2655.61181640625 2715.88671875 2807.222412109375 2904.78955078125 3042.8447265625 3201.898681640625 3301.04296875 3323.228515625 3352.5751953125 3247.526611328125 3235.6875 3103.089599609375 3027.23046875 2902.021484375 2759.7578125 2631.137451171875 2490.423095703125 2342.2119140625 2204.058837890625 
2260.47412109375 2339.916748046875 2396.63330078125 2431.4755859375 2368.39208984375 2385.1396484375 2343.162841796875 2238.460205078125 2322.13818359375 2469.275146484375 2526.1181640625 2598.60302734375 2683.892822265625 2787.18994140625 2881.486572265625 3007.715087890625 2965.482666015625 2894.375244140625 3021.697509765625 3192.003662109375 3231.232421875 3254.680419921875 3401.1474609375 3483.89404296875 3410.69091796875 3328.16064453125 3248.693359375 3196.17578125 3172.1298828125 3140.04248046875 3100.08984375 3073.00439453125 3040.669677734375 3019.653076171875 3031.3798828125 3040.328857421875 3047.8017578125 3059.358642578125 3048.865478515625 3179.710205078125 3272.862060546875 3315.7373046875 3231.882568359375 3223.49853515625 3207.4951171875 3184.639404296875 3170.44482421875 3185.08642578125 3222.46044921875 3101.989501953125 3027.370361328125 2942.4013671875 2878.635498046875 2849.333984375 2832.63134765625 2836.502197265625 2836.72412109375 2826.5205078125 2765.68798828125 2683.783935546875 2592.4755859375 2479.02490234375 2415.38330078125 2482.502685546875 2542.25390625 2508.791015625 2414.669677734375 2264.36474609375 2126.6640625 2193.5224609375 2422.93701171875 2544.482666015625 2519.56787109375 2656.939453125 2714.661865234375 2727.67138671875 2758.10498046875 2796.1025390625 2787.17919921875 2708.876708984375 2554.056884765625 2382.27294921875 2202.56103515625 2080.15869140625 2079.892333984375 2245.466796875 2441.25439453125 2604.6923828125 2684.887451171875 2699.74169921875 2734.91748046875 2745.345947265625 2775.523681640625 2861.0576171875 2925.87109375 3025.308349609375 3093.8466796875 3145.584716796875 3251.5439453125 3231.087890625 3160.634765625 3017.439208984375 2923.956298828125 2831.058349609375 2683.587646484375 2560.27880859375 2416.892578125 2254.859130859375 2145.74658203125 
2168.500244140625 2194.85498046875 2256.80224609375 2268.9140625 2196.0771484375 2257.07568359375 2247.48681640625 2218.001953125 2353.339111328125 2458.630615234375 2573.594970703125 2702.92236328125 2809.764404296875 2920.890869140625 2917.2041015625 2884.70703125 2815.16259765625 2810.8330078125 2986.552490234375 3067.8681640625 3122.876953125 3191.25634765625 3364.70556640625 3459.796630859375 3420.656982421875 3357.395751953125 3268.708740234375 3209.1953125 3188.631103515625 3141.256103515625 3109.91015625 3091.020263671875 3070.76123046875 3064.546875 3059.8271484375 3051.190673828125 3069.72119140625 3089.780029296875 3111.53857421875 3155.8642578125 3188.659423828125 3209.79443359375 3212.309326171875 3203.042724609375 3188.34814453125 3169.555908203125 3150.4248046875 3135.670654296875 3171.343017578125 3106.917724609375 3026.303466796875 2974.67724609375 2929.718505859375 2903.82568359375 2881.158447265625 2878.393798828125 2900.858642578125 2936.8447265625 2823.474365234375 2722.3408203125 2632.675537109375 2533.902587890625 2401.7470703125 2359.238525390625 2436.27294921875 2408.14013671875 2271.6083984375 2148.96728515625 2180.76123046875 2334.920654296875 2552.4736328125 2661.7705078125 2638.73046875 2725.2333984375 2859.505126953125 2843.6015625 2912.982421875 2870.251220703125 2783.595458984375 2690.42529296875 2559.73974609375 2373.228515625 2202.492431640625 2084.334716796875 2087.92724609375 2281.643798828125 2458.09326171875 2630.293701171875 2742.747802734375 2847.377685546875 2902.187255859375 2846.18798828125 2791.177001953125 2813.507080078125 2882.768310546875 2954.08837890625 3024.42236328125 3164.392578125 3276.921142578125 3194.16943359375 3120.628662109375 2953.921142578125 2846.812744140625 2773.980224609375 2623.78662109375 2499.943603515625 2338.644775390625 2199.700927734375 2178.80859375 
2062.96728515625 2056.504638671875 2090.95751953125 2107.246826171875 2093.7294921875 2154.8369140625 2141.358642578125 2185.4423828125 2316.184814453125 2489.62158203125 2584.68603515625 2659.94970703125 2834.738525390625 2931.41357421875 2777.425537109375 2717.84228515625 2680.740478515625 2743.20947265625 2908.07763671875 3009.342529296875 3106.38427734375 3213.6162109375 3325.70703125 3415.23681640625 3419.995849609375 3384.30908203125 3329.59521484375 3282.183349609375 3245.4833984375 3191.31787109375 3153.41064453125 3135.514892578125 3130.775634765625 3114.8232421875 3093.55908203125 3092.388671875 3118.7509765625 3118.978515625 3138.197998046875 3162.462158203125 3186.213623046875 3211.510498046875 3226.1533203125 3205.994384765625 3174.582763671875 3146.733154296875 3117.500244140625 3099.00732421875 3088.902587890625 3116.587158203125 3084.172119140625 3049.506591796875 3007.033203125 2984.18701171875 2983.858642578125 2946.780517578125 3001.34423828125 3012.402587890625 2878.814697265625 2774.847900390625 2672.50830078125 2550.348876953125 2444.573974609375 2307.868896484375 2258.5927734375 2253.55859375 2151.003662109375 2186.646240234375 2322.63037109375 2487.59375 2666.598876953125 2742.39697265625 2726.459228515625 2752.251220703125 2920.468994140625 2925.011962890625 3020.197998046875 2929.636474609375 2806.43701171875 2692.83935546875 2554.82666015625 2349.71142578125 2189.83154296875 2088.52978515625 2114.865478515625 2320.662841796875 2494.03515625 2659.051513671875 2784.99951171875 2903.388916015625 3007.36865234375 2994.270751953125 2884.169921875 2859.302001953125 2906.485107421875 2947.65185546875 3000.7353515625 3082.188720703125 3191.26806640625 3164.204345703125 3101.472412109375 2916.79150390625 2803.0615234375 2715.4814453125 2566.284423828125 2424.328857421875 2252.830322265625 2239.81884765625 2225.210693359375 
1929.778076171875 1937.9307861328125 1947.1123046875 1976.9879150390625 2002.087890625 2041.31103515625 2075.849365234375 2182.301025390625 2290.891845703125 2414.796142578125 2502.395263671875 2616.91943359375 2797.882080078125 2871.620849609375 2739.224853515625 2653.006591796875 2624.844482421875 2719.265380859375 2874.063720703125 2971.13916015625 3128.2890625 3082.12255859375 3131.486328125 3274.816162109375 3394.49658203125 3397.734375 3363.11279296875 3317.158447265625 3275.590576171875 3226.632080078125 3192.890625 3170.417724609375 3155.5888671875 3132.71728515625 3124.292236328125 3145.906005859375 3153.650146484375 3145.28955078125 3166.8955078125 3182.538818359375 3215.819091796875 3243.9775390625 3255.257568359375 3247.972412109375 3184.347412109375 3129.08154296875 3104.053955078125 3081.089111328125 3058.768310546875 3026.21435546875 2982.1962890625 3013.35400390625 3058.393798828125 3045.01416015625 3080.686279296875 3037.691650390625 3052.777099609375 2974.493896484375 2894.0634765625 2845.574951171875 2723.173095703125 2553.059814453125 2420.91845703125 2317.620849609375 2189.265380859375 2148.48193359375 2228.88427734375 2349.4306640625 2511.501953125 2645.139892578125 2758.8095703125 2833.957763671875 2823.004638671875 2839.48046875 3035.873291015625 3123.688720703125 3074.8232421875 2994.772705078125 2836.43310546875 2669.936767578125 2530.018310546875 2331.739990234375 2177.774658203125 2091.4453125 2169.112060546875 2356.692626953125 2526.354248046875 2675.15478515625 2803.15576171875 2882.256591796875 2965.872802734375 3051.236328125 3027.725341796875 3027.329345703125 2981.96826171875 3006.927490234375 3045.47216796875 3064.78369140625 3110.614501953125 3128.8876953125 3048.6630859375 2875.59814453125 2770.2900390625 2646.26220703125 2504.926025390625 2318.291015625 2209.852783203125 2327.52880859375 2313.849853515625 
1869.5262451171875 1878.986328125 1898.8868408203125 1928.978271484375 1935.9752197265625 1924.3438720703125 1979.3309326171875 2084.7890625 2208.729736328125 2317.376953125 2434.470703125 2557.673583984375 2702.765380859375 2741.869384765625 2664.802978515625 2608.072265625 2606.910888671875 2723.32666015625 2824.4765625 2920.270751953125 3079.50830078125 3029.051025390625 2994.534423828125 3138.59521484375 3339.54638671875 3382.285400390625 3347.034423828125 3306.6787109375 3274.78564453125 3238.541748046875 3210.63916015625 3180.764404296875 3161.3369140625 3148.653076171875 3146.3291015625 3160.453369140625 3167.47900390625 3167.46630859375 3192.9375 3202.005859375 3225.758056640625 3249.301025390625 3266.18310546875 3295.641357421875 3209.725830078125 3130.483154296875 3100.517822265625 3074.45654296875 3044.725341796875 3004.645751953125 2943.825439453125 2852.1298828125 2859.6708984375 2901.940185546875 3025.18603515625 3053.848876953125 3020.838134765625 2939.197265625 2891.061279296875 2832.978759765625 2724.56005859375 2572.0361328125 2400.84130859375 2279.142578125 2180.292236328125 2222.90234375 2390.2763671875 2570.71044921875 2687.893310546875 2805.826171875 2882.888427734375 2886.330078125 2898.676025390625 2964.623046875 3166.65380859375 3266.027099609375 3114.368896484375 3003.977783203125 2828.254150390625 2651.153564453125 2514.03271484375 2300.589599609375 2144.944580078125 2102.17724609375 2223.84716796875 2367.7421875 2502.276123046875 2655.99072265625 2798.841552734375 2888.373046875 3028.658447265625 3123.572265625 3185.288330078125 3189.62353515625 3085.626708984375 3058.4453125 3078.237548828125 3107.73974609375 3180.87451171875 3096.304443359375 3004.107177734375 2885.54248046875 2754.9287109375 2620.35400390625 2464.15771484375 2259.995849609375 2230.302490234375 2367.1796875 2415.539306640625 
1888.5721435546875 1912.88720703125 1923.4019775390625 1902.6298828125 1893.598388671875 1887.2923583984375 1914.59814453125 2010.8809814453125 2116.35302734375 2224.2724609375 2349.2744140625 2451.29345703125 2549.0556640625 2572.39306640625 2540.7216796875 2543.12109375 2595.165283203125 2714.91357421875 2828.773193359375 2963.6318359375 3088.8076171875 3028.68212890625 2925.513427734375 2981.247802734375 3175.624267578125 3329.036376953125 3306.635498046875 3282.276123046875 3265.3818359375 3235.58837890625 3207.21728515625 3185.800048828125 3169.618408203125 3161.325927734375 3161.117431640625 3170.69970703125 3178.936767578125 3196.52001953125 3222.6533203125 3214.177978515625 3242.31884765625 3264.95654296875 3285.711181640625 3330.132080078125 3237.470947265625 3173.809814453125 3131.33447265625 3095.7548828125 3048.642578125 2973.33544921875 2892.440185546875 2801.223388671875 2767.898193359375 2760.214599609375 2869.42138671875 2917.253173828125 2923.67626953125 2904.4873046875 2852.438720703125 2769.827880859375 2671.8291015625 2544.80078125 2385.130615234375 2243.42822265625 2192.968994140625 2323.84033203125 2524.4814453125 2704.968017578125 2832.4287109375 2965.7412109375 2945.347900390625 2945.165283203125 2975.78857421875 3052.74072265625 3234.8134765625 3313.795654296875 3105.836669921875 2923.927001953125 2765.522216796875 2619.802490234375 2465.571533203125 2254.5830078125 2117.7587890625 2167.5625 2251.762451171875 2307.82470703125 2426.888427734375 2581.79736328125 2706.211669921875 2835.52392578125 2955.663818359375 3048.334716796875 3111.736572265625 3188.98583984375 3185.98291015625 3178.114990234375 3239.801513671875 3265.11962890625 3259.9287109375 3112.671875 2990.17431640625 2825.756103515625 2708.49951171875 2573.494873046875 2406.942138671875 2236.686279296875 2278.7353515625 2401.62060546875 2526.385009765625 
2034.3172607421875 2049.740478515625 2050.60009765625 2043.6763916015625 1987.0948486328125 1945.6673583984375 1898.5943603515625 1923.886962890625 2019.30810546875 2128.00732421875 2258.0986328125 2360.6416015625 2414.325927734375 2431.22509765625 2450.2265625 2495.96826171875 2630.58837890625 2805.81103515625 2911.915283203125 3000.718505859375 2965.009033203125 2912.456298828125 2888.5 2888.58251953125 2983.904296875 3216.450439453125 3291.214599609375 3252.82666015625 3238.51513671875 3202.712890625 3176.505859375 3169.5908203125 3161.931640625 3158.97314453125 3169.848388671875 3184.906982421875 3193.45947265625 3245.741943359375 3244.72705078125 3253.82666015625 3296.535888671875 3298.486083984375 3311.209228515625 3345.7021484375 3276.86083984375 3221.237060546875 3188.760009765625 3178.34423828125 3079.56884765625 2971.3544921875 2899.3671875 2835.319580078125 2729.811279296875 2675.039306640625 2739.8828125 2789.83203125 2802.77880859375 2779.226806640625 2748.827880859375 2672.6015625 2583.541259765625 2452.7275390625 2315.142578125 2210.364990234375 2264.50048828125 2420.026611328125 2596.273681640625 2777.755126953125 2949.83984375 3062.5400390625 3011.45068359375 3021.052490234375 3031.110107421875 3083.83642578125 3188.9658203125 3249.014404296875 3064.872802734375 2862.740478515625 2694.2216796875 2547.22802734375 2376.816162109375 2208.24609375 2125.250732421875 2230.893798828125 2390.840087890625 2440.080322265625 2437.178955078125 2523.50927734375 2633.7158203125 2718.510986328125 2821.021728515625 2913.02978515625 2959.9169921875 2990.149658203125 3046.18310546875 3150.89599609375 3277.62255859375 3324.607666015625 3166.7919921875 3041.718994140625 2936.064453125 2763.95751953125 2633.440673828125 2526.437255859375 2380.258544921875 2239.69091796875 2319.942138671875 2439.062255859375 2560.738525390625 
2179.456787109375 2156.67529296875 2163.20458984375 2182.77001953125 2142.44384765625 2103.935546875 2015.565673828125 1937.5299072265625 1936.5208740234375 2057.16064453125 2171.053955078125 2252.46337890625 2322.70263671875 2355.864013671875 2398.742431640625 2494.95263671875 2674.753173828125 2769.500244140625 2800.14404296875 2836.659423828125 2862.798828125 2845.845458984375 2820.330810546875 2825.355712890625 2879.12255859375 3088.432861328125 3205.73583984375 3179.9580078125 3194.060791015625 3162.439697265625 3123.31103515625 3110.824462890625 3131.26708984375 3148.8046875 3170.0244140625 3199.4609375 3233.48828125 3280.478271484375 3277.262939453125 3309.972900390625 3325.039306640625 3325.849365234375 3350.46533203125 3262.925048828125 3203.310791015625 3173.44091796875 3132.489501953125 3107.589599609375 3051.8388671875 3011.73486328125 2940.86376953125 2818.839599609375 2698.908935546875 2616.090087890625 2631.525390625 2689.32666015625 2696.9404296875 2667.669189453125 2634.755859375 2545.987060546875 2432.045166015625 2330.06884765625 2241.06005859375 2254.61328125 2376.140380859375 2526.063232421875 2664.202880859375 2846.758056640625 3044.52587890625 3136.405029296875 3088.124755859375 3069.5341796875 3092.548828125 3187.08642578125 3233.667236328125 3164.009765625 2971.784423828125 2804.337646484375 2643.296875 2470.715087890625 2309.546630859375 2185.232177734375 2163.46630859375 2293.177978515625 2487.98876953125 2609.76611328125 2563.00732421875 2596.240478515625 2646.60595703125 2710.27294921875 2796.1318359375 2882.873046875 2927.47119140625 2971.65478515625 3021.318603515625 3064.43896484375 3134.38916015625 3219.309814453125 3111.26513671875 3016.883544921875 2860.146728515625 2688.48681640625 2585.162353515625 2462.244140625 2313.414794921875 2271.227294921875 2316.71728515625 2425.74609375 2555.60302734375 
2293.348876953125 2281.071044921875 2272.510986328125 2252.4345703125 2225.995361328125 2198.6123046875 2125.61669921875 2031.7293701171875 1937.3756103515625 1944.0919189453125 2014.33837890625 2084.38037109375 2173.379638671875 2265.545654296875 2382.296875 2508.752197265625 2589.601806640625 2632.77734375 2693.950927734375 2695.13818359375 2717.026123046875 2675.48486328125 2697.77978515625 2734.4677734375 2792.101318359375 2913.620361328125 2959.00537109375 2952.699462890625 3081.63720703125 3120.52294921875 3090.693115234375 3083.755859375 3108.12158203125 3155.116943359375 3174.932373046875 3244.91748046875 3314.769775390625 3315.7158203125 3334.18408203125 3344.088623046875 3346.98486328125 3381.38134765625 3282.59912109375 3201.256103515625 3162.43701171875 3114.188720703125 3013.965087890625 2978.693603515625 2908.971435546875 2859.39111328125 2808.301513671875 2723.201904296875 2626.876953125 2532.81640625 2516.2001953125 2561.427734375 2578.147216796875 2565.384765625 2512.140380859375 2416.298828125 2328.283935546875 2254.583251953125 2279.2109375 2357.50732421875 2439.238525390625 2595.41943359375 2746.38232421875 2896.034912109375 3073.263671875 3178.9091796875 3129.536376953125 3116.56640625 3157.45458984375 3257.5615234375 3232.12451171875 3079.949951171875 2911.1552734375 2743.997802734375 2581.083740234375 2409.337646484375 2243.937744140625 2154.560791015625 2273.3662109375 2423.50048828125 2557.982666015625 2734.48779296875 2744.5009765625 2731.164306640625 2723.67431640625 2733.732666015625 2823.61376953125 2906.302978515625 2977.6474609375 3020.4326171875 3059.27880859375 3093.89501953125 3156.4267578125 3227.714111328125 3083.8623046875 2965.514892578125 2805.519287109375 2631.12744140625 2541.0966796875 2372.97900390625 2379.2353515625 2386.942138671875 2360.33544921875 2374.67041015625 2470.85205078125 
2397.623779296875 2369.61767578125 2332.63134765625 2295.087646484375 2287.146728515625 2274.040771484375 2225.2470703125 2158.850830078125 2077.28271484375 2001.8548583984375 1964.4232177734375 1981.4444580078125 2055.594482421875 2139.661865234375 2271.00830078125 2380.505859375 2425.59033203125 2479.3466796875 2555.172607421875 2559.879150390625 2565.308837890625 2521.469482421875 2541.52978515625 2573.6240234375 2660.526123046875 2751.950927734375 2771.484375 2772.73193359375 2872.37109375 3043.792236328125 3038.450439453125 3066.68310546875 3084.9453125 3164.393798828125 3199.083740234375 3283.016357421875 3329.311279296875 3354.77587890625 3360.798583984375 3355.468505859375 3346.80615234375 3321.026611328125 3199.4921875 3090.794677734375 3028.350341796875 2972.995849609375 2911.38671875 2855.11474609375 2788.744873046875 2736.04296875 2646.061767578125 2547.887451171875 2466.297607421875 2421.693603515625 2397.93603515625 2402.849609375 2425.045166015625 2420.815185546875 2388.48974609375 2329.240966796875 2278.215087890625 2326.467529296875 2403.943115234375 2501.857177734375 2548.354248046875 2639.782958984375 2809.775146484375 2920.34716796875 3037.084716796875 3210.06298828125 3213.858154296875 3183.788818359375 3200.80615234375 3176.265869140625 3082.849365234375 2986.242431640625 2838.021240234375 2679.655517578125 2519.22265625 2340.2236328125 2190.135009765625 2203.867919921875 2387.60498046875 2564.40380859375 2674.314453125 2825.61181640625 2902.884765625 2840.20458984375 2781.744873046875 2749.06298828125 2849.947509765625 2965.559814453125 3093.90771484375 3190.25927734375 3221.14111328125 3190.630859375 3271.10693359375 3218.496826171875 3025.766357421875 2916.649658203125 2758.26806640625 2581.18505859375 2464.145751953125 2458.94580078125 2522.20947265625 2578.216796875 2519.02783203125 2385.02783203125 2395.824951171875 
2487.571044921875 2465.373046875 2383.789794921875 2340.383056640625 2342.597900390625 2363.10791015625 2322.080078125 2272.71484375 2207.885986328125 2144.353271484375 2075.728271484375 2018.8302001953125 2004.494384765625 2070.292724609375 2184.29931640625 2259.519287109375 2304.380126953125 2342.9033203125 2399.609130859375 2440.86083984375 2444.639404296875 2404.787109375 2458.810302734375 2538.377197265625 2580.809326171875 2616.310791015625 2634.010498046875 2643.76611328125 2737.7041015625 2885.5 2995.582275390625 3038.195556640625 3078.818603515625 3179.0517578125 3217.927734375 3308.84912109375 3339.264404296875 3392.210693359375 3401.6328125 3270.015625 3166.748291015625 3120.68115234375 3049.14306640625 2979.91015625 2928.622314453125 2876.839599609375 2826.368896484375 2748.08642578125 2670.574462890625 2573.1552734375 2481.396484375 2412.050048828125 2389.781982421875 2387.387939453125 2371.6708984375 2357.40380859375 2339.064208984375 2321.704345703125 2299.21630859375 2316.587890625 2363.556640625 2445.5634765625 2543.51806640625 2628.180419921875 2692.126953125 2744.67041015625 2847.0068359375 2941.166259765625 3085.2080078125 3241.60107421875 3174.572998046875 3093.009765625 3064.245849609375 3019.360107421875 2942.34765625 2862.77392578125 2778.81103515625 2624.711181640625 2441.898193359375 2282.0068359375 2192.540771484375 2313.337890625 2494.543212890625 2686.2509765625 2816.371337890625 2950.73486328125 2950.3134765625 2915.138427734375 2813.920166015625 2750.95654296875 2842.412353515625 2922.426025390625 3013.861328125 3135.899169921875 3276.629638671875 3400.56396484375 3310.902099609375 3156.44384765625 3022.76708984375 2890.186767578125 2720.7978515625 2536.9248046875 2450.19384765625 2538.731201171875 2607.1796875 2679.402587890625 2728.129150390625 2532.957275390625 2391.4560546875 
2592.062744140625 2556.069580078125 2430.720947265625 2377.324951171875 2409.296630859375 2473.565185546875 2405.06689453125 2376.619384765625 2330.845703125 2252.069091796875 2194.5576171875 2129.852783203125 2087.65185546875 2043.6446533203125 2065.225341796875 2104.3310546875 2150.75048828125 2202.380126953125 2261.923583984375 2314.03271484375 2337.2216796875 2388.267333984375 2457.956787109375 2548.8994140625 2599.048583984375 2623.12890625 2626.079345703125 2622.14208984375 2682.1884765625 2771.848388671875 2886.0126953125 3031.224609375 3104.4208984375 3195.884765625 3234.013916015625 3323.140869140625 3359.739013671875 3379.102783203125 3291.1279296875 3204.16845703125 3131.702880859375 3049.650634765625 2984.0458984375 2952.27880859375 2912.67138671875 2834.716796875 2734.73193359375 2628.254150390625 2529.394287109375 2454.329833984375 2416.928955078125 2442.78271484375 2500.433349609375 2520.244140625 2521.04833984375 2501.50537109375 2472.8505859375 2429.98583984375 2382.86083984375 2418.768798828125 2485.241943359375 2560.907958984375 2639.330078125 2712.234130859375 2759.270263671875 2825.4599609375 2898.144287109375 2942.909912109375 3033.39111328125 3234.806396484375 3245.03515625 3144.157470703125 3039.5732421875 2980.19287109375 2905.640869140625 2794.500244140625 2683.021484375 2568.9296875 2392.74853515625 2239.466796875 2252.586181640625 2415.693359375 2590.73388671875 2748.91796875 2904.6357421875 3057.623046875 3016.6533203125 2965.119873046875 2868.28466796875 2794.87451171875 2849.40966796875 2904.2919921875 2961.446044921875 3052.8291015625 3182.138916015625 3377.833251953125 3316.695556640625 3170.846923828125 3035.78369140625 2900.79833984375 2723.048828125 2538.544921875 2481.080322265625 2532.78955078125 2633.857666015625 2730.515625 2807.723388671875 2658.03662109375 2475.47021484375 
2649.827880859375 2589.569091796875 2459.916259765625 2407.123779296875 2483.336181640625 2563.48876953125 2475.71240234375 2438.293212890625 2409.153564453125 2359.019287109375 2315.351806640625 2237.463134765625 2188.916015625 2147.20556640625 2090.01953125 2117.990966796875 2178.26904296875 2244.554931640625 2326.05419921875 2361.4111328125 2425.228271484375 2526.609375 2565.947509765625 2619.342529296875 2664.831298828125 2647.453369140625 2636.406005859375 2649.01953125 2689.078369140625 2740.8662109375 2796.836181640625 2950.50341796875 3121.025634765625 3226.869384765625 3256.1142578125 3341.320068359375 3396.642578125 3327.680419921875 3211.63134765625 3134.25439453125 3076.18505859375 3011.892578125 2948.632080078125 2880.51806640625 2817.680908203125 2717.4541015625 2617.550048828125 2522.494384765625 2447.02392578125 2451.163818359375 2526.835693359375 2605.379638671875 2648.49560546875 2678.632568359375 2697.442626953125 2669.72998046875 2644.896728515625 2559.534912109375 2448.266845703125 2522.26953125 2610.1748046875 2661.3525390625 2708.875732421875 2773.027587890625 2842.101806640625 2887.072509765625 2941.841796875 3002.288818359375 3049.039306640625 3238.260986328125 3354.623779296875 3225.403076171875 3155.93017578125 3064.22802734375 2937.5908203125 2803.413330078125 2684.5947265625 2507.157470703125 2334.7626953125 2229.58203125 2314.167724609375 2479.240478515625 2666.066162109375 2809.04345703125 2987.99951171875 3105.705810546875 3028.012939453125 2967.906005859375 2899.214111328125 2847.878173828125 2874.654296875 2922.364501953125 2962.204345703125 3015.3193359375 3076.763427734375 3206.522705078125 3320.79736328125 3232.836181640625 3097.8466796875 2960.113037109375 2755.621337890625 2580.358154296875 2554.717529296875 2521.313720703125 2615.513916015625 2736.98974609375 2856.406982421875 2789.010986328125 2589.259521484375 
2646.079345703125 2576.4130859375 2484.52880859375 2431.777587890625 2507.67578125 2661.701904296875 2556.487060546875 2478.497802734375 2472.749755859375 2436.476806640625 2407.95703125 2344.254150390625 2289.884765625 2256.218994140625 2194.587158203125 2186.333740234375 2268.24462890625 2318.942138671875 2373.294677734375 2448.579833984375 2532.678466796875 2634.76708984375 2656.841552734375 2670.3271484375 2716.9638671875 2781.2626953125 2753.19384765625 2732.00830078125 2746.664306640625 2772.64990234375 2821.397216796875 2888.4599609375 3022.564697265625 3251.640380859375 3290.43310546875 3340.526611328125 3287.784423828125 3235.4345703125 3170.728759765625 3072.423828125 2998.224609375 2923.462158203125 2868.598876953125 2791.36328125 2700.94384765625 2594.928955078125 2522.0849609375 2488.4404296875 2508.584228515625 2602.8837890625 2687.705078125 2736.654052734375 2780.112060546875 2821.412841796875 2839.33056640625 2783.0390625 2698.238037109375 2551.573974609375 2491.0634765625 2620.987548828125 2694.41064453125 2760.4560546875 2789.485107421875 2829.203857421875 2877.099365234375 2927.72705078125 3035.712890625 3103.6513671875 3103.922607421875 3244.518798828125 3328.796875 3265.0791015625 3200.7275390625 3090.55712890625 2991.39794921875 2866.427001953125 2710.416259765625 2485.915771484375 2303.4033203125 2270.440185546875 2379.889892578125 2515.97119140625 2692.496337890625 2855.09765625 3033.868896484375 3165.548828125 3156.306396484375 3127.86572265625 3013.14892578125 2951.13818359375 2925.66162109375 2945.740234375 2974.78759765625 2997.978759765625 3042.86572265625 3093.55712890625 3175.236083984375 3244.333984375 3160.398681640625 2996.982177734375 2830.488037109375 2662.919677734375 2612.991943359375 2556.257568359375 2607.895263671875 2728.843017578125 2852.79541015625 2871.091552734375 2714.32568359375 
2785.64404296875 2673.341064453125 2518.33447265625 2464.243408203125 2562.24560546875 2727.594482421875 2624.684814453125 2562.2744140625 2569.9833984375 2501.899658203125 2468.017333984375 2406.428466796875 2384.500732421875 2349.63720703125 2306.345947265625 2294.32275390625 2383.778076171875 2417.468505859375 2469.03662109375 2582.102783203125 2688.38134765625 2717.345947265625 2724.81201171875 2737.674072265625 2773.1357421875 2875.67724609375 2823.541748046875 2806.9287109375 2817.24951171875 2834.650634765625 2913.454833984375 2935.44482421875 3008.02099609375 3134.010986328125 3256.457763671875 3193.780517578125 3124.19873046875 3056.67333984375 3079.04248046875 3044.49951171875 2977.38037109375 2871.9775390625 2769.917236328125 2665.274658203125 2595.206787109375 2553.321533203125 2543.3798828125 2575.961181640625 2653.39599609375 2738.14404296875 2803.1181640625 2855.7060546875 2898.977294921875 2918.775634765625 2843.657470703125 2734.27197265625 2594.323486328125 2501.016845703125 2556.4951171875 2683.339111328125 2761.790283203125 2819.801513671875 2853.1337890625 2872.47119140625 2894.685546875 2946.00244140625 3042.3583984375 3175.220458984375 3182.45849609375 3222.42724609375 3192.666015625 3146.5595703125 3119.15869140625 3066.270751953125 2979.0185546875 2856.644287109375 2688.30517578125 2483.868896484375 2285.6533203125 2331.328857421875 2473.888916015625 2618.5546875 2726.025146484375 2869.358642578125 3039.15234375 3221.224853515625 3317.5341796875 3245.43212890625 3106.21875 3049.611572265625 3075.68603515625 3016.28271484375 3026.1357421875 3035.989990234375 3073.31396484375 3125.01123046875 3176.712158203125 3224.9228515625 3206.762939453125 3029.854736328125 2903.492919921875 2718.81689453125 2662.490234375 2634.056884765625 2629.379150390625 2713.14794921875 2849.10400390625 2921.2587890625 2799.349853515625 
2897.853271484375 2731.930419921875 2553.79052734375 2500.842041015625 2602.31884765625 2801.419677734375 2753.623046875 2694.878173828125 2656.129638671875 2541.35986328125 2527.773681640625 2473.670654296875 2468.5498046875 2418.903564453125 2384.047607421875 2361.10009765625 2460.97119140625 2539.1865234375 2579.8828125 2680.559814453125 2781.84912109375 2772.345458984375 2791.582763671875 2803.346435546875 2825.9658203125 2933.638671875 2906.15380859375 2899.483154296875 2913.922119140625 2922.695068359375 2973.0595703125 2996.422607421875 3122.5302734375 3172.357421875 3128.54541015625 3078.194580078125 3041.90625 2995.877197265625 2941.61328125 2906.51220703125 2871.0458984375 2793.25146484375 2683.81640625 2618.647705078125 2594.201904296875 2579.1689453125 2626.173095703125 2707.63427734375 2772.4033203125 2850.74365234375 2901.8603515625 2953.8544921875 2964.150634765625 2898.662841796875 2784.141845703125 2642.646484375 2532.95458984375 2529.734619140625 2628.527587890625 2712.337890625 2798.88916015625 2875.55859375 2913.23291015625 2925.262451171875 2942.154296875 2996.928955078125 3065.39453125 3200.782470703125 3248.148193359375 3155.528076171875 3091.434814453125 3034.7060546875 2990.709228515625 2967.897705078125 2917.780029296875 2796.27685546875 2620.686767578125 2441.2646484375 2284.701171875 2355.9970703125 2545.775146484375 2709.41943359375 2873.939453125 2962.15673828125 3075.986083984375 3199.782958984375 3221.947509765625 3230.66259765625 3204.522216796875 3172.806640625 3221.172607421875 3155.0048828125 3090.7236328125 3100.210205078125 3138.341796875 3180.985595703125 3234.861572265625 3279.205322265625 3218.649658203125 3084.007080078125 2933.52001953125 2749.7109375 2699.548095703125 2704.83935546875 2707.6005859375 2745.269287109375 2833.192626953125 2955.21630859375 2866.701904296875 
2968.968994140625 2833.94677734375 2616.312744140625 2552.63330078125 2622.82177734375 2820.494873046875 2897.819091796875 2848.71826171875 2680.29052734375 2610.334716796875 2626.228271484375 2553.84814453125 2566.239990234375 2515.985595703125 2455.100830078125 2446.524658203125 2531.8330078125 2682.923095703125 2695.330078125 2766.012939453125 2907.98486328125 2880.878662109375 2859.5390625 2849.925048828125 2873.205322265625 3053.82421875 3047.5087890625 3044.19677734375 3023.83056640625 3029.469482421875 3044.504150390625 3057.3017578125 3259.869384765625 3252.217529296875 3136.530517578125 3089.12939453125 3054.611328125 3000.39892578125 2927.351318359375 2843.453369140625 2760.758544921875 2690.10205078125 2660.67333984375 2636.22900390625 2620.448486328125 2658.88623046875 2756.692626953125 2813.64453125 2868.68505859375 2940.69189453125 2989.6640625 2975.74267578125 2902.365234375 2826.34326171875 2708.875732421875 2583.26318359375 2534.736572265625 2601.5751953125 2705.14892578125 2782.963134765625 2840.44873046875 2885.75439453125 2950.6953125 3036.0166015625 3053.1806640625 3087.763671875 3124.944091796875 3188.191162109375 3169.61962890625 3059.97802734375 2999.034423828125 2950.10107421875 2930.14306640625 2897.8076171875 2848.90869140625 2722.263671875 2561.604736328125 2393.07080078125 2289.459228515625 2399.2001953125 2590.128662109375 2746.5908203125 2864.26318359375 2950.11181640625 2996.468505859375 3029.751220703125 3024.04248046875 3049.201416015625 3084.914794921875 3163.9091796875 3233.063720703125 3241.780517578125 3208.35595703125 3135.754150390625 3158.419677734375 3211.15283203125 3291.513916015625 3378.073486328125 3266.10107421875 3138.31884765625 2982.458740234375 2812.91552734375 2730.2373046875 2739.677490234375 2741.33251953125 2755.78466796875 2847.0625 2960.600341796875 2972.744873046875 
2976.283935546875 2823.022216796875 2672.9560546875 2623.893310546875 2685.2880859375 2855.780029296875 2992.108642578125 2921.75390625 2773.3837890625 2729.5361328125 2742.93017578125 2636.788818359375 2659.072021484375 2614.976318359375 2504.147216796875 2535.651123046875 2636.218017578125 2787.985595703125 2804.177001953125 2869.663818359375 2996.0029296875 2949.7421875 2910.06005859375 2899.187744140625 2977.564208984375 3184.349853515625 3185.146728515625 3175.679443359375 3111.921142578125 3084.005859375 3087.31494140625 3149.777099609375 3340.75927734375 3285.217529296875 3197.5361328125 3169.28271484375 3144.397216796875 3081.676025390625 2958.833984375 2816.7587890625 2718.39501953125 2699.694091796875 2679.36865234375 2664.07373046875 2706.65966796875 2767.590087890625 2828.24951171875 2915.5693359375 3002.57763671875 3047.421630859375 3010.255615234375 2974.792724609375 2879.84130859375 2764.43798828125 2637.8349609375 2557.60986328125 2582.62158203125 2664.611083984375 2774.319091796875 2840.90185546875 2876.849365234375 2905.78759765625 2956.3427734375 3036.4345703125 3133.727294921875 3245.7724609375 3262.8544921875 3163.203857421875 3101.091064453125 3022.124267578125 2959.335693359375 2910.638427734375 2889.3486328125 2833.357177734375 2757.042236328125 2647.511474609375 2511.7958984375 2337.632568359375 2348.7216796875 2467.89208984375 2621.808349609375 2719.065673828125 2799.42919921875 2850.520751953125 2863.805908203125 2858.072265625 2856.840576171875 2902.3779296875 2960.493896484375 3019.790771484375 3069.0732421875 3142.217041015625 3271.375 3278.06103515625 3222.26806640625 3261.712158203125 3354.474609375 3419.158935546875 3333.0166015625 3206.479736328125 3051.76123046875 2874.14306640625 2758.586181640625 2758.5458984375 2749.1337890625 2758.7998046875 2831.99462890625 2939.26513671875 3058.625244140625 
2928.716064453125 2838.00927734375 2766.84326171875 2730.15234375 2789.095947265625 2931.757568359375 3066.453369140625 3018.469970703125 2884.994873046875 2848.15966796875 2826.74853515625 2751.83447265625 2749.685791015625 2680.966064453125 2556.617919921875 2587.250244140625 2711.434326171875 2802.154052734375 2908.955078125 2984.9697265625 3073.636474609375 3029.58984375 3015.98291015625 3028.49755859375 3123.32958984375 3302.98828125 3245.494873046875 3238.8916015625 3189.88623046875 3138.11669921875 3148.33837890625 3248.912353515625 3450.076904296875 3381.393798828125 3274.72119140625 3232.739013671875 3116.49951171875 3055.1982421875 2936.260498046875 2784.063232421875 2731.25537109375 2721.87548828125 2711.344970703125 2766.983154296875 2819.13037109375 2905.12548828125 2962.56103515625 3016.724853515625 3082.3876953125 3051.864013671875 2987.989013671875 2932.762451171875 2850.695556640625 2724.403076171875 2613.88037109375 2569.501708984375 2639.529296875 2722.035888671875 2800.022216796875 2889.544189453125 2930.06640625 2952.92626953125 3007.153564453125 3049.460693359375 3108.8525390625 3217.892578125 3302.91357421875 3148.200927734375 3030.3232421875 2963.156005859375 2911.757568359375 2843.34326171875 2796.079833984375 2723.496826171875 2647.43359375 2561.21142578125 2445.647216796875 2317.69970703125 2365.248779296875 2458.900146484375 2555.707763671875 2613.057861328125 2667.321533203125 2679.8017578125 2645.84619140625 2642.402587890625 2679.853515625 2743.009521484375 2826.16162109375 2914.71240234375 3002.91650390625 3052.6103515625 3151.742919921875 3269.533203125 3296.80078125 3280.788818359375 3326.041748046875 3460.89404296875 3359.537353515625 3172.255126953125 3055.338623046875 2885.01953125 2780.71240234375 2780.655517578125 2774.18359375 2787.6337890625 2795.333984375 2889.650390625 3024.687744140625 
2838.5556640625 2939.40283203125 2894.97705078125 2843.390869140625 2883.269775390625 3027.383056640625 3146.481689453125 3099.84912109375 3006.09716796875 3007.38720703125 2908.823486328125 2827.120361328125 2854.671142578125 2755.40478515625 2650.57568359375 2669.508544921875 2791.5556640625 2888.90478515625 3022.355712890625 3121.6259765625 3164.76708984375 3119.620849609375 3127.322021484375 3171.9970703125 3290.254150390625 3403.64990234375 3311.6484375 3341.2021484375 3267.51416015625 3196.00634765625 3221.1171875 3356.07958984375 3429.523681640625 3358.49755859375 3244.571533203125 3147.614501953125 3027.0791015625 2943.591796875 2866.55810546875 2762.646728515625 2751.40966796875 2738.00927734375 2787.263427734375 2860.044189453125 2929.625 3038.47021484375 3081.228515625 3128.02587890625 3094.717041015625 3022.8583984375 2962.736083984375 2906.4658203125 2805.716552734375 2682.381591796875 2603.764892578125 2612.802978515625 2695.731689453125 2788.428955078125 2847.915283203125 2900.35888671875 2975.158935546875 3039.47607421875 3071.179931640625 3098.00634765625 3164.38037109375 3242.20947265625 3207.1796875 3101.108154296875 2989.240234375 2892.885498046875 2829.20263671875 2753.522216796875 2685.338134765625 2621.981201171875 2559.768310546875 2502.19873046875 2438.743896484375 2339.3134765625 2348.30078125 2392.81640625 2419.663330078125 2444.279052734375 2482.9482421875 2490.978759765625 2508.880126953125 2508.0546875 2531.9794921875 2590.5029296875 2682.317138671875 2793.91455078125 2908.11865234375 2973.41796875 3019.111572265625 3072.39794921875 3114.585205078125 3164.570068359375 3255.154296875 3391.473388671875 3385.0068359375 3203.778564453125 3106.9404296875 2921.526611328125 2804.18798828125 2800.045166015625 2802.77001953125 2826.43701171875 2815.753662109375 2855.683349609375 2952.216796875 
2835.43115234375 2969.739013671875 3004.837646484375 2951.155029296875 2989.606689453125 3054.617919921875 3050.78515625 3033.0595703125 3003.529541015625 3102.3330078125 3009.81396484375 2975.23828125 2950.739013671875 2821.274169921875 2716.085205078125 2725.8623046875 2860.27783203125 3032.964111328125 3140.601806640625 3251.460205078125 3248.483642578125 3232.92431640625 3246.36328125 3294.7099609375 3433.296142578125 3409.389892578125 3411.832275390625 3457.018310546875 3334.43505859375 3277.44482421875 3324.538330078125 3323.112060546875 3303.589599609375 3288.986328125 3238.0048828125 3130.8720703125 3031.87109375 2919.75341796875 2819.235595703125 2777.099853515625 2775.1943359375 2772.401123046875 2859.88134765625 2957.1904296875 3034.15185546875 3090.45556640625 3163.15576171875 3171.795654296875 3101.025146484375 3007.154296875 2934.53369140625 2886.65771484375 2790.479248046875 2667.1796875 2623.47998046875 2653.687744140625 2719.510009765625 2813.05078125 2884.96484375 2927.367919921875 2969.197998046875 3031.46142578125 3114.175537109375 3174.6591796875 3245.475830078125 3232.65087890625 3129.810791015625 3053.5478515625 2960.294677734375 2861.744384765625 2751.897216796875 2680.575439453125 2616.15625 2559.157470703125 2534.528076171875 2556.936279296875 2512.699951171875 2380.64697265625 2392.4462890625 2448.662109375 2500.69775390625 2509.963623046875 2540.5048828125 2592.71240234375 2643.362548828125 2639.99609375 2584.895751953125 2559.05517578125 2576.931884765625 2675.720947265625 2819.694580078125 2905.5361328125 2958.53857421875 2998.14404296875 3044.794189453125 3108.027587890625 3176.404052734375 3257.4375 3349.517578125 3273.477783203125 3191.483642578125 2988.761474609375 2824.12060546875 2817.863525390625 2821.0830078125 2830.341552734375 2856.603759765625 2878.956787109375 2908.873291015625 
2769.327880859375 2880.186279296875 2966.380859375 3057.964111328125 3086.799072265625 2962.4951171875 2946.078369140625 2893.852783203125 2848.199951171875 3001.2841796875 3037.374755859375 3118.2919921875 3040.400146484375 2892.2607421875 2818.428955078125 2847.56884765625 2978.964111328125 3141.451416015625 3267.316162109375 3334.891357421875 3296.444580078125 3232.418212890625 3275.226318359375 3387.71533203125 3471.722900390625 3500.062255859375 3603.29248046875 3524.304443359375 3392.092041015625 3331.021240234375 3261.964599609375 3201.60302734375 3191.55322265625 3180.5517578125 3145.881103515625 3115.201416015625 3045.052001953125 2961.939208984375 2844.243896484375 2815.853271484375 2807.537109375 2822.490966796875 2907.8544921875 3052.181396484375 3128.509521484375 3178.321533203125 3204.017822265625 3105.258056640625 3053.933837890625 2998.213623046875 2942.47802734375 2885.779296875 2762.25927734375 2658.527099609375 2644.44287109375 2696.5322265625 2744.7177734375 2835.305419921875 2917.983154296875 2981.451171875 2997.998779296875 3036.56494140625 3084.41357421875 3145.638916015625 3250.130859375 3217.1484375 3115.927978515625 2990.775390625 2888.603515625 2796.72314453125 2684.817138671875 2614.88720703125 2574.638671875 2600.66943359375 2658.75048828125 2714.12744140625 2599.282958984375 2424.732421875 2436.2421875 2536.658935546875 2659.657958984375 2707.84912109375 2744.7119140625 2778.381591796875 2824.639892578125 2853.355712890625 2748.76220703125 2660.59033203125 2593.89599609375 2622.239013671875 2736.158447265625 2866.069091796875 2921.6005859375 2978.0927734375 3037.917724609375 3115.403564453125 3190.06982421875 3275.67578125 3360.193603515625 3350.979248046875 3194.19384765625 3007.21923828125 2855.253662109375 2833.832763671875 2831.38232421875 2830.0166015625 2862.4453125 2881.180419921875 2900.77783203125 
2759.7041015625 2860.11865234375 2964.89599609375 3054.80419921875 3014.1337890625 2877.5810546875 2846.9404296875 2779.372802734375 2761.3681640625 2877.72705078125 3048.406005859375 3166.73388671875 3139.64306640625 3030.342529296875 2995.597412109375 3025.615478515625 3091.969970703125 3280.453125 3384.350830078125 3306.22119140625 3212.725830078125 3157.35107421875 3185.677734375 3295.38037109375 3407.230712890625 3457.711669921875 3651.5146484375 3547.645751953125 3391.839599609375 3293.583984375 3220.261474609375 3150.23779296875 3117.5390625 3092.884521484375 3044.18115234375 2994.9208984375 2966.959716796875 2903.71875 2861.3466796875 2843.249755859375 2836.224609375 2881.0078125 2983.619384765625 3151.63037109375 3238.711669921875 3242.01806640625 3205.988037109375 3082.44091796875 3020.22607421875 2965.543701171875 2909.828369140625 2842.367431640625 2720.343505859375 2662.01806640625 2670.17578125 2735.590087890625 2810.174560546875 2883.413330078125 2937.416259765625 3007.3564453125 3028.865966796875 3047.916015625 3118.598388671875 3168.504638671875 3221.957275390625 3119.350830078125 3050.74462890625 2967.412353515625 2849.33203125 2721.053955078125 2629.2265625 2599.4296875 2655.435302734375 2765.176513671875 2811.811279296875 2725.268310546875 2559.935302734375 2444.146484375 2504.790771484375 2599.753662109375 2723.06689453125 2842.325927734375 2953.95556640625 3019.377197265625 3028.329833984375 3039.54541015625 2908.8125 2784.671142578125 2664.49755859375 2637.432861328125 2698.884033203125 2823.354736328125 2913.11669921875 2971.9169921875 3051.60693359375 3147.384765625 3210.86279296875 3229.435546875 3220.81494140625 3297.5751953125 3272.9755859375 3073.039794921875 2901.3359375 2852.947509765625 2848.365478515625 2841.927734375 2862.0810546875 2895.318115234375 2915.7763671875 
2807.345947265625 2882.760986328125 2953.40234375 3033.21435546875 2928.0849609375 2809.612060546875 2741.508544921875 2694.166015625 2707.9345703125 2861.284423828125 3017.72998046875 3085.31201171875 3163.427978515625 3206.393310546875 3207.51123046875 3190.230224609375 3222.36181640625 3316.774169921875 3286.146240234375 3124.272216796875 3036.26220703125 3065.841796875 3150.25341796875 3274.067626953125 3366.630615234375 3440.549560546875 3599.54150390625 3547.09716796875 3390.454833984375 3303.090087890625 3197.037353515625 3132.006591796875 3092.006591796875 3055.62890625 2997.296142578125 2952.767822265625 2925.2392578125 2897.09814453125 2874.2265625 2858.80126953125 2895.390380859375 2987.6943359375 3066.294189453125 3201.994140625 3186.5380859375 3159.859375 3118.739501953125 3063.08544921875 3014.788818359375 2964.82080078125 2898.820556640625 2778.121337890625 2692.18603515625 2683.031005859375 2708.099609375 2801.2783203125 2865.666259765625 2911.08984375 2993.1142578125 3040.3642578125 3069.30224609375 3077.487060546875 3215.501708984375 3226.673828125 3137.7470703125 3067.7861328125 2980.96142578125 2889.96728515625 2796.082763671875 2679.6708984375 2626.9208984375 2679.80908203125 2817.870361328125 2881.255859375 2770.354248046875 2615.6123046875 2519.12255859375 2545.72265625 2641.0205078125 2744.304931640625 2783.4306640625 2863.855712890625 2948.944580078125 3057.398681640625 3162.82373046875 3180.25341796875 2988.32470703125 2829.51513671875 2717.02490234375 2700.38037109375 2706.473388671875 2784.38232421875 2863.513916015625 2921.6962890625 2977.209228515625 3042.462158203125 3085.16845703125 3121.834716796875 3160.03759765625 3213.25341796875 3277.560791015625 3140.6689453125 2921.5322265625 2872.908203125 2878.598876953125 2868.922119140625 2880.67138671875 2909.351806640625 2931.74365234375 
2765.460205078125 2814.927490234375 2957.343505859375 3053.728759765625 2863.98486328125 2762.489013671875 2669.6982421875 2611.499755859375 2701.09716796875 2837.14990234375 2947.696533203125 3007.76708984375 3081.151611328125 3231.877685546875 3280.32470703125 3288.498291015625 3237.10888671875 3108.926513671875 3108.122314453125 3021.777587890625 2939.27001953125 2941.0419921875 3057.3994140625 3176.037109375 3304.76171875 3423.332275390625 3491.14892578125 3486.28662109375 3346.65771484375 3310.511474609375 3213.09716796875 3131.79541015625 3090.95166015625 3040.77978515625 2996.155029296875 2954.160400390625 2926.71630859375 2905.64111328125 2905.63720703125 2943.72705078125 3043.03173828125 3149.10888671875 3140.002685546875 3172.21484375 3141.39013671875 3133.5654296875 3075.284912109375 3032.989013671875 3000.20458984375 2932.699462890625 2825.24365234375 2728.17724609375 2716.682373046875 2721.25927734375 2762.803955078125 2835.018310546875 2901.173583984375 2988.973388671875 3050.374267578125 3089.236572265625 3102.72998046875 3115.25439453125 3248.952880859375 3275.205810546875 3183.7314453125 3074.893310546875 2964.56005859375 2888.58203125 2772.325439453125 2673.364013671875 2670.210205078125 2805.82080078125 2943.70068359375 2850.56103515625 2699.24267578125 2593.41552734375 2599.115478515625 2700.101806640625 2802.13818359375 2928.927734375 2916.821533203125 2952.94921875 3006.961669921875 3074.98095703125 3153.407958984375 3118.349609375 2980.952392578125 2837.345947265625 2764.1484375 2766.0517578125 2770.1240234375 2779.585205078125 2849.311767578125 2903.192626953125 2952.18505859375 3000.12744140625 3058.68994140625 3113.29345703125 3153.387451171875 3195.338623046875 3245.268310546875 3134.52197265625 2941.95068359375 2891.64013671875 2902.085205078125 2911.72021484375 2934.506103515625 2973.4775390625 2997.19091796875 
2704.14599609375 2773.8818359375 2944.041015625 2982.5166015625 2817.890869140625 2724.321044921875 2595.880126953125 2603.115234375 2777.212646484375 2938.085205078125 3006.689208984375 3023.838623046875 3080.302001953125 3151.614501953125 3198.0966796875 3194.664794921875 3112.465087890625 2991.037353515625 2958.795654296875 2994.147705078125 2914.107666015625 2873.146240234375 2929.5234375 3058.3603515625 3277.484130859375 3382.71142578125 3420.050537109375 3424.583740234375 3338.158935546875 3294.441162109375 3246.023681640625 3171.7314453125 3112.747314453125 3051.052978515625 3020.247314453125 2990.3701171875 2983.71875 2997.37841796875 3036.080078125 3096.23291015625 3178.206787109375 3129.32958984375 3075.5888671875 3053.4091796875 3016.690185546875 3070.853271484375 2998.111328125 2959.83447265625 2922.96240234375 2843.087890625 2758.716796875 2732.7998046875 2752.389892578125 2766.510498046875 2829.53271484375 2886.298095703125 2996.7177734375 3079.27587890625 3115.736572265625 3136.160888671875 3134.80078125 3146.371826171875 3223.125244140625 3342.284423828125 3259.609619140625 3072.93212890625 2977.815673828125 2881.239013671875 2764.917724609375 2686.22216796875 2753.20068359375 2894.22705078125 2959.23388671875 2801.751953125 2684.058349609375 2629.981201171875 2706.90185546875 2840.2119140625 2960.822998046875 3083.6005859375 3127.7939453125 3125.280517578125 3148.761474609375 3215.142333984375 3200.97314453125 3064.672119140625 2964.649658203125 2878.146728515625 2802.383056640625 2812.835693359375 2852.127197265625 2856.126953125 2875.846923828125 2916.1826171875 2972.3203125 3016.070556640625 3060.232421875 3116.36474609375 3166.343505859375 3221.23291015625 3263.514892578125 3119.9853515625 3009.95166015625 2922.70751953125 2919.100830078125 2929.005126953125 2940.955810546875 2989.805419921875 3090.942626953125 
2792.70849609375 2854.78369140625 2930.320556640625 2938.550537109375 2799.43798828125 2677.46630859375 2563.4482421875 2636.6103515625 2860.639892578125 3035.990478515625 3129.60888671875 3161.6279296875 3186.697998046875 3187.662353515625 3162.481201171875 3048.405029296875 2987.89453125 2919.901611328125 2875.532958984375 2897.751220703125 2898.756591796875 2840.25390625 2881.525634765625 3077.046875 3291.209716796875 3311.583984375 3322.8525390625 3386.888916015625 3388.375 3281.648681640625 3238.409912109375 3201.745361328125 3169.583740234375 3139.17138671875 3097.89111328125 3080.6640625 3098.03271484375 3134.46044921875 3147.42822265625 3168.65185546875 3111.577880859375 3034.52392578125 2945.99560546875 2893.2578125 2871.02880859375 2962.219970703125 2945.422607421875 2887.41650390625 2833.5419921875 2768.3994140625 2750.554931640625 2754.649169921875 2786.05615234375 2832.068115234375 2880.68994140625 2973.05126953125 3108.725341796875 3139.278076171875 3175.037109375 3183.173828125 3174.3603515625 3184.08935546875 3273.090087890625 3283.655517578125 3208.854248046875 3122.024169921875 3026.591552734375 2900.997314453125 2776.084716796875 2749.200439453125 2873.565185546875 3003.350830078125 2926.088623046875 2760.314697265625 2712.961669921875 2694.370849609375 2800.58544921875 2872.520751953125 2945.24658203125 3043.767578125 3212.034912109375 3380.97265625 3350.086669921875 3335.264404296875 3219.193603515625 3106.56201171875 3032.541015625 2938.385009765625 2848.84130859375 2850.50341796875 2902.38232421875 2955.08544921875 2973.8095703125 3005.242919921875 3033.25439453125 3055.380615234375 3093.693603515625 3185.1728515625 3248.418212890625 3313.940673828125 3354.332763671875 3181.824462890625 3080.58251953125 2988.293212890625 2938.933349609375 2943.9287109375 2955.222412109375 2965.595458984375 3007.2705078125 
2874.8359375 2966.497314453125 2974.973876953125 2860.1826171875 2734.05224609375 2618.12744140625 2539.677978515625 2683.81396484375 2869.698974609375 3069.453369140625 3240.205810546875 3289.45703125 3266.530517578125 3233.845947265625 3118.906494140625 2961.77001953125 2840.2109375 2788.1396484375 2791.91455078125 2820.274169921875 2839.723388671875 2825.096923828125 2848.63720703125 2994.538818359375 3168.815673828125 3225.477783203125 3256.08251953125 3285.714111328125 3298.38720703125 3180.808349609375 3105.491455078125 3074.109375 3067.3388671875 3079.039306640625 3071.615234375 3118.670654296875 3154.1943359375 3111.81787109375 3051.04833984375 3051.8701171875 3007.141357421875 2949.763916015625 2863.17431640625 2798.820556640625 2758.240478515625 2832.53515625 2886.203369140625 2841.236328125 2799.44775390625 2759.900146484375 2777.5068359375 2791.836181640625 2840.412353515625 2891.77880859375 2930.421630859375 3032.33154296875 3174.63134765625 3197.586181640625 3232.829345703125 3242.315185546875 3229.432861328125 3235.481201171875 3220.10302734375 3127.044921875 3077.45361328125 3036.33544921875 2979.724853515625 2886.721435546875 2780.972900390625 2833.625732421875 2986.83203125 3057.256591796875 2920.947265625 2776.40283203125 2747.12841796875 2749.696044921875 2858.57373046875 2975.707763671875 3050.25390625 3167.44482421875 3271.925048828125 3420.316650390625 3439.485595703125 3410.6923828125 3296.447509765625 3198.943603515625 3124.192138671875 3017.379638671875 2928.666748046875 2913.3310546875 2953.021240234375 3006.932373046875 3046.97021484375 3078.05224609375 3116.83251953125 3138.4072265625 3145.006103515625 3182.01171875 3214.15576171875 3245.45458984375 3296.82373046875 3294.663330078125 3169.96923828125 3079.941162109375 2975.488525390625 2958.59326171875 2963.24853515625 2970.3603515625 3002.585693359375 
2882.365966796875 2853.8701171875 2848.704345703125 2770.49560546875 2684.533447265625 2560.834716796875 2550.72314453125 2734.805419921875 2965.378662109375 3197.461669921875 3339.68408203125 3313.90771484375 3302.660400390625 3229.036376953125 3078.74609375 2923.045654296875 2775.9326171875 2694.52099609375 2672.9716796875 2743.28515625 2795.1787109375 2824.810791015625 2879.220947265625 2970.157958984375 3048.80322265625 3113.621337890625 3179.302490234375 3218.02587890625 3234.24755859375 3115.00830078125 3038.424072265625 2982.87255859375 2922.922119140625 2933.791748046875 2910.87255859375 2970.966796875 3004.58056640625 3007.2919921875 2996.941162109375 2947.291748046875 2901.680908203125 2866.03955078125 2828.75634765625 2740.495361328125 2656.454345703125 2706.570068359375 2785.803955078125 2775.277099609375 2773.830810546875 2785.4345703125 2817.080322265625 2845.468994140625 2876.503662109375 2913.667236328125 2975.58349609375 3052.98876953125 3195.287353515625 3259.3818359375 3317.046630859375 3379.08740234375 3312.295166015625 3263.3955078125 3155.8984375 3087.4599609375 3031.07568359375 2971.652587890625 2920.925537109375 2843.6337890625 2805.073486328125 2860.54296875 2996.62060546875 3090.710205078125 2938.55322265625 2822.37060546875 2809.908447265625 2825.55029296875 2918.88037109375 3016.884033203125 3078.663818359375 3152.609619140625 3258.577880859375 3293.138916015625 3289.142822265625 3331.821044921875 3367.677001953125 3300.176025390625 3215.20947265625 3112.08447265625 3004.51416015625 2996.057861328125 3015.810302734375 3042.2177734375 3072.6787109375 3106.54345703125 3134.11767578125 3156.505615234375 3173.300048828125 3197.521484375 3222.30615234375 3244.951904296875 3266.46630859375 3306.473876953125 3301.19580078125 3134.836669921875 3021.528076171875 2987.5546875 2977.930419921875 2991.6982421875 3013.099853515625 
2813.58447265625 2759.433837890625 2736.563720703125 2680.1455078125 2583.718994140625 2498.791748046875 2579.016845703125 2782.60595703125 2963.04052734375 3148.3369140625 3250.6796875 3205.5439453125 3138.796630859375 3129.999267578125 2979.3115234375 2879.20654296875 2734.291259765625 2630.659912109375 2592.215087890625 2664.71142578125 2749.7548828125 2812.43994140625 2896.1572265625 2983.09033203125 3058.694580078125 3100.4208984375 3146.605712890625 3212.03662109375 3200.177734375 3100.27734375 3023.3076171875 2960.783203125 2870.7490234375 2810.08935546875 2777.3427734375 2785.1171875 2831.337890625 2877.8076171875 2913.637451171875 2894.383544921875 2828.1171875 2787.42138671875 2754.49853515625 2697.7177734375 2581.987060546875 2674.466064453125 2757.127197265625 2753.925537109375 2778.41748046875 2847.986083984375 2880.9775390625 2904.191650390625 2910.62158203125 3017.47412109375 3087.319580078125 3107.29443359375 3194.83349609375 3310.81298828125 3404.789306640625 3366.724365234375 3229.066650390625 3207.781005859375 3178.840576171875 3140.502197265625 3079.58935546875 2969.196533203125 2890.4755859375 2836.974365234375 2869.402099609375 2935.81201171875 3000.75244140625 3071.78173828125 2978.3076171875 2879.19482421875 2900.6201171875 2919.850341796875 2985.27685546875 3047.815185546875 3098.143798828125 3144.566650390625 3195.892333984375 3234.397216796875 3264.501708984375 3294.2197265625 3342.47119140625 3360.98095703125 3295.413818359375 3218.3125 3101.1279296875 3079.6669921875 3097.40771484375 3135.60546875 3176.52001953125 3159.062255859375 3150.703369140625 3159.602294921875 3174.863037109375 3203.744140625 3228.263671875 3249.587890625 3271.72021484375 3305.1123046875 3312.659423828125 3141.646728515625 3061.98095703125 3045.407958984375 3012.922607421875 3009.011962890625 3016.08203125 
2846.176513671875 2729.762939453125 2676.1240234375 2624.361083984375 2519.907470703125 2480.92822265625 2602.8818359375 2775.83203125 2934.624267578125 3022.90283203125 3113.8486328125 3100.34033203125 3025.460693359375 3043.70068359375 2972.84765625 2819.149658203125 2677.66259765625 2535.429443359375 2516.506591796875 2605.9462890625 2745.769775390625 2849.475341796875 2908.77392578125 2999.820068359375 3146.362060546875 3195.461669921875 3226.75146484375 3304.82470703125 3219.365966796875 3110.1767578125 3038.6455078125 2966.699951171875 2879.985107421875 2797.20458984375 2732.64208984375 2665.487548828125 2660.707275390625 2699.656494140625 2792.9443359375 2817.13232421875 2739.044189453125 2702.91455078125 2639.591064453125 2595.216796875 2519.906982421875 2639.997314453125 2726.87548828125 2819.6337890625 2890.725830078125 2951.89990234375 2957.7255859375 2949.888916015625 2962.357177734375 3143.270263671875 3192.756591796875 3226.23828125 3266.712646484375 3322.743408203125 3393.49951171875 3249.8486328125 3080.2568359375 3053.234619140625 3099.658203125 3131.3525390625 3113.375 3022.291259765625 2921.147216796875 2885.807373046875 2939.2412109375 3014.912353515625 3068.364013671875 3140.168701171875 3074.49365234375 2934.113037109375 2937.845947265625 2965.517822265625 3015.966552734375 3076.208740234375 3117.21533203125 3141.549072265625 3178.885986328125 3220.9404296875 3266.974365234375 3313.964111328125 3394.91943359375 3451.031982421875 3364.4140625 3323.827880859375 3196.71435546875 3199.41748046875 3167.8232421875 3195.357177734375 3256.116943359375 3314.227294921875 3246.8974609375 3168.29150390625 3171.285888671875 3206.496826171875 3235.521728515625 3250.130126953125 3269.212646484375 3316.619140625 3337.22314453125 3201.6884765625 3111.7998046875 3096.6240234375 3101.2470703125 3041.4970703125 3038.581298828125 
2863.479736328125 2761.785400390625 2639.3125 2585.6708984375 2469.68408203125 2465.597412109375 2658.634033203125 2858.510009765625 2982.38037109375 3067.40283203125 3115.447998046875 3102.5380859375 2946.566650390625 2886.77392578125 2880.524169921875 2805.22900390625 2603.502197265625 2462.80419921875 2508.4501953125 2666.49462890625 2770.865478515625 2902.472412109375 3005.387451171875 3103.759765625 3179.742431640625 3169.0927734375 3174.64208984375 3194.158447265625 3247.8369140625 3198.512939453125 3094.535400390625 3005.548095703125 2910.705810546875 2861.256103515625 2810.152099609375 2705.218505859375 2630.5224609375 2577.000732421875 2612.581787109375 2727.539794921875 2679.03466796875 2622.1376953125 2568.396240234375 2516.12158203125 2485.836669921875 2632.63134765625 2857.474853515625 2965.623779296875 3043.305908203125 3010.90576171875 2999.500244140625 2991.975341796875 3031.62451171875 3187.264404296875 3283.17333984375 3345.642333984375 3357.80712890625 3366.984619140625 3337.779296875 3161.575439453125 3002.299072265625 2944.976806640625 2926.94921875 2951.44482421875 3038.774658203125 3068.2294921875 2959.84521484375 2936.316162109375 2982.387939453125 3098.727783203125 3130.326416015625 3169.06103515625 3122.74609375 3001.793212890625 2999.154296875 3004.501708984375 3066.2177734375 3146.3017578125 3144.185302734375 3150.577392578125 3192.7890625 3262.59033203125 3360.81591796875 3463.884765625 3533.05517578125 3402.139892578125 3271.110107421875 3356.926025390625 3354.1259765625 3271.560546875 3193.570068359375 3170.647705078125 3148.53466796875 3176.493408203125 3118.431396484375 3016.026123046875 3076.283203125 3189.8623046875 3264.9404296875 3270.452392578125 3256.944091796875 3307.8994140625 3385.528076171875 3298.027099609375 3176.724853515625 3152.57421875 3157.7763671875 3124.22509765625 3066.223388671875 
2790.072021484375 2778.673095703125 2644.295654296875 2559.9091796875 2449.5263671875 2469.396484375 2669.700439453125 2905.837158203125 3062.448974609375 3214.716796875 3250.623046875 3136.72607421875 2952.33642578125 2830.8017578125 2768.00732421875 2716.6015625 2567.030029296875 2416.302490234375 2464.959228515625 2703.534423828125 2853.166259765625 2969.086181640625 3073.6669921875 3081.8837890625 3071.033935546875 3072.8359375 3069.528076171875 3144.510986328125 3347.752197265625 3313.739501953125 3125.64990234375 2987.802734375 2920.19970703125 2882.417724609375 2829.73583984375 2785.8408203125 2699.40576171875 2574.17041015625 2509.33447265625 2640.144287109375 2726.035400390625 2610.582763671875 2539.66357421875 2455.678466796875 2444.34521484375 2600.580078125 2897.41943359375 3113.9169921875 3094.632568359375 3043.20654296875 3035.5771484375 3035.227783203125 3079.638427734375 3185.8818359375 3255.8486328125 3260.210693359375 3325.30908203125 3307.7314453125 3170.32080078125 3024.650146484375 2920.229248046875 2874.10693359375 2816.790283203125 2792.12939453125 2859.52392578125 2980.34326171875 2988.510986328125 2984.625732421875 3048.948486328125 3168.980712890625 3206.11181640625 3221.242431640625 3200.21142578125 3075.654052734375 3060.092529296875 3061.783203125 3132.087646484375 3225.697265625 3320.087890625 3254.25732421875 3256.1044921875 3328.892578125 3426.268310546875 3475.420654296875 3393.6708984375 3235.538818359375 3125.705810546875 3171.615966796875 3245.442138671875 3098.288818359375 2995.9931640625 2954.197509765625 2977.537353515625 3041.742431640625 3004.584228515625 2871.5615234375 2926.367919921875 3062.65673828125 3222.7666015625 3256.7939453125 3138.84375 3181.944091796875 3233.615478515625 3296.85400390625 3235.335693359375 3216.4140625 3247.351318359375 3222.697998046875 3123.196044921875 
2688.377197265625 2657.566650390625 2581.269287109375 2518.83447265625 2435.22607421875 2507.062255859375 2678.224365234375 2814.632080078125 2963.667724609375 3167.107666015625 3146.015380859375 3084.296142578125 2911.101806640625 2798.775390625 2697.040771484375 2648.64892578125 2568.535888671875 2421.1328125 2417.366455078125 2586.928466796875 2808.13330078125 2949.461181640625 2962.1865234375 2983.024658203125 2956.5185546875 2977.747802734375 3032.2841796875 3183.57421875 3323.82958984375 3286.814208984375 3097.61669921875 2909.090087890625 2832.221435546875 2778.8642578125 2686.7119140625 2644.114013671875 2609.50732421875 2539.76171875 2464.362060546875 2548.2626953125 2701.258056640625 2603.702392578125 2517.648193359375 2446.9130859375 2408.239501953125 2556.774658203125 2823.421630859375 3067.20166015625 3143.64892578125 3114.567138671875 3101.294921875 3109.74658203125 3102.239013671875 3117.20947265625 3124.59765625 3098.177734375 3179.864013671875 3243.689453125 3137.851806640625 2983.86181640625 2905.432373046875 2835.861328125 2773.076171875 2709.463623046875 2718.369140625 2835.263671875 3001.431640625 3062.40869140625 3105.62939453125 3161.204833984375 3214.885009765625 3273.457275390625 3286.655029296875 3169.58447265625 3126.438232421875 3160.749755859375 3237.30517578125 3357.2138671875 3459.239501953125 3428.192138671875 3377.887939453125 3397.953369140625 3404.722900390625 3276.480712890625 3238.374267578125 3105.947998046875 3030.171875 3100.62548828125 3078.167724609375 2930.877197265625 2857.22998046875 2846.984619140625 2944.310302734375 3036.293212890625 2909 2763.89013671875 2816.94384765625 2957.190185546875 3101.9130859375 3041.306396484375 2958.351806640625 2985.248291015625 3035.819091796875 3158.8193359375 3122.951171875 3179.14013671875 3304.6845703125 3227.0078125 3232.821044921875 
2589.731689453125 2542.639892578125 2488.287109375 2430.483642578125 2411.926025390625 2552.982177734375 2685.22265625 2797.680908203125 2944.221435546875 3151.10205078125 3132.624267578125 3026.8408203125 2923.236083984375 2860.47509765625 2777.79248046875 2691.1376953125 2595.1943359375 2467.544921875 2364.916748046875 2449.62158203125 2651.7744140625 2829.82470703125 2836.471923828125 2840.302734375 2894.49658203125 2928.625244140625 3023.7197265625 3225.402587890625 3206.6474609375 3170.417724609375 3085.74169921875 2970.837158203125 2822.212646484375 2720.650146484375 2636.486083984375 2567.423828125 2513.041748046875 2436.22412109375 2410.47998046875 2456.599609375 2600.247802734375 2513.4541015625 2410.50146484375 2383.901611328125 2375.120361328125 2483.79736328125 2746.765625 2964.0517578125 3101.28955078125 3163.673583984375 3133.07958984375 3102.0166015625 3005.45849609375 2949.31787109375 2966.07373046875 3015.172119140625 3059.988525390625 3187.58544921875 3161.090576171875 2980.1572265625 2837.226318359375 2735.12451171875 2664.396728515625 2624.480712890625 2621.03857421875 2723.5087890625 2890.41796875 3084.447998046875 3175.432861328125 3240.0380859375 3280.472900390625 3325.391845703125 3363.1748046875 3293.154541015625 3226.528076171875 3237.680908203125 3346.611328125 3375.759521484375 3395.375732421875 3405.756591796875 3432.802490234375 3439.46630859375 3336.945556640625 3161.592041015625 3100.26171875 2984.825439453125 2955.2333984375 3050.2607421875 2936.686767578125 2812.6611328125 2734.530517578125 2704.6396484375 2806.1220703125 2926.27099609375 2785.684814453125 2657.9501953125 2708.4921875 2845.21435546875 2972.43896484375 2857.014404296875 2789.42919921875 2793.379150390625 2904.1728515625 3010.841796875 2944.587158203125 3024.32373046875 3140.912353515625 3077.83251953125 3146.9482421875 
2493.980712890625 2456.362060546875 2400.146484375 2338.769287109375 2398.385986328125 2562.5263671875 2776.5859375 2860.90771484375 3009.30322265625 3236.2451171875 3203.340576171875 3075.96728515625 3025.78369140625 2981.61328125 2873.051025390625 2782.397216796875 2652.969970703125 2511.545166015625 2380.110595703125 2362.630859375 2516.197509765625 2674.973388671875 2745.668212890625 2768.091552734375 2844.345458984375 2895.49267578125 3053.308349609375 3232.93408203125 3131.693359375 3061.149658203125 2985.24755859375 2948.92578125 2847.0244140625 2712.46923828125 2619.772705078125 2552.725341796875 2503.26708984375 2383.118896484375 2301.571533203125 2377.364013671875 2545.63818359375 2424.871337890625 2296.5703125 2292.88427734375 2329.101318359375 2429.708740234375 2669.351318359375 2874.046875 2968.539306640625 3030.31787109375 3000.00634765625 2983.02392578125 2906.651123046875 2822.32666015625 2797.73486328125 2864.9375 2914.68017578125 3079.423095703125 3112.897216796875 3000.373779296875 2835.635986328125 2701.37451171875 2609.60595703125 2566.89501953125 2573.2783203125 2682.841552734375 2853.39697265625 3045.452880859375 3210.315185546875 3272.046630859375 3274.95556640625 3328.40673828125 3385.288818359375 3475.999755859375 3432.4658203125 3339.829833984375 3325.094970703125 3341.848876953125 3351.03173828125 3348.5009765625 3306.701904296875 3254.6162109375 3212.745361328125 3083.014404296875 2994.26220703125 2898.233154296875 2894.867431640625 2900.951904296875 2871.557373046875 2730.80615234375 2627.484130859375 2570.936279296875 2655.85107421875 2800.687744140625 2707.2412109375 2564.589599609375 2602.10400390625 2716.991943359375 2814.62841796875 2727.2099609375 2647.618408203125 2684.195068359375 2817.55712890625 2891.556884765625 2811.78125 2874.049560546875 2980.8466796875 2937.2626953125 2972.448486328125 
2385.359130859375 2348.31640625 2283.495849609375 2322.26171875 2449.933349609375 2643.3076171875 2895.595458984375 3030.969482421875 3087.323486328125 3158.092529296875 3170.64501953125 3151.474853515625 3118.949462890625 3033.095458984375 2904.3798828125 2752.771728515625 2655.468994140625 2535.002197265625 2412.51025390625 2308.82080078125 2416.038818359375 2573.13232421875 2677.785888671875 2727.55859375 2818.531494140625 2901.659423828125 3075.76904296875 3201.78662109375 3187.509521484375 3053.429931640625 2953.327392578125 2868.566162109375 2795.95947265625 2665.37890625 2592.550537109375 2525.011962890625 2456.277099609375 2327.27392578125 2230.631103515625 2295.913818359375 2405.892333984375 2349.567626953125 2211.715576171875 2177.7255859375 2260.7021484375 2363.286376953125 2586.55419921875 2725.358642578125 2800.0732421875 2948.994384765625 2954.36669921875 2912.517822265625 2846.08544921875 2770.9677734375 2739.328125 2711.718505859375 2763.180908203125 2918.73876953125 3054.959716796875 3050.190185546875 2878.030517578125 2704.533203125 2575.49072265625 2501.27294921875 2520.78515625 2653.536376953125 2840.83544921875 3007.919677734375 3105.695068359375 3101.385498046875 3076.69775390625 3142.222900390625 3253.998046875 3445.2587890625 3487.860107421875 3365.21630859375 3319.07373046875 3325.78466796875 3343.818603515625 3245.959228515625 3118.084228515625 3076.30615234375 3003.884765625 2933.70068359375 2882.763427734375 2822.058837890625 2769.15576171875 2749.3134765625 2810.82958984375 2670.950439453125 2531.08837890625 2463.3740234375 2551.240478515625 2642.243408203125 2588.7685546875 2464.105712890625 2491.41015625 2540.313232421875 2610.552734375 2626.192138671875 2536.267822265625 2605.025634765625 2730.1630859375 2770.451171875 2689.207275390625 2734.8125 2780.174072265625 2793.240478515625 2813.52392578125 
2247.222412109375 2248.51806640625 2305.131591796875 2418.255615234375 2535.734130859375 2704.07470703125 2905.360107421875 3043.478271484375 3030.3603515625 3089.0673828125 3082.389892578125 3092.838623046875 3006.668212890625 2959.685791015625 2828.67333984375 2716.69580078125 2619.037109375 2509.827880859375 2431.69384765625 2290.2080078125 2327.3779296875 2527.92529296875 2619.6083984375 2657.3935546875 2769.31201171875 2962.5166015625 3090.134765625 3124.380126953125 3155.53662109375 3104.404296875 2937.528076171875 2775.6533203125 2680.7236328125 2563.884765625 2490.664306640625 2436.68115234375 2376.48291015625 2310.954833984375 2212.124755859375 2200.445556640625 2257.2001953125 2255.270263671875 2138.924560546875 2079.9638671875 2169.40869140625 2279.4775390625 2469.42138671875 2570.132568359375 2675.734619140625 2870.498046875 2896.145263671875 2882.69140625 2786.642333984375 2719.71630859375 2708.05078125 2631.473876953125 2650.785888671875 2820.792724609375 2984.78955078125 2993.198974609375 2839.33251953125 2661.206787109375 2516.85205078125 2443.21044921875 2462.79296875 2590.395751953125 2756.386962890625 2912.681884765625 2938.37255859375 2931.967529296875 2936.513427734375 3036.9365234375 3200.36767578125 3377.818115234375 3357.245849609375 3312.295654296875 3296.440185546875 3307.0322265625 3325.91259765625 3193.214599609375 3033.382568359375 2952.978759765625 2894.963134765625 2792.70703125 2754.291015625 2699.68896484375 2658.813232421875 2688.19873046875 2738.7255859375 2598.34423828125 2452.05224609375 2376.57861328125 2473.2421875 2453.645263671875 2424.66650390625 2338.514404296875 2336.95263671875 2359.17626953125 2410.7021484375 2449.48388671875 2412.843017578125 2433.2333984375 2566.927978515625 2592.232421875 2548.1591796875 2610.39306640625 2609.28125 2654.933349609375 2699.123291015625 
2275.57177734375 2363.053466796875 2435.78369140625 2498.768310546875 2558.03759765625 2699.571044921875 2871.64892578125 2986.798828125 2948.83203125 3021.284423828125 3016.802978515625 3076.369140625 2975.74658203125 2911.196044921875 2802.7861328125 2689.43994140625 2616.80126953125 2531.213623046875 2437.135986328125 2291.25390625 2277.280029296875 2456.175537109375 2563.89501953125 2659.3974609375 2776.314697265625 2961.7431640625 2995.642333984375 3034.9970703125 3075.3583984375 3059.929931640625 2872.19189453125 2702.80419921875 2599.2705078125 2527.208984375 2473.69775390625 2433.87939453125 2407.857666015625 2332.4453125 2254.0439453125 2176.8974609375 2148.148193359375 2187.8857421875 2126.555419921875 2046.6470947265625 2082.886474609375 2163.2177734375 2322.90869140625 2432.531005859375 2604.410888671875 2753.2392578125 2825.477294921875 2825.55322265625 2787.939208984375 2715.64208984375 2640.075927734375 2590.316650390625 2594.151611328125 2750.54052734375 2922.061767578125 2892.510009765625 2747.548583984375 2573.697021484375 2414.507080078125 2375.253662109375 2393.50927734375 2501.423095703125 2694.959716796875 2826.347412109375 2822.1923828125 2850.7998046875 2916.382080078125 3092.58984375 3287.37451171875 3350.908935546875 3301.769287109375 3263.96875 3275.2236328125 3282.311767578125 3347.1728515625 3260.828369140625 3088.54541015625 2960.404052734375 2858.1943359375 2740.159423828125 2637.815673828125 2602.7255859375 2557.1181640625 2561.37841796875 2537.41650390625 2455.375244140625 2349.727783203125 2291.82763671875 2328.55859375 2263.2861328125 2219.442138671875 2179.9169921875 2184.485595703125 2174.146484375 2210.85498046875 2259.040771484375 2275.825927734375 2306.75048828125 2352.29736328125 2386.42529296875 2391.694580078125 2429.456298828125 2433.158935546875 2497.75048828125 2548.048095703125 
2336.5439453125 2514.219970703125 2568.423583984375 2582.423828125 2594.849853515625 2687.7626953125 2804.153564453125 2888.6484375 2908.89306640625 2963.207763671875 3018.331298828125 3107.864990234375 3014.091064453125 2922.760009765625 2842.796630859375 2757.89990234375 2689.546630859375 2592.85888671875 2452.09228515625 2288.89892578125 2264.6279296875 2407.4423828125 2565.875244140625 2746.992919921875 2880.607666015625 2985.919921875 2942.255126953125 2933.89990234375 3030.345947265625 3058.411865234375 2884.004150390625 2710.883544921875 2586.25830078125 2555.593994140625 2550.3349609375 2522.396728515625 2514.885498046875 2381.3525390625 2298.19775390625 2234.8349609375 2187.235595703125 2124.31787109375 2071.567626953125 2034.9678955078125 2036.880126953125 2090.991943359375 2198.5205078125 2347.27294921875 2522.576416015625 2635.0859375 2720.236328125 2803.281005859375 2697.351318359375 2642.565185546875 2558.63427734375 2489.0576171875 2511.94482421875 2679.5966796875 2842.88330078125 2834.4453125 2676.83740234375 2509.9755859375 2338.482177734375 2309.140625 2327.845458984375 2443.228759765625 2640.613525390625 2754.13671875 2802.9921875 2851.8525390625 2991.0400390625 3162.9951171875 3255.21728515625 3291.647216796875 3278.463134765625 3222.122802734375 3237.620849609375 3238.910400390625 3301.924072265625 3265.525390625 3114.537109375 3000.6123046875 2860.364501953125 2698.705078125 2604.9931640625 2544.32763671875 2489.898681640625 2397.59814453125 2302.56591796875 2234.73095703125 2173.69140625 2131.942626953125 2121.452392578125 2094.227294921875 2057.8388671875 2049.735595703125 2064.540771484375 2057.2197265625 2072.14892578125 2119.5771484375 2154.612548828125 2139.374267578125 2163.629638671875 2215.884033203125 2241.6650390625 2250.734619140625 2275.960205078125 2314.032470703125 2362.240478515625 
2416.09228515625 2638.219970703125 2725.37158203125 2710.2119140625 2698.147216796875 2706.5302734375 2802.71630859375 2845.50146484375 2888.6845703125 2967.419677734375 2997.68603515625 3008.818359375 2958.304443359375 2907.84375 2869.714599609375 2744.64599609375 2661.196044921875 2552.826904296875 2428.15478515625 2277.825927734375 2250.460693359375 2395.87841796875 2637.78955078125 2844.98974609375 2974.193115234375 2930.352783203125 2914.8876953125 2899.892333984375 2993.57666015625 3022.063720703125 2839.628173828125 2746.626220703125 2681.28173828125 2660.24560546875 2664.494140625 2624.736328125 2509.657470703125 2409.776123046875 2370.832763671875 2315.359619140625 2282.7822265625 2211.558837890625 2119.08349609375 2030.84423828125 2013.82373046875 2058.32080078125 2123.756591796875 2264.284912109375 2435.241455078125 2537.54150390625 2678.52587890625 2855.30517578125 2747.843994140625 2594.07861328125 2472.52783203125 2393.27294921875 2403.277099609375 2544.64794921875 2724.594482421875 2760.905517578125 2613.403564453125 2457.470947265625 2296.061279296875 2242.158203125 2279.02978515625 2398.2509765625 2555.873046875 2687.910400390625 2802.61669921875 2942.824462890625 3012.57373046875 3081.5927734375 3080.794921875 3131.166748046875 3159.665771484375 3137.8642578125 3149.737548828125 3135.92822265625 3181.703125 3246.171630859375 3095.799560546875 2959.89013671875 2849.871337890625 2755.16162109375 2637.9443359375 2521.556640625 2461.526611328125 2383.340087890625 2288.940673828125 2195.34716796875 2109.586669921875 2027.931640625 1979.748779296875 1961.628173828125 1970.60986328125 1969.9241943359375 1984.380126953125 2013.1678466796875 2043.9827880859375 2070.870849609375 2088.91259765625 2076.678955078125 2085.114013671875 2115.242431640625 2131.792724609375 2158.00146484375 2188.905517578125 2193.836669921875 2227.51416015625 
2503.345458984375 2572.223388671875 2623.278564453125 2698.685546875 2757.3935546875 2773.629638671875 2832.018798828125 2898.263916015625 2977.448974609375 2993.612548828125 2882.80810546875 2910.47705078125 2853.769287109375 2788.65966796875 2803.829345703125 2768.76513671875 2667.5693359375 2525.573486328125 2382.6669921875 2252.264892578125 2236.623046875 2431.20751953125 2659.4892578125 2867.6162109375 2915.321533203125 2850.544677734375 2881.779541015625 2926.109619140625 3014.044677734375 3009.5810546875 2902.6142578125 2844.298095703125 2816.506591796875 2789.88330078125 2725.626708984375 2577.128662109375 2485.9755859375 2435.06494140625 2435.25146484375 2390.1591796875 2356.8857421875 2256.765380859375 2122.082275390625 2033.361572265625 1991.76220703125 2005.503662109375 2049.640869140625 2184.32958984375 2333.408447265625 2470.4248046875 2653.81396484375 2833.966796875 2811.60546875 2609.09375 2407.110107421875 2285.88134765625 2302.814697265625 2450.191162109375 2622.642578125 2690.99560546875 2580.6162109375 2422.241943359375 2233.6748046875 2167.18798828125 2232.3642578125 2380.98291015625 2490.4619140625 2623.723876953125 2769.02294921875 2837.634521484375 2873.27490234375 2914.326416015625 2918.3955078125 2980.65478515625 3040.47509765625 3023.140625 3026.459716796875 3021.40283203125 3012.0478515625 3076.101318359375 3129.846923828125 3004.904541015625 2913.773193359375 2864.0751953125 2706.4248046875 2533.966796875 2438.488525390625 2361.387939453125 2285.037353515625 2231.638916015625 2176.738037109375 2055.557373046875 1935.6402587890625 1935.1180419921875 1967.869873046875 2049.826171875 2070.957275390625 2134.990234375 2213.867431640625 2158.86962890625 2103.195068359375 2079.57763671875 2084.2587890625 2123.04345703125 2175.47900390625 2196.120361328125 2182.979736328125 2213.246826171875 2248.568115234375 
2399.529296875 2496.198974609375 2601.45263671875 2717.754638671875 2871.022216796875 2933.150634765625 2981.07373046875 3059.522705078125 3095.79638671875 2991.93310546875 2824.797119140625 2776.80810546875 2729.93359375 2689.649169921875 2655.549072265625 2663.029296875 2593.810302734375 2469.395263671875 2346.1435546875 2210.71142578125 2252.767822265625 2398.15087890625 2620.99609375 2851.8173828125 2830.84375 2791.829345703125 2825.3134765625 2943.453369140625 2960.4873046875 3082.78271484375 3053.33154296875 2968.2470703125 2854.666015625 2777.699462890625 2668.4560546875 2544.56494140625 2458.03271484375 2447.408447265625 2438.024169921875 2417.251953125 2378.906982421875 2286.49853515625 2160.70556640625 2040.4287109375 1979.6964111328125 1971.2598876953125 2016.136474609375 2116.286376953125 2256.0185546875 2445.2822265625 2621.237548828125 2780.623046875 2787.3193359375 2611.01513671875 2397.353271484375 2220.580078125 2200.306640625 2341.585693359375 2511.031005859375 2559.2578125 2513.5615234375 2370.698974609375 2177.759521484375 2090.435546875 2139.286376953125 2280.578857421875 2417.087646484375 2577.853515625 2661.99560546875 2681.14697265625 2727.6728515625 2752.679931640625 2761.649658203125 2839.947265625 2945.97314453125 2913.490478515625 2904.29248046875 2917.960693359375 2911.44775390625 2906.96728515625 3006.89599609375 2940.45068359375 2875.54248046875 2923.7109375 2789.21923828125 2636.3125 2534.01025390625 2456.021484375 2395.469482421875 2309.076416015625 2147.052490234375 1962.07958984375 1917.076171875 2042.477783203125 2099.0419921875 2223.8837890625 2242.456298828125 2259.098876953125 2386.9189453125 2353.79833984375 2260.845947265625 2197.835693359375 2154.295166015625 2202.20654296875 2307.19873046875 2377.22412109375 2343.235595703125 2348.5947265625 2406.26025390625 
2491.766357421875 2600.476318359375 2703.740234375 2805.947265625 2945.06640625 3066.511474609375 3091.370849609375 2986.521240234375 2963.982421875 2966.328125 2804.820068359375 2687.923583984375 2616.31494140625 2587.2724609375 2564.797119140625 2540.60546875 2517.135498046875 2431.622314453125 2322.4990234375 2189.283203125 2226.156982421875 2384.3505859375 2592.985107421875 2748.42529296875 2767.646484375 2760.943115234375 2832.02294921875 2890.22314453125 3004.33935546875 3139.193115234375 3136.46875 2950.814453125 2833.03662109375 2756.45068359375 2652.18310546875 2562.511962890625 2478.466064453125 2490.70263671875 2527.211181640625 2531.602294921875 2452.984130859375 2342.795166015625 2192.398681640625 2059.45849609375 1975.793701171875 1951.9263916015625 1962.0289306640625 2062.46337890625 2190.690673828125 2364.029296875 2536.237548828125 2681.471923828125 2722.637939453125 2540.671142578125 2349.271240234375 2184.842529296875 2110.599853515625 2235.927001953125 2402.636962890625 2375.82763671875 2354.09423828125 2272.919921875 2106.848388671875 2025.829345703125 2065.751220703125 2220.58544921875 2384.39697265625 2495.814453125 2483.609375 2494.4853515625 2576.43994140625 2605.111572265625 2680.804443359375 2809.459716796875 2882.279296875 2821.375244140625 2800.015869140625 2810.85107421875 2796.58251953125 2781.620361328125 2857.901611328125 2928.302734375 2795.9306640625 2786.23193359375 2830.975341796875 2736.73876953125 2636.2109375 2500.515869140625 2387.72900390625 2256.572021484375 2036.2342529296875 1875.44384765625 2031.1640625 2231.27734375 2301.438232421875 2358.197021484375 2308.28759765625 2342.396484375 2495.991943359375 2491.244873046875 2399.8115234375 2323.281982421875 2320.0166015625 2331.237548828125 2349.73681640625 2465.614990234375 2464.290771484375 2487.93408203125 2547.032958984375 
2592.71435546875 2715.779541015625 2857.601318359375 2951.5029296875 2992.66162109375 2964.919189453125 3004.18798828125 2913.010986328125 2824.241943359375 2812.623046875 2770.984619140625 2640.386474609375 2567.48291015625 2525.96826171875 2486.4990234375 2464.641845703125 2430.132568359375 2391.526123046875 2295.837890625 2151.627197265625 2159.2783203125 2337.701171875 2508.52587890625 2656.57421875 2753.61376953125 2780.401123046875 2814.008056640625 2898.28515625 2999.041015625 3137.8095703125 3110.3271484375 2947.66748046875 2825.67333984375 2762.625244140625 2668.397216796875 2584.131103515625 2547.198974609375 2605.787353515625 2701.8408203125 2619.1201171875 2499.30615234375 2390.4208984375 2265.8935546875 2105.442626953125 1991.3602294921875 1952.6822509765625 1924.148193359375 2004.2781982421875 2134.422607421875 2274.049072265625 2432.27880859375 2575.2314453125 2658.657470703125 2529.411376953125 2340.778564453125 2149.524658203125 2049.136474609375 2141.0615234375 2270.69384765625 2210.178955078125 2186.826904296875 2177.014404296875 2032.0091552734375 1955.5640869140625 2009.6787109375 2163.968017578125 2327.91552734375 2338.90185546875 2284.734619140625 2326.758056640625 2438.94921875 2543.404296875 2702.837158203125 2820.9677734375 2863.405517578125 2755.1923828125 2699.68115234375 2679.296875 2664.987548828125 2696.931640625 2764.135986328125 2827.1298828125 2702.708984375 2653.18505859375 2725.3291015625 2621.6923828125 2500.455078125 2394.864013671875 2248.907470703125 2087.35693359375 1924.48876953125 1857.3876953125 2084.5458984375 2322.103515625 2492.568359375 2461.614501953125 2379.896484375 2446.945556640625 2606.80322265625 2628.258544921875 2530.72900390625 2456.39501953125 2458.720947265625 2454.46923828125 2428.921875 2529.22412109375 2578.953369140625 2620.35009765625 2653.9677734375 
2657.120361328125 2789.024169921875 2908.340087890625 2996.416015625 2974.473388671875 2883.726318359375 2894.366943359375 2877.996337890625 2772.564453125 2715.853271484375 2697.71435546875 2622.037353515625 2509.864013671875 2454.90771484375 2411.974365234375 2361.495361328125 2320.5693359375 2319.87841796875 2239.344970703125 2092.2216796875 2094.556396484375 2240.223876953125 2423.90087890625 2592.453369140625 2727.142578125 2810.039306640625 2883.065673828125 2997.307861328125 3146.977783203125 3218.443115234375 3129.757568359375 3025.50537109375 2889.600341796875 2823.27783203125 2734.523681640625 2667.723876953125 2673.4296875 2734.22900390625 2821.685791015625 2742.992919921875 2635.8828125 2503.607177734375 2328.7841796875 2158.399658203125 2071.02490234375 1972.270751953125 1911.5198974609375 1957.0260009765625 2054.145751953125 2157.5673828125 2311.84326171875 2460.497802734375 2563.023193359375 2470.64111328125 2324.689453125 2137.706298828125 2005.0504150390625 2064.147705078125 2116.514404296875 2068.184814453125 2022.0159912109375 2054.943115234375 1977.6260986328125 1896.4949951171875 1968.60888671875 2104.82470703125 2176.842529296875 2158.3916015625 2109.230224609375 2187.452392578125 2368.506591796875 2569.41259765625 2713.260498046875 2800.260498046875 2860.4365234375 2726.0849609375 2608.102294921875 2568.6259765625 2594.916748046875 2632.311767578125 2624.100830078125 2653.800537109375 2551.474365234375 2520.90478515625 2549.444580078125 2485.37060546875 2382.59326171875 2244.217041015625 2091.830810546875 1947.695556640625 1819.7027587890625 1876.7738037109375 2071.050537109375 2340.716552734375 2554.469970703125 2493.306884765625 2455.99462890625 2523.09130859375 2648.512451171875 2752.614501953125 2634.77880859375 2551.00439453125 2548.55419921875 2558.14306640625 2534.408447265625 2610.3623046875 2696.214111328125 2727.03662109375 2764.81494140625 
2696.9296875 2817.408447265625 2947.283203125 3005.08154296875 2927.279541015625 2819.53955078125 2780.66162109375 2803.83251953125 2724.92041015625 2668.868896484375 2629.662109375 2572.02880859375 2472.785400390625 2394.027099609375 2334.05517578125 2248.4677734375 2189.254150390625 2160.087158203125 2087.765625 2035.632080078125 2085.0693359375 2201.597412109375 2396.21435546875 2561.22021484375 2698.89599609375 2897.021728515625 2969.21240234375 3022.3544921875 3140.09912109375 3220.929443359375 3249.502685546875 3164.809326171875 3034.7958984375 2925.652587890625 2825.41357421875 2788.968994140625 2825.887939453125 2847.647216796875 2799.4033203125 2736.173828125 2686.975830078125 2540.31982421875 2362.7431640625 2221.65625 2154.67578125 2014.344970703125 1912.34228515625 1901.09130859375 1961.15283203125 2021.494873046875 2153.353515625 2299.4912109375 2400.29931640625 2374.5908203125 2258.66552734375 2112.278076171875 1959.2947998046875 1944.25390625 1946.297607421875 1923.4820556640625 1891.2701416015625 1860.1475830078125 1847.9986572265625 1833.0328369140625 1875.9178466796875 1951.3270263671875 2001.50439453125 1979.3699951171875 2040.218017578125 2203.01416015625 2369.169921875 2484.516845703125 2609.58447265625 2760.02734375 2829.790771484375 2720.840576171875 2594.146484375 2522.681640625 2529.350830078125 2514.96826171875 2471.16162109375 2447.65234375 2374.705078125 2331.95458984375 2335.2294921875 2311.927001953125 2237.1279296875 2073.3935546875 1939.4852294921875 1816.609130859375 1812.34814453125 1961.385986328125 2144.504150390625 2303.817138671875 2546.666748046875 2535.140869140625 2548.28125 2629.398193359375 2670.84765625 2779.125244140625 2729.3935546875 2634.4853515625 2633.515869140625 2640.50927734375 2610.318359375 2687.574951171875 2824.19873046875 2825.59716796875 2843.44580078125 
2676.714111328125 2780.73828125 2904.96142578125 2915.2255859375 2866.28173828125 2804.203125 2698.5380859375 2706.803466796875 2718.18115234375 2609.352294921875 2560.25634765625 2532.688720703125 2428.471923828125 2346.140869140625 2244.00830078125 2156.712646484375 2077.06103515625 2023.5601806640625 1999.5875244140625 2037.7889404296875 2126.355224609375 2220.9462890625 2390.25341796875 2557.437255859375 2634.412353515625 2809.461669921875 2971.53564453125 3081.332275390625 3160.960693359375 3335.046630859375 3361.87939453125 3254.0830078125 3149.017333984375 3045.392578125 2875.892578125 2774.542236328125 2760.134521484375 2765.59619140625 2722.65087890625 2643.90283203125 2604.8271484375 2541.658447265625 2420.880615234375 2304.033935546875 2216.686767578125 2103.00830078125 1956.65283203125 1875.7742919921875 1872.9117431640625 1922.560546875 1985.9541015625 2092.294921875 2221.906982421875 2222.466552734375 2105.94189453125 1986.8624267578125 1853.238037109375 1786.5682373046875 1760.6539306640625 1756.7982177734375 1768.496337890625 1729.1248779296875 1712.4669189453125 1721.5323486328125 1743.5230712890625 1796.5233154296875 1848.302734375 1925.9378662109375 2045.7481689453125 2150.316650390625 2275.783447265625 2393.75341796875 2525.338134765625 2687.75537109375 2744.801025390625 2740.67724609375 2678.716552734375 2598.029296875 2486.666259765625 2411.06884765625 2340.906982421875 2253.79345703125 2167.317138671875 2134.19384765625 2135.762939453125 2108.75341796875 2049.937744140625 1935.8743896484375 1814.552734375 1745.591796875 1902.9041748046875 2097.54345703125 2230.11962890625 2370.133544921875 2549.371337890625 2603.939697265625 2614.783203125 2699.28759765625 2727.821044921875 2805.73193359375 2845.354248046875 2713.365478515625 2702.527587890625 2696.595947265625 2669.514404296875 2778.8037109375 2919.70361328125 2946.24072265625 2932.144287109375 
2668.435546875 2763.741943359375 2910.56787109375 2871.11572265625 2769.51318359375 2725.929443359375 2609.81005859375 2581.57568359375 2630.7685546875 2570.0283203125 2488.94287109375 2453.42724609375 2349.701171875 2259.675537109375 2166.605712890625 2073.480712890625 2003.21484375 1983.3822021484375 2047.328857421875 2104.25732421875 2257.06396484375 2333.86865234375 2441.313720703125 2501.1875 2573.744384765625 2709.90625 2900.290771484375 3091.87939453125 3240.278564453125 3327.154296875 3305.150390625 3304.223388671875 3168.44140625 3010.696533203125 2823.402587890625 2683.397216796875 2646.13916015625 2660.406005859375 2678.914794921875 2594.645751953125 2535.46484375 2482.854248046875 2446.495849609375 2367.1826171875 2281.5966796875 2160.8798828125 2032.609619140625 1932.471923828125 1846.98681640625 1834.254150390625 1884.7744140625 1945.8330078125 2052.77880859375 2041.9417724609375 1942.7781982421875 1840.88720703125 1745.646484375 1692.3719482421875 1690.007080078125 1690 1690 1690 1690 1690 1697.10791015625 1737.0367431640625 1804.680419921875 1899.4129638671875 1970.1099853515625 2069.87158203125 2193.987060546875 2325.521728515625 2470.782470703125 2669.944580078125 2781.337158203125 2826.263427734375 2816.267578125 2684.111328125 2543.69091796875 2438.0322265625 2333.352783203125 2199.16796875 2061.710205078125 1993.20263671875 1954.8052978515625 1925.8712158203125 1881.4483642578125 1809.712158203125 1716.6343994140625 1746.38427734375 1935.9093017578125 2138.61767578125 2346.359619140625 2504.925537109375 2627.446044921875 2697.31298828125 2697.8681640625 2760.74169921875 2790.07421875 2853.735107421875 2925.19580078125 2789.8076171875 2743.286865234375 2752.75634765625 2737.35791015625 2874.978515625 2996.0556640625 3055.370361328125 3053.137451171875 
2783.464599609375 2863.1875 2866.700439453125 2770.378662109375 2646.82666015625 2604.427001953125 2596.05859375 2504.28857421875 2498.6357421875 2543.81103515625 2431.36572265625 2375.68115234375 2256.4521484375 2169.09130859375 2086.09765625 2004.310791015625 1957.2125244140625 2096.20361328125 2171.031005859375 2239.298828125 2369.880615234375 2409.137451171875 2466.965087890625 2598.35693359375 2637.079833984375 2717.2890625 2915.748291015625 3124.7216796875 3330.78857421875 3290.187744140625 3260.80859375 3202.7060546875 3109.1171875 3021.686767578125 2826.453369140625 2659.240966796875 2568.146484375 2555.75048828125 2602.222412109375 2544.286376953125 2459.3623046875 2412.300048828125 2381.4306640625 2317.911376953125 2243.371337890625 2173.99755859375 2116.927001953125 2022.5743408203125 1929.8779296875 1853.6815185546875 1803.4595947265625 1811.723876953125 1887.2635498046875 1909.1708984375 1805.1595458984375 1729.934814453125 1693.8555908203125 1690 1690.4957275390625 1693.7669677734375 1693.2762451171875 1690.5511474609375 1690 1690 1690.0338134765625 1696.5882568359375 1750.7152099609375 1845.6866455078125 1919.98828125 2000.626708984375 2130.50244140625 2269.376220703125 2436.89306640625 2614.205810546875 2705.38134765625 2715.38623046875 2700.8583984375 2694.358154296875 2641.6171875 2512.216064453125 2394.358154296875 2273.112060546875 2094.529296875 2023.8076171875 1990.30615234375 1971.55029296875 1919.9449462890625 1831.208740234375 1716.1610107421875 1713.51025390625 1866.587890625 2070.514404296875 2293.8134765625 2494.20263671875 2690.83544921875 2764.98193359375 2808.4541015625 2811.092041015625 2861.9697265625 2877.81005859375 2970.00439453125 2853.451171875 2813.73486328125 2802.236083984375 2810.49365234375 2943.553466796875 3087.48779296875 3146.9609375 3121.450439453125 
2829.8349609375 2805.7724609375 2720.671142578125 2635.93310546875 2589.49853515625 2517.3916015625 2483.109130859375 2435.78515625 2389.850341796875 2419.8984375 2369.736572265625 2337.992431640625 2224.0673828125 2124.834716796875 2036.651611328125 1944.607666015625 1987.948974609375 2213.445556640625 2352.317626953125 2402.862548828125 2479.192138671875 2459.47509765625 2521.405517578125 2685.423583984375 2793.3935546875 2808.65380859375 2941.3583984375 3086.785888671875 3316.5302734375 3265.71826171875 3216.91943359375 3166.155029296875 3094.5234375 3005.219482421875 2848.108642578125 2661.06591796875 2533.13525390625 2479.495849609375 2483.922607421875 2440.25927734375 2372.44189453125 2316.9150390625 2292.831298828125 2258.877685546875 2203.407470703125 2190.0673828125 2189.277587890625 2134.043701171875 2067.284912109375 1992.83349609375 1882.5574951171875 1802.5440673828125 1779.2130126953125 1796.5201416015625 1758.4842529296875 1711.544921875 1712.3826904296875 1729.6407470703125 1788.3936767578125 1812.0999755859375 1818.54541015625 1787.643310546875 1743.71484375 1707.1668701171875 1672.533203125 1649.1986083984375 1657.04541015625 1756.8896484375 1870.7103271484375 1954.0074462890625 2045.7220458984375 2233.4541015625 2398.956298828125 2510.70849609375 2518.52880859375 2545.156005859375 2549.77880859375 2539.21630859375 2534.072021484375 2520.05029296875 2481.947509765625 2407.095947265625 2261.710693359375 2197.520263671875 2173.963623046875 2166.57666015625 2126.62353515625 2017.4739990234375 1844.5791015625 1670.3865966796875 1777.4088134765625 1998.7894287109375 2152.677001953125 2367.73193359375 2589.509765625 2786.904296875 2858.165771484375 2897.099365234375 2943.790771484375 2931.425048828125 3011.02880859375 2947.66064453125 2894.549072265625 2840.03759765625 2870.465576171875 2978.754638671875 3170.968994140625 3071.47412109375 2956.114501953125 
2781.395751953125 2703.992919921875 2600.17236328125 2494.951904296875 2462.97607421875 2433.4716796875 2360.278076171875 2294.697998046875 2244.508544921875 2236.400146484375 2232.5009765625 2227.316650390625 2211.112060546875 2087.88525390625 1969.7159423828125 1907.3291015625 2036.1241455078125 2267.34423828125 2457.31689453125 2565.76708984375 2604.61279296875 2589.08154296875 2620.435546875 2730.29443359375 2881.44384765625 2962.9658203125 3021.928955078125 3096.523681640625 3203.782470703125 3266.78076171875 3192.4658203125 3142.642333984375 3084.360595703125 3037.174072265625 2934.783935546875 2747.713134765625 2530.376953125 2438.35498046875 2402.66064453125 2360.182373046875 2300.177490234375 2268.02392578125 2250.25146484375 2235.17822265625 2232.391845703125 2237.522705078125 2243.084716796875 2228.961669921875 2157.3466796875 2084.2900390625 1986.501708984375 1879.0506591796875 1818.3985595703125 1800.7200927734375 1770.978759765625 1780.806396484375 1810.845947265625 1912.3958740234375 1994.177734375 2024.263427734375 2014.115966796875 1989.6629638671875 1945.668212890625 1878.1317138671875 1774.5849609375 1636.595458984375 1594.34716796875 1657.369384765625 1767.2584228515625 1833.0989990234375 1980.520263671875 2147.87353515625 2267.6806640625 2383.53955078125 2353.013427734375 2370.221923828125 2381.034912109375 2370.92578125 2402.134765625 2408.95263671875 2398.34716796875 2374.720458984375 2379.07080078125 2375.601806640625 2376.927734375 2367.450927734375 2287.451904296875 2106.38037109375 1876.4510498046875 1652.885009765625 1720.1297607421875 1891.4490966796875 2083.01123046875 2264.866943359375 2481.0556640625 2667.6787109375 2773.102783203125 2898.702392578125 3016.20263671875 3004.66650390625 3051.779541015625 2999.3466796875 2933.12841796875 2938.693115234375 2947.01611328125 3018.648681640625 3156 2990.2978515625 2938.17529296875 
2697.712158203125 2600.5029296875 2505.060791015625 2390.157470703125 2348.8603515625 2311.68359375 2267.84619140625 2186.39306640625 2114.34033203125 2112.708251953125 2109.530517578125 2085.92724609375 2117.554931640625 2010.19287109375 1885.9014892578125 1916.888427734375 2047.27001953125 2236.7421875 2445.15625 2661.230224609375 2764.086669921875 2757.912109375 2764.388671875 2869.581298828125 2978.260498046875 3091.3466796875 3156.551025390625 3177.6298828125 3245.34375 3298.434326171875 3189.515625 3153.591796875 3076.71728515625 2948.16015625 2846.806396484375 2711.74072265625 2553.848876953125 2467.42138671875 2404.490234375 2364.12744140625 2363.41259765625 2374.779052734375 2371.266357421875 2360.230224609375 2327.860107421875 2304.64111328125 2368.12841796875 2354.6904296875 2258.82275390625 2169.92578125 2096.692138671875 1974.9510498046875 1902.60986328125 1879.333740234375 1850.4256591796875 1873.6119384765625 1948.1263427734375 2050.179931640625 2112.422607421875 2155.04150390625 2180.93603515625 2180.148681640625 2111.659423828125 2019.290771484375 1884.42236328125 1693.1116943359375 1561.84716796875 1557.5364990234375 1630.2738037109375 1717.8651123046875 1871.6578369140625 2013.6630859375 2168.807861328125 2264.52392578125 2201.19091796875 2204.235107421875 2207.8701171875 2235.826416015625 2246.2314453125 2261.56640625 2282.784423828125 2316.8125 2386.484619140625 2432.22509765625 2471.383544921875 2424.129638671875 2267.194091796875 2074.753173828125 1819.66162109375 1607.111328125 1679.6630859375 1872.9564208984375 2092.661865234375 2294.49072265625 2416.149169921875 2499.783447265625 2602.97998046875 2768.9453125 2929.114013671875 3009.6025390625 3071.103515625 3044.984375 3034.927490234375 3017.26416015625 3006.13232421875 3097.59716796875 3206.6943359375 3063.8564453125 3031.07275390625 
2634.07373046875 2525.3935546875 2421.810302734375 2314.506103515625 2238.240478515625 2171.905517578125 2136.93212890625 2090.80029296875 2057.7314453125 2032.8251953125 2009.2137451171875 1979.00341796875 1969.794921875 1887.521240234375 1825.5982666015625 1905.2052001953125 2082.611572265625 2299.8623046875 2499.263427734375 2686.7861328125 2804.44677734375 2857.362548828125 2860.71728515625 2932.69775390625 2978.33740234375 3106.95263671875 3199.7216796875 3260.297119140625 3313.742431640625 3223.978271484375 3137.243408203125 3108.930908203125 3112.787109375 2995.74658203125 2854.716796875 2720.93603515625 2613.06982421875 2549.110107421875 2524.6904296875 2498.525146484375 2474.1689453125 2505.653564453125 2519.285888671875 2505.1484375 2488.921142578125 2449.836181640625 2471.33984375 2410.687744140625 2323.338623046875 2242.345458984375 2172.750244140625 2091.959716796875 2014.8994140625 1984.4501953125 1976.881103515625 2017.196533203125 2070.571533203125 2162.867919921875 2252.004638671875 2330.38671875 2385.227294921875 2351.015380859375 2244.8291015625 2109.09619140625 1970.4608154296875 1771.179443359375 1579.212646484375 1512.866455078125 1541.158203125 1615.136962890625 1747.2958984375 1893.4759521484375 2058.49072265625 2114.37060546875 2060.533935546875 2027.356689453125 2021.369873046875 2066.8779296875 2111.287353515625 2117.413330078125 2143.456298828125 2210.7236328125 2283.40380859375 2361.133544921875 2423.870849609375 2338.909423828125 2210.612548828125 2007.29541015625 1673.383056640625 1538.8060302734375 1616.1949462890625 1857.51806640625 2026.3067626953125 2143.14306640625 2234.84765625 2327.9365234375 2461.202392578125 2629.533935546875 2741.286376953125 2827.309814453125 3009.35009765625 3118.2333984375 3137.824462890625 3096.216796875 3102.7373046875 3207.463623046875 3234.352783203125 3171.74658203125 3042.011962890625 
2527.814453125 2447.009765625 2343.8671875 2238.506591796875 2125.852294921875 2058.273681640625 1989.420654296875 1965.5428466796875 1972.436767578125 1953.1505126953125 1911.48583984375 1882.77587890625 1846.2181396484375 1799.525634765625 1825.5989990234375 1940.6815185546875 2127.745849609375 2316.5771484375 2457.0517578125 2572.58203125 2672.5166015625 2751.089111328125 2833.157470703125 2968.65478515625 3077.04443359375 3152.2587890625 3267.17333984375 3244.412353515625 3213.6884765625 3094.17333984375 2995.3623046875 2944.744384765625 2999.23876953125 3050.087890625 2932.895751953125 2828.518310546875 2754.264404296875 2706.840576171875 2676.11083984375 2640.926025390625 2623.080078125 2661.00244140625 2662.928466796875 2657.59912109375 2609.619384765625 2582.6640625 2548.537109375 2440.302978515625 2355.531982421875 2290.22802734375 2227.7890625 2170.5439453125 2124.829833984375 2105.001953125 2131.4794921875 2162.78759765625 2180.47998046875 2284.64208984375 2406.427734375 2483.90966796875 2497.376708984375 2405.05224609375 2280.18115234375 2127.87451171875 2016.3614501953125 1848.6402587890625 1632.689453125 1505.6014404296875 1488.1519775390625 1539.349853515625 1642.36865234375 1784.6595458984375 1933.1390380859375 1964.6920166015625 1924.650146484375 1863.2330322265625 1852.7508544921875 1916.2889404296875 1969.7269287109375 2000.41015625 2020.3048095703125 2084.21484375 2150.904541015625 2259.95703125 2317.84130859375 2242.95654296875 2075.118896484375 1837.8446044921875 1618.52734375 1514.6842041015625 1615.8187255859375 1764.4930419921875 1900.4521484375 2037.4295654296875 2149.131591796875 2247.931884765625 2358.941650390625 2468.0068359375 2586.925048828125 2727.484375 2905.9462890625 3137.670166015625 3231.533203125 3189.235595703125 3107.382080078125 3065.262451171875 3023.92626953125 3028.384765625 2935.796875 
2411.4892578125 2357.59326171875 2244.350341796875 2160.744873046875 2056.52099609375 1929.68603515625 1872.12646484375 1847.0579833984375 1843.8089599609375 1845.0797119140625 1825.783447265625 1800.1646728515625 1782.584228515625 1807.80712890625 1868.7320556640625 1965.4093017578125 2072.188232421875 2192.030517578125 2322.355712890625 2417.38134765625 2509.074951171875 2597.7841796875 2707.719970703125 2876.19677734375 2971 3084.529052734375 3257.87109375 3206.865966796875 3097.5419921875 3064.029296875 2934.687255859375 2852.31103515625 2889.415771484375 3058.7451171875 3006.366943359375 2976.617431640625 2905.70166015625 2841.177490234375 2799.7802734375 2766.51171875 2781.55322265625 2795.588623046875 2795.305908203125 2771.8251953125 2733.734619140625 2699.88525390625 2595.75634765625 2475.427001953125 2418.826904296875 2359.115234375 2289.360107421875 2256.677001953125 2238.154052734375 2202.529296875 2217.34130859375 2238.747314453125 2256.039306640625 2325.3916015625 2430.430908203125 2555.35107421875 2488.18994140625 2390.608642578125 2269.814697265625 2166.562255859375 2053.205078125 1869.010986328125 1682.2618408203125 1516.029541015625 1470.4691162109375 1471.3280029296875 1526.28564453125 1640.061767578125 1793.9986572265625 1814.080322265625 1768.1748046875 1697.149169921875 1699.5120849609375 1756.927978515625 1817.201416015625 1852.2794189453125 1887.58544921875 1961.06494140625 2058.0068359375 2130.549072265625 2189.362060546875 2193.03955078125 2045.0648193359375 1830.6519775390625 1584.47314453125 1486.0029296875 1646.6806640625 1849.9119873046875 2011.5018310546875 2121.15869140625 2251.981689453125 2340.515625 2435.02490234375 2540.04296875 2628.17919921875 2824.4072265625 2944.317626953125 3121.011962890625 3216.217041015625 3076.363037109375 2974.133056640625 2931.34228515625 2895.528564453125 2862.96728515625 2798.98828125 
2289.369384765625 2258.207275390625 2165.64306640625 2058.52490234375 1947.9876708984375 1841.5709228515625 1793.76904296875 1761.356201171875 1748.2667236328125 1759.0943603515625 1764.64990234375 1791.3790283203125 1856.179443359375 1900.3671875 1952.8782958984375 2075.185546875 2163.889404296875 2265.435791015625 2390.824951171875 2469.188232421875 2492.83447265625 2520.057861328125 2626.622314453125 2754.27490234375 2849.487548828125 2981.82080078125 3139.031982421875 3122.854736328125 3011.18994140625 2938.070068359375 2861.3212890625 2788.6572265625 2828.2822265625 2959.5078125 3063.442626953125 3069.503662109375 3042.20654296875 2968.3876953125 2886.3818359375 2802.317626953125 2784.0986328125 2718.132568359375 2728.9931640625 2774.60107421875 2719.68994140625 2763.383544921875 2647.364013671875 2572.662353515625 2522.228759765625 2409.62109375 2308.33203125 2294.306884765625 2290.54345703125 2273.302734375 2291.202392578125 2296.801025390625 2358.4697265625 2411.575439453125 2472.46533203125 2602.04638671875 2487.003662109375 2379.313232421875 2313.540771484375 2226.05224609375 2068.905517578125 1895.6295166015625 1713.3443603515625 1534.9464111328125 1459.241943359375 1449.26513671875 1443.6942138671875 1479.9964599609375 1583.650146484375 1639.681396484375 1582.4088134765625 1536.1463623046875 1556.266357421875 1588.6954345703125 1651.0816650390625 1692.34619140625 1734.4285888671875 1830.4364013671875 1921.6043701171875 2003.442138671875 2051.244384765625 2051.81787109375 2046.1510009765625 1846.7230224609375 1580.6923828125 1454.8321533203125 1610.79296875 1862.1126708984375 2073.142578125 2256.2265625 2405.2900390625 2512.459228515625 2593.3056640625 2712.311279296875 2707.884521484375 2822.13232421875 2953.070068359375 3097.364501953125 3080.330810546875 2987.349853515625 2965.338134765625 2950.758544921875 2910.695556640625 2831.463134765625 2760.8525390625 
2156.587158203125 2129.78125 2050.08447265625 1943.803466796875 1830.3206787109375 1753.7667236328125 1737.52197265625 1721.114013671875 1755.0928955078125 1798.9619140625 1850.0550537109375 1925.953857421875 2027.761962890625 2091.508544921875 2050.611572265625 2132.8212890625 2322.25390625 2436.329345703125 2568.740234375 2650.519775390625 2626.47900390625 2649.939208984375 2739.350830078125 2776.466064453125 2821.62939453125 2949.718505859375 3047.34765625 2959.815185546875 3002.196044921875 2936.81787109375 2811.49169921875 2740.2666015625 2766.733154296875 2825.46630859375 2985.648193359375 3057.091552734375 3011.599609375 2929.054931640625 2800.702392578125 2753.8154296875 2712.141357421875 2611.4130859375 2565.890625 2622.831298828125 2678.826171875 2810.04345703125 2738.77099609375 2701.52783203125 2592.3740234375 2422.503173828125 2341.195556640625 2335.44482421875 2342.81591796875 2386.593505859375 2380.22314453125 2388.474365234375 2511.628662109375 2567.267822265625 2605.890380859375 2680.589111328125 2596.198974609375 2444.617431640625 2276.6083984375 2143.58935546875 1972.788818359375 1816.29833984375 1691.123291015625 1634.9527587890625 1559.8880615234375 1480.7049560546875 1439.6387939453125 1433.360595703125 1438.95654296875 1445.72802734375 1429.9814453125 1403.99658203125 1431.684814453125 1449.68408203125 1485.8289794921875 1539.90234375 1577.1865234375 1639.2781982421875 1746.5953369140625 1838.86865234375 1861.0142822265625 1870.3382568359375 1911.3240966796875 1782.4710693359375 1569.9071044921875 1414.5413818359375 1602.731201171875 1834.8675537109375 2001.036376953125 2163.10107421875 2357.78369140625 2549.48681640625 2692.03759765625 2806.4912109375 2805.71044921875 2866.8505859375 3005.734130859375 3138.552734375 3042.170166015625 2993.604248046875 3007.366943359375 3007.7275390625 2961.07177734375 2870.024169921875 2761.357421875 
2044.332763671875 1998.9639892578125 1923.8631591796875 1812.3209228515625 1720.3387451171875 1699.60888671875 1735.0511474609375 1807.9700927734375 1893.45703125 1945.9522705078125 1978.305908203125 2094.884521484375 2161.965087890625 2252.86962890625 2152.70556640625 2107.387451171875 2276.682861328125 2476.326416015625 2605.561279296875 2717.066162109375 2748.12548828125 2799.638427734375 2838.13818359375 2823.34423828125 2943.136474609375 3020.94287109375 2985.09716796875 2871.6240234375 2852.908447265625 2882.115966796875 2750.748291015625 2683.91455078125 2706.2607421875 2741.0673828125 2855.664306640625 2925.42431640625 2865.0283203125 2843.270751953125 2751.634033203125 2639.526123046875 2575.561767578125 2538.029296875 2517.519287109375 2558.642822265625 2695.582763671875 2870.958984375 2875.14501953125 2740.198974609375 2587.21337890625 2431.34228515625 2407.319091796875 2405.482421875 2451.85693359375 2542.93798828125 2517.537353515625 2540.597412109375 2644.348876953125 2683.51318359375 2656.8369140625 2568.3505859375 2527.888671875 2392.2578125 2198.6298828125 2013.36669921875 1868.951416015625 1769.90673828125 1789.4521484375 1792.797119140625 1705.462158203125 1623.5806884765625 1544.109619140625 1506.5145263671875 1474.77978515625 1445.61376953125 1445.265869140625 1418.236572265625 1384.5872802734375 1358.071044921875 1337.732666015625 1362.48681640625 1392.3162841796875 1467.39892578125 1583.52392578125 1642.544189453125 1659.3326416015625 1705.2532958984375 1749.9442138671875 1627.552734375 1474.51123046875 1392.8653564453125 1605.0516357421875 1867.34326171875 2086.817626953125 2256.60498046875 2385.988525390625 2534.234375 2658.9580078125 2749.2333984375 2737.189453125 2805.408935546875 2899.30029296875 3046.5673828125 3030.482177734375 3047.838134765625 3124.225341796875 3088.5478515625 2973.25146484375 2853.53125 2727.229736328125 
1964.8804931640625 1876.6922607421875 1811.43115234375 1715.671630859375 1691.0184326171875 1757.136962890625 1864.5850830078125 1968.806396484375 2078.549560546875 2124.309326171875 2101.836181640625 2230.4423828125 2311.139892578125 2366.825927734375 2247.512451171875 2136.658203125 2216.12548828125 2361.27392578125 2480.25048828125 2636.8232421875 2782.008544921875 2866.09130859375 2901.750244140625 2919.5908203125 3058.024658203125 3058.872314453125 2896.177001953125 2786.722900390625 2759.427001953125 2732.7724609375 2662.859619140625 2639.95703125 2659.74462890625 2652.636962890625 2701.56640625 2751.644775390625 2779.216064453125 2711.423828125 2705.853271484375 2628.230224609375 2506.937255859375 2447.872314453125 2462.427490234375 2622.71533203125 2824.84033203125 2934.43408203125 2857.057861328125 2667.30615234375 2539.503662109375 2495.461181640625 2497.240966796875 2522.8017578125 2605.802490234375 2696.90625 2687.771484375 2713.824951171875 2647.625732421875 2575.8505859375 2510.3974609375 2441.92919921875 2352.248046875 2275.828369140625 2168.8974609375 1921.0999755859375 1827.7889404296875 1855.9886474609375 1923.52197265625 1904.9901123046875 1834.1474609375 1757.634521484375 1681.90478515625 1631.3563232421875 1639.822265625 1606.521240234375 1559.5667724609375 1573.8092041015625 1578.1060791015625 1497.4908447265625 1419.776611328125 1343.6429443359375 1298.50439453125 1311.5924072265625 1394.053955078125 1451.10498046875 1479.685546875 1542.8583984375 1603.374267578125 1477.52783203125 1347.2786865234375 1411.1541748046875 1618.4349365234375 1868.9105224609375 2060.25146484375 2274.283935546875 2469.1796875 2502.1123046875 2494.109130859375 2529.232666015625 2533.98486328125 2599.406494140625 2741.61865234375 2925.38134765625 3076.6884765625 3070.45654296875 3053.893310546875 3048.0712890625 2974.42919921875 2889.7509765625 2784.676025390625 
1857.2384033203125 1798.717529296875 1710.044189453125 1658.95751953125 1720.8189697265625 1862.760498046875 1983.590576171875 2135.79833984375 2248.51220703125 2301.3037109375 2256.329833984375 2367.097412109375 2484.312744140625 2455.48095703125 2330.61083984375 2206.35107421875 2172.044677734375 2263.261474609375 2404.08203125 2556.0322265625 2671.059814453125 2764.418212890625 2933.0859375 2998.37451171875 3040.9951171875 2954.552734375 2854.80029296875 2759.048583984375 2696.427001953125 2670.76025390625 2612.2080078125 2612.476806640625 2613.748046875 2547.808837890625 2532.1650390625 2584.424072265625 2650.72607421875 2590.149658203125 2580.232177734375 2554.547119140625 2446.256103515625 2409.838623046875 2437.716796875 2648.317138671875 2844.48095703125 2963.170654296875 2813.809326171875 2713.880615234375 2642.864990234375 2617.324462890625 2633.08935546875 2680.270751953125 2761.664306640625 2842.993408203125 2805.26318359375 2687.020751953125 2572.3193359375 2498.7421875 2415.152587890625 2354.865234375 2247.259521484375 2113.041748046875 1974.3118896484375 1856.538818359375 1896.334228515625 2016.9622802734375 2081.0302734375 2033.910400390625 1978.5863037109375 1893.3948974609375 1762.937255859375 1792.397705078125 1802.314453125 1759.7098388671875 1697.1226806640625 1752.4927978515625 1753.2296142578125 1669.67822265625 1550.2047119140625 1468.6883544921875 1363.68994140625 1294.4854736328125 1282.1038818359375 1273.087158203125 1307.2747802734375 1360.205322265625 1419.0875244140625 1314.0626220703125 1321.079833984375 1494.4532470703125 1678.1796875 1913.9368896484375 2076.792724609375 2266.990478515625 2313.58251953125 2274.86474609375 2285.503173828125 2327.85986328125 2341.39404296875 2491.9189453125 2670.709716796875 2798.977294921875 2973.831298828125 2910.046142578125 2857.25146484375 2985.025146484375 2989.001953125 2924.612060546875 2821.96484375 
