ncols        32
nrows        30
xllcorner    630800.000000000000
yllcorner    5180500.000000000000
cellsize     500.000000000000
NODATA_value -9999
2325.47900390625 2128.084228515625 1938.2955322265625 1975.7449951171875 2251.543701171875 2506.001708984375 2698.48876953125 2832.439697265625 2967.831298828125 2966.28759765625 2816.777099609375 2721.93310546875 2742.0751953125 2933.0869140625 2926.5361328125 2758.56982421875 2768.1640625 2861.1845703125 2983.22900390625 3194.452392578125 3221.98095703125 3207.42822265625 3237.73486328125 3350.339599609375 3351.3671875 3217.828369140625 3129.6005859375 3092.1953125 3140.441650390625 3075.5458984375 2870.341552734375 2783.372314453125 
2354.204345703125 2197.1298828125 2014.969482421875 2011.6553955078125 2294.923828125 2530.738037109375 2704.942626953125 2903.833251953125 3047.993896484375 3036.08837890625 2921.9228515625 2920.677978515625 2902.711181640625 2993.196533203125 3036.066162109375 3010.252685546875 3092.495361328125 3198.345703125 3263.201904296875 3349.387451171875 3340.820068359375 3337.106201171875 3423.715087890625 3488.761962890625 3407.28369140625 3248.7392578125 3184.075439453125 3151.242431640625 3231.6064453125 3142.211181640625 3015.07080078125 2906.649169921875 
2243.525390625 2173.82861328125 2031.7391357421875 2039.048583984375 2347.651611328125 2616.70947265625 2830.0322265625 2976.0244140625 3084.59765625 3069.274169921875 3101.481689453125 3178.658935546875 3138.790283203125 3210.882080078125 3207.048828125 3200.1279296875 3210.20068359375 3245.797119140625 3340.483154296875 3412.6376953125 3451.54150390625 3462.919677734375 3589.856201171875 3543.271728515625 3364.8798828125 3262.473876953125 3196.9501953125 3076.15966796875 3113.10595703125 2943.033203125 2808.01123046875 2691.489501953125 
2239.925048828125 2245.853759765625 2125.19189453125 2060.769287109375 2260.10595703125 2485.382568359375 2693.1728515625 2792.28173828125 2903.0546875 2962.484130859375 3031.628173828125 3281.55859375 3335.278076171875 3234.680419921875 3189.774658203125 3150.99365234375 3119.09326171875 3155.623046875 3252.240234375 3325.853759765625 3372.254638671875 3337.73193359375 3435.322998046875 3435.546142578125 3308.202392578125 3173.748291015625 3115.232666015625 2987.129638671875 2937.73779296875 2782.37646484375 2574.3525390625 2439.766357421875 
2398.23046875 2499.241455078125 2347.47705078125 2157.401123046875 2167.440673828125 2341.991455078125 2465.037841796875 2579.98291015625 2735.81103515625 2902.970947265625 3096.438720703125 3365.566162109375 3385.416748046875 3201.711669921875 3100.25244140625 3048.392578125 3040.230712890625 3074.820068359375 3166.57373046875 3289.044677734375 3342.93896484375 3171.5576171875 3112.695556640625 3164.606201171875 3207.24462890625 3024.552978515625 2952.132080078125 2905.997802734375 2757.568115234375 2560.657470703125 2344.33251953125 2208.127197265625 
2529.802001953125 2652.59375 2517.67041015625 2310.89697265625 2166.33740234375 2225.67578125 2356.580078125 2476.44921875 2661.921142578125 2928.206298828125 3232.464599609375 3316.834228515625 3261.49560546875 3157.472412109375 3034.708251953125 2964.224853515625 2970.125 3015.602294921875 3113.412353515625 3258.254638671875 3387.195556640625 3190.896240234375 2996.296875 2959.1162109375 3007.6279296875 2836.13623046875 2828.568603515625 2803.31494140625 2603.9326171875 2372.814453125 2171.8369140625 2039.8487548828125 
2599.978759765625 2734.28466796875 2619.87060546875 2447.71533203125 2318.144287109375 2412.8798828125 2594.68994140625 2639.295654296875 2665.968994140625 2886.545654296875 3147.919677734375 3224.8759765625 3154.09716796875 3048.12060546875 2940.443115234375 2870.1015625 2885.226318359375 2973.27587890625 3071.997314453125 3251.33056640625 3267.544677734375 3137.720703125 2947.2646484375 2834.9033203125 2837.70068359375 2707.786376953125 2666.35986328125 2622.459228515625 2460.274169921875 2240.0322265625 2014.407958984375 1932.2822265625 
2665.86083984375 2737.2314453125 2621.4853515625 2536.52783203125 2499.5615234375 2700.940185546875 2835.9443359375 2806.712646484375 2784.20458984375 2861.77294921875 3037.003662109375 3158.0087890625 3148.58251953125 3037.841796875 2948.7421875 2840.319580078125 2781.306884765625 2891.552734375 2992.274658203125 3198.561279296875 3147.107666015625 3026.31640625 2921.306884765625 2734.03369140625 2629.30419921875 2558.91650390625 2481.535400390625 2456.2431640625 2343.23583984375 2141.707763671875 1944.3082275390625 2031.70654296875 
2769.347412109375 2807.769775390625 2747.617431640625 2728.273193359375 2700.94091796875 2840.73193359375 2898.919189453125 2868.314208984375 2838.124755859375 2895.891357421875 3026.362548828125 3247.228759765625 3242.45263671875 3145.065673828125 3109.252685546875 2906.537353515625 2737.0791015625 2769.81298828125 2915.3369140625 3107.6865234375 3024.2470703125 2875.52734375 2754.658447265625 2566.343994140625 2386.8857421875 2286.98681640625 2221.694580078125 2176.18798828125 2126.9912109375 1998.1693115234375 1959.7567138671875 2159.0546875 
2889.315185546875 2970.106689453125 2985.56689453125 2973.454833984375 2930.41357421875 2947.71484375 2933.466064453125 2909.27294921875 2907.425537109375 3037.599609375 3197.244384765625 3342.293212890625 3224.289794921875 3081.453857421875 3072.456298828125 2974.88037109375 2747.593505859375 2656.043212890625 2759.369873046875 2926.554443359375 2914.446533203125 2739.22412109375 2512.811279296875 2341.931640625 2181.493896484375 2087.919189453125 2056.843994140625 2039.8287353515625 2018.03857421875 1993.434814453125 2026.5697021484375 2224.572509765625 
3059.905517578125 3175.056884765625 3134.7724609375 3051.554931640625 3006.891357421875 2978.29345703125 2959.00732421875 2948.594482421875 3016.35595703125 3198.566650390625 3280.629638671875 3287.2568359375 3221.655029296875 3060.9052734375 2929.91650390625 2879.45263671875 2737.896728515625 2614.832275390625 2592.5078125 2675.96484375 2729.1572265625 2576.1044921875 2361.03759765625 2176.5791015625 2149.52587890625 2249.1884765625 2272.999755859375 2303.0576171875 2289.48779296875 2200.329345703125 2055.985107421875 2229.003173828125 
3346.536376953125 3297.707275390625 3177.4912109375 3099.29150390625 3036.2841796875 3009.316162109375 3015.729736328125 3026.6806640625 3157.696044921875 3280.08935546875 3237.508056640625 3215.697265625 3236.4775390625 3092.417724609375 2899.946044921875 2813.865478515625 2777.030029296875 2730.35498046875 2588.669921875 2504.912353515625 2572.872314453125 2495.3642578125 2279.690185546875 2213.621826171875 2403.8203125 2549.18896484375 2595.93310546875 2640.7099609375 2573.433349609375 2309.73291015625 2089.197265625 2267.242431640625 
3427.99755859375 3330.546630859375 3221.582763671875 3146.503662109375 3095.44580078125 3068.930908203125 3071.724365234375 3100.751953125 3177.544677734375 3225.010986328125 3200.40576171875 3158.41552734375 3142.352783203125 3082.31591796875 2974.7578125 2914.336669921875 2906.78564453125 2879.426025390625 2694.885009765625 2489.404052734375 2389.833251953125 2328.656005859375 2219.632080078125 2434.7080078125 2645.483154296875 2765.14599609375 2874.115966796875 2837.255126953125 2634.51904296875 2310.41796875 2114.544677734375 2317.45166015625 
3321.493896484375 3368.06884765625 3291.620361328125 3212.143310546875 3161.50390625 3132.742919921875 3141.719482421875 3157.802978515625 3196.647705078125 3241.63232421875 3223.027099609375 3127.657470703125 3075.425537109375 3019.428955078125 2977.694091796875 3006.0869140625 3023.07080078125 2938.878662109375 2773.512451171875 2509.458251953125 2273.11181640625 2234.218994140625 2440.5703125 2699.349365234375 2823.561767578125 2945.330078125 3088.65185546875 2915.436279296875 2614.83349609375 2277.771728515625 2148.88330078125 2376.01416015625 
3083.37890625 3285.876708984375 3272.432373046875 3217.18603515625 3174.6572265625 3160.65673828125 3176.44287109375 3210.72412109375 3239.376953125 3281.34521484375 3280.33984375 3167.60498046875 3088.254638671875 2952.361083984375 2812.327392578125 2811.36328125 2898.4443359375 2851.623779296875 2709.315185546875 2460.740478515625 2252.606201171875 2409.85302734375 2745.4892578125 2942.17626953125 2969.39111328125 3113.6005859375 3177.362548828125 2860.464111328125 2541.535400390625 2224.072021484375 2223.919921875 2381.35009765625 
2858.82958984375 3075.493408203125 3147.421142578125 3149.08349609375 3129.16845703125 3163.872802734375 3225.36767578125 3283.19677734375 3314.3984375 3323.51171875 3240.438232421875 3141.84619140625 3049.111572265625 2924.775634765625 2748.77783203125 2620.903564453125 2666.238525390625 2639.00048828125 2493.568359375 2320.052734375 2328.93896484375 2582.957275390625 2914.160888671875 3098.036865234375 3094.08935546875 3185.212646484375 3072.806396484375 2737.3544921875 2408.729248046875 2207.79833984375 2387.501220703125 2589.58642578125 
2630.248046875 2745.421142578125 2830.578125 3011.010009765625 3080.78515625 3180.712158203125 3294.572509765625 3354.240966796875 3314.8916015625 3222.2294921875 3064.1826171875 2947.8232421875 2819.197998046875 2677.56640625 2524.661376953125 2435.494140625 2429.046142578125 2408.504150390625 2341.8564453125 2383.1279296875 2530.944091796875 2721.6337890625 2977.69140625 3178.227783203125 3148.68896484375 3106.1044921875 2912.107177734375 2611.849853515625 2301.846923828125 2309.418701171875 2614.783447265625 2839.52099609375 
2581.6435546875 2619.535888671875 2681.634033203125 2839.493896484375 3044.08837890625 3214.11767578125 3331.8271484375 3325.565673828125 3171.29345703125 3029.07861328125 2914.55224609375 2769.977783203125 2592.52978515625 2484.806396484375 2504.23291015625 2540.952392578125 2513.230712890625 2430.450927734375 2457.66748046875 2596.0791015625 2732.901123046875 2856.96630859375 3005.611083984375 3219.2373046875 3134.715087890625 2978.040283203125 2772.1123046875 2493.42431640625 2278.511474609375 2482.376953125 2812.452392578125 3015.220947265625 
2705.350830078125 2760.24169921875 2758.06640625 2822.100341796875 2978.03369140625 3217.671630859375 3270.759033203125 3179.554443359375 3048.3408203125 2898.71435546875 2742.755126953125 2593.579833984375 2541.20361328125 2641.923095703125 2759.994873046875 2806.2275390625 2702.99755859375 2544.154052734375 2641.555908203125 2768.020751953125 2848.36328125 2966.470947265625 3106.425537109375 3239.896484375 3196.299072265625 3034.568359375 2784.581298828125 2431.910888671875 2343.384765625 2601.45654296875 2919.041748046875 3151.774658203125 
2824.547119140625 2931.6240234375 2930.7138671875 2960.1337890625 3067.33154296875 3168.608642578125 3093.78076171875 2997.456787109375 2893.468505859375 2749.10498046875 2628.852294921875 2626.3193359375 2738.645263671875 2870.86083984375 2928.06005859375 2830.189453125 2618.017333984375 2592.44873046875 2754.892333984375 2880.6337890625 2954.859619140625 3046.1318359375 3180.39111328125 3120.148193359375 3022.692138671875 2937.58837890625 2715.92626953125 2397.25732421875 2443.029052734375 2746.3154296875 2976.52099609375 3142.09130859375 
2982.9072265625 3161.587158203125 3145.581298828125 3100.8681640625 3236.91162109375 3268.375244140625 3146.081787109375 3004 2791.4365234375 2700.826171875 2709.643798828125 2815.2705078125 2951.310546875 3008.123779296875 2921.120849609375 2721.736328125 2592.372314453125 2707.123046875 2855.425048828125 2941.70703125 3067.303466796875 3203.504150390625 3137.834228515625 2991.776611328125 2887.443359375 2781.5439453125 2580.411865234375 2368.6904296875 2502.827880859375 2713.90869140625 2812.5595703125 2828.043212890625 
3248.578857421875 3353.368408203125 3312.80712890625 3234.051513671875 3337.70166015625 3300.9716796875 3117.8447265625 2925.875244140625 2776.21630859375 2772.97607421875 2896.736328125 3041.562744140625 3097.132080078125 3001.115478515625 2862.85400390625 2669.770751953125 2654.097412109375 2803.748291015625 2928.320068359375 3036.115478515625 3137.857666015625 3207.59130859375 3057.0703125 2871.032958984375 2727.716796875 2608.52197265625 2502.827880859375 2373.844482421875 2444.551513671875 2522.561767578125 2573.663330078125 2584.28857421875 
3393.126708984375 3508.43310546875 3459.29443359375 3292.51416015625 3209.205810546875 3156.29638671875 3053.86376953125 2903.369140625 2817.3994140625 2877.859375 3081.969970703125 3174.9609375 3093.107666015625 2968.30322265625 2822.11328125 2670.528564453125 2725.53466796875 2870.3056640625 2983.203369140625 3066.170166015625 3184.776123046875 3149.399169921875 2956.556396484375 2750.400390625 2629.11376953125 2655.7705078125 2621.60693359375 2456.968505859375 2579.236328125 2726.83740234375 2824.601318359375 2830.220947265625 
3310.299560546875 3487.92724609375 3464.541015625 3266.1220703125 3126.669677734375 3038.66552734375 2954.91552734375 2898.45068359375 2908.798095703125 3033.757568359375 3165.82177734375 3145.488037109375 3041.2900390625 2921.13427734375 2758.099853515625 2708.885009765625 2821.177490234375 2954.93115234375 3053.07470703125 3134.572998046875 3196.303466796875 3049.391845703125 2863.809326171875 2685.373046875 2747.319091796875 2795.46484375 2615.7099609375 2615.33935546875 2780.55078125 2920.117919921875 3078.082763671875 3075.222900390625 
3191.322998046875 3379.23193359375 3388.3203125 3269.63037109375 3153.034423828125 3062.386474609375 3013.564208984375 3027.801513671875 3094.021728515625 3081.35546875 3022.138427734375 3016.666259765625 2937.1142578125 2817.69775390625 2751.690673828125 2801.52001953125 2945.249267578125 3088.646728515625 3138.353515625 3194.702880859375 3252.6962890625 3054.8232421875 2844.298095703125 2751.1044921875 2898.20166015625 2770.518798828125 2685.76904296875 2857.88134765625 3057.300048828125 3166.12890625 3199.590087890625 3073.53759765625 
3084.794921875 3223.03369140625 3280.961669921875 3163.80908203125 3068.11376953125 3039.854248046875 3069.18212890625 3070.015380859375 3020.765869140625 2911.922607421875 2791.716796875 2830.4599609375 2820.503662109375 2781.49365234375 2818.59423828125 2906.06787109375 3078.6591796875 3219.5166015625 3254.011962890625 3220.631103515625 3130.980224609375 3009.7841796875 2851.63232421875 2887.78515625 2977.09912109375 2793.19873046875 2812.317138671875 2989.5625 3181.415771484375 3355.856201171875 3333.068603515625 3197.52294921875 
3035.931640625 3146.931884765625 3214.326416015625 3081.021728515625 2933.606201171875 2824.69189453125 2805.58935546875 2864.0048828125 2851.19873046875 2757.63720703125 2644.047607421875 2694.574462890625 2795.898193359375 2872.56884765625 2917.4208984375 3049.177490234375 3170.614501953125 3323.233154296875 3280.32470703125 3162.77392578125 3099.623779296875 2960.873046875 2874.7734375 2975.294189453125 3036.453857421875 2903.654541015625 2944.222412109375 3066.5009765625 3168.49853515625 3254.501220703125 3332.859375 3346.18359375 
3106.22607421875 3147.9541015625 3224.21484375 3161.676025390625 2959.484130859375 2828.097412109375 2698.05517578125 2622.462646484375 2695.841064453125 2611.459716796875 2514.38232421875 2702.93603515625 2978.12255859375 3011.5224609375 3024.51123046875 3194.021728515625 3298.99853515625 3309.6328125 3092.7158203125 2946.66943359375 2967.42041015625 2994.367431640625 2973.23876953125 3105.645751953125 3146.970458984375 3024.549072265625 3045.4677734375 3162.9091796875 3201.06103515625 3307.233154296875 3426.221923828125 3334.29638671875 
2963.039794921875 3011.629638671875 3211.412353515625 3178.9306640625 2916.835205078125 2753.42041015625 2628.339599609375 2502.008544921875 2581.197509765625 2542.335693359375 2430.520263671875 2652.511962890625 3046.973876953125 3107.534912109375 3081.080322265625 3086.7236328125 3139.264892578125 3182.016845703125 2959.96875 2788.722900390625 2721.029541015625 2882.307861328125 3074.328857421875 3201.51123046875 3270.53759765625 3184.83837890625 3203.4501953125 3351.30224609375 3379.231201171875 3379.4541015625 3267.193359375 3089.352783203125 
2821.93115234375 2974.560791015625 3168.40966796875 3054.378662109375 2896.37744140625 2682.30126953125 2528.994140625 2370.64501953125 2434.30224609375 2389.989013671875 2314.172119140625 2534.7646484375 2894.763671875 3026.33837890625 2962.650146484375 2850.996826171875 2901.71533203125 3064.290771484375 2936.46240234375 2680.02978515625 2583.31591796875 2761.04638671875 3090.59228515625 3236.34326171875 3319.2978515625 3398.61279296875 3333.87841796875 3349.903076171875 3325.557861328125 3239.604248046875 3055.97412109375 2915.876220703125 
