ncols        109
nrows        108
xllcorner    625080.348754761741
yllcorner    5174399.999877895229
cellsize     250.000000000000
NODATA_value -9999
5.0 5 4 4 5 5 5 5 5 5 5 5 1 1 5 5 5 5 5 5 5 5 5 5 5 10 10 12 12 3 11 12 12 4 5 5 5 5 5 1 1 5 1 1 2 1 1 5 5 5 5 1 1 5 5 5 5 5 5 5 5 5 10 4 4 7 7 10 7 10 10 10 4 4 4 4 5 10 5 5 5 5 1 1 5 1 1 5 5 5 5 5 1 5 5 5 5 5 1 5 5 5 5 5 4 4 12 12 12 
5 5 4 6 5 5 5 5 5 1 1 1 5 1 1 5 5 5 5 5 5 5 5 5 5 5 10 10 12 3 3 12 8 4 5 5 5 5 5 5 5 1 1 1 1 1 1 5 5 5 5 1 1 5 5 5 5 5 5 5 10 4 7 4 7 4 10 10 5 5 5 5 7 7 4 7 10 10 5 4 5 5 5 5 1 2 5 5 5 5 5 5 5 5 5 5 5 5 5 5 5 5 5 5 5 5 10 12 12 
5 5 5 7 4 5 5 5 5 5 5 1 1 5 5 5 1 1 1 1 5 5 5 5 5 5 10 12 12 3 3 12 12 10 5 5 5 5 5 1 1 1 5 1 1 1 1 5 5 1 1 1 1 5 5 1 5 5 5 5 5 5 4 7 7 10 4 10 5 5 5 5 10 7 10 6 4 4 5 5 5 5 5 5 5 5 5 5 5 1 5 5 5 5 1 5 5 1 1 1 1 5 5 5 13 5 10 12 12 
5 5 5 7 4 5 5 5 5 5 1 1 1 1 1 1 1 1 5 5 5 5 5 5 5 4 10 12 12 3 7 12 12 7 10 5 5 5 5 1 5 1 1 1 1 1 1 1 1 1 1 1 5 5 1 5 5 5 5 5 10 5 7 4 7 10 4 5 5 5 5 5 4 10 10 4 5 5 5 5 5 1 1 2 2 5 5 5 1 5 6 1 1 1 2 2 5 1 1 1 1 5 5 5 5 4 4 5 5 
5 5 5 5 5 5 5 6 5 5 1 1 5 5 1 1 5 5 5 5 5 5 5 5 5 10 10 12 12 3 13 12 12 10 4 4 5 5 5 5 5 5 1 1 2 2 2 1 1 1 1 5 5 5 5 5 5 5 5 5 5 4 3 7 4 10 5 5 5 5 5 5 5 4 7 5 5 5 5 5 5 5 5 1 1 5 1 1 3 1 5 5 1 1 1 5 5 5 1 5 5 5 5 5 5 5 4 6 4 
5 5 5 5 5 4 5 6 5 5 5 1 1 5 5 5 5 5 1 5 5 5 5 5 5 5 7 12 12 3 8 12 10 8 4 5 5 5 5 5 5 5 1 1 1 1 5 1 1 1 5 5 5 5 5 5 5 10 10 5 4 4 4 7 4 10 5 5 1 1 5 5 5 5 4 4 5 5 5 5 5 5 5 1 5 1 1 2 2 1 2 5 5 1 5 1 5 5 5 5 5 5 5 5 5 5 5 5 12 
5 5 5 5 5 5 5 5 5 5 1 1 5 5 5 5 5 5 5 5 5 5 5 5 5 5 12 12 12 3 3 12 11 4 4 4 5 1 5 5 5 5 5 1 1 1 1 5 5 1 5 1 1 5 5 5 10 5 10 7 10 4 4 10 4 5 5 5 1 5 5 5 5 5 5 5 1 5 5 5 5 5 5 1 5 5 2 2 2 2 2 5 5 1 1 1 1 5 5 5 5 5 5 5 5 7 5 4 12 
5 5 5 5 5 5 5 5 5 5 5 2 5 5 5 5 5 5 5 5 5 5 5 4 4 4 9 12 12 3 3 12 10 12 5 5 5 5 5 5 5 1 1 1 1 1 1 1 1 5 1 1 5 5 5 5 10 10 10 4 4 5 10 10 5 5 5 5 5 5 5 5 5 5 5 5 5 5 1 5 5 1 2 2 1 2 2 2 2 2 2 5 5 1 1 5 5 5 5 5 5 5 5 10 5 4 4 12 12 
5 5 5 5 5 5 5 1 5 5 5 1 5 5 5 5 5 5 5 5 5 5 5 5 4 4 4 4 12 3 3 11 12 10 5 4 5 5 5 5 5 5 1 5 1 2 2 1 1 1 5 5 5 5 5 5 10 10 4 6 5 10 10 10 5 5 5 1 1 1 1 1 5 1 5 5 5 5 1 5 1 2 2 2 2 1 2 2 2 1 5 1 5 1 5 5 5 5 5 5 5 5 7 5 10 4 4 12 12 
5 5 5 5 5 5 1 1 5 5 5 5 5 5 5 5 5 5 5 5 5 5 5 5 4 4 10 10 3 3 3 9 8 4 4 5 5 5 5 5 5 5 5 5 5 1 1 1 1 1 5 5 5 5 5 5 5 4 3 4 7 10 5 5 5 1 1 1 1 1 1 1 1 5 5 5 5 5 2 1 1 5 2 2 2 2 2 2 1 1 1 5 5 5 5 5 5 5 5 5 5 10 7 9 12 12 8 12 7 
5 1 1 5 1 5 1 1 1 5 1 1 5 5 5 5 5 5 5 5 5 5 5 7 7 7 12 12 3 3 3 4 4 4 5 5 5 5 5 5 5 1 2 5 1 1 2 1 1 1 1 7 5 5 5 5 4 4 4 7 10 5 5 1 5 5 1 1 5 2 1 1 1 5 5 5 1 2 2 1 5 5 2 2 2 2 2 2 2 5 1 1 5 5 5 5 5 5 5 5 10 10 10 7 12 12 12 12 12 
5 1 1 5 5 1 1 1 1 5 1 1 1 5 5 5 5 5 5 5 4 7 6 7 7 9 12 12 3 3 3 9 10 7 5 5 5 5 5 1 1 1 2 2 5 2 1 1 5 5 7 4 4 4 7 7 4 4 10 7 5 5 5 5 5 1 1 5 1 2 2 1 1 5 5 5 1 2 2 1 5 2 2 2 1 1 1 2 5 5 5 5 5 5 5 5 5 5 5 5 5 10 7 10 12 3 11 7 11 
5 5 5 5 5 1 5 1 1 1 5 5 5 1 5 5 5 5 13 7 7 1 7 5 10 10 12 12 3 3 7 4 7 5 5 5 5 1 1 1 1 1 1 1 2 2 2 1 1 1 5 5 4 4 7 7 1 4 5 5 5 5 1 5 1 2 2 2 2 2 1 1 5 6 13 1 2 2 2 5 5 2 2 2 2 2 1 1 5 1 1 5 13 5 5 10 5 5 5 5 5 7 5 7 7 7 12 4 10 
5 5 5 5 5 1 1 5 1 1 1 5 5 5 5 5 4 1 7 1 5 5 5 10 10 5 12 12 3 3 12 10 10 5 5 5 5 5 5 1 5 1 2 1 2 2 1 1 5 1 1 5 5 5 5 4 6 4 10 5 1 5 5 5 1 2 1 2 2 2 1 1 6 5 6 1 2 2 2 1 5 1 2 2 2 2 2 2 2 3 5 5 5 5 5 5 5 5 5 7 5 12 10 7 4 11 8 9 7 
5 5 5 5 5 1 5 5 1 5 5 5 5 5 5 5 5 1 1 5 5 5 5 5 5 5 10 12 3 3 12 12 4 5 5 5 5 5 1 5 1 2 2 1 2 2 5 1 2 1 5 5 5 5 5 7 1 4 5 5 5 5 1 1 5 2 2 2 2 1 1 1 1 5 1 1 2 2 2 2 1 5 2 2 2 2 2 2 2 1 5 5 5 5 5 5 5 5 5 5 10 10 11 4 12 12 11 11 5 
5 5 5 5 5 5 5 5 5 5 5 5 5 5 5 5 5 4 5 5 5 5 5 5 5 5 4 12 3 3 7 12 4 5 5 5 5 5 5 5 1 1 2 1 2 2 5 5 2 1 5 5 5 5 1 1 1 5 5 5 5 1 1 1 1 1 2 2 1 1 2 2 1 1 1 1 2 2 2 2 2 1 2 2 1 1 2 2 2 1 5 5 5 5 5 5 5 5 5 5 10 12 4 11 11 12 12 10 5 
5 5 5 5 1 5 5 5 5 5 5 5 5 5 5 5 5 5 5 5 5 5 5 5 5 4 12 7 7 3 12 12 5 5 4 5 5 5 1 1 1 2 2 1 2 1 1 5 1 5 5 5 5 1 4 1 5 10 5 5 5 1 5 1 2 1 2 2 1 2 2 1 2 2 2 1 1 2 2 2 2 2 2 2 1 1 1 5 1 5 5 5 5 5 5 5 5 5 5 5 12 7 4 7 12 12 4 5 5 
5 5 5 1 5 5 5 5 5 5 4 5 5 5 5 5 5 5 5 5 5 5 5 5 5 4 4 12 3 3 9 12 4 5 5 5 1 1 5 5 5 5 2 1 1 5 1 1 5 5 5 5 4 1 1 5 1 10 5 5 5 2 1 1 1 1 1 1 2 2 2 2 2 2 1 1 1 2 2 2 2 1 5 1 5 1 1 5 5 5 5 5 5 4 7 5 5 5 5 12 7 4 12 12 4 10 10 5 5 
5 5 5 5 1 5 5 5 1 5 5 5 5 5 1 5 5 5 5 5 5 5 5 5 5 5 7 7 3 3 7 7 10 5 5 5 1 5 5 5 5 5 2 1 1 1 5 5 5 5 5 1 1 4 5 5 5 5 5 5 5 1 5 1 1 1 1 2 1 2 2 2 2 2 1 5 1 2 2 2 2 2 2 1 1 5 5 5 5 5 5 5 5 7 1 7 4 5 5 7 13 3 12 12 4 7 5 5 1 
5 5 5 5 1 5 1 1 1 5 1 1 5 5 5 1 5 5 5 5 5 5 5 5 5 5 7 12 7 7 9 7 5 5 5 5 5 5 5 5 1 2 2 1 1 1 5 5 5 5 4 1 1 5 5 5 5 5 5 5 5 5 5 1 5 1 5 1 2 2 2 2 2 1 1 1 5 2 2 2 2 2 5 1 1 1 5 5 5 5 5 5 5 4 7 7 4 12 7 4 4 7 8 11 7 4 5 5 1 
5 5 1 5 5 5 5 5 5 1 1 1 1 5 5 1 5 5 5 5 5 5 5 5 5 5 4 7 7 4 4 12 5 5 5 5 5 1 5 5 1 1 2 1 1 1 5 5 5 5 1 1 5 5 5 1 1 5 5 5 5 5 5 2 2 2 2 2 1 1 2 2 2 2 2 1 2 2 2 2 2 2 1 1 5 5 5 5 5 5 5 5 5 5 5 7 10 4 12 12 4 12 9 9 10 4 5 5 5 
5 5 5 5 5 5 1 1 1 1 1 1 1 1 5 5 1 1 5 5 5 5 5 5 5 5 4 12 12 12 4 7 5 5 5 5 1 5 1 5 1 1 1 1 5 5 5 5 5 5 5 5 5 5 5 1 2 2 5 2 2 2 2 2 2 2 2 2 2 2 1 2 2 2 2 2 2 2 2 2 2 2 1 1 5 5 5 4 5 5 5 5 5 5 5 5 7 3 11 12 4 12 11 12 10 5 5 5 5 
5 5 5 5 5 5 5 5 2 1 2 2 5 1 2 5 5 5 5 5 5 5 5 5 5 5 10 8 7 7 9 10 5 5 5 5 1 1 1 1 1 1 1 5 5 1 5 1 1 1 1 5 5 5 5 1 2 2 2 2 2 2 2 2 2 2 2 2 2 1 1 2 2 2 2 2 2 2 2 2 2 2 5 5 5 5 5 1 4 4 4 7 5 7 5 7 4 12 12 10 4 8 5 10 5 5 5 5 1 
5 5 5 5 1 5 1 1 2 5 5 5 5 1 1 5 5 1 5 5 5 5 4 4 4 4 7 5 11 6 12 7 5 4 5 5 5 5 1 1 1 1 1 1 1 1 1 1 1 1 1 5 1 1 2 2 1 2 2 5 5 1 1 2 2 2 2 2 2 2 2 1 2 2 2 2 2 2 2 2 2 5 1 1 5 5 5 5 1 1 4 1 7 4 7 4 4 12 12 4 8 10 10 4 5 5 5 5 5 
5 5 1 5 1 1 5 5 2 1 1 1 5 1 1 5 5 1 5 5 5 5 5 4 5 9 12 4 7 4 7 7 4 5 5 5 5 1 1 1 1 1 1 1 1 1 2 2 5 5 5 1 1 2 2 1 1 1 2 1 2 2 2 2 2 2 2 2 2 1 2 2 2 2 2 2 2 2 2 2 1 2 2 1 1 1 1 5 1 5 5 5 7 10 7 3 4 9 7 7 7 7 5 5 5 5 5 5 5 
5 5 5 1 1 1 5 5 1 1 1 1 1 1 5 5 5 5 5 5 5 5 5 4 5 7 12 4 12 12 12 4 4 5 5 5 5 1 1 2 1 2 1 1 2 1 2 2 1 5 5 5 2 2 1 1 2 5 1 2 2 1 2 2 2 2 2 2 2 2 2 2 2 2 2 2 2 2 2 2 1 1 2 2 1 1 1 5 5 5 5 5 7 12 4 12 12 7 7 5 5 5 5 5 5 1 5 1 1 
4 4 5 5 5 2 1 5 2 1 1 1 3 1 5 5 5 5 5 5 5 5 5 5 5 4 7 12 1 4 12 10 5 5 5 1 5 1 5 2 1 1 2 2 2 1 1 2 2 2 2 2 2 2 2 1 1 1 2 2 2 2 2 2 2 2 2 2 2 2 2 2 2 2 2 2 2 2 1 2 1 1 1 1 1 5 5 5 5 5 5 7 7 7 9 12 12 10 5 5 5 5 5 1 1 1 5 1 1 
5 5 5 5 1 1 5 1 1 2 1 1 5 5 5 5 5 5 5 5 5 5 6 5 5 5 4 11 4 8 10 10 5 5 5 5 5 1 1 1 5 1 2 2 2 2 2 2 2 1 2 2 2 2 2 2 2 1 2 2 2 2 2 2 2 2 2 2 2 2 2 2 2 2 2 2 2 2 1 1 1 1 1 1 1 5 5 5 5 5 5 5 5 12 4 7 10 10 5 5 5 5 5 1 1 1 2 1 1 
5 5 5 5 5 1 5 1 1 1 1 5 1 1 1 1 1 5 5 5 5 5 5 13 4 4 12 7 1 10 10 4 5 5 5 5 5 5 1 1 2 1 1 1 1 2 2 2 2 2 2 1 1 2 2 2 2 2 2 2 2 2 2 2 2 2 2 2 2 1 2 2 1 2 2 2 1 2 1 1 1 5 1 5 5 5 5 5 5 5 5 5 7 11 10 8 4 5 5 5 5 5 5 1 1 2 1 2 1 
5 5 5 5 5 1 5 1 1 1 5 5 1 1 1 5 1 5 5 5 5 5 5 13 13 4 6 10 3 5 10 4 4 5 5 5 5 1 1 5 1 1 1 1 5 1 2 2 2 1 2 2 2 1 1 2 2 2 2 2 2 2 2 2 2 2 1 2 1 2 2 2 2 2 2 1 2 1 1 1 1 1 5 5 5 5 5 5 5 5 5 7 12 12 10 10 5 5 5 5 1 5 1 5 1 2 2 2 5 
5 5 5 5 5 5 5 1 1 1 5 5 5 1 1 1 5 5 5 4 5 5 5 4 4 5 5 10 10 10 5 5 5 4 5 5 5 5 5 1 1 1 1 2 2 1 2 2 2 2 2 2 2 1 2 2 2 2 2 1 2 2 1 2 2 2 1 1 1 2 2 2 2 2 2 1 1 1 1 1 5 5 5 5 5 5 5 5 5 5 4 11 11 10 5 10 5 5 5 5 1 1 1 1 5 1 1 5 5 
5 5 5 5 1 1 5 1 1 1 1 5 1 1 1 1 1 5 5 5 5 5 4 5 5 5 5 5 10 5 3 1 5 5 5 5 5 5 5 5 5 1 2 2 2 1 1 1 2 2 2 2 2 2 2 2 2 2 2 2 2 2 2 2 2 1 1 1 1 1 1 1 2 2 2 1 1 1 1 1 5 5 5 5 5 5 5 5 5 4 10 7 12 4 10 5 5 5 5 1 5 2 1 2 2 5 1 5 5 
5 5 5 5 5 5 1 1 1 1 1 5 5 5 1 5 5 5 5 5 5 1 4 4 4 5 5 5 10 5 5 5 5 4 4 4 5 5 5 5 1 1 2 2 1 1 2 2 2 2 2 2 2 2 2 2 2 2 2 2 2 2 2 1 2 2 1 1 2 1 1 1 1 1 1 1 5 1 1 5 5 5 5 5 5 5 5 5 4 3 9 10 10 5 5 10 5 5 1 1 1 2 5 5 1 1 5 1 5 
5 5 5 5 5 5 1 5 1 1 1 5 5 5 5 5 5 5 5 5 5 6 4 4 5 5 5 5 5 4 5 3 5 5 1 1 1 1 1 5 5 5 5 1 1 2 2 2 2 1 2 2 2 1 2 2 2 2 2 2 2 1 2 1 1 2 2 1 1 1 1 1 1 5 1 1 5 5 5 5 5 5 4 5 5 5 5 4 7 11 10 10 10 5 5 5 5 1 1 2 1 2 1 1 1 1 5 5 5 
5 5 5 1 1 1 1 1 1 1 1 5 5 5 5 5 5 5 5 10 5 5 13 5 5 5 5 5 5 4 5 5 5 1 1 2 2 2 2 5 5 1 1 5 2 2 2 1 2 2 2 2 2 2 1 2 2 2 2 2 2 2 2 1 1 1 1 1 1 1 1 5 1 5 5 5 5 5 5 5 5 5 10 5 5 10 11 12 4 10 7 10 5 5 5 5 1 1 2 2 1 2 1 1 1 2 1 5 5 
5 5 5 5 1 1 5 5 5 1 1 1 5 5 5 5 5 5 5 5 5 5 5 5 5 5 5 5 5 5 4 5 5 1 1 5 5 5 2 2 5 1 5 1 2 2 2 2 2 1 2 1 1 1 1 2 2 2 2 2 2 2 1 1 1 1 1 1 1 1 5 5 5 5 5 5 4 5 5 5 5 10 10 5 5 12 13 12 12 7 7 5 5 5 5 1 5 5 2 2 2 2 2 1 2 2 1 5 5 
5 5 1 1 1 5 5 5 5 1 2 5 1 1 1 5 5 5 5 5 5 3 5 5 5 5 5 5 5 5 5 5 1 5 5 5 5 5 1 2 2 1 5 2 2 1 2 2 1 1 1 1 1 1 1 1 1 1 1 1 1 1 1 2 1 1 1 5 1 5 5 5 5 5 5 5 5 5 5 5 10 10 10 7 7 4 12 12 7 10 5 5 5 5 5 5 1 1 1 1 2 2 1 1 1 1 5 5 5 
1 1 1 1 1 1 5 5 1 1 1 1 5 5 1 5 5 5 5 5 5 5 5 5 5 5 5 5 5 5 5 5 5 5 5 1 5 5 1 1 2 2 5 2 2 2 2 2 2 2 2 2 2 1 1 1 1 1 5 1 1 1 1 1 1 1 1 5 1 5 5 5 5 5 5 5 5 5 5 5 5 10 10 10 4 12 12 12 11 1 4 4 5 5 5 5 1 5 1 2 2 1 2 1 1 5 5 5 6 
1 1 1 1 1 1 5 5 3 5 5 5 1 5 1 1 1 1 1 5 1 1 5 1 5 5 5 5 5 5 5 1 5 5 1 5 1 1 1 2 2 2 5 2 2 2 2 2 2 2 2 2 2 1 1 1 5 5 5 1 1 1 1 1 1 1 5 5 5 5 1 4 5 5 5 5 5 5 5 5 5 5 10 4 4 12 4 4 4 4 4 4 5 1 5 1 1 1 1 1 2 1 2 1 1 5 5 5 5 
1 1 5 1 1 5 5 5 5 5 5 5 5 1 5 5 2 1 5 1 1 5 1 1 1 5 5 5 5 1 1 1 1 5 1 2 2 2 2 2 2 2 1 2 2 2 2 2 2 2 2 2 1 1 1 1 5 5 5 5 1 5 1 1 1 1 5 5 5 5 4 4 4 5 5 5 5 5 5 4 5 5 10 13 4 12 4 4 10 5 5 1 5 5 5 1 1 5 1 1 1 1 2 2 1 1 5 5 4 
5 5 5 5 5 5 5 5 5 4 5 5 5 1 1 1 1 1 1 1 5 1 2 2 1 5 1 1 1 1 1 1 1 1 2 2 2 2 2 2 2 2 2 2 2 1 2 2 1 1 1 2 1 1 1 5 5 5 5 5 1 1 1 1 1 5 5 5 5 5 5 7 7 4 5 5 5 5 4 4 4 4 4 13 12 12 4 4 5 5 4 1 5 1 1 1 1 1 1 1 1 1 2 1 1 5 5 5 4 
5 5 5 5 5 5 5 5 5 5 5 5 5 1 1 1 1 1 1 1 1 2 2 2 1 5 1 2 5 1 1 2 2 2 2 2 2 2 2 2 2 2 2 2 2 1 2 2 2 2 1 1 1 1 1 5 1 5 5 5 5 1 5 5 5 5 5 5 5 5 5 4 7 4 4 5 4 4 4 4 4 4 13 12 12 10 4 4 5 5 5 5 5 5 1 1 2 2 2 1 1 1 2 2 1 5 5 5 5 
5 1 5 5 5 5 5 5 5 5 5 5 5 5 1 5 1 2 1 1 2 2 2 2 1 1 2 1 1 1 2 2 2 2 2 2 2 2 2 2 2 1 2 2 2 2 1 2 2 2 2 1 1 5 1 1 5 1 5 5 5 5 1 5 5 5 5 5 5 5 5 5 4 4 4 4 3 7 4 4 4 4 4 11 12 4 4 4 5 5 5 1 5 5 1 1 1 2 2 2 2 2 1 1 1 5 5 5 5 
5 5 5 5 5 5 5 5 5 5 5 5 1 1 5 1 1 1 1 2 2 2 2 2 2 2 2 2 2 2 2 2 2 2 2 2 2 2 2 2 2 2 2 2 2 2 2 2 2 2 2 2 1 1 5 5 5 3 5 5 5 5 5 5 5 5 5 5 5 5 5 4 7 9 7 7 4 7 10 10 5 7 12 12 12 4 5 4 10 5 5 5 5 1 1 1 2 2 2 2 2 2 1 1 1 5 5 5 5 
5 5 5 5 5 5 5 5 5 5 1 5 5 1 1 5 1 2 2 2 2 2 2 2 2 2 2 2 2 2 2 2 2 2 2 2 2 2 2 2 2 1 1 2 2 2 2 2 2 2 2 2 1 1 5 5 5 1 1 4 5 5 5 5 5 5 5 4 5 5 4 4 7 7 7 4 5 5 5 5 5 4 12 12 4 4 4 4 4 5 5 6 5 1 1 1 2 1 2 2 2 1 2 1 5 5 5 5 4 
5 5 5 5 5 5 5 5 5 5 5 5 1 5 1 5 1 1 2 2 2 1 2 2 1 2 2 2 2 2 2 2 2 2 2 2 2 2 2 2 1 1 2 2 2 2 2 2 1 2 1 1 1 1 1 5 5 5 1 1 1 5 5 5 5 5 5 5 4 4 10 7 10 5 5 5 5 5 5 5 5 10 12 12 7 4 4 4 4 4 4 5 5 1 1 1 1 1 2 2 2 2 1 1 1 4 4 4 5 
5 5 5 5 5 5 5 5 5 5 5 5 5 1 1 5 1 1 1 2 2 2 2 2 2 2 2 2 2 2 2 2 2 2 2 2 2 2 2 2 2 2 2 2 2 2 2 2 1 1 1 1 1 1 1 1 5 5 5 5 1 4 5 1 5 5 5 5 4 10 4 5 5 5 5 1 5 5 1 5 5 5 10 12 4 4 5 5 4 4 1 5 5 5 5 5 1 1 1 2 1 2 1 5 5 4 4 4 7 
5 5 5 5 5 5 5 1 4 5 1 5 1 5 5 1 1 1 5 1 1 2 1 2 2 2 2 2 2 2 2 2 2 2 2 2 2 2 2 2 2 1 2 2 2 2 2 2 1 1 1 1 1 1 1 1 1 5 5 5 5 1 4 5 5 5 5 4 4 4 5 5 5 5 5 5 5 5 5 5 5 5 12 12 12 4 4 5 5 1 5 5 5 5 1 1 1 1 1 2 1 1 1 5 4 5 5 7 7 
8 5 4 4 5 4 5 4 5 1 1 5 5 1 1 5 1 1 5 1 2 2 1 2 2 2 2 2 2 2 2 2 2 2 2 2 2 2 2 2 2 2 2 2 2 2 2 2 1 2 2 2 1 1 1 1 1 1 5 5 5 5 1 1 5 5 4 4 4 10 5 5 5 5 1 1 5 5 5 5 5 10 12 7 12 10 5 5 5 5 5 1 5 5 1 1 1 5 1 2 1 5 5 5 4 4 4 7 4 
10 5 12 7 12 4 4 4 4 5 5 5 5 5 5 5 5 1 5 2 2 5 1 2 2 2 2 2 2 2 2 2 2 2 2 2 2 2 2 2 2 2 2 2 2 2 2 2 2 1 2 2 2 1 1 1 1 1 5 5 5 5 1 4 1 1 1 4 5 5 5 5 1 1 5 1 5 1 5 5 5 10 12 12 4 5 5 5 5 5 5 1 1 1 1 1 1 1 1 2 1 5 5 5 5 5 7 7 5 
4 4 4 4 4 4 11 4 4 5 5 5 5 5 5 5 5 1 5 1 5 1 1 1 2 2 2 2 2 2 2 2 2 2 2 2 2 2 2 2 2 2 2 2 2 2 2 2 2 2 1 1 1 1 1 2 1 5 5 5 5 5 5 5 4 4 4 5 5 5 5 1 1 1 5 5 1 1 1 1 5 5 7 12 7 4 5 5 5 5 5 1 1 1 2 2 2 2 2 1 1 1 5 5 5 7 1 4 5 
4 4 13 4 4 4 9 4 4 5 5 5 5 5 5 5 5 1 1 1 5 1 1 5 1 2 2 2 2 2 2 2 2 2 2 2 2 2 2 2 2 2 2 2 1 2 2 2 2 2 2 1 1 1 1 1 1 5 5 5 5 5 5 5 4 4 5 5 5 5 1 1 1 5 5 5 1 1 5 5 5 5 12 12 7 4 5 5 5 5 5 1 2 2 2 2 2 2 2 1 1 5 5 5 4 7 7 5 5 
11 12 12 1 4 4 4 4 4 4 5 5 5 5 5 5 5 1 1 1 5 5 1 1 5 1 2 2 2 2 2 2 2 2 2 2 2 2 2 2 2 2 2 2 2 2 2 2 2 1 1 1 1 1 1 5 5 5 5 5 5 5 5 4 4 4 5 5 1 5 1 1 2 1 1 1 1 1 5 5 5 5 4 4 7 4 1 5 5 5 5 1 5 1 1 2 2 2 1 1 5 5 5 5 5 7 7 5 5 
12 12 4 12 12 12 1 4 4 4 4 5 5 5 5 5 5 1 5 5 1 5 1 1 1 1 2 2 2 2 2 2 2 2 2 2 2 2 2 2 2 2 2 2 2 2 2 5 1 1 1 5 1 1 1 5 5 5 5 5 5 5 4 4 4 5 5 5 5 2 1 2 2 2 5 5 5 5 5 5 5 7 1 4 10 4 4 5 5 5 5 1 1 1 1 1 1 5 2 1 5 5 5 5 5 1 4 5 5 
10 10 12 10 12 12 12 12 4 7 4 4 5 5 5 5 5 5 5 5 5 5 5 1 1 5 1 1 2 2 2 2 2 2 2 2 2 2 2 2 2 2 2 2 2 2 1 1 1 5 5 5 5 5 5 5 5 5 5 5 5 4 4 4 5 5 5 5 1 1 2 2 2 2 2 5 5 5 5 5 5 4 4 4 5 5 5 5 5 5 5 1 1 1 2 2 2 1 2 1 5 5 5 4 1 4 4 4 5 
5 4 4 5 12 12 12 12 1 4 12 4 7 5 5 5 5 5 5 5 5 5 5 5 1 5 5 1 1 2 2 2 2 2 2 2 2 2 2 2 2 2 2 2 2 2 1 1 5 5 5 5 5 5 5 5 5 5 5 5 4 4 4 5 5 5 5 5 1 1 2 2 2 1 1 1 5 5 5 5 4 7 4 5 5 5 5 5 1 5 1 1 1 1 2 2 2 2 1 1 5 5 5 1 1 5 4 4 5 
4 4 5 5 4 7 10 12 11 12 4 1 12 12 5 5 5 5 5 5 5 5 1 1 1 1 5 1 5 1 2 2 2 2 2 2 2 2 2 2 2 1 1 1 1 1 1 5 5 5 5 1 1 1 1 1 4 5 5 4 1 4 5 5 5 1 5 1 1 1 1 1 1 1 1 5 5 5 5 5 4 4 5 5 5 5 5 5 1 1 5 1 1 1 1 2 1 1 1 2 5 5 1 1 5 5 4 1 4 
4 4 4 5 4 4 5 7 4 12 12 8 10 12 10 5 5 5 5 5 5 1 1 1 1 1 1 1 1 1 2 2 2 2 2 2 2 2 1 1 2 2 1 1 1 1 5 5 5 1 1 1 1 1 1 4 4 1 1 4 4 5 5 5 5 1 1 5 1 1 2 2 1 1 1 5 5 5 5 7 1 4 5 5 1 5 1 5 1 1 1 1 1 1 1 1 1 1 1 1 5 1 1 5 5 5 5 4 4 
5 5 4 5 4 5 4 4 4 9 9 12 9 12 5 5 5 5 5 5 5 1 5 5 1 2 2 2 1 2 2 2 2 2 2 2 2 2 2 2 2 2 1 1 1 5 1 5 1 5 1 1 1 1 5 5 5 4 4 4 5 5 5 5 5 1 1 1 1 1 2 1 2 1 1 1 5 5 5 4 4 5 5 5 1 5 5 1 1 2 1 1 1 1 1 1 2 2 1 1 5 2 1 1 5 5 5 5 4 
5 5 4 5 5 5 5 5 4 4 4 12 12 12 11 7 5 5 5 5 1 5 5 5 1 1 2 2 2 2 2 5 1 2 2 2 2 2 2 2 1 1 1 1 5 5 1 1 1 1 1 5 5 5 1 5 5 5 4 4 5 5 1 1 1 1 1 2 2 5 1 2 2 1 1 5 5 5 4 1 4 5 5 5 1 1 2 1 1 2 2 1 1 1 1 1 1 2 1 5 5 2 1 1 5 5 5 5 5 
5 5 5 5 5 5 5 5 5 4 4 4 4 4 10 7 7 5 5 5 5 5 1 1 1 5 1 2 2 2 2 2 5 2 2 2 1 1 2 2 1 1 1 1 1 1 2 2 1 5 5 5 5 1 5 5 5 1 1 5 5 5 1 1 1 1 1 1 2 5 1 1 1 1 1 5 5 5 4 4 10 5 5 1 1 1 1 1 1 2 2 2 2 2 2 2 1 1 2 5 1 1 1 1 5 5 1 5 5 
5 5 5 5 5 5 5 5 5 5 4 4 4 4 10 10 4 5 5 5 5 1 1 1 1 1 2 2 2 2 2 2 2 1 1 1 2 2 1 1 1 1 1 1 1 2 2 2 1 5 5 1 1 5 5 5 1 1 1 5 5 5 1 1 1 1 1 1 2 1 1 1 5 5 5 5 5 5 4 4 5 5 5 5 1 1 1 2 1 2 1 2 2 2 2 2 2 2 5 1 1 1 2 1 5 5 5 5 5 
1 5 5 5 5 5 5 5 5 5 5 5 4 5 5 5 10 5 5 5 5 1 1 2 1 1 2 2 2 2 2 2 2 1 2 2 2 2 2 1 1 5 1 2 2 2 1 5 1 5 1 5 5 5 5 5 7 4 5 1 1 1 1 1 1 2 2 1 1 1 5 1 5 5 5 5 5 5 4 4 5 5 5 1 5 5 5 1 1 2 2 2 2 2 2 2 2 2 2 2 1 1 2 1 1 5 5 5 5 
5 5 5 5 5 5 5 5 5 5 5 4 4 5 5 5 5 5 1 5 5 1 2 2 2 1 1 2 2 2 2 2 1 1 2 2 2 2 2 1 1 1 2 2 2 1 5 1 1 1 1 1 5 5 5 1 4 5 5 1 1 1 1 1 2 2 2 1 1 1 5 5 5 5 5 5 5 4 4 4 5 5 5 5 1 1 5 1 1 1 1 2 2 2 2 2 2 1 2 2 1 5 2 2 5 5 5 5 1 
5 5 5 5 5 5 5 5 5 5 5 5 5 5 5 5 5 5 1 1 1 2 2 2 2 1 2 2 2 2 2 2 1 2 2 2 1 1 1 1 2 2 2 2 5 5 1 1 1 1 1 1 5 5 5 7 4 5 5 1 1 1 1 1 1 1 1 1 1 5 5 5 5 5 5 5 5 4 4 5 5 5 5 5 5 5 5 5 5 5 1 1 1 1 2 2 2 2 2 2 5 1 2 2 1 5 5 5 5 
5 5 5 1 5 5 1 5 1 1 5 1 5 5 5 1 5 1 1 1 2 2 2 2 1 5 2 2 1 2 2 2 2 2 2 5 1 1 1 1 2 2 2 1 1 1 2 1 1 1 5 5 5 5 1 1 1 5 1 1 1 1 1 2 2 2 1 1 1 5 5 5 5 5 5 5 4 4 4 5 5 5 5 5 5 1 1 5 5 1 5 1 1 1 5 1 2 1 1 2 2 1 2 2 2 1 5 1 5 
5 5 5 1 1 1 5 1 1 1 5 1 5 5 2 2 1 2 1 2 2 2 2 2 2 1 2 2 2 2 2 2 2 2 2 1 1 1 1 2 2 2 1 1 1 1 2 2 1 1 1 5 5 5 1 1 5 1 1 1 1 1 2 2 2 2 1 1 1 5 5 5 5 5 4 4 4 4 5 5 5 5 5 5 5 5 5 5 1 5 5 5 1 1 1 2 2 2 1 2 2 1 2 2 2 1 1 1 1 
5 5 1 1 1 1 1 1 5 5 1 1 5 5 2 2 5 2 2 2 2 2 2 2 2 2 2 2 2 2 2 2 2 2 2 2 2 1 1 2 2 2 1 1 2 2 5 1 1 1 1 5 5 5 1 1 5 1 1 2 1 1 1 2 2 1 1 1 5 5 5 5 4 4 4 4 4 5 5 5 5 5 1 5 5 5 1 1 1 1 5 5 1 1 1 2 2 2 2 2 1 5 2 2 2 1 1 1 1 
5 1 5 5 5 5 5 5 1 5 1 1 1 1 1 2 1 2 2 2 1 1 2 2 1 2 1 2 2 2 2 2 2 2 1 1 1 1 1 2 2 2 1 1 2 2 1 1 1 1 1 5 1 5 1 1 1 1 1 2 2 2 2 2 2 1 1 1 5 5 5 1 1 1 5 5 5 1 1 5 5 5 5 5 5 5 1 5 1 1 1 1 1 1 1 2 2 2 1 2 1 1 2 2 2 1 2 2 2 
1 5 5 1 1 5 5 5 5 1 1 1 1 1 2 2 1 2 2 1 1 1 2 2 2 2 2 2 2 2 2 2 2 1 1 1 1 1 2 2 2 1 2 5 1 1 1 1 1 1 1 5 1 1 1 1 1 1 2 2 2 2 2 2 1 1 1 5 5 5 4 4 1 1 1 5 1 1 1 5 5 1 5 5 5 1 5 1 1 1 1 1 1 1 1 1 1 1 2 2 1 1 1 2 2 2 1 2 2 
1 5 5 1 1 5 5 5 5 5 5 1 1 2 2 2 1 5 1 1 1 1 2 2 2 2 1 1 2 2 2 2 2 2 2 2 2 2 2 2 2 1 2 1 2 1 1 1 1 1 1 1 1 1 1 1 1 1 2 2 2 2 1 2 2 2 1 5 5 1 1 1 5 5 5 1 1 1 5 5 1 1 1 1 5 1 1 1 2 1 1 1 1 1 1 1 1 1 2 2 1 1 2 2 2 2 1 2 2 
5 5 5 5 5 5 5 5 1 1 1 1 1 5 1 2 1 1 1 1 1 1 1 2 2 2 2 1 2 2 2 2 2 2 2 2 2 2 2 2 1 1 2 1 1 1 1 1 1 1 1 1 2 1 1 1 2 1 2 2 2 2 1 2 2 1 1 1 5 1 1 5 5 5 5 2 1 5 5 5 2 2 1 2 2 1 1 1 2 1 1 1 1 2 2 2 2 2 2 2 2 1 2 2 2 2 1 1 2 
5 1 5 5 5 5 5 5 5 5 2 2 2 2 1 1 1 1 1 1 1 1 1 1 2 2 2 1 2 2 2 2 2 2 2 2 1 2 2 2 1 1 1 1 1 1 1 1 5 1 1 2 2 2 1 1 2 2 1 2 2 2 2 2 5 1 1 5 5 1 1 5 5 5 2 2 1 5 5 5 1 2 2 2 1 1 2 1 2 2 1 1 2 2 2 2 2 2 2 2 2 1 2 2 2 2 2 1 1 
5 5 1 5 5 5 5 1 5 5 2 2 2 2 1 1 1 1 1 5 1 1 2 5 1 2 2 2 1 1 2 2 2 1 2 2 2 1 1 1 1 1 1 1 1 5 5 5 5 1 3 2 2 2 1 1 2 2 1 2 2 2 1 1 1 1 5 5 1 1 5 5 5 1 2 1 5 1 1 2 1 1 2 1 2 2 2 1 2 2 1 1 2 2 2 2 2 1 2 2 5 2 2 1 2 2 2 2 1 
5 5 1 5 5 5 5 5 1 5 2 2 2 2 1 1 1 1 1 5 5 1 2 5 5 2 2 2 1 1 1 1 1 1 1 1 1 1 1 5 1 5 5 5 5 5 5 1 1 1 2 2 2 2 1 5 2 2 2 2 2 2 2 2 1 1 5 1 1 1 1 1 5 1 2 1 1 1 1 5 2 1 1 2 2 2 2 1 2 2 2 2 2 2 2 2 2 2 2 2 2 1 2 1 2 2 2 2 2 
5 5 5 5 5 5 1 5 5 5 2 1 1 1 1 1 1 5 5 1 1 2 2 2 2 2 2 2 2 1 1 1 1 1 1 1 1 1 1 1 5 5 5 5 5 5 5 5 1 1 1 2 2 2 2 2 2 2 2 2 2 2 1 1 1 1 1 1 1 1 5 5 5 2 2 2 1 1 1 2 1 1 2 2 2 2 2 2 2 2 2 2 2 2 2 2 2 2 2 2 2 2 1 1 2 2 2 2 2 
5 5 5 5 5 1 5 5 5 5 1 1 1 1 1 5 5 5 5 1 1 1 1 2 2 2 2 2 2 2 2 1 1 1 1 1 1 1 5 5 5 5 5 5 5 5 5 1 1 1 1 2 2 1 2 2 2 2 1 1 1 1 1 2 2 1 1 1 1 2 2 1 1 2 2 2 2 2 2 2 2 2 2 2 2 2 2 2 2 2 2 2 1 2 2 2 2 2 2 2 2 2 2 2 2 2 2 2 2 
5 5 5 5 5 5 5 5 5 1 1 1 1 1 5 5 5 5 5 5 5 1 1 1 1 1 2 1 1 2 2 2 1 1 1 1 1 1 5 5 5 5 5 5 7 5 1 1 1 1 2 2 2 1 2 1 2 2 2 1 1 1 1 1 1 1 1 1 1 2 2 1 5 2 2 2 2 2 2 2 2 2 2 2 2 2 2 2 2 1 2 2 2 1 1 1 2 2 2 2 2 2 2 2 2 2 2 2 2 
5 5 5 5 5 5 5 5 1 1 1 5 1 5 1 5 5 1 1 5 5 5 1 1 1 1 1 2 2 2 2 2 1 5 5 5 5 5 5 5 5 5 5 7 7 1 5 1 5 2 2 2 1 1 2 1 1 2 1 1 1 1 5 5 5 1 1 2 1 2 2 2 1 2 2 2 2 1 2 2 2 1 1 2 1 1 1 1 1 1 1 1 1 1 1 1 1 1 2 2 2 2 1 2 2 2 2 2 2 
1 5 5 5 5 5 5 5 5 5 1 5 5 5 5 5 5 1 1 5 5 5 1 1 1 1 1 2 1 1 1 1 1 1 5 5 5 5 5 5 5 5 7 4 1 5 1 1 1 2 2 2 1 1 1 1 1 2 5 1 1 1 5 5 5 5 1 2 1 1 2 2 2 2 2 2 2 2 1 2 2 2 2 2 1 1 1 1 1 5 1 1 1 1 5 1 1 1 1 1 1 1 1 1 2 2 1 2 2 
5 5 5 5 5 5 5 1 5 5 1 5 1 5 5 5 5 4 1 5 5 1 1 1 1 1 2 1 1 1 5 1 1 1 5 1 5 5 5 5 1 5 5 7 7 1 1 1 1 2 2 1 5 1 1 1 1 1 1 1 1 5 1 5 1 5 1 1 2 2 2 2 2 2 2 2 1 2 1 1 1 2 1 1 1 1 1 1 5 5 5 5 5 5 5 1 5 5 5 5 1 5 5 1 1 1 1 1 1 
5 5 5 5 5 5 5 1 1 5 1 1 1 1 1 5 5 4 4 1 5 5 5 1 1 1 5 5 1 1 1 5 1 5 5 5 5 4 5 5 5 5 5 7 7 7 5 5 1 1 1 1 1 1 1 1 1 1 5 5 5 5 5 5 5 5 1 1 1 1 2 2 2 2 2 2 2 2 2 2 2 1 1 1 1 1 1 5 5 5 5 5 5 5 5 1 5 5 5 5 5 1 5 5 1 1 1 1 1 
5 5 5 5 5 1 5 1 5 5 1 2 1 5 5 5 5 5 4 4 5 5 5 1 1 1 1 1 2 1 1 1 5 5 5 5 5 5 5 5 5 5 5 7 7 7 5 5 1 5 1 1 5 1 1 1 1 5 1 5 5 5 5 1 1 1 5 1 1 1 1 1 1 2 1 1 2 2 2 2 1 1 1 1 1 1 5 5 5 5 5 5 5 5 5 4 5 5 5 1 5 5 5 5 5 5 5 5 5 
4 5 5 5 5 5 5 5 1 1 1 5 5 5 5 5 5 5 4 4 4 5 5 1 1 1 1 5 1 1 1 1 5 5 5 5 5 5 4 4 5 5 5 7 1 1 5 5 1 5 5 5 5 5 5 1 5 1 5 5 5 5 5 1 1 5 5 5 1 1 1 1 1 1 1 2 2 2 2 1 1 1 1 5 5 5 5 5 5 5 5 5 5 5 5 4 4 5 5 5 5 5 5 5 5 5 5 5 5 
5 5 5 5 5 5 5 5 1 1 1 1 1 1 5 5 5 5 5 4 1 5 5 5 1 1 5 1 1 1 1 1 5 5 5 4 4 4 4 4 5 10 12 8 1 5 5 5 5 5 5 5 5 5 5 5 5 5 5 5 5 5 1 4 1 5 5 5 5 1 1 1 1 5 1 1 2 2 2 1 1 1 1 1 5 5 5 5 1 5 5 5 5 5 4 1 4 5 5 5 5 5 5 5 5 5 5 5 5 
5 5 5 5 5 5 5 5 1 5 1 5 1 1 5 5 5 5 5 4 4 5 5 1 1 5 5 1 1 1 5 1 1 5 5 4 4 4 4 12 4 12 12 4 4 5 5 5 5 5 5 5 5 5 5 5 5 5 5 5 5 5 1 4 5 5 5 5 1 1 1 1 5 1 2 2 2 2 1 1 1 1 1 5 5 5 5 5 5 5 4 5 5 5 4 1 12 5 5 5 5 5 5 5 5 5 5 5 5 
4 5 5 5 5 5 5 5 5 1 1 5 5 1 5 5 4 5 5 4 4 5 5 5 1 5 5 1 1 5 5 5 5 5 5 5 5 5 13 4 12 8 9 13 4 4 5 5 5 5 5 5 5 5 5 5 5 5 5 5 5 5 1 4 4 5 5 5 5 1 1 1 1 1 2 2 2 2 1 1 1 1 5 5 5 5 4 5 5 7 4 4 11 8 11 4 12 4 12 5 5 4 12 12 5 4 5 4 5 
5 5 5 5 5 5 5 5 1 1 1 1 1 1 5 5 5 5 5 4 4 5 5 5 5 5 5 1 1 5 1 1 1 5 5 5 5 5 5 5 9 4 9 8 13 4 4 5 5 5 5 5 5 5 5 5 5 5 5 5 5 5 4 4 4 5 5 1 5 5 5 5 1 1 1 2 1 2 1 1 1 1 1 1 5 5 4 5 4 4 8 1 4 4 4 4 1 11 1 11 4 4 4 11 4 12 4 4 4 
5 5 5 5 5 1 1 1 1 5 1 5 5 5 5 5 5 5 5 4 4 5 5 5 5 1 1 1 1 1 1 1 1 1 5 5 5 4 4 4 5 8 12 4 4 4 11 10 5 5 5 5 5 5 5 4 4 5 5 5 5 5 4 4 5 5 5 5 5 1 1 1 1 1 1 1 1 1 1 5 1 1 5 5 1 5 4 4 5 4 12 12 4 11 12 12 11 8 11 11 12 7 1 1 12 12 9 10 7 
5 5 5 5 5 5 5 5 5 1 1 1 5 5 5 5 5 5 5 4 9 5 5 5 5 5 5 5 1 1 1 5 1 5 5 5 5 5 5 5 5 12 12 12 4 4 4 11 5 5 5 5 5 5 5 4 1 4 5 5 5 5 4 1 4 5 5 5 5 5 5 1 5 1 5 1 5 5 1 1 5 5 5 5 5 5 5 5 5 4 5 11 1 12 10 10 4 4 5 5 10 8 12 12 10 5 10 5 5 
5 5 5 5 5 1 5 5 1 5 5 5 5 5 5 5 5 5 5 7 4 5 5 5 5 1 1 1 5 1 1 1 1 1 1 5 5 5 5 5 5 5 12 12 4 4 4 12 5 5 5 5 5 5 5 4 4 5 5 4 4 5 4 1 4 4 5 5 5 5 5 5 5 1 5 5 5 5 1 5 5 5 5 1 5 5 5 4 5 5 11 1 1 5 5 5 4 4 5 5 5 5 10 10 5 5 5 5 5 
5 5 5 5 5 1 1 5 1 5 5 5 5 5 5 5 5 4 10 12 12 5 5 5 5 1 1 1 2 5 1 2 1 1 1 5 1 5 5 5 5 5 10 12 12 4 4 11 11 5 5 5 5 5 5 4 4 11 4 5 5 4 4 11 4 5 5 5 5 5 5 5 5 5 5 5 5 5 5 5 5 5 5 5 5 5 5 5 5 10 12 11 4 10 5 4 4 5 5 5 5 5 5 5 5 5 5 5 5 
5 5 5 5 5 5 5 5 1 5 5 5 5 5 5 5 5 4 5 12 10 5 5 5 5 1 1 5 1 1 2 1 1 1 1 1 1 1 5 5 5 5 5 9 12 12 4 12 4 5 5 5 5 5 5 10 8 12 10 8 5 5 12 7 11 5 5 5 4 8 5 5 5 5 5 5 1 5 5 5 5 5 5 5 4 4 5 5 5 8 8 8 5 5 5 5 1 5 5 5 5 5 5 5 5 5 5 1 1 
5 5 5 1 5 5 5 5 5 5 5 5 5 5 5 10 12 5 12 1 8 8 5 5 5 5 2 2 2 2 1 1 2 1 1 1 5 5 5 5 5 5 5 4 12 12 12 4 8 10 5 5 5 5 5 11 4 4 8 11 8 5 4 8 5 8 4 4 1 8 5 5 5 5 5 5 5 1 7 4 5 5 5 4 4 4 4 5 5 11 11 10 10 5 5 5 5 5 5 5 5 5 5 5 5 5 5 1 1 
5 5 5 5 5 5 5 5 5 5 5 5 5 5 12 9 8 4 1 4 12 12 4 5 5 5 5 1 2 1 1 1 1 5 5 1 1 5 5 5 5 5 5 5 12 12 13 11 4 12 8 5 4 5 11 12 11 11 4 11 11 4 4 7 4 4 1 12 12 11 8 5 5 5 5 5 1 1 4 1 4 4 4 4 4 4 11 11 11 1 10 10 10 5 5 5 5 5 5 5 5 5 5 5 5 1 1 1 2 
5 5 5 5 5 5 5 5 5 5 5 5 5 12 12 12 9 4 12 8 10 10 5 5 5 5 5 1 2 1 2 1 1 5 5 5 5 5 5 10 10 5 5 5 5 12 11 12 4 11 8 12 11 5 12 13 12 3 3 3 3 3 3 3 4 4 11 12 12 12 4 5 5 5 5 5 5 5 5 1 1 7 11 7 4 11 11 11 1 4 8 5 5 5 5 5 5 5 5 5 5 5 5 1 1 5 1 2 2 
1 5 5 5 5 5 5 5 5 5 5 4 10 12 12 12 8 12 8 11 10 5 5 5 1 1 5 1 5 2 2 1 1 1 5 1 5 5 5 5 5 5 5 5 12 11 9 12 12 9 7 7 7 12 12 10 3 3 3 3 3 3 3 3 3 4 4 12 12 5 12 7 5 5 5 5 5 5 5 5 5 5 1 9 4 9 12 8 4 8 4 11 5 5 5 5 5 5 5 5 1 5 1 1 1 5 2 2 5 
5 5 5 5 5 5 5 5 5 5 5 5 12 12 9 9 10 10 10 5 5 5 5 5 1 1 1 1 5 2 2 2 2 1 5 5 5 5 5 5 5 4 10 11 11 4 8 12 10 12 12 4 10 7 12 12 12 12 12 9 12 11 12 3 4 4 4 12 12 12 12 8 5 5 5 5 5 5 5 5 5 5 11 11 5 10 11 11 8 12 5 4 5 5 5 5 5 5 1 1 1 5 1 1 2 2 2 1 1 
5 5 5 5 5 5 5 10 5 5 10 12 4 10 12 4 8 5 5 5 5 5 5 5 5 1 1 2 1 1 2 2 1 5 5 5 5 10 4 4 4 4 4 4 12 4 10 8 12 12 12 12 12 12 12 12 12 12 12 12 8 12 12 12 8 11 4 5 12 12 12 5 8 4 5 5 5 10 5 5 5 5 5 5 5 5 5 12 11 6 10 12 5 5 5 5 5 5 1 1 1 1 1 1 2 2 5 1 2 
5 5 4 5 5 10 4 12 4 12 12 11 4 11 9 9 10 12 5 5 5 5 1 5 1 1 1 2 2 1 2 2 1 1 1 5 5 5 1 1 7 5 5 5 5 5 5 5 12 12 12 12 12 12 12 12 12 9 12 11 11 11 12 12 11 11 4 4 4 11 11 12 8 4 5 11 10 11 5 11 10 5 5 5 5 5 5 12 5 9 8 11 5 4 4 5 5 5 5 5 1 1 2 1 2 2 5 2 1 
5 5 5 5 5 12 5 10 12 4 11 4 10 11 4 12 8 5 5 5 5 5 1 1 1 1 2 1 2 1 1 1 1 5 1 5 5 5 5 5 5 5 5 5 5 5 5 5 4 4 12 12 12 9 12 12 11 12 10 11 5 5 11 12 4 9 11 7 4 4 8 12 11 5 5 11 10 11 12 12 8 12 5 5 5 5 5 5 10 4 7 8 6 4 4 5 5 5 5 5 5 1 1 2 2 5 5 5 5 
5 5 5 5 5 11 4 11 12 11 11 4 11 4 4 9 10 5 5 5 5 5 1 5 1 1 1 2 1 1 1 1 1 1 1 1 5 5 5 5 5 5 5 5 5 5 5 5 4 4 4 12 12 4 12 8 8 11 5 5 5 5 10 12 9 11 10 13 6 9 8 11 5 12 11 12 11 11 11 8 8 11 11 9 4 8 5 8 12 4 11 1 11 11 12 4 4 1 5 5 5 5 1 1 1 5 1 5 5 
5 5 5 5 11 4 4 4 4 12 4 4 4 13 9 9 9 11 5 5 5 5 1 1 1 1 1 5 1 1 1 1 1 5 1 5 1 1 5 5 5 5 5 5 5 5 5 5 4 4 4 4 4 8 8 4 4 5 5 5 5 4 5 12 12 11 8 9 4 13 4 8 4 4 4 5 6 8 11 11 11 11 12 11 12 5 5 5 8 13 11 8 12 12 5 4 1 5 5 5 5 5 1 1 1 1 1 1 5 
7 5 7 11 8 9 4 4 4 8 9 12 12 12 12 12 8 5 5 5 5 5 5 5 1 1 1 1 1 1 5 1 5 1 1 1 1 5 5 5 5 3 1 5 5 5 5 5 5 4 4 4 4 4 5 5 5 5 5 5 5 5 5 10 11 12 12 8 4 4 7 11 5 8 12 12 8 11 4 4 12 8 7 11 12 5 8 5 10 1 4 5 5 5 5 5 5 5 5 5 1 5 1 1 1 1 1 1 5 
11 11 11 4 10 4 4 4 9 9 12 8 12 12 12 12 10 5 5 5 5 5 5 5 1 5 5 1 5 5 5 5 5 1 1 5 1 1 5 1 5 5 5 5 5 5 1 1 5 5 4 4 5 5 5 1 5 5 5 4 5 5 5 5 11 12 4 12 9 9 6 13 10 11 10 4 4 4 5 5 5 5 1 5 5 8 5 11 8 10 5 10 11 5 5 5 5 5 5 1 5 1 1 1 1 1 1 5 5 
11 11 8 4 4 4 12 12 8 12 12 11 11 8 12 12 5 5 5 5 5 5 5 1 1 5 5 1 1 5 5 5 5 1 1 1 5 5 5 5 5 5 3 5 5 5 5 1 5 5 5 5 5 5 1 1 5 5 5 5 5 5 10 5 12 9 12 11 9 12 11 8 9 4 12 4 11 4 13 8 11 5 11 11 11 8 12 11 11 12 5 5 5 11 10 5 5 5 5 5 1 5 1 1 5 1 1 1 5 
11 4 4 4 9 9 8 8 11 12 9 12 10 4 10 4 8 5 5 5 5 5 5 1 5 5 1 5 5 5 5 5 5 5 5 5 5 5 5 5 5 5 5 5 5 5 5 5 5 1 1 1 5 1 5 5 5 5 5 5 5 5 4 11 8 12 12 4 12 8 8 12 9 12 8 9 9 8 9 12 13 8 8 10 5 12 11 11 12 12 10 5 5 4 5 5 5 5 5 5 5 5 5 5 5 5 1 1 1 
4 4 4 7 8 10 10 11 10 5 10 5 5 5 5 9 4 12 5 5 5 1 5 1 1 1 1 5 5 5 5 5 5 5 5 5 5 5 5 5 4 4 7 5 5 5 5 1 1 1 5 5 5 5 5 5 5 5 5 5 5 12 12 4 9 11 11 8 12 12 11 12 9 12 12 12 12 11 4 4 12 4 13 1 10 12 11 12 12 8 8 8 8 5 4 5 5 4 4 5 5 5 5 5 1 5 5 1 1 
