ncols        32
nrows        30
xllcorner    630800.000000000000
yllcorner    5180500.000000000000
cellsize     500.000000000000
NODATA_value -9999
5 5 10 4 4 4 5 5 1 1 5 1 2 5 5 1 1 5 2 2 2 2 2 2 2 2 2 2 2 1 2 1
6 5 11 13 12 5 1 5 1 1 2 1 2 2 2 2 1 2 1 2 2 2 2 2 2 2 2 5 1 1 5 5
4 13 4 10 7 5 1 5 1 1 1 2 2 2 2 2 2 2 2 1 2 2 2 1 2 2 1 1 1 1 5 5
4 4 10 5 5 4 5 5 5 1 2 2 2 2 2 2 2 2 1 2 2 2 2 2 1 2 1 1 1 5 5 5
4 5 5 10 5 5 5 5 5 1 2 1 2 2 2 1 2 2 2 2 1 1 1 2 1 5 1 5 5 5 5 5
5 5 5 5 5 5 1 3 2 1 1 2 2 2 2 2 2 2 2 2 1 1 1 1 5 5 5 5 5 5 4 5
5 5 5 5 5 5 5 5 1 2 1 2 2 2 2 1 1 1 1 1 2 1 5 5 5 5 5 5 5 10 7 7
5 5 5 5 1 5 1 1 2 2 1 2 2 2 2 1 1 1 5 1 1 1 5 5 4 5 5 5 5 5 7 12
2 5 1 1 1 1 2 2 2 2 2 1 2 2 2 5 5 5 5 5 1 5 5 5 5 7 5 4 4 5 13 12
2 2 1 2 2 2 2 2 2 1 1 2 2 2 2 1 5 5 5 5 5 5 5 5 5 4 12 4 5 4 12 12
2 2 2 2 2 2 2 2 2 1 2 2 2 2 2 1 5 5 1 5 5 5 5 5 10 10 5 5 5 5 12 7
2 2 2 2 2 2 2 2 2 1 2 2 2 2 1 1 1 5 5 1 5 5 5 4 5 5 1 5 5 5 12 4
2 2 2 2 2 2 2 2 2 2 2 2 2 1 2 2 1 5 5 5 1 5 4 5 5 1 1 1 5 5 12 4
1 2 2 2 2 2 2 2 2 2 2 2 2 2 2 1 1 1 5 5 5 4 5 5 1 2 1 1 1 5 12 5
1 5 2 2 2 2 2 2 2 2 2 2 2 1 1 1 5 5 5 5 4 4 5 5 1 2 1 5 5 5 9 4
5 5 1 2 2 2 2 2 2 2 1 2 1 5 5 5 5 5 5 4 4 5 5 1 2 1 5 5 5 4 10 5
1 1 1 5 2 2 2 2 2 1 1 1 5 5 1 4 1 4 4 4 5 5 1 1 1 1 5 5 5 4 5 5
5 1 2 2 1 2 2 2 2 1 1 5 5 1 1 5 5 5 4 5 5 5 1 1 2 1 1 5 4 5 5 5
1 5 2 2 2 5 2 2 2 1 1 1 2 1 5 5 5 1 1 5 5 1 1 1 1 1 5 5 4 5 5 1
2 5 2 2 2 1 2 2 2 1 2 2 5 1 5 5 5 4 5 1 1 2 2 1 1 5 5 5 4 5 5 5
2 5 2 2 2 2 2 1 1 2 2 1 1 5 5 5 1 5 5 1 2 1 1 5 5 5 5 4 5 5 5 5
2 2 2 2 2 2 2 1 2 2 1 2 1 1 5 5 1 1 1 1 2 2 1 5 5 4 1 1 5 5 1 5
2 2 2 2 2 2 1 1 2 2 2 2 1 1 5 1 1 1 2 2 2 1 1 5 4 1 5 5 5 5 5 5
1 2 1 2 2 2 2 2 2 1 1 1 1 1 1 2 1 1 2 2 2 2 1 1 1 5 5 1 5 1 2 1
2 1 2 2 2 2 2 2 1 1 1 1 5 1 3 2 1 2 2 2 2 1 5 5 5 5 2 1 5 1 2 1
2 1 2 1 1 1 1 1 1 5 5 5 5 1 2 2 1 2 2 2 1 1 5 1 5 1 2 1 1 2 2 2
1 2 2 2 2 1 1 1 5 5 5 5 1 1 2 1 2 2 1 1 1 1 1 1 2 1 2 2 2 2 2 2
1 1 2 1 2 1 5 5 5 5 4 7 5 1 2 1 1 2 5 1 5 1 2 1 2 1 2 2 2 2 2 1
1 1 1 1 5 1 5 5 5 5 7 1 5 2 1 1 1 1 5 5 5 1 1 2 2 2 2 2 2 2 1 1
5 1 5 1 1 5 5 5 1 5 5 1 5 1 5 5 1 5 5 5 1 5 5 1 1 1 1 2 2 1 5 5
