ncols        160
nrows        150
xllcorner    630800.000000000000
yllcorner    5180500.000000000000
cellsize     100.000000000000
NODATA_value -9999
1.0570014715194702148 1.1138944625854492188 1.1341594457626342773 1.1100397109985351562 1.0959669351577758789 1.0472391843795776367 0.97562515735626220703 0.92708933353424072266 0.916179656982421875 0.98214495182037353516 1.0967954397201538086 1.0939344167709350586 1.0568437576293945312 1.0440382957458496094 1.1199460029602050781 1.074647068977355957 1.0815161466598510742 1.1038376092910766602 1.1038111448287963867 1.0669338703155517578 1.037573695182800293 1.0381299257278442383 1.0359646081924438477 1.0278079509735107422 1.0546958446502685547 1.067929387092590332 1.0665687322616577148 1.1401171684265136719 1.2297703027725219727 1.204110264778137207 1.1794394254684448242 1.1655437946319580078 1.1297159194946289062 1.0527266263961791992 1.030999302864074707 0.83951920270919799805 0.76170438528060913086 0.8574460148811340332 0.85969883203506469727 0.86090838909149169922 0.6531124114990234375 0.7908070683479309082 1.0067160129547119141 0.8707129359245300293 0.6143067479133605957 1.0600359439849853516 1.2042540311813354492 1.0486656427383422852 1.033794403076171875 1.0901204347610473633 1.1021220684051513672 1.0240836143493652344 0.93531370162963867188 1.0258170366287231445 1.2178092002868652344 1.1561136245727539062 1.0514544248580932617 1.1177614927291870117 1.0875208377838134766 1.203936457633972168 1.1770632266998291016 1.2288335561752319336 1.2228641510009765625 1.2786285877227783203 1.2819008827209472656 1.2803400754928588867 1.3055928945541381836 1.3079812526702880859 1.3128052949905395508 1.2944011688232421875 1.2304348945617675781 0.91103649139404296875 1.1727641820907592773 1.1314885616302490234 1.1682345867156982422 1.1915466785430908203 1.2433668375015258789 1.1569066047668457031 1.2085783481597900391 1.2363022565841674805 1.2051424980163574219 1.2099554538726806641 1.2270467281341552734 1.2903019189834594727 1.2926173210144042969 1.2740018367767333984 1.2973667383193969727 1.2884832620620727539 1.2672674655914306641 1.281482696533203125 1.2631072998046875 1.3082059621810913086 1.2906850576400756836 1.2512862682342529297 1.2417325973510742188 1.2739551067352294922 1.1513158082962036133 1.3192015886306762695 1.3310592174530029297 1.2503116130828857422 1.2465101480484008789 1.3349194526672363281 1.3341852426528930664 1.3350919485092163086 1.3405700922012329102 1.2953302860260009766 1.2419836521148681641 1.3087711334228515625 1.3182407617568969727 1.2665588855743408203 1.2696462869644165039 1.2656065225601196289 1.3385837078094482422 1.1938407421112060547 1.1716251373291015625 1.2215349674224853516 1.3188453912734985352 1.223023533821105957 1.2650641202926635742 1.2038531303405761719 0.71201270818710327148 0.98063707351684570312 1.2901051044464111328 1.2740501165390014648 1.2266327142715454102 1.1813127994537353516 1.141571044921875 1.1150708198547363281 1.1418422460556030273 1.1718392372131347656 1.1692879199981689453 1.1335701942443847656 1.1302109956741333008 1.1508305072784423828 1.1618043184280395508 1.1464002132415771484 1.1522064208984375 1.1659142971038818359 1.1675275564193725586 1.1605867147445678711 1.1722940206527709961 1.1722600460052490234 1.2209542989730834961 1.3311055898666381836 1.2271466255187988281 0.66172015666961669922 0.89518046379089355469 0.95767307281494140625 0.96505302190780639648 1.0737358331680297852 1.1254917383193969727 1.1643446683883666992 1.1152166128158569336 1.0553188323974609375 1.0756889581680297852 1.135829925537109375 1.2008148431777954102 1.1962246894836425781 1.2128013372421264648 1.2101072072982788086
0.95539653301239013672 1.0511672496795654297 1.0191262960433959961 1.0440703630447387695 1.0085885524749755859 0.95513576269149780273 1.0081293582916259766 1.0648267269134521484 1.0455944538116455078 1.0586988925933837891 1.095231175422668457 1.1140542030334472656 1.0854772329330444336 1.0720297098159790039 1.1258275508880615234 1.1112142801284790039 1.1001471281051635742 1.0962098836898803711 1.1461335420608520508 1.1622483730316162109 1.0997421741485595703 1.0278038978576660156 1.0267658233642578125 1.0141134262084960938 1.0616292953491210938 1.0241388082504272461 1.0238597393035888672 1.0547020435333251953 1.0616651773452758789 0.97826308012008666992 1.0315171480178833008 1.0523145198822021484 1.1097795963287353516 0.96702283620834350586 0.78405386209487915039 0.70820832252502441406 1.0112736225128173828 1.0375609397888183594 1.1197965145111083984 1.0757336616516113281 0.8569609522819519043 1.0259559154510498047 1.2379324436187744141 1.1490931510925292969 0.634243011474609375 0.69958329200744628906 1.0727238655090332031 1.2411262989044189453 1.1772112846374511719 1.1098945140838623047 1.1358226537704467773 0.99115949869155883789 0.87608480453491210938 0.8971354365348815918 0.84462797641754150391 0.9630718231201171875 1.063246607780456543 1.0963270664215087891 1.2167563438415527344 1.2185165882110595703 1.1114579439163208008 1.1986200809478759766 1.1674623489379882812 1.2074011564254760742 0.95606189966201782227 0.92735975980758666992 1.0369775295257568359 0.82652902603149414062 0.80367195606231689453 0.76269143819808959961 0.40993514657020568848 0.67094027996063232422 1.0335119962692260742 1.1077824831008911133 1.1614586114883422852 1.2550519704818725586 1.2016757726669311523 1.0880864858627319336 1.1944501399993896484 1.1836119890213012695 1.1190160512924194336 1.1287457942962646484 1.1544563770294189453 1.1502486467361450195 1.0137956142425537109 0.93897151947021484375 1.0696634054183959961 1.0195900201797485352 1.0837401151657104492 1.1646020412445068359 1.235195159912109375 1.2288448810577392578 1.0048310756683349609 0.88444221019744873047 0.7952544093132019043 0.94376045465469360352 0.92374700307846069336 0.6856181025505065918 1.054363250732421875 0.75109779834747314453 0.79005563259124755859 1.1645857095718383789 0.967449188232421875 0.87292701005935668945 0.89869248867034912109 0.94523233175277709961 1.043361663818359375 0.97369205951690673828 0.86326074600219726562 0.89115542173385620117 1.0282207727432250977 1.0941277742385864258 1.1126943826675415039 0.92019677162170410156 1.0940476655960083008 1.1246811151504516602 1.2262667417526245117 1.1098753213882446289 1.0957955121994018555 0.54518091678619384766 0.60201758146286010742 0.84285032749176025391 0.97179782390594482422 1.1834001541137695312 1.1449897289276123047 1.122280120849609375 1.0698469877243041992 1.0058045387268066406 0.9880625605583190918 1.0890446901321411133 1.2135486602783203125 1.1668184995651245117 1.1229572296142578125 1.1137361526489257812 1.1429907083511352539 1.1651797294616699219 1.1594345569610595703 1.147219538688659668 1.1217658519744873047 1.1598074436187744141 1.1782089471817016602 1.1593381166458129883 1.1883423328399658203 1.1575248241424560547 0.49358919262886047363 0.97790014743804931641 1.2323755025863647461 1.2332096099853515625 1.2495496273040771484 1.1390770673751831055 1.1084394454956054688 1.2492678165435791016 1.2664214372634887695 1.0878956317901611328 1.1986991167068481445 1.214183807373046875 1.1340680122375488281 1.1714299917221069336 1.0548448562622070312 0.98690587282180786133
0.90041238069534301758 0.93808513879776000977 0.99911069869995117188 0.95167642831802368164 0.92096114158630371094 1.0001671314239501953 1.0189902782440185547 1.0314017534255981445 1.050589442253112793 1.0494865179061889648 1.0677845478057861328 1.0973958969116210938 1.0942099094390869141 1.0789461135864257812 1.1063780784606933594 1.1094924211502075195 1.1533044576644897461 1.0079250335693359375 0.94692701101303100586 1.0348294973373413086 1.0574550628662109375 0.91978746652603149414 0.84387439489364624023 0.91264170408248901367 0.99987590312957763672 0.99375379085540771484 0.95374548435211181641 0.89251178503036499023 0.78140550851821899414 0.62434560060501098633 0.75472885370254516602 0.83863091468811035156 0.80358624458312988281 0.76620203256607055664 0.87904387712478637695 1.098569035530090332 1.1089011430740356445 1.1723089218139648438 1.202824711799621582 1.1354439258575439453 0.90818542242050170898 0.94847428798675537109 1.1429250240325927734 0.93465149402618408203 0.65802109241485595703 0.65206950902938842773 0.93229782581329345703 1.0391650199890136719 1.2441555261611938477 1.1832879781723022461 1.0383381843566894531 1.0274118185043334961 1.0946232080459594727 1.1269009113311767578 1.1276419162750244141 1.1592934131622314453 1.0973935127258300781 1.0976507663726806641 1.1954740285873413086 1.176865696907043457 1.1071380376815795898 1.204556584358215332 1.1856784820556640625 1.1461943387985229492 0.70335990190505981445 0.55449765920639038086 0.75052911043167114258 0.65146905183792114258 0.81007367372512817383 0.68954074382781982422 0.30850815773010253906 0.88361096382141113281 1.045534968376159668 1.1391276121139526367 1.1057714223861694336 1.2302281856536865234 1.093401789665222168 1.0504494905471801758 1.2063229084014892578 1.1843026876449584961 1.1607207059860229492 1.1448901891708374023 1.0719602108001708984 1.0414427518844604492 0.94952428340911865234 0.89940929412841796875 0.94512325525283813477 0.94180083274841308594 1.0712209939956665039 1.0689407587051391602 0.95352256298065185547 1.0113915205001831055 1.0742319822311401367 1.0190689563751220703 0.76125329732894897461 1.0416407585144042969 1.0542943477630615234 0.46517884731292724609 0.85295951366424560547 0.63449662923812866211 0.82534861564636230469 1.051497340202331543 0.92832326889038085938 0.87398391962051391602 0.91842383146286010742 0.97002959251403808594 0.97533971071243286133 1.045084834098815918 1.0369065999984741211 1.0318515300750732422 1.0847258567810058594 1.2121752500534057617 1.097975611686706543 0.93142008781433105469 1.059888005256652832 0.98388773202896118164 0.85335218906402587891 0.54943454265594482422 0.44811454415321350098 0.22590267658233642578 0.79986655712127685547 1.058392643928527832 0.93758004903793334961 0.99228489398956298828 1.0090781450271606445 1.102420806884765625 1.073763728141784668 1.0483795404434204102 1.0424920320510864258 1.0739881992340087891 1.1171931028366088867 1.1543463468551635742 1.1190803050994873047 1.1225908994674682617 1.1476265192031860352 1.1472570896148681641 1.1416485309600830078 1.1350436210632324219 1.1649240255355834961 1.1801759004592895508 1.18456268310546875 1.1907972097396850586 1.1600120067596435547 1.0371896028518676758 0.30421459674835205078 1.0461664199829101562 1.0161943435668945312 0.91019767522811889648 1.0499073266983032227 1.1538242101669311523 0.99107855558395385742 0.95820385217666625977 1.2106602191925048828 1.2920525074005126953 1.2258777618408203125 1.1959973573684692383 1.1654324531555175781 1.1929473876953125 1.0906013250350952148 0.74849623441696166992
0.91845840215682983398 1.002361297607421875 1.0474424362182617188 1.0256781578063964844 0.98832261562347412109 1.0109765529632568359 0.99132335186004638672 1.0413492918014526367 1.0431548357009887695 1.0781447887420654297 1.1030995845794677734 1.1055066585540771484 1.1185165643692016602 1.1059805154800415039 1.1246827840805053711 1.1119334697723388672 1.1794314384460449219 0.99495661258697509766 0.87093138694763183594 1.0556113719940185547 1.0926784276962280273 0.96508413553237915039 0.9548441767692565918 0.93350249528884887695 0.98991531133651733398 0.95552843809127807617 0.89392793178558349609 0.98372834920883178711 0.93157726526260375977 0.91325628757476806641 1.0781567096710205078 1.0375593900680541992 0.83653229475021362305 0.99211776256561279297 1.0345478057861328125 1.1091830730438232422 1.0751066207885742188 1.2540907859802246094 1.2963445186614990234 1.1200404167175292969 1.1398289203643798828 1.1973401308059692383 1.1899704933166503906 0.89052444696426391602 0.98527395725250244141 0.95140469074249267578 0.82239145040512084961 0.80573558807373046875 0.87298852205276489258 0.82581430673599243164 1.0554611682891845703 1.2703351974487304688 1.2442710399627685547 1.1514365673065185547 1.1772558689117431641 1.1502344608306884766 1.1879675388336181641 1.1358499526977539062 1.2036240100860595703 1.2254781723022460938 1.1328400373458862305 1.2262871265411376953 1.2104070186614990234 1.1295349597930908203 0.83743917942047119141 0.3934097588062286377 0.25041428208351135254 0.2508449852466583252 0.27691531181335449219 0.24914027750492095947 0.21813490986824035645 0.65469568967819213867 0.72382622957229614258 0.80673086643218994141 0.93212437629699707031 1.10890960693359375 0.97886478900909423828 0.99336278438568115234 1.0919594764709472656 1.1663265228271484375 1.1236841678619384766 1.056132197380065918 1.0422605276107788086 0.97578448057174682617 1.0127679109573364258 0.73823440074920654297 0.82527923583984375 0.850788116455078125 0.99131160974502563477 0.89551621675491333008 0.97603166103363037109 0.95934617519378662109 0.95778566598892211914 0.8625164031982421875 0.8078969120979309082 1.1578947305679321289 1.1636817455291748047 0.50342810153961181641 0.40231248736381530762 0.59226244688034057617 0.72810155153274536133 0.84995973110198974609 0.86971300840377807617 0.93069660663604736328 1.0036696195602416992 0.94425916671752929688 0.88964021205902099609 1.0280500650405883789 1.097788691520690918 1.1275143623352050781 1.1291184425354003906 1.2454940080642700195 0.98724019527435302734 0.81691914796829223633 1.0510246753692626953 1.0742573738098144531 1.1019649505615234375 0.8894850611686706543 0.63659125566482543945 0.20667779445648193359 0.83826148509979248047 1.1250051259994506836 1.033396601676940918 0.99519687891006469727 0.97885787487030029297 1.0477768182754516602 1.065478205680847168 1.0650904178619384766 1.0955700874328613281 1.1526702642440795898 1.093311309814453125 1.1099181175231933594 1.1072210073471069336 1.0944223403930664062 1.1076568365097045898 1.1089010238647460938 1.1136937141418457031 1.1329463720321655273 1.1557815074920654297 1.1499414443969726562 1.1183025836944580078 1.1476410627365112305 1.0443830490112304688 0.99796569347381591797 0.33742049336433410645 0.81561052799224853516 0.95127415657043457031 0.93427515029907226562 0.94452446699142456055 1.113144993782043457 1.0129104852676391602 0.82704913616180419922 0.93520933389663696289 1.1115175485610961914 1.0673835277557373047 1.0783340930938720703 1.2790782451629638672 1.2416938543319702148 1.2194178104400634766 0.87597644329071044922
0.92274260520935058594 0.96317589282989501953 1.0831872224807739258 1.0952465534210205078 1.0915316343307495117 0.99733734130859375 0.99110150337219238281 1.0720766782760620117 1.0022127628326416016 1.0643936395645141602 1.1377261877059936523 1.1544111967086791992 1.1637258529663085938 1.0412081480026245117 1.098236083984375 1.1503672599792480469 1.1654684543609619141 1.0848228931427001953 1.0050338506698608398 1.0873771905899047852 1.0846744775772094727 0.96799880266189575195 0.93562453985214233398 0.90597867965698242188 0.9145641326904296875 0.93006080389022827148 0.98487776517868041992 1.0530115365982055664 1.0639966726303100586 1.1822174787521362305 1.2521207332611083984 1.1499885320663452148 0.99538785219192504883 0.9798113703727722168 0.95471954345703125 1.0875937938690185547 1.0325714349746704102 1.1600798368453979492 1.2724401950836181641 1.2169780731201171875 1.1728845834732055664 1.2199776172637939453 1.2853804826736450195 0.85239303112030029297 0.84088587760925292969 1.1907248497009277344 0.80649161338806152344 0.45246896147727966309 0.75347304344177246094 1.1386054754257202148 1.2113965749740600586 1.1016652584075927734 1.1409444808959960938 1.1515059471130371094 1.1654645204544067383 1.1587269306182861328 1.1631610393524169922 1.1283305883407592773 1.1735150814056396484 1.1855068206787109375 1.1260656118392944336 1.1417193412780761719 1.0116084814071655273 1.0920900106430053711 0.7962856292724609375 0.48562088608741760254 0.69560617208480834961 0.78923803567886352539 0.54290509223937988281 0.32449585199356079102 0.21702961623668670654 0.3999150395393371582 0.69120818376541137695 0.88235706090927124023 1.099108576774597168 0.91104310750961303711 0.95797944068908691406 1.0478173494338989258 1.0716749429702758789 1.1268098354339599609 1.0394837856292724609 1.0089117288589477539 0.98625922203063964844 0.93796235322952270508 1.0726617574691772461 0.70958614349365234375 0.77989143133163452148 0.89424622058868408203 1.0083453655242919922 0.89940291643142700195 0.9980023503303527832 1.1655412912368774414 0.99629110097885131836 0.80076062679290771484 1.0593578815460205078 1.1710463762283325195 0.91971325874328613281 0.54931360483169555664 0.80426734685897827148 0.96123218536376953125 0.96420073509216308594 0.9394677281379699707 1.0140753984451293945 1.1040581464767456055 1.0129197835922241211 0.93083769083023071289 0.89607137441635131836 0.97779822349548339844 1.0300860404968261719 1.1535534858703613281 1.0363785028457641602 1.0351467132568359375 0.69837367534637451172 0.6867058873176574707 0.9678528904914855957 1.0865560770034790039 1.1478142738342285156 1.135136723518371582 1.1139174699783325195 0.50093346834182739258 0.73053252696990966797 1.1823922395706176758 1.0815616846084594727 1.0054459571838378906 1.0070967674255371094 1.057568669319152832 1.0437759160995483398 1.0650918483734130859 1.1207029819488525391 1.1929011344909667969 1.1328772306442260742 1.0791810750961303711 1.0756145715713500977 1.0267924070358276367 1.0762323141098022461 1.1690422296524047852 1.1692311763763427734 1.167193293571472168 1.1660465002059936523 1.14194488525390625 1.0712579488754272461 1.1724088191986083984 0.89982151985168457031 0.58766585588455200195 0.33299863338470458984 0.49695178866386413574 0.76727688312530517578 0.99910074472427368164 1.0655672550201416016 1.1011762619018554688 0.98847293853759765625 0.75918346643447875977 0.94379407167434692383 1.0386004447937011719 1.1152564287185668945 1.0900766849517822266 1.1462504863739013672 1.0727107524871826172 1.1380084753036499023 1.0254548788070678711
0.81749421358108520508 1.0113061666488647461 1.0953361988067626953 1.1581035852432250977 1.0549466609954833984 0.98693823814392089844 1.008381962776184082 1.0401329994201660156 1.0627390146255493164 1.1177964210510253906 1.0769864320755004883 1.0138378143310546875 1.0415549278259277344 0.91427201032638549805 1.0200991630554199219 1.1470239162445068359 1.071661829948425293 0.92528736591339111328 1.0230307579040527344 1.0945450067520141602 1.0840948820114135742 1.0639630556106567383 0.97408491373062133789 0.94960653781890869141 0.94998872280120849609 1.0808093547821044922 0.95510840415954589844 0.91764402389526367188 0.98756539821624755859 1.078399658203125 1.1738632917404174805 1.0354180335998535156 1.0783568620681762695 1.0561178922653198242 1.1752893924713134766 1.2631725072860717773 1.2871956825256347656 1.2102491855621337891 1.1608388423919677734 1.1000888347625732422 1.1074882745742797852 1.1517605781555175781 1.2552148103713989258 1.0500226020812988281 0.69994556903839111328 0.91669052839279174805 0.72173100709915161133 0.79346489906311035156 0.82879996299743652344 1.1587299108505249023 1.1112121343612670898 1.1796318292617797852 1.2269340753555297852 1.1842410564422607422 1.109059453010559082 1.1081060171127319336 1.1838492155075073242 1.1145855188369750977 1.0813350677490234375 1.1904585361480712891 1.2258973121643066406 0.99703449010848999023 0.94517892599105834961 1.0333551168441772461 1.1608669757843017578 1.229750514030456543 1.2498030662536621094 1.2173926830291748047 1.1617066860198974609 1.0671727657318115234 0.70033866167068481445 0.28761008381843566895 1.0862042903900146484 1.1335103511810302734 1.1359156370162963867 1.0299603939056396484 1.1690231561660766602 1.134510040283203125 0.9022998809814453125 0.95042711496353149414 1.0758457183837890625 1.0726609230041503906 1.023223876953125 1.0842131376266479492 1.1310572624206542969 0.67651575803756713867 0.7399107813835144043 0.99468839168548583984 0.96555268764495849609 0.87461686134338378906 0.87851083278656005859 1.0581246614456176758 1.032330632209777832 0.80748009681701660156 1.1099122762680053711 1.0115183591842651367 0.73170691728591918945 0.81892246007919311523 1.0031962394714355469 1.0244653224945068359 1.053267359733581543 1.0468776226043701172 1.1464715003967285156 1.120486140251159668 1.0591263771057128906 1.0361216068267822266 1.063995361328125 1.1050245761871337891 1.1492469310760498047 1.2172195911407470703 1.0097675323486328125 0.76875841617584228516 0.75912714004516601562 0.70685952901840209961 0.57428544759750366211 0.69008886814117431641 0.94713097810745239258 1.0284831523895263672 1.1446685791015625 0.87500423192977905273 0.23277737200260162354 1.0070022344589233398 1.1205327510833740234 1.0660260915756225586 1.0529347658157348633 1.0892075300216674805 1.0278794765472412109 1.0477013587951660156 1.1090958118438720703 1.1552447080612182617 1.1501291990280151367 1.1067997217178344727 1.0760940313339233398 0.98517304658889770508 1.1007065773010253906 1.246429443359375 1.2330946922302246094 1.1989171504974365234 1.2029017210006713867 1.165227055549621582 1.040259242057800293 1.2299668788909912109 1.0183832645416259766 0.32459944486618041992 0.16796286404132843018 0.60697031021118164062 0.95390588045120239258 1.0207687616348266602 0.9397951960563659668 1.023207545280456543 1.0093921422958374023 0.73966515064239501953 0.86298733949661254883 0.97045332193374633789 1.1155470609664916992 1.0000700950622558594 0.98601907491683959961 1.1050355434417724609 1.2149442434310913086 1.098636627197265625
0.78725427389144897461 0.93624007701873779297 0.93839079141616821289 0.9369551539421081543 0.99309146404266357422 0.97369271516799926758 0.96524930000305175781 0.94686883687973022461 0.99855160713195800781 1.0586093664169311523 0.74448996782302856445 0.85017788410186767578 1.0217757225036621094 0.87493860721588134766 1.1124706268310546875 1.1335293054580688477 1.1229172945022583008 0.94333463907241821289 1.0912098884582519531 1.0430080890655517578 0.90954369306564331055 0.85435873270034790039 0.87624245882034301758 0.95080137252807617188 1.0112588405609130859 1.2062642574310302734 1.2026637792587280273 1.0837991237640380859 1.0149914026260375977 1.004889369010925293 1.0676783323287963867 1.0683090686798095703 1.1869716644287109375 1.1954674720764160156 1.1814917325973510742 1.235075831413269043 1.2235463857650756836 1.0230321884155273438 0.91214239597320556641 0.75802588462829589844 0.99371230602264404297 1.1075031757354736328 1.1938382387161254883 1.1175317764282226562 0.6345641016960144043 0.81609928607940673828 0.73375052213668823242 0.86797094345092773438 1.098279118537902832 1.1379733085632324219 1.0601400136947631836 1.0017968416213989258 1.074578404426574707 1.1339060068130493164 1.1148613691329956055 1.1138234138488769531 0.95448803901672363281 0.93177485466003417969 0.8449993133544921875 0.96391093730926513672 1.184406280517578125 1.1325067281723022461 1.1650611162185668945 1.1359226703643798828 1.1466623544692993164 1.1965606212615966797 1.2144656181335449219 1.2324397563934326172 1.1637643575668334961 1.1914048194885253906 1.2378835678100585938 0.76065677404403686523 1.0550587177276611328 0.99929457902908325195 1.1055963039398193359 1.0915057659149169922 1.1749020814895629883 0.87358266115188598633 0.7915833592414855957 0.96119344234466552734 1.0997571945190429688 1.0129933357238769531 0.97868245840072631836 1.1461335420608520508 1.0184412002563476562 0.62790656089782714844 0.56111204624176025391 0.98248952627182006836 0.89449089765548706055 0.80561625957489013672 0.83439582586288452148 0.90688335895538330078 0.80693912506103515625 0.85282266139984130859 1.0978196859359741211 0.81935387849807739258 0.64754426479339599609 0.80062180757522583008 0.97521901130676269531 1.0264464616775512695 1.0267577171325683594 1.0141041278839111328 1.0965973138809204102 1.0965546369552612305 1.1279633045196533203 1.1424071788787841797 1.2310301065444946289 1.2962739467620849609 1.2923541069030761719 1.1645790338516235352 1.0724366903305053711 1.0190399885177612305 1.0693906545639038086 0.95277082920074462891 0.82412755489349365234 0.75636827945709228516 0.9127705693244934082 1.0785312652587890625 1.0910456180572509766 1.0545710325241088867 0.4680671989917755127 0.72923266887664794922 1.0884016752243041992 1.0878036022186279297 1.0891387462615966797 1.125153660774230957 1.066351771354675293 1.0415434837341308594 1.0592570304870605469 1.1110616922378540039 1.1356549263000488281 1.1035321950912475586 1.1068059206008911133 1.0232090950012207031 1.0255310535430908203 1.2504142522811889648 1.298548579216003418 1.2553819417953491211 1.1279022693634033203 0.8685385584831237793 0.92977029085159301758 1.1453984975814819336 1.0595238208770751953 0.2418352961540222168 0.24036291241645812988 0.51551890373229980469 0.42752489447593688965 0.42124661803245544434 0.35886296629905700684 0.35902228951454162598 0.47853621840476989746 0.32051700353622436523 0.59117501974105834961 0.93043613433837890625 0.90173852443695068359 0.7693150639533996582 0.66193765401840209961 0.88031107187271118164 0.99514979124069213867 0.97427058219909667969
0.89099466800689697266 1.0359936952590942383 0.91487509012222290039 0.88570225238800048828 0.90261298418045043945 0.76429480314254760742 0.86059719324111938477 0.89331358671188354492 0.91387891769409179688 0.89811563491821289062 0.74594402313232421875 0.98878198862075805664 0.87083458900451660156 0.89355945587158203125 1.1553940773010253906 1.1191577911376953125 1.0953502655029296875 1.0268678665161132812 1.0689278841018676758 1.0458360910415649414 1.0247110128402709961 1.0735992193222045898 1.1283856630325317383 1.091237187385559082 0.99634402990341186523 1.0955163240432739258 1.1875879764556884766 1.2268024682998657227 1.2004944086074829102 1.1229164600372314453 1.0612254142761230469 1.0370169878005981445 1.0783962011337280273 1.2562712430953979492 0.86117184162139892578 0.79835009574890136719 1.048012852668762207 0.94181519746780395508 0.82647043466567993164 0.63025569915771484375 0.91652441024780273438 1.0884021520614624023 1.1565248966217041016 0.97450500726699829102 0.45191910862922668457 0.85036605596542358398 0.77257871627807617188 1.0932656526565551758 1.2290269136428833008 1.1059682369232177734 1.0767785310745239258 0.99337267875671386719 0.95972537994384765625 1.0122857093811035156 1.0327048301696777344 0.96268647909164428711 0.73942553997039794922 0.75639754533767700195 0.68225538730621337891 0.69902974367141723633 0.966281890869140625 0.99794507026672363281 1.1291656494140625 1.2706390619277954102 1.1976873874664306641 1.1223717927932739258 1.2020888328552246094 1.2234970331192016602 1.1389652490615844727 1.0915162563323974609 1.113104701042175293 1.0230360031127929688 0.96016788482666015625 0.96129000186920166016 1.0304741859436035156 1.0139288902282714844 0.85942238569259643555 0.89321875572204589844 1.1142468452453613281 0.99589586257934570312 0.96965003013610839844 0.92937999963760375977 0.81717908382415771484 0.82335096597671508789 0.85273915529251098633 0.83133208751678466797 0.52114266157150268555 0.86343961954116821289 0.79704493284225463867 0.72981315851211547852 0.73547530174255371094 0.7709490656852722168 1.0004938840866088867 1.1735239028930664062 0.97307044267654418945 0.64873266220092773438 0.78546029329299926758 0.90128237009048461914 0.98507642745971679688 1.0291149616241455078 1.0587373971939086914 1.0045815706253051758 1.0484336614608764648 1.1830446720123291016 1.0989644527435302734 1.0057632923126220703 1.021876215934753418 1.186173558235168457 1.2058329582214355469 1.0021158456802368164 0.86786347627639770508 0.93069940805435180664 0.87599784135818481445 0.91330003738403320312 0.97445714473724365234 0.92581534385681152344 0.94414091110229492188 1.0372966527938842773 0.96843993663787841797 0.99507927894592285156 0.77293157577514648438 0.79362207651138305664 1.0372182130813598633 0.98830890655517578125 1.1117887496948242188 1.2050095796585083008 1.1372151374816894531 1.0727404356002807617 1.0410807132720947266 1.1188099384307861328 1.1464806795120239258 1.1050546169281005859 1.0975406169891357422 1.0935229063034057617 1.0609476566314697266 0.86160129308700561523 0.76541978120803833008 0.54758745431900024414 0.55493664741516113281 0.40057995915412902832 0.7670612335205078125 1.0173453092575073242 0.90872812271118164062 0.33435580134391784668 0.39919430017471313477 0.59504455327987670898 0.75748014450073242188 0.81106919050216674805 0.81272041797637939453 0.68293607234954833984 0.44733384251594543457 0.51617032289505004883 0.27881196141242980957 0.36616486310958862305 0.3459542691707611084 0.30397307872772216797 0.28384470939636230469 0.5207729339599609375 0.46388846635818481445 0.61495208740234375
1.0150183439254760742 0.98860430717468261719 0.87606382369995117188 0.86685353517532348633 0.82849925756454467773 0.76877588033676147461 0.84174352884292602539 0.86896800994873046875 0.90699654817581176758 0.82548975944519042969 0.80899751186370849609 1.0082076787948608398 0.80192023515701293945 0.92377412319183349609 1.1873315572738647461 1.1395409107208251953 1.1239515542984008789 1.1560112237930297852 1.0829895734786987305 1.0987582206726074219 0.99541467428207397461 0.907222747802734375 0.84503448009490966797 0.91755312681198120117 0.9184246063232421875 1.0503045320510864258 1.0965321063995361328 1.0063892602920532227 1.0954571962356567383 1.094304203987121582 1.1152611970901489258 1.1462956666946411133 1.2459244728088378906 1.2527714967727661133 0.95844477415084838867 0.45546129345893859863 0.54391992092132568359 0.76448076963424682617 0.85709041357040405273 0.55510294437408447266 0.86796623468399047852 1.0600370168685913086 1.1049580574035644531 0.69493198394775390625 0.29194200038909912109 0.67935633659362792969 0.75660085678100585938 1.0587437152862548828 1.148942112922668457 1.1449400186538696289 1.1740776300430297852 1.1116209030151367188 1.0193674564361572266 1.0731155872344970703 1.1038957834243774414 0.81510794162750244141 0.81820225715637207031 0.67639189958572387695 0.8265520930290222168 0.95257771015167236328 0.94402766227722167969 0.90951591730117797852 0.96697610616683959961 1.1864392757415771484 1.0837535858154296875 1.0917786359786987305 1.2519855499267578125 1.2112584114074707031 1.1252022981643676758 1.0915634632110595703 1.0449270009994506836 0.99037337303161621094 1.015526890754699707 0.98591363430023193359 0.97764760255813598633 0.92339628934860229492 0.87085455656051635742 1.0061769485473632812 0.78455466032028198242 0.50235646963119506836 0.69495534896850585938 0.79531598091125488281 0.80269283056259155273 0.71973574161529541016 0.60312753915786743164 0.55903303623199462891 0.32595813274383544922 0.4488690495491027832 0.57471770048141479492 0.49582996964454650879 0.52492201328277587891 0.94765925407409667969 1.1809331178665161133 1.1466524600982666016 0.71639531850814819336 0.78080517053604125977 0.95716780424118041992 1.0222320556640625 1.0657441616058349609 1.0749292373657226562 1.0864229202270507812 1.0786482095718383789 1.0018520355224609375 1.0337655544281005859 0.93984675407409667969 0.88298112154006958008 0.83667427301406860352 0.9820766448974609375 0.89480000734329223633 0.74064028263092041016 0.91117388010025024414 1.0546402931213378906 0.76036649942398071289 0.75072383880615234375 1.0388369560241699219 1.0474927425384521484 1.0117560625076293945 0.79612410068511962891 0.57856726646423339844 0.82295131683349609375 0.77852702140808105469 0.60153943300247192383 0.79677462577819824219 0.90841585397720336914 1.1655726432800292969 1.2342878580093383789 1.1846473217010498047 1.1087664365768432617 1.075526118278503418 1.1175906658172607422 1.1478711366653442383 1.110576629638671875 1.095171809196472168 1.0774183273315429688 0.93296331167221069336 0.48832926154136657715 0.74004822969436645508 1.0431492328643798828 1.1408025026321411133 0.94848102331161499023 0.70654314756393432617 0.49009558558464050293 0.24882769584655761719 0.64965164661407470703 1.0436291694641113281 0.93678760528564453125 0.98634678125381469727 0.76366084814071655273 0.96024096012115478516 0.94749283790588378906 0.7790558934211730957 0.94770735502243041992 0.86937290430068969727 0.70646369457244873047 0.61547440290451049805 0.67146342992782592773 0.57204550504684448242 0.9684416651725769043 0.98193526268005371094 1.0779877901077270508
0.94123482704162597656 0.93664509057998657227 0.88095504045486450195 0.9088789820671081543 0.89255928993225097656 0.90354067087173461914 0.93278688192367553711 1.0733432769775390625 1.0392231941223144531 0.94492739439010620117 1.0408524274826049805 0.9208272099494934082 0.83536279201507568359 1.060816645622253418 1.1749646663665771484 1.1263935565948486328 1.1064531803131103516 1.1646789312362670898 0.97089415788650512695 0.97586131095886230469 0.97606861591339111328 0.86936515569686889648 0.83012318611145019531 0.85103881359100341797 0.87245351076126098633 1.0130370855331420898 1.10869598388671875 1.073664546012878418 1.0193899869918823242 0.73142731189727783203 0.82891285419464111328 0.82743620872497558594 1.0671304464340209961 1.1856245994567871094 1.1113009452819824219 0.93589043617248535156 0.73898851871490478516 0.32819452881813049316 0.47937461733818054199 0.38115367293357849121 0.61948615312576293945 0.71225506067276000977 0.93888008594512939453 0.24646489322185516357 0.19295142590999603271 0.56304204463958740234 0.93365317583084106445 1.0639272928237915039 1.1136500835418701172 1.1319069862365722656 1.1404142379760742188 1.1046538352966308594 1.0492300987243652344 1.1394696235656738281 1.0349484682083129883 0.60664194822311401367 0.8214390873908996582 0.88914102315902709961 0.98991292715072631836 1.1673567295074462891 1.1134088039398193359 1.1121973991394042969 1.1139533519744873047 1.0598318576812744141 0.92581427097320556641 1.1429121494293212891 1.1177041530609130859 0.94038522243499755859 0.77202081680297851562 0.79590904712677001953 0.92725026607513427734 1.0045334100723266602 1.1671810150146484375 1.1445744037628173828 1.1195427179336547852 0.99151945114135742188 0.90848827362060546875 0.94972681999206542969 1.0162998437881469727 0.82351380586624145508 0.52049118280410766602 0.69226765632629394531 0.78821992874145507812 0.76674896478652954102 0.48822632431983947754 0.42776703834533691406 0.45245206356048583984 0.87403756380081176758 1.0327434539794921875 1.0040124654769897461 0.53121662139892578125 0.59962022304534912109 0.8030923008918762207 0.71500301361083984375 0.72380888462066650391 0.92233538627624511719 0.96001648902893066406 1.0119850635528564453 1.0675324201583862305 1.1150974035263061523 1.148789525032043457 1.0840431451797485352 0.98213404417037963867 0.97217351198196411133 0.93604934215545654297 0.93257796764373779297 0.90463489294052124023 0.899692535400390625 0.7707741856575012207 0.85205483436584472656 1.1834615468978881836 1.1876059770584106445 0.82443231344223022461 0.70620095729827880859 1.0833677053451538086 1.2101203203201293945 1.2010887861251831055 0.8528575897216796875 0.48020911216735839844 0.58918851613998413086 0.69093698263168334961 0.91053694486618041992 0.76278781890869140625 0.60972344875335693359 1.0408414602279663086 1.2050379514694213867 1.1787291765213012695 1.1376998424530029297 1.1198570728302001953 1.1140615940093994141 1.1146677732467651367 1.085558772087097168 1.0887371301651000977 0.9797350764274597168 0.84754061698913574219 1.1877509355545043945 1.1626697778701782227 1.2008095979690551758 1.251210331916809082 1.2144500017166137695 0.88290101289749145508 0.52607685327529907227 0.3123016357421875 0.77306330204010009766 0.99687367677688598633 1.1113020181655883789 1.2005207538604736328 1.0574181079864501953 1.1590545177459716797 1.061539769172668457 1.216231226921081543 1.1232066154479980469 0.92745828628540039062 0.70039427280426025391 0.69244694709777832031 0.9806156158447265625 0.87895536422729492188 0.98647832870483398438 1.0652425289154052734 1.2340111732482910156
0.90916877985000610352 0.94220173358917236328 0.9380588531494140625 0.98983120918273925781 1.0050226449966430664 1.0174192190170288086 0.95666402578353881836 0.99904447793960571289 1.0668834447860717773 1.0750455856323242188 1.1168471574783325195 0.97738236188888549805 1.0301457643508911133 1.1845301389694213867 1.1397432088851928711 1.1206479072570800781 1.1058470010757446289 1.1741125583648681641 0.95440858602523803711 0.98938882350921630859 1.0364512205123901367 0.97381591796875 0.92193257808685302734 0.91380596160888671875 0.89389950037002563477 0.64201319217681884766 0.76051235198974609375 0.88025844097137451172 0.96370416879653930664 0.6782252192497253418 0.58000147342681884766 0.55869626998901367188 0.90082961320877075195 1.1929458379745483398 1.213223576545715332 1.149275660514831543 1.0599611997604370117 0.46236723661422729492 0.47259119153022766113 0.38388144969940185547 0.31739655137062072754 0.20852413773536682129 0.48883476853370666504 0.64626729488372802734 0.77186673879623413086 0.48084607720375061035 0.49392011761665344238 0.65327447652816772461 0.69662564992904663086 0.48573121428489685059 0.432834625244140625 0.97489172220230102539 1.113286137580871582 1.1049829721450805664 0.83210963010787963867 0.75757879018783569336 0.96522003412246704102 0.99568164348602294922 1.0269298553466796875 1.1975221633911132812 1.2486085891723632812 1.2445521354675292969 1.1619379520416259766 0.84698522090911865234 1.0750463008880615234 1.166708827018737793 0.86403143405914306641 0.74385714530944824219 0.72547888755798339844 0.85220396518707275391 1.0078748464584350586 1.2211912870407104492 1.2473453283309936523 1.2456998825073242188 1.2124615907669067383 1.1329810619354248047 1.1163094043731689453 1.1135576963424682617 1.0789310932159423828 1.1260395050048828125 0.82350653409957885742 0.5737895965576171875 0.62164330482482910156 0.54176729917526245117 0.52632653713226318359 0.96160882711410522461 1.0880794525146484375 1.0968459844589233398 1.0642647743225097656 1.164700627326965332 1.120573878288269043 0.61035084724426269531 0.40049597620964050293 0.38969594240188598633 0.67149507999420166016 0.92900288105010986328 1.0131223201751708984 1.0858924388885498047 1.0976171493530273438 1.133450627326965332 1.1247092485427856445 1.027642369270324707 1.0787727832794189453 1.0865523815155029297 1.0459858179092407227 1.0353300571441650391 1.0112588405609130859 1.010306239128112793 1.0451134443283081055 0.52733278274536132812 0.73131704330444335938 0.94621282815933227539 0.52596896886825561523 0.63128179311752319336 1.0209648609161376953 0.99587845802307128906 0.78994697332382202148 0.27145799994468688965 0.2387739717960357666 0.28078818321228027344 0.60122597217559814453 0.90395349264144897461 0.9541835784912109375 0.85521435737609863281 0.69315040111541748047 1.0114552974700927734 1.1136378049850463867 1.1503528356552124023 1.1652426719665527344 1.1326731443405151367 1.1022162437438964844 1.0639948844909667969 0.95161759853363037109 0.67604100704193115234 0.86295711994171142578 1.1696226596832275391 1.1616283655166625977 1.2471668720245361328 1.190966486930847168 1.1176129579544067383 0.98916995525360107422 0.59861141443252563477 0.71941870450973510742 0.93725365400314331055 1.1199193000793457031 0.86213016510009765625 1.0927839279174804688 1.0989656448364257812 1.2123938798904418945 1.0350904464721679688 1.1876735687255859375 1.1600737571716308594 0.9354400634765625 0.52328729629516601562 0.6780039668083190918 1.0026822090148925781 1.0559313297271728516 1.017780303955078125 1.0504019260406494141 1.1484161615371704102
0.93925207853317260742 1.0525532960891723633 1.0556871891021728516 1.0378578901290893555 1.00908660888671875 1.0284019708633422852 1.0225461721420288086 1.1362445354461669922 1.17055511474609375 1.012349247932434082 0.841815948486328125 0.80315798521041870117 0.98004060983657836914 1.1894171237945556641 1.1190311908721923828 1.1282231807708740234 1.0714569091796875 1.1971127986907958984 0.96430152654647827148 0.97155344486236572266 1.001665949821472168 0.9617627263069152832 0.98458993434906005859 0.90216368436813354492 0.96158766746520996094 0.78599888086318969727 0.59733402729034423828 0.61644464731216430664 0.59764885902404785156 0.56189799308776855469 0.45803335309028625488 0.36690434813499450684 0.87733787298202514648 1.1046633720397949219 1.0894430875778198242 0.82639670372009277344 0.36441281437873840332 0.59876728057861328125 0.93026775121688842773 0.96408951282501220703 0.93476724624633789062 0.32825705409049987793 0.91290682554244995117 1.0749984979629516602 1.0673344135284423828 1.0394703149795532227 0.69735068082809448242 0.96164643764495849609 1.1258379220962524414 1.0466381311416625977 0.62457257509231567383 0.34839621186256408691 0.61272734403610229492 0.61360698938369750977 0.58400321006774902344 0.9381682276725769043 0.93269246816635131836 0.75856351852416992188 0.6177247166633605957 0.87696629762649536133 1.1382737159729003906 0.89799159765243530273 0.78290379047393798828 0.77530229091644287109 1.0583056211471557617 1.1912801265716552734 0.90990120172500610352 0.79937601089477539062 0.81316614151000976562 0.94883137941360473633 0.91431665420532226562 0.89311045408248901367 1.1151678562164306641 1.2288579940795898438 1.2064956426620483398 1.1393954753875732422 1.1818434000015258789 1.2269384860992431641 1.1081359386444091797 1.0957529544830322266 0.86894637346267700195 0.66791558265686035156 0.86048978567123413086 0.87334007024765014648 1.0874029397964477539 1.0869164466857910156 1.0447368621826171875 1.0182579755783081055 1.0416060686111450195 1.0881428718566894531 1.1488950252532958984 1.0790574550628662109 0.89151304960250854492 0.75704437494277954102 0.89284503459930419922 0.96979224681854248047 1.0946359634399414062 1.1070828437805175781 1.1499983072280883789 1.2112631797790527344 1.1666398048400878906 0.73559170961380004883 1.0674953460693359375 1.1029280424118041992 1.111601710319519043 1.0785011053085327148 1.0482658147811889648 1.0276784896850585938 1.0920814275741577148 0.96024417877197265625 0.64255285263061523438 0.58270019292831420898 0.59680593013763427734 0.44188392162322998047 0.29571035504341125488 0.1468210071325302124 0.46235436201095581055 0.88693779706954956055 0.98679113388061523438 1.0124782323837280273 0.85784167051315307617 0.82960093021392822266 0.93138802051544189453 1.0975261926651000977 1.0913832187652587891 0.74585229158401489258 0.67613923549652099609 0.88378155231475830078 1.1192754507064819336 1.21242523193359375 1.1412321329116821289 1.0237932205200195312 0.7320200800895690918 0.76759940385818481445 1.1200197935104370117 1.1504701375961303711 1.2171103954315185547 1.2910016775131225586 1.1401720046997070312 1.0838106870651245117 1.0993720293045043945 0.47272071242332458496 0.64782613515853881836 0.80060964822769165039 0.98720109462738037109 0.65681928396224975586 0.89670258760452270508 1.0769336223602294922 1.1381685733795166016 1.0474892854690551758 1.0416216850280761719 1.13611602783203125 1.0801622867584228516 0.815673828125 0.80983358621597290039 0.92724561691284179688 1.0511270761489868164 1.043257594108581543 1.1100171804428100586 1.1670777797698974609
0.9437211155891418457 1.0352436304092407227 1.0168520212173461914 1.0781327486038208008 1.101796269416809082 1.1785387992858886719 1.2202160358428955078 1.1845201253890991211 0.88786852359771728516 0.8514073491096496582 0.8907139897346496582 0.8472779393196105957 1.0009533166885375977 1.1896243095397949219 1.1224491596221923828 1.1477934122085571289 1.0041042566299438477 1.1458454132080078125 0.99886167049407958984 1.0051012039184570312 1.0502790212631225586 0.94965898990631103516 0.85412228107452392578 0.82430833578109741211 0.91850900650024414062 0.91184246540069580078 0.80890852212905883789 0.86839014291763305664 0.89070850610733032227 0.89031463861465454102 0.79301774501800537109 0.4864743351936340332 0.60183298587799072266 0.65147477388381958008 0.73169243335723876953 0.54956281185150146484 0.48172363638877868652 1.0334873199462890625 1.0300906896591186523 1.0641280412673950195 0.90967923402786254883 0.53726339340209960938 0.84644651412963867188 1.0394710302352905273 1.0553365945816040039 1.0839040279388427734 0.88655292987823486328 0.79197615385055541992 1.1911551952362060547 1.2485131025314331055 1.1284090280532836914 0.79787993431091308594 0.5131995081901550293 0.37870141863822937012 0.23373778164386749268 0.63114523887634277344 0.59202057123184204102 0.72830903530120849609 0.81153535842895507812 0.77115744352340698242 0.84725546836853027344 0.9258480072021484375 0.98550486564636230469 1.0931807756423950195 1.1302281618118286133 1.0435227155685424805 0.93620723485946655273 0.82481241226196289062 0.78969877958297729492 0.66363674402236938477 0.3767719566822052002 0.44555145502090454102 0.77388083934783935547 0.92343759536743164062 0.89416640996932983398 0.95548170804977416992 1.0940784215927124023 0.91531270742416381836 0.71007597446441650391 0.85625851154327392578 1.0021394491195678711 1.1883122920989990234 1.2576062679290771484 1.1851493120193481445 1.0624787807464599609 0.97861403226852416992 0.98385512828826904297 0.97527468204498291016 1.0383735895156860352 1.0858776569366455078 1.1295411586761474609 1.2301546335220336914 1.1800463199615478516 0.59260839223861694336 0.80588591098785400391 0.96279156208038330078 1.0154650211334228516 1.0697938203811645508 1.1901546716690063477 1.1192982196807861328 0.79460126161575317383 0.2692279517650604248 0.95860373973846435547 1.1539407968521118164 1.1170389652252197266 1.1079699993133544922 1.0994799137115478516 1.0409096479415893555 1.0715159177780151367 1.118633270263671875 0.92564934492111206055 0.88352656364440917969 0.93798309564590454102 0.95375645160675048828 0.099181085824966430664 0.38546890020370483398 0.96389043331146240234 1.1160413026809692383 1.1773916482925415039 1.1925219297409057617 1.2439900636672973633 1.1032214164733886719 1.0192679166793823242 1.1272538900375366211 1.2473024129867553711 1.3059024810791015625 1.0969132184982299805 0.70467907190322875977 0.56659257411956787109 0.75173819065093994141 0.86125177145004272461 0.56007975339889526367 0.76332849264144897461 1.0593148469924926758 1.1973693370819091797 1.1897537708282470703 1.2390432357788085938 1.2634286880493164062 1.0788537263870239258 1.0572757720947265625 1.0170719623565673828 0.3935642540454864502 1.0172251462936401367 1.1482055187225341797 0.88671135902404785156 0.56012010574340820312 0.56764161586761474609 1.0443367958068847656 1.0717780590057373047 1.0636680126190185547 1.1037867069244384766 1.052624821662902832 1.0389767885208129883 0.90922236442565917969 0.85756129026412963867 0.87402242422103881836 1.0445067882537841797 1.0238167047500610352 1.1613875627517700195 1.1777597665786743164
1.0216706991195678711 1.0851025581359863281 1.0587006807327270508 1.1282426118850708008 1.1389074325561523438 1.1568748950958251953 1.1252262592315673828 0.95502811670303344727 1.0148452520370483398 1.0465410947799682617 0.966312408447265625 0.95013713836669921875 1.0568547248840332031 1.1817631721496582031 1.1224853992462158203 1.14789581298828125 0.95124453306198120117 0.95337122678756713867 1.0001528263092041016 1.0002827644348144531 1.029027104377746582 0.93895292282104492188 0.79586297273635864258 0.8077366948127746582 0.88468843698501586914 0.94102537631988525391 0.94650346040725708008 0.9593410491943359375 0.99408179521560668945 0.97440093755722045898 0.82794672250747680664 0.76673936843872070312 0.79676765203475952148 0.68814879655838012695 0.45003083348274230957 0.44676852226257324219 0.95777326822280883789 1.1590228080749511719 1.0578632354736328125 1.0618968009948730469 1.0014096498489379883 0.74543213844299316406 0.71027857065200805664 0.9228833317756652832 0.94433045387268066406 1.0195287466049194336 1.1392660140991210938 0.61380618810653686523 0.96915435791015625 1.2750821113586425781 1.2720234394073486328 1.1405422687530517578 0.89808547496795654297 0.77121621370315551758 0.45488965511322021484 0.2080577164888381958 0.53041666746139526367 1.008304595947265625 1.0250627994537353516 1.1109012365341186523 1.123244166374206543 1.0945229530334472656 1.1050927639007568359 1.1113361120223999023 1.0555522441864013672 0.78559243679046630859 0.49458083510398864746 0.41721352934837341309 0.3809134066104888916 0.64985984563827514648 0.68782788515090942383 0.57939118146896362305 0.60054606199264526367 0.5279547572135925293 0.42757931351661682129 0.6170819401741027832 0.3103160858154296875 0.32987049221992492676 0.41664022207260131836 1.0663571357727050781 1.1137053966522216797 1.0811313390731811523 1.0985467433929443359 1.0773233175277709961 1.0426601171493530273 0.98253154754638671875 0.94936263561248779297 0.97682237625122070312 1.0400100946426391602 1.1043654680252075195 1.1661759614944458008 1.2764571905136108398 0.84259438514709472656 0.33039188385009765625 0.91280764341354370117 1.0158748626708984375 0.70008373260498046875 0.52789103984832763672 0.46758434176445007324 0.37610575556755065918 0.21373660862445831299 0.11937052756547927856 0.7504787445068359375 1.1265840530395507812 1.1102994680404663086 1.1304086446762084961 1.1374979019165039062 1.1129877567291259766 1.0842342376708984375 1.0360327959060668945 0.73251384496688842773 0.74744045734405517578 0.9347832798957824707 0.91795462369918823242 0.12638849020004272461 0.49626678228378295898 1.0498569011688232422 1.1776902675628662109 1.0961818695068359375 1.0936986207962036133 1.0521919727325439453 1.0814609527587890625 1.0386348962783813477 1.1069327592849731445 1.2191727161407470703 1.2782704830169677734 1.2839282751083374023 1.1746485233306884766 0.85158109664916992188 0.3571777641773223877 0.46890980005264282227 0.76430022716522216797 0.80228537321090698242 1.1676714420318603516 1.1655251979827880859 1.1914144754409790039 1.1776044368743896484 1.2739959955215454102 1.0602211952209472656 0.91307437419891357422 0.52546030282974243164 0.2924060523509979248 0.85744589567184448242 1.1948285102844238281 1.1707460880279541016 1.1460398435592651367 1.0207376480102539062 1.0809262990951538086 1.0228717327117919922 0.91478711366653442383 1.0354104042053222656 1.1197839975357055664 1.1095757484436035156 0.9210783839225769043 0.87447625398635864258 0.99933809041976928711 1.1027464866638183594 1.0251746177673339844 1.0583176612854003906 1.1238867044448852539
1.0505967140197753906 1.1526888608932495117 1.1494339704513549805 1.1495620012283325195 1.1440330743789672852 1.1539117097854614258 1.123316645622253418 1.0434426069259643555 1.1451418399810791016 1.0246332883834838867 0.92635524272918701172 1.0388686656951904297 1.0940043926239013672 1.1810065507888793945 1.1525526046752929688 1.1362853050231933594 1.034268498420715332 0.93034684658050537109 0.98023068904876708984 0.86887598037719726562 0.85653823614120483398 0.90952140092849731445 0.89230293035507202148 0.9798933863639831543 1.0167702436447143555 0.99446439743041992188 0.99910855293273925781 0.9636198878288269043 0.94753110408782958984 0.96143686771392822266 0.96016615629196166992 0.92139917612075805664 0.97676372528076171875 0.78446781635284423828 0.78570866584777832031 0.65708297491073608398 0.91952043771743774414 1.166622161865234375 1.0839755535125732422 1.0892100334167480469 1.1074364185333251953 0.82841831445693969727 0.68702018260955810547 0.65202111005783081055 0.92799729108810424805 1.1257071495056152344 1.1078244447708129883 0.86053043603897094727 0.54204809665679931641 1.1586918830871582031 1.2705376148223876953 1.1678299903869628906 1.0664707422256469727 0.80430352687835693359 0.59452837705612182617 0.76699084043502807617 0.59979259967803955078 0.93126815557479858398 0.91339755058288574219 0.89123970270156860352 0.93784338235855102539 1.0124040842056274414 1.0355483293533325195 1.0604974031448364258 1.0399377346038818359 0.58065789937973022461 0.26211494207382202148 0.25356093049049377441 0.75522226095199584961 0.94153249263763427734 0.97835499048233032227 1.0986038446426391602 1.0892605781555175781 1.0271867513656616211 0.80232036113739013672 0.24768079817295074463 0.61349874734878540039 1.0982493162155151367 1.0003540515899658203 1.1212722063064575195 1.1511270999908447266 1.0990902185440063477 1.0928325653076171875 1.092983245849609375 1.1276935338973999023 1.1051126718521118164 1.0187501907348632812 1.1016404628753662109 1.0650390386581420898 1.1061896085739135742 1.2179124355316162109 1.2103265523910522461 0.66754412651062011719 0.92077428102493286133 1.2344546318054199219 1.2988338470458984375 1.0869704484939575195 1.0972685813903808594 1.1146150827407836914 0.82445645332336425781 0.79403769969940185547 0.72264051437377929688 0.25696349143981933594 0.69725388288497924805 0.73884916305541992188 0.79766458272933959961 0.75103151798248291016 0.64259266853332519531 0.50491285324096679688 0.42104858160018920898 0.19154064357280731201 0.43781229853630065918 0.74199062585830688477 0.53897547721862792969 0.17341564595699310303 0.31696411967277526855 0.77310365438461303711 1.1719272136688232422 1.0866518020629882812 0.88615828752517700195 0.98473703861236572266 0.98753458261489868164 0.99906164407730102539 1.0188877582550048828 1.1218211650848388672 1.1508895158767700195 1.1903138160705566406 1.2432723045349121094 1.1302287578582763672 0.73192578554153442383 0.77081882953643798828 0.96065413951873779297 1.07833099365234375 1.1220318078994750977 1.1003673076629638672 1.1556609869003295898 1.1199693679809570312 1.2564538717269897461 1.0713274478912353516 0.5821921229362487793 0.65148955583572387695 0.73720413446426391602 0.65008664131164550781 1.1765244007110595703 1.1889493465423583984 1.1405740976333618164 1.1925551891326904297 1.2002277374267578125 1.1225033998489379883 0.91721528768539428711 1.0329713821411132812 1.1348115205764770508 1.1411510705947875977 1.1050744056701660156 1.0232485532760620117 1.0520272254943847656 1.1544948816299438477 1.0266315937042236328 1.0305347442626953125 1.1745411157608032227
0.99213236570358276367 1.1822760105133056641 1.1672894954681396484 1.1585927009582519531 1.14359283447265625 1.1220058202743530273 1.1204303503036499023 1.0094392299652099609 1.1465145349502563477 1.0534623861312866211 1.0529879331588745117 1.1045118570327758789 1.0631154775619506836 1.133495330810546875 1.1503503322601318359 1.167284846305847168 1.174311518669128418 1.1978167295455932617 1.1731691360473632812 0.96984380483627319336 0.86055463552474975586 0.86846768856048583984 0.87603676319122314453 0.89484804868698120117 1.0835142135620117188 1.0662961006164550781 1.0453020334243774414 1.0512955188751220703 0.96675550937652587891 0.99273687601089477539 1.0215421915054321289 0.99377900362014770508 0.96096974611282348633 0.86930567026138305664 0.81552010774612426758 0.73613208532333374023 0.88490629196166992188 0.94164609909057617188 1.0625933408737182617 1.1316050291061401367 1.2085883617401123047 1.0914161205291748047 0.89521276950836181641 0.75594377517700195312 0.65605843067169189453 1.0537925958633422852 1.1685453653335571289 1.0803951025009155273 0.64996796846389770508 0.74096292257308959961 1.2479735612869262695 1.176910400390625 1.2157882452011108398 1.1990230083465576172 0.99391537904739379883 0.92533200979232788086 0.79164892435073852539 0.52440309524536132812 0.49046623706817626953 0.81493413448333740234 1.085179448127746582 1.0517901182174682617 1.0632164478302001953 1.1516052484512329102 0.99510622024536132812 0.92666530609130859375 1.06237030029296875 0.73759794235229492188 0.876674652099609375 1.0513799190521240234 1.0610153675079345703 1.1348611116409301758 1.0846016407012939453 1.0315668582916259766 1.1000019311904907227 0.4596112668514251709 0.55222225189208984375 1.146412968635559082 1.1490873098373413086 1.1724985837936401367 1.1457060575485229492 1.1404240131378173828 1.1390187740325927734 1.1476801633834838867 1.1249744892120361328 1.2931029796600341797 1.138438105583190918 1.0884718894958496094 1.0685211420059204102 1.127926945686340332 1.2552742958068847656 1.0003930330276489258 0.52782571315765380859 1.0708308219909667969 1.1005856990814208984 1.1892075538635253906 1.2486857175827026367 1.2063219547271728516 1.0460650920867919922 0.68505424261093139648 1.0197962522506713867 1.0915083885192871094 0.58940613269805908203 0.56513708829879760742 0.63224709033966064453 0.96388411521911621094 1.1037820577621459961 1.0008612871170043945 0.96757143735885620117 0.88032644987106323242 0.43026947975158691406 0.28108301758766174316 0.3843402564525604248 0.82343661785125732422 0.96521073579788208008 0.881908416748046875 0.72176349163055419922 0.83444100618362426758 0.87394082546234130859 0.6955597996711730957 0.85081475973129272461 1.1162608861923217773 1.1834381818771362305 1.0324890613555908203 0.99511688947677612305 1.0681273937225341797 1.0987834930419921875 1.1775882244110107422 1.2550476789474487305 0.77096933126449584961 0.74147313833236694336 0.74191623926162719727 0.89165139198303222656 0.98877817392349243164 1.0108795166015625 1.1185346841812133789 1.160391688346862793 1.1778920888900756836 1.1888436079025268555 0.87189704179763793945 0.69557076692581176758 0.8450425267219543457 0.69367021322250366211 1.0056574344635009766 1.1688735485076904297 1.0733652114868164062 1.0475312471389770508 1.0747749805450439453 1.0743069648742675781 0.97191143035888671875 0.98281711339950561523 0.90391767024993896484 0.96231871843338012695 1.1855362653732299805 1.1190440654754638672 1.0816602706909179688 1.1035015583038330078 1.0322222709655761719 0.98915195465087890625 1.200629115104675293
1.0805885791778564453 1.2030812501907348633 1.1254612207412719727 1.1581799983978271484 1.1515995264053344727 1.1387485265731811523 1.1128296852111816406 1.074940800666809082 1.0508427619934082031 0.98765683174133300781 0.99435949325561523438 0.96925455331802368164 1.043333888053894043 1.0985051393508911133 1.1291993856430053711 1.1806787252426147461 1.1753473281860351562 1.0332175493240356445 1.201342463493347168 1.0630197525024414062 0.93922984600067138672 0.89908748865127563477 0.86406272649765014648 0.827426910400390625 0.92369645833969116211 1.0644044876098632812 1.0885829925537109375 1.1098356246948242188 1.0667678117752075195 1.0009342432022094727 0.98809295892715454102 0.97440159320831298828 0.87719225883483886719 0.70678991079330444336 0.89709466695785522461 0.74487078189849853516 1.0080362558364868164 0.96059834957122802734 1.0614538192749023438 1.1548380851745605469 1.2465562820434570312 1.1972543001174926758 0.89443188905715942383 0.74493241310119628906 0.75629305839538574219 0.89727920293807983398 1.0263119935989379883 1.1526809930801391602 1.2374207973480224609 0.70437473058700561523 1.2077205181121826172 1.1101975440979003906 1.1539186239242553711 1.2344472408294677734 1.2076395750045776367 1.0824416875839233398 1.0380347967147827148 0.71142667531967163086 0.2925930321216583252 0.68946826457977294922 0.91732323169708251953 0.99357759952545166016 0.90215241909027099609 0.62587201595306396484 0.78339946269989013672 1.0603952407836914062 1.0776636600494384766 1.1020398139953613281 1.0144268274307250977 1.1748399734497070312 1.1518338918685913086 1.0998117923736572266 1.059228062629699707 1.0243792533874511719 1.0929780006408691406 0.973255157470703125 0.61134415864944458008 1.0037217140197753906 1.1913235187530517578 1.1027547121047973633 1.097525477409362793 1.1082421541213989258 1.0974009037017822266 1.1174598932266235352 1.1372961997985839844 1.1827082633972167969 1.163817286491394043 1.0622398853302001953 1.0456688404083251953 1.2333463430404663086 1.1769328117370605469 0.41626787185668945312 0.55671358108520507812 1.0520856380462646484 1.0344779491424560547 1.0653694868087768555 1.0948381423950195312 1.1474187374114990234 0.99774068593978881836 0.76968270540237426758 1.0720723867416381836 0.98017400503158569336 0.82519191503524780273 0.97186708450317382812 1.0923309326171875 1.2417783737182617188 1.2104448080062866211 1.0570558309555053711 0.88992774486541748047 0.82478106021881103516 0.67317825555801391602 0.62972652912139892578 0.48682916164398193359 0.94818937778472900391 1.1644389629364013672 1.1718108654022216797 0.66789114475250244141 0.68658566474914550781 0.89903479814529418945 0.89545208215713500977 0.97179132699966430664 1.0238403081893920898 1.1878169775009155273 1.1038556098937988281 1.0062159299850463867 1.0836136341094970703 1.0957159996032714844 1.1016912460327148438 1.2136021852493286133 0.61854672431945800781 0.67393893003463745117 0.74801236391067504883 0.6998004913330078125 0.90167295932769775391 1.1149350404739379883 1.1663967370986938477 1.1558164358139038086 1.0594779253005981445 1.1665425300598144531 0.95430409908294677734 1.0320098400115966797 0.88893419504165649414 0.7707614898681640625 0.48253455758094787598 0.58973479270935058594 0.84678822755813598633 1.080792546272277832 0.91415190696716308594 0.96692597866058349609 1.0431970357894897461 0.94321715831756591797 0.94055575132369995117 0.9349161982536315918 1.0894076824188232422 1.0923514366149902344 1.0341113805770874023 0.98133766651153564453 0.98728632926940917969 0.97436028718948364258 1.1748156547546386719
1.0622797012329101562 1.1870423555374145508 1.0784491300582885742 1.0949411392211914062 0.99021488428115844727 1.0758776664733886719 1.0861648321151733398 1.1067572832107543945 1.1363353729248046875 1.0396001338958740234 0.96482950448989868164 0.98545795679092407227 1.0370821952819824219 1.0191073417663574219 1.032825469970703125 1.1918613910675048828 1.1259524822235107422 0.79808896780014038086 1.1145384311676025391 1.2055957317352294922 1.0795747041702270508 1.043910980224609375 1.0006874799728393555 0.90758925676345825195 0.75931686162948608398 0.86652052402496337891 1.0374436378479003906 1.1509497165679931641 1.053919672966003418 0.91413938999176025391 1.0163118839263916016 1.0291681289672851562 0.92368960380554199219 0.91511398553848266602 1.0455770492553710938 0.77050721645355224609 1.1474215984344482422 1.1217964887619018555 1.0545549392700195312 1.1406903266906738281 1.2140905857086181641 1.1297723054885864258 0.90809845924377441406 0.60428559780120849609 0.91158664226531982422 0.95797514915466308594 1.0141708850860595703 1.1924157142639160156 1.268265843391418457 0.81772381067276000977 1.1861374378204345703 1.1080476045608520508 1.1701744794845581055 1.1962121725082397461 1.1284376382827758789 1.110622406005859375 0.9935391545295715332 0.82758957147598266602 0.53349554538726806641 0.89581966400146484375 1.0702964067459106445 1.0663825273513793945 0.59098005294799804688 0.94120758771896362305 0.96852165460586547852 1.0395538806915283203 1.0465483665466308594 1.0779340267181396484 1.1568416357040405273 1.1681677103042602539 1.1324025392532348633 1.1057467460632324219 1.0802375078201293945 1.028706669807434082 1.0591099262237548828 1.0968773365020751953 1.1413472890853881836 1.2820372581481933594 1.1652150154113769531 1.091826319694519043 1.0733213424682617188 1.0758898258209228516 1.0659427642822265625 1.0977725982666015625 1.1339765787124633789 1.1445964574813842773 1.1170929670333862305 1.0758783817291259766 1.0960389375686645508 1.2469551563262939453 0.90268689393997192383 0.5248705744743347168 1.1216399669647216797 1.1269860267639160156 1.1096531152725219727 1.1237952709197998047 1.1482309103012084961 1.209902644157409668 1.0800850391387939453 0.76748007535934448242 1.0189307928085327148 0.82440590858459472656 0.98919010162353515625 1.2522630691528320312 1.3055168390274047852 1.2270152568817138672 1.0092790126800537109 0.68927001953125 0.74020665884017944336 0.98931229114532470703 1.0373886823654174805 0.7815545201301574707 0.40991958975791931152 0.90748941898345947266 1.2101148366928100586 1.1102350950241088867 0.58188909292221069336 0.45058473944664001465 0.4949518740177154541 0.79356312751770019531 1.1564403772354125977 1.1023824214935302734 1.0762435197830200195 1.0864521265029907227 1.0527182817459106445 1.1137337684631347656 1.0792504549026489258 1.0927094221115112305 1.1458334922790527344 0.73034876585006713867 0.82703977823257446289 0.77621811628341674805 0.41475784778594970703 0.7163715362548828125 1.0600951910018920898 1.1971881389617919922 1.1915954351425170898 0.99527567625045776367 1.0884646177291870117 0.95459038019180297852 1.0775866508483886719 1.2388118505477905273 1.0206207036972045898 0.75249695777893066406 0.58744269609451293945 0.56619495153427124023 0.86400705575942993164 1.0128666162490844727 1.0154137611389160156 1.0626409053802490234 0.97066718339920043945 0.95757728815078735352 1.0074999332427978516 1.0309588909149169922 1.077199101448059082 0.98329186439514160156 0.89033865928649902344 0.94043231010437011719 0.96395707130432128906 1.1372371912002563477
0.9553813934326171875 1.1846634149551391602 1.0620369911193847656 1.0351669788360595703 1.0029103755950927734 1.0664671659469604492 1.055289149284362793 1.0396730899810791016 0.98720979690551757812 0.96785414218902587891 0.9671484827995300293 1.0091185569763183594 0.97506242990493774414 1.0104061365127563477 1.0588128566741943359 1.1715143918991088867 1.1250625848770141602 0.86073231697082519531 0.96359372138977050781 1.2041757106781005859 1.1502336263656616211 1.0228034257888793945 1.0965021848678588867 1.0332605838775634766 0.99716114997863769531 0.9445025324821472168 0.96744376420974731445 1.1042133569717407227 1.0294932126998901367 1.0012881755828857422 1.1141858100891113281 1.0617014169692993164 0.98857218027114868164 0.96955275535583496094 0.90358710289001464844 0.52968418598175048828 0.98990720510482788086 1.0817366838455200195 1.120311737060546875 1.1138566732406616211 1.1525474786758422852 0.82562601566314697266 0.62865835428237915039 0.50474733114242553711 0.607295989990234375 1.0943988561630249023 1.1506799459457397461 1.1396925449371337891 1.166057586669921875 1.1074448823928833008 1.1332581043243408203 1.0872492790222167969 1.1663193702697753906 1.1790276765823364258 1.1392019987106323242 1.1108372211456298828 1.0395345687866210938 0.91786712408065795898 0.61002367734909057617 0.97604256868362426758 1.1156790256500244141 0.71265578269958496094 0.37858057022094726562 1.0534610748291015625 1.1045322418212890625 1.0012104511260986328 1.0958504676818847656 1.1537823677062988281 1.1377990245819091797 1.1506019830703735352 1.1416671276092529297 1.1149605512619018555 1.0976330041885375977 1.0942894220352172852 1.0737174749374389648 1.111575007438659668 1.1704487800598144531 1.1954762935638427734 1.1255334615707397461 1.0813083648681640625 1.0725895166397094727 1.0822998285293579102 1.1060349941253662109 1.10024261474609375 1.1180533170700073242 1.1467635631561279297 1.0832087993621826172 1.0937008857727050781 1.2182002067565917969 1.2099648714065551758 0.66306418180465698242 0.8377984166145324707 1.2170470952987670898 1.1487051248550415039 1.1550351381301879883 1.1510971784591674805 1.1479122638702392578 1.1858764886856079102 1.2198941707611083984 0.88880497217178344727 0.92868244647979736328 0.67965233325958251953 0.98580974340438842773 1.3043625354766845703 1.24124908447265625 1.1774576902389526367 1.0127410888671875 1.1190301179885864258 1.1204286813735961914 1.1041023731231689453 0.99655944108963012695 0.59974771738052368164 0.49982923269271850586 0.74234408140182495117 1.1676172018051147461 1.071291804313659668 0.81125110387802124023 0.76862955093383789062 0.55148714780807495117 0.22150945663452148438 0.78146845102310180664 1.1154192686080932617 1.1520215272903442383 1.0835880041122436523 1.0166984796524047852 1.042088627815246582 0.96451306343078613281 1.0341879129409790039 1.1450903415679931641 1.2632310390472412109 1.2417420148849487305 1.0187970399856567383 0.51641821861267089844 0.70471483469009399414 0.95815443992614746094 1.2148977518081665039 1.1754609346389770508 1.010723114013671875 1.114142298698425293 0.99852329492568969727 0.97323757410049438477 1.1222919225692749023 1.16757965087890625 1.0336360931396484375 0.96758091449737548828 0.892791748046875 0.91184461116790771484 0.9569263458251953125 0.89108043909072875977 0.92250710725784301758 0.89329397678375244141 0.95531421899795532227 0.98487514257431030273 1.0645964145660400391 1.0779744386672973633 1.0355086326599121094 1.0174499750137329102 0.99097913503646850586 1.0250135660171508789 1.1596586704254150391
1.1296302080154418945 1.1066119670867919922 1.0821349620819091797 1.0399127006530761719 0.99894177913665771484 1.1517567634582519531 1.043717503547668457 1.024806976318359375 0.95984947681427001953 0.91022449731826782227 1.0392391681671142578 1.0386598110198974609 1.0543463230133056641 1.0345228910446166992 1.0356822013854980469 1.1063820123672485352 1.1667824983596801758 0.92660099267959594727 0.87067109346389770508 1.2042511701583862305 1.1586438417434692383 1.0379558801651000977 0.99511623382568359375 1.0662571191787719727 0.94842016696929931641 0.95287460088729858398 0.85534501075744628906 0.94773656129837036133 1.0872387886047363281 1.1391122341156005859 1.1338077783584594727 1.071757197380065918 0.94470757246017456055 0.93540805578231811523 0.94851189851760864258 0.69876706600189208984 0.85833728313446044922 0.98693710565567016602 1.1068407297134399414 1.0536452531814575195 0.95012229681015014648 0.89038097858428955078 0.96723699569702148438 0.91902595758438110352 0.53317171335220336914 0.97160327434539794922 1.0536409616470336914 1.1617261171340942383 1.183929443359375 1.1502922773361206055 1.143707275390625 1.1467612981796264648 1.168852686882019043 1.1946840286254882812 1.2112456560134887695 1.0184439420700073242 0.94680023193359375 0.8814678192138671875 0.35784029960632324219 0.23576407134532928467 0.34709852933883666992 0.24044916033744812012 0.67427611351013183594 1.1151747703552246094 1.2046644687652587891 1.1406121253967285156 1.1303129196166992188 1.190264582633972168 1.1080416440963745117 1.1356159448623657227 1.1295137405395507812 1.1226183176040649414 1.1018605232238769531 1.1010854244232177734 1.0944271087646484375 1.0958728790283203125 1.1238000392913818359 1.1490212678909301758 1.1347838640213012695 1.1182118654251098633 1.1748527288436889648 1.2375909090042114258 1.211003422737121582 1.11200714111328125 1.1046035289764404297 1.1383986473083496094 1.1301534175872802734 1.1460347175598144531 1.2782660722732543945 1.1927911043167114258 0.73580050468444824219 1.2387920618057250977 1.1591904163360595703 1.0924364328384399414 1.0858185291290283203 1.0887393951416015625 1.1180200576782226562 1.1110601425170898438 1.169304966926574707 1.2364181280136108398 1.1374835968017578125 0.54788118600845336914 0.69823664426803588867 1.1775139570236206055 1.2101230621337890625 1.2062774896621704102 1.2005965709686279297 1.2586306333541870117 1.0804767608642578125 0.75286835432052612305 0.77296775579452514648 0.65014636516571044922 0.67806833982467651367 0.81341248750686645508 1.0948743820190429688 1.0076879262924194336 0.84754645824432373047 0.93869924545288085938 0.88800799846649169922 0.39033815264701843262 0.21303440630435943604 0.49728110432624816895 0.73808962106704711914 1.0527268648147583008 1.0984917879104614258 1.117682337760925293 1.0291130542755126953 1.0662909746170043945 1.0731568336486816406 1.0932497978210449219 1.2574551105499267578 1.1638067960739135742 0.5823370814323425293 0.98942559957504272461 1.1398638486862182617 1.2061201333999633789 1.1611418724060058594 1.1243155002593994141 1.1321340799331665039 0.91831886768341064453 0.9304256439208984375 1.0434033870697021484 1.1557352542877197266 1.0232715606689453125 0.94096648693084716797 0.93225008249282836914 0.90132373571395874023 0.95822417736053466797 0.88797086477279663086 0.91511321067810058594 1.0379278659820556641 0.97668069601058959961 0.99655449390411376953 1.0661083459854125977 1.0840606689453125 1.0834228992462158203 1.0665647983551025391 1.0157655477523803711 0.99774014949798583984 1.1081864833831787109
1.1751890182495117188 1.0910135507583618164 1.0491685867309570312 1.0829752683639526367 0.92812442779541015625 1.1025522947311401367 1.055794835090637207 0.99775981903076171875 0.92862170934677124023 0.93249011039733886719 1.0722410678863525391 1.1081318855285644531 1.0958160161972045898 1.0498247146606445312 1.033127903938293457 1.0906574726104736328 1.2003257274627685547 1.0989806652069091797 0.90024214982986450195 1.2046923637390136719 1.1610376834869384766 0.9338881373405456543 0.87825578451156616211 0.98032087087631225586 0.91285818815231323242 0.86924713850021362305 0.90734392404556274414 0.93122446537017822266 0.98051679134368896484 0.97357577085494995117 0.92051333189010620117 0.9340731501579284668 0.92378854751586914062 0.82246440649032592773 0.87986940145492553711 0.83412593603134155273 0.80175447463989257812 0.90996074676513671875 1.0561764240264892578 1.056136012077331543 1.1276080608367919922 1.1657074689865112305 1.1234338283538818359 1.0710806846618652344 0.84609651565551757812 1.0597388744354248047 1.1762793064117431641 1.1516640186309814453 1.1058968305587768555 1.1298011541366577148 1.1565085649490356445 1.1761411428451538086 1.1485084295272827148 1.2515172958374023438 1.2578117847442626953 0.92095160484313964844 0.9129002690315246582 0.90586751699447631836 0.51708960533142089844 0.68789905309677124023 0.96345937252044677734 0.95445454120635986328 0.62493711709976196289 0.44124054908752441406 0.80415058135986328125 1.2285866737365722656 1.1523195505142211914 1.1800934076309204102 1.1258133649826049805 1.1345082521438598633 1.1413354873657226562 1.1278743743896484375 1.0779366493225097656 1.0656414031982421875 1.0652886629104614258 1.0759831666946411133 1.1251969337463378906 1.1372859477996826172 1.1461075544357299805 1.1572768688201904297 1.1931874752044677734 1.1973909139633178711 1.1748614311218261719 1.1074388027191162109 1.1050176620483398438 1.1095647811889648438 1.1429257392883300781 1.1364820003509521484 1.2144094705581665039 0.96348768472671508789 0.93642532825469970703 1.2420123815536499023 1.136498570442199707 1.0913996696472167969 1.1141688823699951172 1.0707604885101318359 1.0443227291107177734 1.0467932224273681641 1.0540118217468261719 1.1425787210464477539 1.1959426403045654297 0.75506520271301269531 1.1376899480819702148 1.1837792396545410156 1.1429057121276855469 1.1377105712890625 1.2357499599456787109 1.2253497838973999023 1.1097031831741333008 0.73758780956268310547 1.0673822164535522461 1.1894955635070800781 1.0351299047470092773 1.1139336824417114258 1.0647518634796142578 0.85378801822662353516 0.87697970867156982422 1.0050613880157470703 0.95501828193664550781 0.76737242937088012695 0.52972340583801269531 0.40671586990356445312 0.30081734061241149902 0.58860647678375244141 0.86301767826080322266 1.1115382909774780273 1.0983735322952270508 1.0790472030639648438 1.1078623533248901367 1.0453569889068603516 1.062800288200378418 1.1284486055374145508 0.72673785686492919922 0.62857156991958618164 1.1066200733184814453 1.2249220609664916992 1.1458780765533447266 1.0979449748992919922 1.0356746912002563477 0.90695631504058837891 1.0360792875289916992 1.1271477937698364258 1.1790101528167724609 1.1467766761779785156 1.0080724954605102539 0.91883617639541625977 0.90024620294570922852 0.96032279729843139648 0.9329655766487121582 0.92203694581985473633 0.98094850778579711914 0.97327506542205810547 1.0677056312561035156 1.0608718395233154297 1.0773483514785766602 1.0606188774108886719 1.03354644775390625 1.033513188362121582 0.96660441160202026367 1.115677952766418457
1.1174341440200805664 1.1101651191711425781 1.0169566869735717773 1.0524255037307739258 0.88145983219146728516 0.82634526491165161133 0.98364800214767456055 0.95340687036514282227 0.8846448063850402832 0.96747338771820068359 0.94607686996459960938 0.92640060186386108398 0.97651296854019165039 1.0248808860778808594 1.0009784698486328125 1.0687547922134399414 1.0895506143569946289 1.0277221202850341797 0.95141375064849853516 1.2063726186752319336 1.2065926790237426758 1.0575366020202636719 1.006787419319152832 0.95746445655822753906 1.0605800151824951172 0.93846690654754638672 1.0204622745513916016 1.0680245161056518555 1.0452071428298950195 1.0277687311172485352 1.0266854763031005859 1.0811592340469360352 1.0072938203811645508 0.81596004962921142578 0.88435286283493041992 0.94170033931732177734 0.99218696355819702148 0.95353972911834716797 0.99545854330062866211 1.1689009666442871094 1.1634384393692016602 1.0541279315948486328 1.0572385787963867188 1.1982361078262329102 1.1652767658233642578 1.1148933172225952148 1.1728497743606567383 1.1000369787216186523 1.1603176593780517578 1.1441156864166259766 1.1397701501846313477 1.1744108200073242188 1.198134303092956543 1.2493097782135009766 1.224552154541015625 0.89842236042022705078 0.85333710908889770508 0.84187614917755126953 0.63893997669219970703 0.80422323942184448242 0.90726619958877563477 1.0115007162094116211 1.0702893733978271484 0.85515689849853515625 0.59390020370483398438 0.90015995502471923828 1.1085895299911499023 1.1431952714920043945 1.1660841703414916992 1.1198323965072631836 1.0953048467636108398 1.0777525901794433594 1.0676647424697875977 1.0732014179229736328 1.0703673362731933594 1.1059273481369018555 1.1475017070770263672 1.107264399528503418 1.0773988962173461914 1.1002999544143676758 1.1177265644073486328 1.0999448299407958984 1.1159778833389282227 1.1120548248291015625 1.1215306520462036133 1.0711706876754760742 1.1013324260711669922 1.1145534515380859375 1.1791657209396362305 1.0932657718658447266 1.0653636455535888672 1.0088011026382446289 1.051457524299621582 1.0488772392272949219 1.1537656784057617188 1.1833424568176269531 1.168453216552734375 1.1877847909927368164 1.1609339714050292969 1.1967494487762451172 1.0509332418441772461 0.47677460312843322754 1.0687388181686401367 1.1410448551177978516 1.1365734338760375977 1.1209881305694580078 1.1686809062957763672 1.1989358663558959961 1.2050801515579223633 0.92058002948760986328 1.2107578516006469727 1.2878512144088745117 1.2516289949417114258 1.0876471996307373047 1.0211217403411865234 0.96296554803848266602 0.95411092042922973633 0.97978669404983520508 1.0003589391708374023 0.9039592742919921875 0.77612662315368652344 0.97084230184555053711 0.59477341175079345703 0.28642663359642028809 0.74278473854064941406 0.97207051515579223633 1.0975978374481201172 1.1200858354568481445 1.0109164714813232422 0.97719657421112060547 0.84114027023315429688 1.0754983425140380859 1.0859590768814086914 0.68026715517044067383 0.57129377126693725586 1.1070100069046020508 1.103867650032043457 1.0370820760726928711 1.0212393999099731445 0.91804033517837524414 0.99670213460922241211 1.1118721961975097656 1.1768020391464233398 1.1738833189010620117 1.123446345329284668 1.0329520702362060547 1.0387891530990600586 0.92975693941116333008 1.0487945079803466797 1.0040460824966430664 1.0407663583755493164 1.0697890520095825195 1.0982955694198608398 1.022841334342956543 1.0526700019836425781 1.0441821813583374023 1.0502278804779052734 1.0491437911987304688 1.048151850700378418 1.1479843854904174805
1.171557307243347168 1.1435664892196655273 1.0748926401138305664 1.0517760515213012695 0.91356158256530761719 0.66621291637420654297 0.91053825616836547852 0.88811630010604858398 0.79451757669448852539 0.84572321176528930664 0.83277630805969238281 0.89658689498901367188 0.99441480636596679688 1.0939919948577880859 0.9602578282356262207 1.0495587587356567383 1.1201499700546264648 0.98118519783020019531 0.98739343881607055664 1.1304069757461547852 1.2060085535049438477 1.1725335121154785156 1.1147494316101074219 0.90005141496658325195 0.82995676994323730469 0.80087256431579589844 0.86493664979934692383 0.94259285926818847656 0.9931011199951171875 1.005177617073059082 1.0219196081161499023 1.0494421720504760742 0.98515564203262329102 0.91134786605834960938 0.91753607988357543945 1.0632719993591308594 1.0414755344390869141 1.0756053924560546875 1.1236425638198852539 1.0251468420028686523 1.040509343147277832 1.1294723749160766602 1.1332973241806030273 1.1576689481735229492 1.1508713960647583008 1.1399903297424316406 1.2529616355895996094 1.2822408676147460938 1.2707742452621459961 1.1484415531158447266 1.1332676410675048828 1.1770614385604858398 1.2370475530624389648 1.1098427772521972656 0.97596228122711181641 0.94780343770980834961 0.74533498287200927734 0.43450003862380981445 0.68307566642761230469 0.8124548792839050293 0.79008281230926513672 0.82317078113555908203 0.95571768283843994141 0.97315609455108642578 0.91658073663711547852 0.9517027735710144043 0.99006217718124389648 1.070279240608215332 1.1808896064758300781 1.1080696582794189453 1.0983362197875976562 1.0954291820526123047 1.125283360481262207 1.1408036947250366211 1.0933279991149902344 1.0833686590194702148 1.1114281415939331055 1.0869971513748168945 1.0825203657150268555 1.1337434053421020508 1.1307356357574462891 1.1136002540588378906 1.1371233463287353516 1.1504275798797607422 1.1450877189636230469 1.1377815008163452148 1.1081768274307250977 1.1605471372604370117 1.1829640865325927734 1.1199991703033447266 1.0724238157272338867 0.98335307836532592773 1.0948405265808105469 1.0161967277526855469 1.1057015657424926758 1.2729127407073974609 1.229214787483215332 0.90446627140045166016 0.76237195730209350586 0.73989021778106689453 0.49160996079444885254 0.2436275482177734375 0.95887535810470581055 1.1159218549728393555 1.1184593439102172852 1.1392561197280883789 1.1312716007232666016 1.164639592170715332 1.176335453987121582 0.867099761962890625 1.0032210350036621094 1.2641274929046630859 1.1070866584777832031 1.0613356828689575195 1.1013711690902709961 1.1349155902862548828 0.97673171758651733398 0.97257536649703979492 1.0751626491546630859 0.85728752613067626953 0.73692071437835693359 1.0111869573593139648 0.94479358196258544922 0.42396393418312072754 0.58306032419204711914 0.99878525733947753906 1.1639945507049560547 0.9420668482780456543 0.95062726736068725586 1.2607402801513671875 1.2144086360931396484 0.95062631368637084961 1.1767008304595947266 1.0820462703704833984 0.5585587620735168457 0.91722923517227172852 1.1142308712005615234 1.1123039722442626953 1.1248242855072021484 1.049021601676940918 0.89512193202972412109 0.94943273067474365234 0.96486961841583251953 0.97754663228988647461 0.99218404293060302734 1.0626519918441772461 1.0992619991302490234 1.0103267431259155273 1.0638790130615234375 1.0765844583511352539 1.0823577642440795898 1.0774185657501220703 1.0333887338638305664 1.0345368385314941406 1.0738660097122192383 1.045574188232421875 1.0241783857345581055 1.0577110052108764648 1.0429936647415161133 1.1963514089584350586
1.1785590648651123047 1.1614600419998168945 0.92259931564331054688 1.0688333511352539062 0.88998144865036010742 0.63002526760101318359 0.79773557186126708984 0.81982409954071044922 0.60958003997802734375 0.72352439165115356445 0.93594914674758911133 1.0044535398483276367 0.91327905654907226562 0.97205471992492675781 0.78664618730545043945 0.8911730647087097168 1.1174417734146118164 1.0827704668045043945 1.0205131769180297852 1.1238363981246948242 1.207920074462890625 1.1687293052673339844 1.1107825040817260742 1.0612145662307739258 0.98866456747055053711 0.88104879856109619141 0.88684344291687011719 0.90340852737426757812 0.80578923225402832031 0.76680922508239746094 0.9655551910400390625 0.89027845859527587891 0.93801486492156982422 0.92477452754974365234 0.93790829181671142578 0.98628008365631103516 0.99200731515884399414 1.0023288726806640625 0.95906698703765869141 1.0275264978408813477 1.071730494499206543 0.99502503871917724609 0.97503799200057983398 1.0787436962127685547 1.2107774019241333008 1.2003614902496337891 1.1847723722457885742 1.0969028472900390625 0.90842676162719726562 0.93379348516464233398 1.0875617265701293945 1.0614436864852905273 1.0464458465576171875 0.82217377424240112305 0.82742172479629516602 0.68361324071884155273 0.45802670717239379883 0.48356404900550842285 0.60910642147064208984 0.81631362438201904297 0.77371752262115478516 0.73384857177734375 0.61687612533569335938 0.50716286897659301758 0.90110570192337036133 1.0997725725173950195 1.1586749553680419922 1.1079105138778686523 1.1491029262542724609 1.0976932048797607422 1.0480246543884277344 1.089350581169128418 1.1125774383544921875 1.1302583217620849609 1.121401667594909668 1.1116281747817993164 1.1411384344100952148 1.1174287796020507812 1.0818622112274169922 1.1136606931686401367 1.1151138544082641602 1.1046043634414672852 1.1118330955505371094 1.1804378032684326172 1.1722388267517089844 1.1747784614562988281 1.1425377130508422852 1.1629091501235961914 1.1057972908020019531 1.0810195207595825195 1.0319923162460327148 0.9977728724479675293 1.1592429876327514648 1.0675766468048095703 1.229806065559387207 1.2696281671524047852 0.84146553277969360352 0.52018272876739501953 0.90572834014892578125 1.0384556055068969727 0.56232511997222900391 0.17233419418334960938 0.68796771764755249023 1.0031105279922485352 0.88164496421813964844 0.8294499516487121582 1.1299358606338500977 1.1095004081726074219 1.1962780952453613281 1.0533032417297363281 1.2277036905288696289 1.2568788528442382812 1.1341767311096191406 1.0725802183151245117 1.0917365550994873047 1.203797459602355957 1.0404655933380126953 0.98711252212524414062 1.0613614320755004883 0.96355688571929931641 0.86472368240356445312 0.96674579381942749023 0.95740401744842529297 0.86894643306732177734 0.67856419086456298828 0.70084476470947265625 1.0962163209915161133 0.8340021967887878418 0.82941722869873046875 1.1846022605895996094 1.2770979404449462891 1.0219798088073730469 1.0529687404632568359 1.0946364402770996094 0.9974810481071472168 0.60740989446640014648 1.1156032085418701172 1.093706965446472168 1.0210894346237182617 1.11020660400390625 1.0013006925582885742 0.90469491481781005859 0.89584863185882568359 0.91857457160949707031 0.86326742172241210938 0.94772011041641235352 1.0275316238403320312 0.99093365669250488281 0.96966624259948730469 1.0458352565765380859 1.1118195056915283203 1.1045387983322143555 1.0928307771682739258 1.0988285541534423828 1.0963693857192993164 1.0261166095733642578 0.93995386362075805664 1.02925872802734375 0.9248968958854675293 1.122048497200012207
1.1856839656829833984 1.1625623703002929688 0.98067504167556762695 1.1024800539016723633 0.85192441940307617188 0.61128783226013183594 0.61456030607223510742 0.60715317726135253906 0.54501628875732421875 0.59129899740219116211 0.84549677371978759766 1.0244678258895874023 0.94140356779098510742 0.86811518669128417969 0.82559889554977416992 0.88232058286666870117 1.0508217811584472656 1.084410548210144043 1.0180922746658325195 0.96166133880615234375 1.192019343376159668 1.1609654426574707031 1.0382882356643676758 1.0285860300064086914 1.0534284114837646484 1.0312340259552001953 1.0249106884002685547 1.0460757017135620117 1.0101263523101806641 1.1128553152084350586 1.1995618343353271484 1.1922855377197265625 1.1837642192840576172 1.1807584762573242188 1.1870853900909423828 1.1984456777572631836 1.1683777570724487305 1.0922750234603881836 1.0414870977401733398 1.012894749641418457 0.93701308965682983398 0.9527943730354309082 1.1402308940887451172 1.066308140754699707 1.0166199207305908203 0.73928546905517578125 0.53508269786834716797 0.53555667400360107422 0.42426133155822753906 0.48226782679557800293 0.6895771026611328125 0.80991911888122558594 0.91117614507675170898 0.71498662233352661133 0.59456920623779296875 0.5166746973991394043 0.81176495552062988281 1.1096947193145751953 0.78489148616790771484 0.72214746475219726562 0.78871917724609375 0.78066098690032958984 0.90854144096374511719 0.96384066343307495117 0.71329981088638305664 0.55353403091430664062 0.89253598451614379883 1.1017218828201293945 1.2016894817352294922 1.0930879116058349609 1.052135467529296875 1.1085100173950195312 1.1306254863739013672 1.0957252979278564453 1.087025761604309082 1.1216467618942260742 1.1839084625244140625 1.1762319803237915039 1.0996179580688476562 1.0940319299697875977 1.1006250381469726562 1.0976691246032714844 1.1062428951263427734 1.1667215824127197266 1.1497280597686767578 1.1418344974517822266 1.1463855504989624023 1.1398962736129760742 1.1256643533706665039 1.1136376857757568359 0.98909670114517211914 0.98778516054153442383 1.1079595088958740234 1.0932905673980712891 1.1952425241470336914 0.60286509990692138672 0.36730909347534179688 0.92232954502105712891 1.1539155244827270508 1.1928374767303466797 0.86378192901611328125 0.32505759596824645996 0.37205839157104492188 0.75520652532577514648 0.77045017480850219727 0.86527639627456665039 1.1985075473785400391 1.191872715950012207 1.1687555313110351562 1.0995811223983764648 1.1251983642578125 1.1811901330947875977 1.123442530632019043 1.072148442268371582 1.0802211761474609375 1.1058593988418579102 1.1585236787796020508 1.1200996637344360352 1.1478705406188964844 1.0990084409713745117 0.84677320718765258789 0.91540569067001342773 1.0901075601577758789 0.97564941644668579102 0.96288383007049560547 0.92873883247375488281 1.1182779073715209961 1.0515305995941162109 0.94426864385604858398 1.133664250373840332 1.2551779747009277344 1.2351894378662109375 1.1719594001770019531 1.0436764955520629883 0.97911977767944335938 0.51128035783767700195 0.85855644941329956055 1.0942938327789306641 1.1130415201187133789 1.0738623142242431641 1.098563075065612793 0.92795890569686889648 0.9230816960334777832 0.9377409815788269043 0.93369346857070922852 0.9658591151237487793 0.98444443941116333008 0.94996017217636108398 0.92962747812271118164 1.0120387077331542969 1.0903650522232055664 1.0959037542343139648 1.0674834251403808594 0.99423861503601074219 1.1087415218353271484 1.0007786750793457031 0.86760181188583374023 1.0644353628158569336 1.0335261821746826172 1.1878211498260498047
1.1501104831695556641 1.1964432001113891602 1.080254673957824707 1.0601193904876708984 0.88649487495422363281 0.63463342189788818359 0.47980538010597229004 0.71383893489837646484 0.78612440824508666992 0.66099429130554199219 0.77183055877685546875 0.90326917171478271484 0.90176206827163696289 0.86563390493392944336 0.9204928278923034668 0.94816237688064575195 1.0080815553665161133 1.0755661725997924805 1.0566099882125854492 1.0159088373184204102 1.1590775251388549805 1.2110266685485839844 1.1193790435791015625 1.076880335807800293 1.1596001386642456055 1.1620111465454101562 0.91552704572677612305 1.0486481189727783203 1.2201025485992431641 1.2031850814819335938 1.2237819433212280273 1.2386410236358642578 1.2236058712005615234 1.1974205970764160156 1.1818556785583496094 1.1754152774810791016 1.2301858663558959961 1.2604984045028686523 1.2638003826141357422 1.1005913019180297852 1.0678451061248779297 1.0708346366882324219 0.97937536239624023438 0.55718588829040527344 0.61024898290634155273 0.89349013566970825195 1.040869593620300293 1.1345355510711669922 1.2302465438842773438 1.1937848329544067383 0.78715443611145019531 0.48172083497047424316 0.72256034612655639648 0.66396641731262207031 0.47877135872840881348 0.91262441873550415039 0.99074321985244750977 1.1768342256546020508 0.76358205080032348633 0.28491994738578796387 0.80073571205139160156 0.73328560590744018555 0.89844751358032226562 0.97861427068710327148 1.0983846187591552734 0.72115117311477661133 0.46219733357429504395 0.58377593755722045898 0.99697816371917724609 1.2114652395248413086 1.1063115596771240234 1.1255733966827392578 1.1402832269668579102 1.1297801733016967773 1.117071986198425293 1.1121466159820556641 1.1286044120788574219 1.1558803319931030273 1.1392104625701904297 1.0905562639236450195 1.1089102029800415039 1.1218091249465942383 1.1159688234329223633 1.1451314687728881836 1.1218496561050415039 1.1575778722763061523 1.1226061582565307617 1.1093986034393310547 1.1750971078872680664 1.0961420536041259766 0.99301505088806152344 1.0411560535430908203 1.1089990139007568359 1.2234628200531005859 1.2006862163543701172 0.89844495058059692383 0.95778435468673706055 1.1495051383972167969 1.1230400800704956055 1.2162774801254272461 0.88231194019317626953 0.5895474553108215332 0.15784277021884918213 0.52826040983200073242 0.64841383695602416992 0.92411655187606811523 1.1115401983261108398 1.1041114330291748047 1.1339910030364990234 1.1604672670364379883 1.0130794048309326172 1.1980940103530883789 1.1241557598114013672 1.1072130203247070312 1.0880585908889770508 1.0648087263107299805 1.1150399446487426758 1.1773949861526489258 1.203860163688659668 1.0641217231750488281 0.77480083703994750977 0.79766476154327392578 1.0887572765350341797 1.0258988142013549805 0.97023451328277587891 0.96684610843658447266 1.0880420207977294922 1.1763924360275268555 1.1062476634979248047 1.1839725971221923828 1.0837577581405639648 1.1563473939895629883 1.0525810718536376953 1.0199301242828369141 0.73188245296478271484 0.39446917176246643066 0.69634974002838134766 0.81202965974807739258 0.9581826329231262207 1.0412229299545288086 1.0382595062255859375 1.0469315052032470703 0.99212294816970825195 1.0193337202072143555 1.0361944437026977539 0.94775414466857910156 1.0003359317779541016 1.0310199260711669922 0.94523751735687255859 0.94683599472045898438 1.1063823699951171875 1.0578554868698120117 1.0240747928619384766 1.0108411312103271484 1.0664261579513549805 0.92444598674774169922 0.97254681587219238281 1.1284461021423339844 1.1600567102432250977 1.1961970329284667969
1.118052363395690918 1.1972718238830566406 1.0328313112258911133 1.0589505434036254883 0.86241418123245239258 0.55149382352828979492 0.71286666393280029297 0.99773085117340087891 1.0895752906799316406 1.0792155265808105469 1.0065428018569946289 0.99976450204849243164 0.97573983669281005859 0.89788860082626342773 0.96625000238418579102 1.0128636360168457031 1.0226988792419433594 1.0072851181030273438 1.0686774253845214844 1.0435060262680053711 1.0945326089859008789 1.1410200595855712891 1.1714855432510375977 1.0703291893005371094 1.0940105915069580078 1.1601624488830566406 1.1759580373764038086 1.1709082126617431641 1.1258009672164916992 1.0701663494110107422 1.0867927074432373047 1.0689980983734130859 1.0355430841445922852 1.0264705419540405273 1.0036426782608032227 1.0346684455871582031 1.0753931999206542969 1.1214479207992553711 1.2238931655883789062 1.2659590244293212891 1.1904115676879882812 0.87916868925094604492 0.66920745372772216797 0.58177030086517333984 0.74477750062942504883 1.0906426906585693359 1.1616945266723632812 1.0646675825119018555 1.1118274927139282227 1.2241518497467041016 1.1743689775466918945 0.53219944238662719727 0.42815569043159484863 0.21312347054481506348 0.37581074237823486328 0.96281641721725463867 0.98024594783782958984 1.1040158271789550781 1.0993089675903320312 0.49358668923377990723 0.95912015438079833984 0.8766085505485534668 1.0409170389175415039 0.9843972325325012207 0.95069307088851928711 0.98821204900741577148 1.0057314634323120117 0.88468301296234130859 0.87574118375778198242 1.24420928955078125 1.2110627889633178711 1.136523127555847168 1.1020119190216064453 1.1027027368545532227 1.1455018520355224609 1.1162483692169189453 1.1130058765411376953 1.0712627172470092773 1.1042944192886352539 1.0537656545639038086 1.0786867141723632812 1.1304867267608642578 1.1345090866088867188 1.1232628822326660156 1.1228612661361694336 1.1946369409561157227 1.1316527128219604492 1.0851655006408691406 1.1149654388427734375 1.0650708675384521484 1.0776295661926269531 1.102654576301574707 1.1025351285934448242 1.234114527702331543 1.2180513143539428711 0.99930644035339355469 1.050243377685546875 1.008340001106262207 1.0798114538192749023 1.2275835275650024414 0.76825827360153198242 0.39816051721572875977 0.15665262937545776367 0.83569180965423583984 0.9973761439323425293 1.0595257282257080078 1.062504887580871582 0.89526355266571044922 0.84208619594573974609 1.1921538114547729492 1.1769829988479614258 1.1837701797485351562 1.1410249471664428711 1.0339083671569824219 1.1067155599594116211 1.141823887825012207 1.0894174575805664062 1.1517580747604370117 1.288416743278503418 1.1103883981704711914 0.86314713954925537109 0.49735569953918457031 0.93610054254531860352 1.1065087318420410156 0.98092168569564819336 0.9557952880859375 0.93378645181655883789 1.0334753990173339844 1.105206608772277832 1.1309772729873657227 0.99226510524749755859 1.1331869363784790039 0.95786935091018676758 0.85107147693634033203 0.48526746034622192383 0.55780738592147827148 0.93091374635696411133 0.69822061061859130859 0.71778279542922973633 0.90123045444488525391 0.98773533105850219727 1.0451886653900146484 1.0830153226852416992 1.0235489606857299805 0.98445051908493041992 0.92971980571746826172 1.0254997014999389648 1.068027496337890625 0.99638515710830688477 0.97194880247116088867 1.0923993587493896484 1.0699633359909057617 1.0145304203033447266 0.99427181482315063477 1.0240987539291381836 0.90204095840454101562 0.96363341808319091797 1.0247895717620849609 1.1080738306045532227 1.1039845943450927734
1.1019757986068725586 1.0381619930267333984 1.0810340642929077148 0.99630838632583618164 0.87598639726638793945 0.57650190591812133789 0.89856034517288208008 1.0585873126983642578 1.1051409244537353516 1.1930044889450073242 1.0705491304397583008 1.065163731575012207 1.0500099658966064453 0.98548322916030883789 1.0207257270812988281 1.0204185247421264648 1.0365307331085205078 0.90965849161148071289 0.99074101448059082031 1.0452023744583129883 1.0658280849456787109 1.1415456533432006836 1.1671569347381591797 1.1568979024887084961 1.1527063846588134766 1.1413667201995849609 1.1256350278854370117 1.0873453617095947266 1.0939031839370727539 1.091124415397644043 1.0587022304534912109 1.0802160501480102539 1.1115587949752807617 1.165449976921081543 1.1739753484725952148 1.1485592126846313477 1.080904841423034668 1.0650211572647094727 1.0646750926971435547 1.1647446155548095703 1.2240481376647949219 1.1208359003067016602 0.80690807104110717773 0.79286980628967285156 0.81928211450576782227 0.82226914167404174805 0.90784305334091186523 1.0472201108932495117 1.1574407815933227539 1.1187273263931274414 1.1367529630661010742 0.9547150731086730957 0.75268757343292236328 0.37409576773643493652 0.35883146524429321289 1.0164068937301635742 1.1030297279357910156 1.0823547840118408203 1.1612040996551513672 1.0988018512725830078 1.0019063949584960938 1.066351771354675293 0.98397052288055419922 1.0561246871948242188 0.99628245830535888672 0.91162198781967163086 0.95165067911148071289 1.0326782464981079102 1.0080028772354125977 1.0084784030914306641 1.1121678352355957031 1.1121108531951904297 1.112418055534362793 1.0556710958480834961 1.0548307895660400391 1.0604051351547241211 1.1027178764343261719 1.2221872806549072266 1.2175140380859375 1.0635924339294433594 1.0634435415267944336 1.1015026569366455078 1.1306642293930053711 1.1108516454696655273 1.131235957145690918 1.1924076080322265625 1.1388194561004638672 1.0834668874740600586 1.0703589916229248047 1.0919892787933349609 1.0828403234481811523 1.0652585029602050781 1.1904835700988769531 1.2010052204132080078 1.1723874807357788086 0.96649008989334106445 0.975757598876953125 1.0190182924270629883 1.1128586530685424805 1.2527157068252563477 1.011304020881652832 0.68948310613632202148 0.19857621192932128906 0.41380786895751953125 0.58666443824768066406 0.50659531354904174805 0.51485896110534667969 0.43247237801551818848 0.76867216825485229492 1.0794632434844970703 1.1614058017730712891 1.2097076177597045898 1.1702961921691894531 1.0366536378860473633 1.0956014394760131836 1.1867969036102294922 1.0840803384780883789 1.0627838373184204102 1.2238265275955200195 1.1758315563201904297 0.88196319341659545898 0.486907958984375 0.81899774074554443359 1.1266547441482543945 1.0293836593627929688 0.97681427001953125 0.9725545048713684082 1.0390751361846923828 1.1536934375762939453 1.199641108512878418 1.1337947845458984375 1.1197474002838134766 0.85235935449600219727 0.85497373342514038086 0.39173012971878051758 0.79192519187927246094 0.95655095577239990234 0.87673646211624145508 0.93018096685409545898 1.0630807876586914062 1.1531432867050170898 1.0922244787216186523 1.0329412221908569336 1.0259114503860473633 0.95298236608505249023 0.96780431270599365234 0.99490875005722045898 1.041211247444152832 1.0448207855224609375 1.0478415489196777344 1.0792107582092285156 1.0692390203475952148 1.0558146238327026367 1.0784082412719726562 1.0389850139617919922 0.97737067937850952148 0.92001485824584960938 0.85241663455963134766 0.97680205106735229492 1.0360676050186157227
1.2012597322463989258 0.89411449432373046875 1.0915976762771606445 0.96219199895858764648 0.91263717412948608398 0.6048946380615234375 1.0990289449691772461 1.0710737705230712891 0.98664802312850952148 1.12107086181640625 1.1431970596313476562 1.0340050458908081055 1.0670692920684814453 1.0089540481567382812 0.95904040336608886719 1.0153864622116088867 1.0879493951797485352 1.0558912754058837891 1.0108257532119750977 1.0577765703201293945 1.1001365184783935547 1.1662229299545288086 1.1816778182983398438 1.1560300588607788086 1.0147262811660766602 1.0888617038726806641 1.166318058967590332 1.1734710931777954102 1.1616549491882324219 1.2089258432388305664 1.2376276254653930664 1.2407834529876708984 1.2453473806381225586 1.2507826089859008789 1.1719936132431030273 1.2584645748138427734 1.2629097700119018555 1.1471525430679321289 1.0985947847366333008 1.0918772220611572266 1.1667647361755371094 1.2757161855697631836 1.2012919187545776367 0.84718674421310424805 0.90568131208419799805 0.92248225212097167969 0.83202135562896728516 1.1838763952255249023 1.1771618127822875977 0.76389318704605102539 0.90098035335540771484 0.63049083948135375977 0.84046155214309692383 1.0739403963088989258 0.27694040536880493164 0.75847947597503662109 1.1492886543273925781 1.0855630636215209961 1.1129033565521240234 1.1609348058700561523 1.1705201864242553711 1.1730978488922119141 1.0945202112197875977 0.90630888938903808594 0.96666777133941650391 1.0476419925689697266 1.015811920166015625 0.9804973602294921875 0.93372333049774169922 0.94822841882705688477 1.0201592445373535156 1.0492627620697021484 1.0995246171951293945 1.0832126140594482422 1.0616849660873413086 1.0849416255950927734 1.092213749885559082 1.157368779182434082 1.2297211885452270508 1.1058501005172729492 1.0437601804733276367 1.0825395584106445312 1.1101810932159423828 1.0845400094985961914 1.1210336685180664062 1.1503337621688842773 1.1213322877883911133 1.0646229982376098633 0.99790138006210327148 1.0956294536590576172 1.0431699752807617188 1.0215137004852294922 1.0582640171051025391 0.98860836029052734375 0.99291300773620605469 1.0251560211181640625 1.1129900217056274414 1.1661611795425415039 1.1954272985458374023 1.1467249393463134766 0.90646451711654663086 0.61291396617889404297 0.507068634033203125 0.37173148989677429199 0.67926001548767089844 0.88649183511734008789 1.0596306324005126953 0.90032690763473510742 0.70006042718887329102 0.78029561042785644531 0.98215597867965698242 1.1706103086471557617 1.245135188102722168 1.1460078954696655273 1.074315190315246582 1.1726660728454589844 1.1400159597396850586 1.1017667055130004883 1.1464763879776000977 1.1401448249816894531 0.95362865924835205078 0.51861864328384399414 0.40699043869972229004 0.74714696407318115234 0.89879804849624633789 0.90006816387176513672 1.0047296285629272461 1.1623389720916748047 1.1594169139862060547 1.2132830619812011719 1.2096232175827026367 1.0578086376190185547 0.84512251615524291992 0.85814625024795532227 0.63946384191513061523 0.86387485265731811523 1.0404706001281738281 1.020259857177734375 1.0372728109359741211 1.101414799690246582 1.0513187646865844727 1.0362318754196166992 0.99690151214599609375 0.89004874229431152344 1.0037723779678344727 1.0630050897598266602 1.072520136833190918 1.0227918624877929688 1.0424702167510986328 1.0677908658981323242 1.0575222969055175781 0.98730820417404174805 0.95615708827972412109 1.0740957260131835938 1.0452001094818115234 0.99661773443222045898 0.90283298492431640625 0.95661538839340209961 0.95121145248413085938 1.1134885549545288086
1.2320460081100463867 1.1266155242919921875 0.9745470881462097168 0.96719694137573242188 0.96571081876754760742 0.51828092336654663086 0.87193858623504638672 1.1006283760070800781 1.0923802852630615234 1.1431466341018676758 1.0898989439010620117 1.0341305732727050781 1.1493288278579711914 1.1011052131652832031 1.0716301202774047852 1.045612335205078125 1.0948657989501953125 1.040543675422668457 0.96432101726531982422 1.0154727697372436523 1.0701347589492797852 1.1121147871017456055 1.1421512365341186523 1.1381247043609619141 1.0465532541275024414 1.1493147611618041992 1.1611515283584594727 1.1665172576904296875 1.1670238971710205078 1.1332876682281494141 1.06989288330078125 1.0132577419281005859 1.022578120231628418 1.1279833316802978516 0.90206992626190185547 0.86830812692642211914 1.0478122234344482422 1.2038375139236450195 1.1961921453475952148 1.1516919136047363281 1.11461639404296875 1.1632937192916870117 1.281016230583190918 1.1742597818374633789 0.88120549917221069336 0.88969093561172485352 0.91872161626815795898 1.1697847843170166016 1.0890566110610961914 0.64706456661224365234 0.46923732757568359375 0.32671335339546203613 0.99915283918380737305 1.1751650571823120117 0.74500101804733276367 0.34975472092628479004 0.97315680980682373047 1.0671317577362060547 1.0875443220138549805 1.1474490165710449219 1.1570773124694824219 1.1585334539413452148 1.1498259305953979492 1.1137287616729736328 1.0028781890869140625 1.0271209478378295898 1.1175024509429931641 1.0492056608200073242 0.98377436399459838867 0.98415321111679077148 1.0414851903915405273 1.0222194194793701172 0.95338422060012817383 0.94255554676055908203 0.97966688871383666992 1.1068441867828369141 1.1599065065383911133 1.1257829666137695312 1.1748181581497192383 1.1683170795440673828 1.0483872890472412109 1.0520316362380981445 1.0868562459945678711 1.0925757884979248047 1.0860078334808349609 1.1099601984024047852 1.1540740728378295898 1.0971008539199829102 1.0206217765808105469 1.0941206216812133789 1.0442690849304199219 1.0607776641845703125 1.0620120763778686523 1.1215471029281616211 0.98831129074096679688 1.0127083063125610352 1.105739593505859375 1.1625410318374633789 1.0449026823043823242 0.65871441364288330078 0.43164622783660888672 0.67415505647659301758 0.85262644290924072266 0.63225024938583374023 0.7200234532356262207 0.98898404836654663086 1.1394382715225219727 1.1333631277084350586 1.1724134683609008789 1.1351720094680786133 0.8580901026725769043 0.93892425298690795898 1.1412508487701416016 1.1359713077545166016 1.0381252765655517578 1.0463249683380126953 1.1592518091201782227 1.2219130992889404297 0.95049434900283813477 1.0441160202026367188 1.0794740915298461914 0.83636915683746337891 0.59920728206634521484 0.86813652515411376953 1.0493062734603881836 0.96272748708724975586 0.97071379423141479492 1.2021363973617553711 1.1915227174758911133 1.2128458023071289062 1.0439432859420776367 0.88694030046463012695 0.83335602283477783203 0.85224682092666625977 0.8361797332763671875 0.92783021926879882812 1.018931269645690918 1.0591837167739868164 1.0745217800140380859 1.0888150930404663086 1.1145566701889038086 0.99728924036026000977 0.92388427257537841797 0.92121362686157226562 0.88952034711837768555 0.9556439518928527832 1.0354560613632202148 0.99602335691452026367 0.97654473781585693359 1.0359520912170410156 1.0487712621688842773 0.97696959972381591797 1.0729562044143676758 1.0719540119171142578 0.982181549072265625 0.92457818984985351562 0.9334697723388671875 0.96205562353134155273 1.0737947225570678711 1.1793079376220703125
1.205506443977355957 1.2373111248016357422 1.0795089006423950195 0.96903342008590698242 1.0151842832565307617 0.72095090150833129883 0.47525230050086975098 0.79189699888229370117 0.83815294504165649414 0.97860109806060791016 0.94473230838775634766 0.79293197393417358398 0.85324770212173461914 0.94210064411163330078 1.015631556510925293 0.98659473657608032227 0.88546293973922729492 0.86458683013916015625 0.90378266572952270508 0.99463593959808349609 0.96192711591720581055 1.0388817787170410156 1.0894845724105834961 1.1860647201538085938 1.1692876815795898438 1.153242945671081543 1.1341544389724731445 1.1855787038803100586 1.1448047161102294922 1.0622488260269165039 0.98380655050277709961 0.95264393091201782227 1.0020024776458740234 0.92605441808700561523 0.77567791938781738281 0.68687087297439575195 0.72426909208297729492 1.0896599292755126953 1.2727965116500854492 1.1877824068069458008 1.1044882535934448242 1.1245920658111572266 1.1432237625122070312 1.2883281707763671875 1.1797983646392822266 0.89181804656982421875 0.93837511539459228516 0.93377768993377685547 0.8109614253044128418 0.73048412799835205078 0.4523569941520690918 0.74293380975723266602 1.0345299243927001953 1.1288038492202758789 1.0600812435150146484 0.36933383345603942871 0.52175337076187133789 0.93247771263122558594 1.006834864616394043 1.0686632394790649414 1.1431460380554199219 1.1182210445404052734 1.0943404436111450195 1.1019773483276367188 1.042789459228515625 1.0634137392044067383 1.1377419233322143555 1.0766342878341674805 1.0017914772033691406 0.94783347845077514648 0.98882412910461425781 0.9334716796875 0.79195356369018554688 0.94473385810852050781 0.9228560328483581543 0.96032911539077758789 1.1123969554901123047 1.1317437887191772461 1.0842983722686767578 1.2662534713745117188 1.0566899776458740234 1.0236926078796386719 1.058926701545715332 1.0983072519302368164 1.0653867721557617188 1.0804152488708496094 1.1512776613235473633 1.1562902927398681641 1.1552515029907226562 1.0309582948684692383 1.0839366912841796875 1.1654551029205322266 1.1795424222946166992 1.0961519479751586914 1.0951241254806518555 1.0569732189178466797 0.87067216634750366211 0.82784354686737060547 0.60442614555358886719 0.76165318489074707031 1.0862883329391479492 1.1245107650756835938 1.0072438716888427734 0.78521817922592163086 0.32031786441802978516 0.5584036707878112793 0.74334806203842163086 0.73242014646530151367 0.86827868223190307617 0.88155972957611083984 1.0318720340728759766 0.94438517093658447266 0.98847639560699462891 1.0733563899993896484 1.0399162769317626953 1.0168439149856567383 1.0692186355590820312 1.1815683841705322266 0.95055907964706420898 1.1910282373428344727 1.041708827018737793 0.99513667821884155273 0.69641745090484619141 0.71732419729232788086 0.98324543237686157227 0.96024322509765625 0.99320614337921142578 1.2282270193099975586 1.2303304672241210938 1.1171590089797973633 0.93591856956481933594 1.0663294792175292969 0.89931374788284301758 0.78791785240173339844 0.81887632608413696289 0.92008739709854125977 0.94532150030136108398 0.95113277435302734375 1.1069878339767456055 1.0732065439224243164 1.0258108377456665039 0.99302899837493896484 0.95319783687591552734 1.0206207036972045898 0.94757032394409179688 0.98223519325256347656 1.0157232284545898438 1.0086295604705810547 0.9988371729850769043 1.0898195505142211914 1.0835902690887451172 1.0258485078811645508 1.1104127168655395508 1.0386639833450317383 0.99558717012405395508 0.91734713315963745117 0.9681854248046875 1.103153228759765625 1.178455352783203125 1.1095867156982421875
1.2222225666046142578 1.1280618906021118164 1.0059692859649658203 0.94088077545166015625 0.98144674301147460938 0.79244261980056762695 0.34057542681694030762 0.37206310033798217773 0.49477592110633850098 0.52633380889892578125 0.51147657632827758789 0.41120839118957519531 0.46392115950584411621 0.62722551822662353516 0.84844267368316650391 0.80287158489227294922 0.84036028385162353516 0.9416396021842956543 0.96223288774490356445 0.98417478799819946289 1.0300683975219726562 1.0435210466384887695 1.040215611457824707 1.1874600648880004883 1.1915466785430908203 1.1565161943435668945 1.1128575801849365234 1.0608466863632202148 0.80014538764953613281 0.99703770875930786133 1.0185586214065551758 1.0333745479583740234 1.0331972837448120117 0.82167094945907592773 0.84133386611938476562 0.80397701263427734375 0.73394477367401123047 0.86976897716522216797 1.2089941501617431641 1.2059586048126220703 1.1772750616073608398 1.2147343158721923828 1.1344789266586303711 1.1038702726364135742 1.2698980569839477539 1.1281456947326660156 0.98631912469863891602 0.81534862518310546875 0.84479123353958129883 0.74696385860443115234 0.58849155902862548828 0.62098425626754760742 0.95274394750595092773 1.043316960334777832 1.1621099710464477539 0.80341982841491699219 0.50153023004531860352 0.72645515203475952148 0.92172718048095703125 1.0296480655670166016 1.0944846868515014648 1.0652397871017456055 1.041957855224609375 1.0578418970108032227 1.0748682022094726562 1.0257334709167480469 0.99373954534530639648 0.97953665256500244141 1.0165810585021972656 0.90019106864929199219 1.0289899110794067383 1.2833247184753417969 1.1050013303756713867 1.163056492805480957 1.2081738710403442383 0.90868717432022094727 0.8088169097900390625 0.91082501411437988281 0.96337282657623291016 1.259106755256652832 0.98275017738342285156 0.90984243154525756836 1.0575044155120849609 1.1504416465759277344 1.1227191686630249023 1.1866459846496582031 1.1283951997756958008 1.178165435791015625 1.0763458013534545898 1.1215898990631103516 1.1540049314498901367 1.0932037830352783203 1.0207941532135009766 0.95399260520935058594 0.98581904172897338867 0.90575236082077026367 0.85376250743865966797 0.85089194774627685547 0.29011291265487670898 0.98696362972259521484 1.1490420103073120117 1.1077820062637329102 1.2380019426345825195 1.1042274236679077148 0.5776627659797668457 0.86361557245254516602 0.97988563776016235352 0.9296156764030456543 0.88827633857727050781 0.7575467228889465332 0.73426729440689086914 1.0639687776565551758 1.0885436534881591797 1.0136842727661132812 1.110306859016418457 1.0532274246215820312 1.0728679895401000977 1.1218276023864746094 0.9837824702262878418 1.1159592866897583008 1.0757712125778198242 1.0093736648559570312 0.91153895854949951172 0.78668159246444702148 0.87183052301406860352 0.83486676216125488281 0.9320843815803527832 1.1287544965744018555 1.2030924558639526367 1.1089397668838500977 1.0314524173736572266 1.1536294221878051758 0.96599298715591430664 0.77641642093658447266 0.84692221879959106445 1.0258420705795288086 1.1016139984130859375 1.0349969863891601562 1.0768991708755493164 1.0118979215621948242 0.91780883073806762695 0.95656049251556396484 1.0120748281478881836 1.062714695930480957 1.017485499382019043 1.0301553010940551758 1.0317188501358032227 1.0232255458831787109 1.019456028938293457 1.0532773733139038086 1.0142203569412231445 0.97018742561340332031 1.0499703884124755859 1.0849175453186035156 1.0084284543991088867 1.0160062313079833984 1.1522059440612792969 1.178318023681640625 1.1786459684371948242 0.90927404165267944336
1.1654869318008422852 0.99079787731170654297 1.1605668067932128906 0.95341068506240844727 0.90705740451812744141 0.75824248790740966797 0.31708204746246337891 0.72953373193740844727 0.95108187198638916016 0.88811850547790527344 0.77657979726791381836 0.70600211620330810547 0.8870919346809387207 0.96539920568466186523 1.0038273334503173828 0.95653104782104492188 0.96095407009124755859 0.9618428349494934082 0.95616811513900756836 1.060999751091003418 1.1165094375610351562 0.91997426748275756836 0.99496591091156005859 1.177145838737487793 1.22882080078125 1.0709605216979980469 1.0262142419815063477 0.85060459375381469727 0.79259502887725830078 0.88968384265899658203 1.0230381488800048828 1.0882936716079711914 1.0861128568649291992 0.82453393936157226562 0.6864115595817565918 0.7413737177848815918 0.66201233863830566406 0.74864107370376586914 0.9011376500129699707 1.0912300348281860352 1.2827179431915283203 1.2386050224304199219 1.034474492073059082 1.0578581094741821289 1.1754069328308105469 1.3017128705978393555 1.0373083353042602539 1.0379188060760498047 0.84838593006134033203 0.76083344221115112305 0.56043374538421630859 0.5749257206916809082 0.93576973676681518555 1.0142719745635986328 1.1153781414031982422 1.0578508377075195312 1.0032389163970947266 0.34652099013328552246 0.76443791389465332031 1.0462762117385864258 1.0857690572738647461 1.0314843654632568359 1.0248224735260009766 1.0400635004043579102 1.0541589260101318359 1.0643873214721679688 1.0120650529861450195 0.94323801994323730469 1.1623773574829101562 1.2972673177719116211 1.2140175104141235352 1.2151043415069580078 1.1661572456359863281 1.1295515298843383789 1.1698553562164306641 1.1149880886077880859 1.0954308509826660156 1.0623826980590820312 0.95287781953811645508 1.1487934589385986328 1.2090300321578979492 0.76976990699768066406 0.98165422677993774414 1.168377995491027832 1.1625154018402099609 1.1809102296829223633 0.98790729045867919922 0.86251777410507202148 0.80084758996963500977 0.89611518383026123047 0.86468464136123657227 0.94410103559494018555 1.1136299371719360352 1.1187607049942016602 1.0461046695709228516 0.97581917047500610352 0.99523782730102539062 0.7910626530647277832 0.33584108948707580566 1.0182784795761108398 1.1400855779647827148 1.0425614118576049805 1.1194719076156616211 1.1999858617782592773 0.74819600582122802734 0.95741981267929077148 1.1284753084182739258 1.041939854621887207 0.9292132258415222168 0.92020934820175170898 0.91903525590896606445 1.0552591085433959961 1.2476633787155151367 1.0958983898162841797 1.1399793624877929688 1.1073335409164428711 1.0947043895721435547 1.0728731155395507812 1.0449342727661132812 1.0890729427337646484 1.0987863540649414062 0.90531617403030395508 0.93025940656661987305 0.91675734519958496094 0.90997350215911865234 0.90806418657302856445 0.889636993408203125 1.0333983898162841797 1.2338160276412963867 1.1821690797805786133 1.0784705877304077148 1.1756039857864379883 1.0294438600540161133 0.77112972736358642578 0.90415787696838378906 1.0555505752563476562 1.1042981147766113281 1.1033470630645751953 1.0677164793014526367 0.99849313497543334961 0.92993628978729248047 0.96896988153457641602 1.0707858800888061523 1.0399874448776245117 1.018880009651184082 1.0730777978897094727 1.0434745550155639648 1.0412576198577880859 1.0389744043350219727 0.99030041694641113281 0.91375213861465454102 0.98479801416397094727 1.0452600717544555664 1.0659052133560180664 1.0842392444610595703 1.1369390487670898438 1.1785911321640014648 1.1544389724731445312 1.1583586931228637695 0.81030797958374023438
0.97989612817764282227 1.0914459228515625 1.2582781314849853516 1.1436684131622314453 1.0854142904281616211 0.90654277801513671875 0.58145707845687866211 1.0031882524490356445 1.0507370233535766602 1.008980870246887207 0.92622327804565429688 0.88823860883712768555 0.90489721298217773438 0.89909112453460693359 0.95141786336898803711 0.99157327413558959961 0.94858193397521972656 1.0665377378463745117 1.0881531238555908203 1.0703613758087158203 1.0251827239990234375 0.90078133344650268555 1.1377166509628295898 1.2265927791595458984 1.166675567626953125 1.1448553800582885742 0.97618979215621948242 0.95748621225357055664 0.92521744966506958008 0.90440344810485839844 0.98372304439544677734 1.0909645557403564453 1.1368507146835327148 0.96726393699645996094 0.54643273353576660156 0.85794150829315185547 1.0575565099716186523 1.1085389852523803711 1.1635994911193847656 1.063361048698425293 1.1065450906753540039 1.1728760004043579102 0.99443727731704711914 1.065372467041015625 1.1767882108688354492 1.2493238449096679688 1.2520903348922729492 1.1828805208206176758 0.95622044801712036133 0.59206879138946533203 0.52263230085372924805 0.8709284663200378418 1.1246807575225830078 1.0426148176193237305 1.0516893863677978516 1.1434762477874755859 1.1716094017028808594 0.83935397863388061523 0.61426210403442382812 1.1192409992218017578 1.0657582283020019531 1.0357162952423095703 1.0431247949600219727 1.0636161565780639648 1.1501573324203491211 1.2150779962539672852 1.0343645811080932617 1.0597258806228637695 1.1860804557800292969 1.3326628208160400391 1.2205384969711303711 1.1740782260894775391 1.1825100183486938477 1.2032648324966430664 1.215603947639465332 1.2328996658325195312 1.294171452522277832 1.3030617237091064453 1.1193032264709472656 1.0208940505981445312 1.2819235324859619141 1.1155390739440917969 0.62277704477310180664 0.90325856208801269531 1.1684987545013427734 1.2858455181121826172 1.097029566764831543 0.70397484302520751953 0.80314147472381591797 1.1339496374130249023 1.1568450927734375 1.0382623672485351562 1.1289970874786376953 1.0484598875045776367 0.99343281984329223633 1.1094000339508056641 1.1962167024612426758 1.1177895069122314453 0.65606439113616943359 0.78619718551635742188 1.1211694478988647461 1.1089849472045898438 1.1617501974105834961 1.2149288654327392578 1.0865893363952636719 0.73741471767425537109 1.0429863929748535156 1.0938594341278076172 0.96945267915725708008 0.91554671525955200195 1.0036759376525878906 1.0192819833755493164 0.90937721729278564453 1.1916601657867431641 1.1352080106735229492 1.1646046638488769531 1.1205388307571411133 1.043187260627746582 1.0682897567749023438 1.0275038480758666992 1.188971400260925293 0.99131971597671508789 0.8601048588752746582 0.88368314504623413086 0.88580667972564697266 0.87137454748153686523 0.83689594268798828125 1.0528414249420166016 1.1989815235137939453 1.1991047859191894531 1.1225194931030273438 1.162966609001159668 1.1258232593536376953 0.86473625898361206055 0.99326092004776000977 1.0703641176223754883 1.0130392313003540039 1.0358977317810058594 1.0445438623428344727 1.0111167430877685547 1.0357425212860107422 1.0193747282028198242 1.0375909805297851562 1.0468534231185913086 1.0053791999816894531 0.98374551534652709961 0.96211963891983032227 1.0106503963470458984 0.94054806232452392578 0.89384251832962036133 0.97859847545623779297 1.0870513916015625 1.0028008222579956055 1.0629018545150756836 1.0935101509094238281 1.1636006832122802734 1.1492377519607543945 0.95063018798828125 1.0861153602600097656 0.83681011199951171875
0.89037501811981201172 1.1684033870697021484 1.2795581817626953125 1.2824299335479736328 1.2071970701217651367 0.84280163049697875977 0.62289679050445556641 1.0290966033935546875 1.1524155139923095703 1.0817164182662963867 0.98799061775207519531 0.91388475894927978516 0.91810876131057739258 1.0077773332595825195 1.1285823583602905273 1.2197538614273071289 1.2220613956451416016 1.220569610595703125 1.0934480428695678711 1.0879104137420654297 0.89889043569564819336 1.0834525823593139648 1.2177308797836303711 1.1736208200454711914 1.1075288057327270508 1.0691226720809936523 0.92198312282562255859 1.013522028923034668 0.90165275335311889648 0.84396529197692871094 0.93235790729522705078 0.90448719263076782227 1.1047468185424804688 0.85314470529556274414 0.68196958303451538086 0.97102415561676025391 1.1371353864669799805 1.2267982959747314453 1.2149808406829833984 1.0739804506301879883 0.8082974553108215332 1.0715504884719848633 1.046418309211730957 1.0867757797241210938 1.1247289180755615234 1.1411033868789672852 1.2384067773818969727 1.2435014247894287109 0.9399941563606262207 0.86311632394790649414 0.74086028337478637695 1.1582051515579223633 1.2466791868209838867 1.1269898414611816406 1.1109876632690429688 1.1122384071350097656 1.1442261934280395508 1.1968485116958618164 0.63550460338592529297 1.11191558837890625 1.1075323820114135742 1.1018778085708618164 1.119258880615234375 1.1287293434143066406 1.1150833368301391602 1.162739872932434082 1.1512607336044311523 1.1498317718505859375 1.1929460763931274414 1.1878328323364257812 1.1482959985733032227 1.1490731239318847656 1.1318340301513671875 1.1257380247116088867 1.1308358907699584961 1.1505684852600097656 1.2137901782989501953 1.2182271480560302734 1.2237608432769775391 1.1036084890365600586 1.1443196535110473633 1.2965426445007324219 0.92422831058502197266 0.52199262380599975586 1.0036475658416748047 1.2819476127624511719 1.2277010679244995117 0.56429296731948852539 0.49900650978088378906 1.070742487907409668 1.2684600353240966797 1.1358399391174316406 1.1297410726547241211 0.98609375953674316406 1.0548385381698608398 1.2012264728546142578 1.1037012338638305664 0.89040046930313110352 0.33298510313034057617 0.23020996153354644775 0.60645270347595214844 0.67027550935745239258 1.0299677848815917969 1.2495577335357666016 1.1283850669860839844 0.86422735452651977539 0.83123350143432617188 1.1410833597183227539 1.1257059574127197266 0.97516196966171264648 1.0995725393295288086 1.010625004768371582 0.9608758091926574707 1.0879799127578735352 1.1727393865585327148 1.1658716201782226562 1.1671159267425537109 1.1022510528564453125 1.0688049793243408203 1.0199120044708251953 1.2061287164688110352 1.0766475200653076172 0.86642843484878540039 0.90008157491683959961 0.90210372209548950195 0.88447088003158569336 0.84746670722961425781 0.96550297737121582031 1.0965569019317626953 1.116627812385559082 1.1260499954223632812 1.0141999721527099609 1.0678936243057250977 0.97315704822540283203 0.85952293872833251953 0.95746433734893798828 1.001725316047668457 1.0232365131378173828 1.0151641368865966797 0.97615575790405273438 1.0182524919509887695 1.0510885715484619141 1.0993463993072509766 1.0678477287292480469 0.8443762660026550293 0.98033773899078369141 0.99402093887329101562 1.0217711925506591797 0.92950654029846191406 0.94596594572067260742 1.1154689788818359375 1.1465411186218261719 1.1251015663146972656 1.1135210990905761719 1.110377192497253418 1.1728371381759643555 1.1190580129623413086 0.93624883890151977539 1.0368795394897460938 0.77723932266235351562
0.75808930397033691406 1.2046179771423339844 1.2811396121978759766 1.1866528987884521484 1.1035954952239990234 0.84233504533767700195 0.4922167658805847168 0.85729140043258666992 1.0371491909027099609 1.1482901573181152344 1.1429344415664672852 1.1784728765487670898 1.2346961498260498047 1.1688580513000488281 1.2136684656143188477 1.2085725069046020508 1.207729339599609375 1.1677324771881103516 1.1301374435424804688 1.0505748987197875977 0.91749370098114013672 1.1517994403839111328 1.1827672719955444336 1.1053462028503417969 1.0176930427551269531 1.0110722780227661133 0.96205240488052368164 1.0388033390045166016 0.97153234481811523438 0.85022574663162231445 0.8408553004264831543 0.45658642053604125977 0.92993235588073730469 1.0264579057693481445 0.81247091293334960938 1.0483413934707641602 1.089394688606262207 1.1278245449066162109 1.0763896703720092773 0.96986383199691772461 0.68179172277450561523 0.98549157381057739258 0.99717962741851806641 1.0428920984268188477 1.1112866401672363281 1.0978466272354125977 1.1930644512176513672 1.2980735301971435547 1.0759937763214111328 0.8124396204948425293 0.76101416349411010742 1.0594037771224975586 1.0982353687286376953 1.0739253759384155273 1.1258394718170166016 1.0235327482223510742 1.0835202932357788086 1.1937843561172485352 0.42868441343307495117 0.93653577566146850586 1.1943690776824951172 1.155228734016418457 1.1562734842300415039 1.1244189739227294922 1.1011948585510253906 1.104670405387878418 1.0712608098983764648 1.0545599460601806641 1.0798822641372680664 1.1230652332305908203 1.1325696706771850586 1.1327412128448486328 1.113789677619934082 1.1099975109100341797 1.1188592910766601562 1.1344153881072998047 1.1978681087493896484 1.2354960441589355469 1.182622075080871582 1.219455718994140625 1.1126667261123657227 1.2540693283081054688 1.1998267173767089844 0.88473051786422729492 0.80572772026062011719 1.2468525171279907227 1.16363525390625 0.53497594594955444336 0.35113468766212463379 1.0701364278793334961 1.1853215694427490234 1.1696535348892211914 1.0866510868072509766 1.0316078662872314453 1.1546885967254638672 1.005841374397277832 0.77978223562240600586 0.64785373210906982422 0.24263899028301239014 0.35334306955337524414 0.51088577508926391602 0.54847609996795654297 0.76793336868286132812 1.2446502447128295898 1.174630284309387207 1.0090831518173217773 0.73540073633193969727 1.1388897895812988281 1.2030808925628662109 1.1006178855895996094 1.1021442413330078125 1.1264292001724243164 1.1498801708221435547 0.96655482053756713867 1.0291485786437988281 1.0933742523193359375 1.1401401758193969727 1.1483651399612426758 1.07097625732421875 1.0204907655715942383 1.1300499439239501953 1.1402193307876586914 0.86382764577865600586 0.84984755516052246094 0.96413099765777587891 0.95096373558044433594 0.91016268730163574219 0.93584084510803222656 0.9592768549919128418 1.0649006366729736328 1.1565819978713989258 1.0477710962295532227 1.0341767072677612305 0.9536921381950378418 0.91800934076309204102 0.95414811372756958008 0.98851174116134643555 0.98654639720916748047 1.0190111398696899414 0.98282539844512939453 0.98470711708068847656 0.99797618389129638672 1.04404449462890625 0.90401339530944824219 0.93087947368621826172 0.98823076486587524414 1.0016357898712158203 1.0443491935729980469 0.99910068511962890625 1.0078530311584472656 1.0607225894927978516 1.0419574975967407227 1.135052800178527832 1.1094970703125 1.1589592695236206055 1.1339294910430908203 1.0742372274398803711 0.97571456432342529297 0.99868798255920410156 0.72518634796142578125
0.87141931056976318359 1.2461359500885009766 1.2054227590560913086 1.0093768835067749023 1.0076844692230224609 1.0246148109436035156 0.41265890002250671387 0.57228899002075195312 0.81498217582702636719 1.198624730110168457 1.2865661382675170898 1.2827712297439575195 1.1905810832977294922 1.2076539993286132812 1.2489944696426391602 1.0927757024765014648 1.1255649328231811523 1.0831105709075927734 1.1782307624816894531 0.98587566614151000977 0.96715152263641357422 1.1709072589874267578 1.1770195960998535156 1.0712896585464477539 0.95954185724258422852 0.96116870641708374023 0.93784737586975097656 0.95636850595474243164 0.89645290374755859375 0.81005060672760009766 0.63258373737335205078 0.3593152165412902832 0.7783692479133605957 0.88588213920593261719 0.93823903799057006836 1.0851826667785644531 0.99303233623504638672 0.96174055337905883789 0.93550252914428710938 0.8533236384391784668 0.89575588703155517578 1.0883300304412841797 1.0255051851272583008 1.0619808435440063477 1.1363164186477661133 1.1290032863616943359 1.1746062040328979492 1.3123073577880859375 1.1385794878005981445 0.66266715526580810547 0.77768564224243164062 0.97052979469299316406 1.0619845390319824219 1.0964539051055908203 1.1976275444030761719 1.0735155344009399414 1.1696091890335083008 1.1973718404769897461 0.43149432539939880371 0.77642720937728881836 1.16796112060546875 1.1117033958435058594 1.1564202308654785156 1.1021093130111694336 1.098155975341796875 1.1014809608459472656 1.0819776058197021484 1.0877745151519775391 1.0712739229202270508 1.0667465925216674805 1.0795676708221435547 1.0866049528121948242 1.0632897615432739258 1.0566256046295166016 1.0893952846527099609 1.0888954401016235352 1.1060670614242553711 1.1738555431365966797 1.219678044319152832 1.1977099180221557617 1.2159212827682495117 1.2162624597549438477 1.2361233234405517578 1.1090326309204101562 0.87091088294982910156 1.1945583820343017578 1.1005688905715942383 0.76355767250061035156 0.66411077976226806641 1.1919617652893066406 1.1759568452835083008 1.0853215456008911133 0.9822819828987121582 1.2350137233734130859 1.1681979894638061523 0.9937610626220703125 0.94520455598831176758 0.83239912986755371094 0.37547597289085388184 0.95759630203247070312 0.97678112983703613281 0.67263364791870117188 0.90413230657577514648 1.2149251699447631836 1.0721592903137207031 1.1176178455352783203 0.87097716331481933594 0.94285506010055541992 1.1671751737594604492 1.1252905130386352539 1.0757815837860107422 1.128693699836730957 0.88911157846450805664 0.62381482124328613281 0.72613388299942016602 0.97240990400314331055 1.0443427562713623047 1.1359968185424804688 1.1054832935333251953 1.0703943967819213867 1.1245896816253662109 1.1643900871276855469 0.89681774377822875977 0.88764387369155883789 1.0035294294357299805 1.0050054788589477539 0.99076956510543823242 0.91665107011795043945 0.78264629840850830078 0.88773322105407714844 1.0105924606323242188 1.1630233526229858398 1.1198154687881469727 0.94934165477752685547 0.90558844804763793945 0.95782738924026489258 0.97144603729248046875 1.0003418922424316406 0.98634439706802368164 0.94366782903671264648 0.90813851356506347656 0.96572905778884887695 0.99097025394439697266 0.97907555103302001953 0.92878443002700805664 0.92540735006332397461 1.0318491458892822266 1.0545606613159179688 0.97673475742340087891 0.9522151947021484375 0.98040300607681274414 0.96759390830993652344 1.1022083759307861328 1.1095042228698730469 1.1603324413299560547 1.0510917901992797852 1.0233275890350341797 0.99502599239349365234 0.98414152860641479492 0.72070801258087158203
1.0728816986083984375 1.2163643836975097656 1.1726291179656982422 1.1910099983215332031 1.1270624399185180664 1.0562012195587158203 0.42327672243118286133 0.84121358394622802734 0.9692401885986328125 1.2369647026062011719 1.2380324602127075195 1.2104077339172363281 1.0953062772750854492 1.2163629531860351562 1.0232285261154174805 0.894805908203125 1.0208201408386230469 0.96935737133026123047 1.0696083307266235352 0.95147776603698730469 1.0469679832458496094 1.2632892131805419922 1.2005875110626220703 1.0496897697448730469 0.9822139739990234375 0.9933726191520690918 0.96660012006759643555 1.0058630704879760742 0.68807715177536010742 0.44768211245536804199 0.32389399409294128418 0.7758852839469909668 1.023406982421875 1.0843166112899780273 1.066434025764465332 0.98433971405029296875 1.0168863534927368164 0.84110343456268310547 0.84199345111846923828 0.87791526317596435547 1.1149120330810546875 1.0798436403274536133 1.0585616827011108398 1.1264368295669555664 1.1832178831100463867 1.1496841907501220703 1.176020503044128418 1.3075120449066162109 0.91556227207183837891 0.32760393619537353516 0.99117046594619750977 1.0102709531784057617 1.0959111452102661133 1.1065485477447509766 1.1488748788833618164 1.0775531530380249023 1.1462818384170532227 1.2657458782196044922 0.63670396804809570312 0.99240082502365112305 1.1327353715896606445 1.0874567031860351562 1.2115920782089233398 1.1558533906936645508 1.1210783720016479492 1.1094431877136230469 1.1046820878982543945 1.1157642602920532227 1.1261359453201293945 1.1063698530197143555 1.0717530250549316406 1.0652501583099365234 1.0555562973022460938 1.0680878162384033203 1.1048846244812011719 1.0405874252319335938 1.0093358755111694336 0.94390726089477539062 1.0853266716003417969 1.1386522054672241211 1.1414191722869873047 1.2176336050033569336 1.2562482357025146484 1.2079967260360717773 1.1190246343612670898 1.1896514892578125 0.93880635499954223633 0.84282118082046508789 1.0494712591171264648 1.1806792020797729492 1.2224771976470947266 1.0603374242782592773 0.9139397740364074707 0.88285201787948608398 0.8352947235107421875 1.03778839111328125 0.88167917728424072266 0.76248317956924438477 0.37120622396469116211 0.96679705381393432617 1.1914957761764526367 0.91872751712799072266 1.0270235538482666016 1.1413245201110839844 1.0231453180313110352 1.070944666862487793 0.91360771656036376953 0.97663700580596923828 1.0781952142715454102 0.7512791752815246582 0.91083449125289916992 0.89172762632369995117 0.69463753700256347656 0.60795307159423828125 0.74577510356903076172 0.98842769861221313477 1.0190641880035400391 0.99487435817718505859 1.0888054370880126953 1.0893905162811279297 1.1385025978088378906 1.1882871389389038086 0.95218580961227416992 0.81714254617691040039 0.89089357852935791016 0.88288950920104980469 0.89293026924133300781 0.89432448148727416992 0.90025699138641357422 0.89476549625396728516 0.91362577676773071289 1.0809649229049682617 1.1599342823028564453 0.98130589723587036133 0.85288500785827636719 0.96682024002075195312 1.0005568265914916992 0.97707819938659667969 0.93040412664413452148 0.91769200563430786133 0.94880825281143188477 0.98486608266830444336 1.0370754003524780273 0.87886071205139160156 0.87527388334274291992 0.93868672847747802734 0.97226893901824951172 0.9986896514892578125 0.94606441259384155273 0.9057877659797668457 0.98526823520660400391 0.99086308479309082031 1.1154286861419677734 1.12203216552734375 1.1579099893569946289 1.0521858930587768555 0.95440340042114257812 0.96493124961853027344 0.94067668914794921875 0.73710590600967407227
1.10796356201171875 1.1606584787368774414 1.1625335216522216797 1.2389253377914428711 1.1722046136856079102 0.86599564552307128906 0.44930386543273925781 0.76713234186172485352 0.99000209569931030273 1.0854636430740356445 1.0942445993423461914 0.89547127485275268555 1.0155414342880249023 1.0864510536193847656 1.0176439285278320312 1.0477181673049926758 1.092192530632019043 1.0266722440719604492 1.1246999502182006836 1.0587784051895141602 1.2019963264465332031 1.2664775848388671875 1.2088696956634521484 1.0594857931137084961 1.028428196907043457 1.0379951000213623047 1.0313894748687744141 0.98383098840713500977 0.78272134065628051758 0.29776400327682495117 0.82124704122543334961 1.0631507635116577148 1.04590606689453125 1.102231144905090332 1.0027899742126464844 0.99213969707489013672 0.89904522895812988281 0.68756830692291259766 0.8134314417839050293 1.0949141979217529297 1.0984762907028198242 1.0637552738189697266 1.0930422544479370117 1.1347805261611938477 1.1620019674301147461 1.1443619728088378906 1.2179238796234130859 1.3151050806045532227 0.65864008665084838867 0.33337068557739257812 1.1004385948181152344 1.0358242988586425781 1.0920771360397338867 1.070492863655090332 1.1254804134368896484 1.1121572256088256836 1.0109257698059082031 1.0812666416168212891 1.1059479713439941406 0.8676903843879699707 1.0338690280914306641 1.0346903800964355469 1.2198545932769775391 1.2362526655197143555 1.1728073358535766602 1.1345245838165283203 1.1182647943496704102 1.1166839599609375 1.1091364622116088867 1.106576085090637207 1.0920312404632568359 1.0928705930709838867 1.1131876707077026367 1.1656718254089355469 1.1930147409439086914 1.1290233135223388672 1.0499182939529418945 0.9147847294807434082 0.85590124130249023438 0.95161014795303344727 1.1038434505462646484 1.1487706899642944336 1.2131967544555664062 1.2592684030532836914 1.2459173202514648438 1.0702931880950927734 0.8450565338134765625 0.75070470571517944336 0.9296219944953918457 1.1334282159805297852 1.2337888479232788086 1.1230005025863647461 0.96372592449188232422 1.06735992431640625 0.99502050876617431641 1.0950996875762939453 0.85216462612152099609 0.73278796672821044922 0.39624282717704772949 0.75138181447982788086 1.1427940130233764648 0.9967587590217590332 1.1497873067855834961 1.1716786623001098633 1.0838909149169921875 0.99048745632171630859 0.83633410930633544922 1.0626773834228515625 1.1123789548873901367 0.83359682559967041016 0.61282956600189208984 0.70725870132446289062 0.79684472084045410156 0.83057767152786254883 0.91595417261123657227 0.99556195735931396484 0.96818155050277709961 0.91716414690017700195 0.97370553016662597656 0.97027635574340820312 1.0469129085540771484 1.1983840465545654297 1.0135834217071533203 0.85623985528945922852 0.90881967544555664062 0.9289538264274597168 0.97394454479217529297 0.99923229217529296875 1.0053956508636474609 0.99061262607574462891 0.91307079792022705078 1.0780936479568481445 1.1106531620025634766 0.95046591758728027344 0.86269193887710571289 0.95772600173950195312 0.93595683574676513672 0.90939575433731079102 0.91627162694931030273 0.91289222240447998047 0.99179255962371826172 0.99518996477127075195 0.95834165811538696289 0.89098972082138061523 0.98474049568176269531 0.96405673027038574219 0.9581725001335144043 1.0092445611953735352 0.97054213285446166992 0.89739209413528442383 1.0204868316650390625 1.1174869537353515625 1.1128205060958862305 1.1453094482421875 1.1679313182830810547 1.0431817770004272461 0.95651865005493164062 0.96826303005218505859 0.98410379886627197266 0.80777651071548461914
1.1288818120956420898 1.1637272834777832031 1.2184388637542724609 1.2470422983169555664 1.1808615922927856445 0.75949496030807495117 0.90560448169708251953 1.2264223098754882812 1.104390263557434082 1.0152845382690429688 0.90953946113586425781 0.92878037691116333008 1.1103612184524536133 1.0847488641738891602 1.0519300699234008789 1.0683884620666503906 1.1581577062606811523 1.072836756706237793 1.1036323308944702148 1.0918724536895751953 1.1655853986740112305 1.1947847604751586914 1.2144528627395629883 0.9386749267578125 0.95753127336502075195 1.1119775772094726562 0.85952055454254150391 0.49311822652816772461 0.37178322672843933105 0.71813619136810302734 1.1009470224380493164 1.0152052640914916992 1.0094166994094848633 1.0508904457092285156 1.0915721654891967773 1.1278322935104370117 1.1388410329818725586 1.1636118888854980469 1.1756287813186645508 1.1075884103775024414 1.0901737213134765625 1.0963308811187744141 1.1373807191848754883 1.1255813837051391602 1.1260808706283569336 1.1506884098052978516 1.259555816650390625 1.2746846675872802734 0.41377201676368713379 0.69342577457427978516 1.1514662504196166992 1.0533050298690795898 1.1113898754119873047 1.078703761100769043 1.2183805704116821289 1.2944822311401367188 1.0075185298919677734 0.93281638622283935547 1.1195588111877441406 0.83820009231567382812 0.74483370780944824219 0.86074393987655639648 0.95943206548690795898 1.0889211893081665039 1.1737048625946044922 1.1878560781478881836 1.1993823051452636719 1.1672018766403198242 1.1643793582916259766 1.1580702066421508789 1.1347841024398803711 1.1351451873779296875 1.1931464672088623047 1.1480277776718139648 1.2503085136413574219 1.2531678676605224609 1.1694767475128173828 1.1078795194625854492 0.99776184558868408203 0.96497607231140136719 1.1207070350646972656 1.1119576692581176758 1.2091333866119384766 1.2428104877471923828 1.1827650070190429688 0.89909195899963378906 0.91732823848724365234 0.94542104005813598633 0.79281848669052124023 1.0317296981811523438 1.2076374292373657227 1.2167236804962158203 0.91714990139007568359 1.1906440258026123047 1.0753033161163330078 1.1464655399322509766 0.99146765470504760742 0.85900586843490600586 0.49195128679275512695 0.66925168037414550781 0.97064137458801269531 0.9623000025749206543 1.0545544624328613281 1.0864990949630737305 1.0292199850082397461 0.96557736396789550781 0.94784659147262573242 0.93735557794570922852 0.90515303611755371094 1.0169031620025634766 0.8486232757568359375 0.71175146102905273438 0.8450171351432800293 0.91448134183883666992 0.87992089986801147461 0.80764788389205932617 0.82817542552947998047 0.87879478931427001953 0.91975665092468261719 0.92906838655471801758 0.96351850032806396484 1.0656720399856567383 1.0805573463439941406 0.9018910527229309082 0.89814913272857666016 0.99677693843841552734 1.0886873006820678711 1.0581685304641723633 0.98524641990661621094 0.99265134334564208984 0.96076041460037231445 1.1075054407119750977 1.0646358728408813477 0.95057719945907592773 0.88796305656433105469 0.92706048488616943359 0.92407971620559692383 0.92775809764862060547 0.93145555257797241211 0.84479194879531860352 0.89970982074737548828 1.0351026058197021484 0.95995366573333740234 0.96089410781860351562 0.94963908195495605469 0.93521773815155029297 0.99321037530899047852 1.0175616741180419922 1.004938960075378418 0.99048382043838500977 1.0772562026977539062 1.1490123271942138672 1.1167682409286499023 1.1314812898635864258 1.1217172145843505859 1.0294144153594970703 0.96463465690612792969 0.96536582708358764648 0.93012517690658569336 0.7503871917724609375
1.1124799251556396484 1.109737396240234375 1.1941609382629394531 1.2171415090560913086 1.2303155660629272461 0.84793573617935180664 0.84083569049835205078 1.1661417484283447266 1.1776738166809082031 1.1840283870697021484 1.1078346967697143555 1.1279741525650024414 1.1734271049499511719 1.1140654087066650391 1.0634963512420654297 1.0621228218078613281 1.1374362707138061523 1.0895878076553344727 1.0919905900955200195 1.0763984918594360352 1.088647007942199707 1.1038117408752441406 1.2777773141860961914 1.1637314558029174805 0.93699926137924194336 1.1545273065567016602 1.069543004035949707 0.95620369911193847656 0.77339071035385131836 1.0797176361083984375 1.054996490478515625 1.0276969671249389648 1.0505580902099609375 1.0743412971496582031 1.0514606237411499023 1.0649735927581787109 1.1338107585906982422 1.1717437505722045898 1.1453801393508911133 1.095977783203125 1.095540165901184082 1.1250128746032714844 1.1493816375732421875 1.1090043783187866211 1.0917346477508544922 1.1399328708648681641 1.2581310272216796875 1.1667218208312988281 1.0663521289825439453 1.1698017120361328125 1.0353925228118896484 1.0400969982147216797 1.1562922000885009766 1.1519358158111572266 1.2746286392211914062 1.1595081090927124023 0.7975292205810546875 0.82207959890365600586 1.0512772798538208008 1.0353754758834838867 0.52929800748825073242 0.99893844127655029297 1.0798738002777099609 1.0353664159774780273 1.0607985258102416992 1.1748582124710083008 1.2144631147384643555 1.2813841104507446289 1.2878291606903076172 1.2907080650329589844 1.1882236003875732422 1.1689765453338623047 1.0386693477630615234 0.70354115962982177734 0.88388687372207641602 1.0571044683456420898 1.2589669227600097656 1.1941819190979003906 1.1611313819885253906 1.104479670524597168 1.1045010089874267578 1.1360052824020385742 1.2164363861083984375 1.2469141483306884766 1.1330132484436035156 0.94359129667282104492 1.025997161865234375 1.061337590217590332 1.0704048871994018555 0.96677100658416748047 1.1025238037109375 1.1802678108215332031 0.89860355854034423828 1.1602197885513305664 1.0511965751647949219 1.0256181955337524414 0.99937051534652709961 0.84197652339935302734 0.56060022115707397461 0.72173273563385009766 1.0016072988510131836 1.0951765775680541992 1.1192976236343383789 1.1735799312591552734 1.0525037050247192383 1.069576263427734375 1.0540461540222167969 1.0423617362976074219 0.91802448034286499023 0.99151015281677246094 1.0108954906463623047 0.80921626091003417969 0.78966426849365234375 0.91177719831466674805 0.93190163373947143555 0.95689153671264648438 0.86987501382827758789 0.90078938007354736328 0.92816126346588134766 0.96994054317474365234 1.0218594074249267578 1.0579979419708251953 1.1984924077987670898 0.92194086313247680664 0.8838927149772644043 0.95602041482925415039 1.0325988531112670898 1.0376404523849487305 1.0103241205215454102 0.98329317569732666016 0.98588001728057861328 1.0643318891525268555 1.0645269155502319336 0.99146270751953125 0.91331505775451660156 0.9383627772331237793 0.93893378973007202148 0.92408502101898193359 0.94264930486679077148 0.89089930057525634766 0.96206915378570556641 1.0161070823669433594 0.93676179647445678711 0.90415012836456298828 0.9354432225227355957 1.0110677480697631836 1.0870583057403564453 1.0321265459060668945 1.0515613555908203125 1.0708758831024169922 1.1209919452667236328 1.14316558837890625 1.1380006074905395508 1.0991100072860717773 1.1065065860748291016 0.99038845300674438477 0.90937852859497070312 1.0028429031372070312 0.96088123321533203125 0.80025172233581542969
1.1267943382263183594 1.1252487897872924805 1.1155133247375488281 1.2104084491729736328 1.2323889732360839844 0.5778636932373046875 0.72024267911911010742 1.0103204250335693359 1.0812705755233764648 1.1735713481903076172 1.0945835113525390625 1.144213557243347168 1.1415123939514160156 1.0895324945449829102 1.1442025899887084961 1.1043304204940795898 1.1127490997314453125 1.0980135202407836914 1.1061054468154907227 1.0223733186721801758 0.7943928837776184082 1.0022999048233032227 1.2843673229217529297 1.2041983604431152344 1.133298039436340332 1.181986689567565918 1.2270836830139160156 1.2139526605606079102 1.0811269283294677734 1.0632905960083007812 1.064679265022277832 1.0665962696075439453 1.0582748651504516602 1.0556104183197021484 1.0595965385437011719 1.0606039762496948242 1.1198903322219848633 1.1524270772933959961 1.1893323659896850586 1.1980831623077392578 1.195013880729675293 1.1976704597473144531 1.1428376436233520508 1.1167707443237304688 1.0936073064804077148 1.1809200048446655273 1.2874872684478759766 1.1165524721145629883 1.029612421989440918 1.0325373411178588867 1.0174287557601928711 1.0747766494750976562 1.1251420974731445312 1.1466710567474365234 1.2329157590866088867 1.201930999755859375 0.94808685779571533203 0.91058373451232910156 1.1312375068664550781 0.96077251434326171875 0.2835305631160736084 0.54955345392227172852 0.7088229060173034668 0.49565416574478149414 0.39375233650207519531 0.99531012773513793945 1.0236639976501464844 0.96542936563491821289 0.98561197519302368164 1.0694870948791503906 1.1568002700805664062 1.0197700262069702148 0.67422920465469360352 0.63024866580963134766 0.55238807201385498047 0.73901754617691040039 1.0506548881530761719 1.090573430061340332 1.1374158859252929688 1.0836994647979736328 1.1502928733825683594 1.1218880414962768555 1.1940132379531860352 1.2638962268829345703 1.1414986848831176758 1.0892425775527954102 1.1912255287170410156 0.9902674555778503418 1.1684000492095947266 0.955478668212890625 0.97710913419723510742 0.98555964231491088867 0.99683779478073120117 1.084079742431640625 1.1145137548446655273 0.97645348310470581055 0.85183441638946533203 0.60166692733764648438 0.5410067439079284668 0.87937325239181518555 0.89146792888641357422 1.0772340297698974609 1.0867605209350585938 1.1433492898941040039 1.0128917694091796875 1.0739016532897949219 1.1226475238800048828 1.1475191116333007812 1.1355431079864501953 1.0336304903030395508 1.0285879373550415039 0.90846365690231323242 0.72299295663833618164 0.84276580810546875 0.9599927067756652832 0.9055092930793762207 0.93126481771469116211 1.0144585371017456055 1.0292116403579711914 1.0166696310043334961 1.0004001855850219727 1.0077329874038696289 1.1250057220458984375 1.0858763456344604492 0.9993903040885925293 0.99509030580520629883 1.0103650093078613281 1.0050791501998901367 1.0223958492279052734 0.99190193414688110352 1.0147200822830200195 1.0154187679290771484 1.0864824056625366211 1.026198267936706543 1.0463593006134033203 1.0645705461502075195 1.0426605939865112305 1.0457242727279663086 1.0726702213287353516 0.98993444442749023438 0.96913838386535644531 0.96771961450576782227 0.97743701934814453125 1.0006206035614013672 1.0211470127105712891 1.0269532203674316406 1.0538878440856933594 1.0267164707183837891 1.0634813308715820312 1.0972350835800170898 1.1379681825637817383 1.159061431884765625 1.1155441999435424805 1.1184729337692260742 1.0897133350372314453 1.0243903398513793945 0.95761793851852416992 0.94758027791976928711 1.0254265069961547852 0.88874953985214233398
1.166900634765625 1.1223747730255126953 1.0957999229431152344 1.2368130683898925781 1.1695717573165893555 0.49786549806594848633 0.86212331056594848633 1.1171994209289550781 1.2669903039932250977 1.1315103769302368164 1.0846564769744873047 1.093197941780090332 1.1689410209655761719 1.2102754116058349609 1.2205231189727783203 1.0808711051940917969 1.0677533149719238281 1.0741802453994750977 1.0860805511474609375 0.84194165468215942383 0.72386479377746582031 1.1672209501266479492 1.2193225622177124023 1.1306333541870117188 0.98216223716735839844 0.91465210914611816406 1.0761667490005493164 1.0149346590042114258 0.97601199150085449219 1.0415220260620117188 1.093781590461730957 1.0747609138488769531 1.0883896350860595703 1.0918042659759521484 1.0835212469100952148 1.0544843673706054688 1.034646153450012207 1.0722824335098266602 1.1533043384552001953 1.1887687444686889648 1.1977394819259643555 1.1643339395523071289 1.1207224130630493164 1.1103900671005249023 1.1135573387145996094 1.2444711923599243164 1.1957658529281616211 0.97863423824310302734 1.0326879024505615234 1.1058257818222045898 1.0968471765518188477 1.1248822212219238281 1.1710603237152099609 1.2183077335357666016 1.2745882272720336914 1.0750489234924316406 0.86421662569046020508 0.90678071975708007812 0.95276963710784912109 0.52723348140716552734 0.42628875374794006348 0.92144250869750976562 0.97123384475708007812 0.97023463249206542969 0.71712458133697509766 0.42083942890167236328 0.27659982442855834961 0.28570991754531860352 0.30105945467948913574 0.69269782304763793945 0.9759922027587890625 0.85299009084701538086 0.65523183345794677734 0.56064897775650024414 0.75272381305694580078 0.85436207056045532227 1.0162167549133300781 1.1348978281021118164 1.0619920492172241211 1.0763154029846191406 1.204356074333190918 1.1300081014633178711 1.1524465084075927734 1.2511979341506958008 1.1609752178192138672 0.97091352939605712891 1.1752622127532958984 1.0057252645492553711 1.0906381607055664062 1.0980902910232543945 1.002440333366394043 0.94867998361587524414 0.94880914688110351562 0.92522597312927246094 1.065036773681640625 0.91830784082412719727 0.76246446371078491211 0.53521847724914550781 0.58881485462188720703 0.9778842926025390625 0.92409849166870117188 1.0098612308502197266 1.1597708463668823242 1.0600135326385498047 1.037807464599609375 1.0348041057586669922 1.0632379055023193359 1.1677724123001098633 1.0621314048767089844 1.0063364505767822266 0.97470963001251220703 1.0312571525573730469 0.79309904575347900391 0.87765389680862426758 0.89921659231185913086 0.92012888193130493164 0.997051239013671875 1.0265141725540161133 1.0328873395919799805 1.0417332649230957031 1.0385268926620483398 1.0363125801086425781 1.0038390159606933594 1.1393408775329589844 1.0367884635925292969 1.0179018974304199219 1.0289100408554077148 1.0415817499160766602 1.0017827749252319336 1.0111585855484008789 1.0144025087356567383 0.96548902988433837891 1.0745110511779785156 1.0005942583084106445 0.9953066706657409668 1.0037583112716674805 1.0563726425170898438 1.036206364631652832 1.0376806259155273438 1.0375505685806274414 0.92369902133941650391 0.90106189250946044922 0.98918867111206054688 1.0071010589599609375 0.9699757695198059082 0.94499021768569946289 0.99888253211975097656 1.015935063362121582 1.1106288433074951172 1.1632083654403686523 1.1315828561782836914 1.1221946477890014648 1.0900787115097045898 1.1521164178848266602 1.0583666563034057617 0.91975730657577514648 0.93715608119964599609 0.8769480586051940918 0.90342056751251220703 0.86089408397674560547
1.1444329023361206055 1.0497821569442749023 1.0894122123718261719 1.2482078075408935547 1.1591738462448120117 0.5930334925651550293 0.89562511444091796875 1.1463108062744140625 1.2744196653366088867 1.0662344694137573242 1.1013545989990234375 1.1303017139434814453 1.183673858642578125 1.2324280738830566406 1.0605309009552001953 1.0090535879135131836 1.0232527256011962891 1.0461261272430419922 0.95985847711563110352 0.7474740147590637207 1.0609396696090698242 1.2578444480895996094 1.1562211513519287109 1.1113220453262329102 0.85314553976058959961 0.69912177324295043945 0.77022260427474975586 0.94066780805587768555 0.99376136064529418945 1.0747466087341308594 1.1118485927581787109 1.0986847877502441406 1.0844324827194213867 1.0912668704986572266 1.088025212287902832 1.0546278953552246094 1.0074237585067749023 1.0067723989486694336 1.0502998828887939453 1.089411616325378418 1.0970106124877929688 1.1124556064605712891 1.1192680597305297852 1.1365545988082885742 1.1433197259902954102 1.2544586658477783203 1.1039767265319824219 1.106145024299621582 1.1870796680450439453 1.1430999040603637695 1.1287084817886352539 1.144259333610534668 1.1830571889877319336 1.202551722526550293 1.107159733772277832 0.77540004253387451172 0.6595312952995300293 0.62245357036590576172 0.56882405281066894531 0.45616102218627929688 0.81457996368408203125 1.0714687108993530273 1.1936213970184326172 1.218914031982421875 1.2353025674819946289 1.1135668754577636719 0.79066771268844604492 0.36436054110527038574 0.26131325960159301758 0.80275946855545043945 0.87820363044738769531 0.73134452104568481445 0.23734860122203826904 0.4053052365779876709 0.68908548355102539062 0.86647844314575195312 1.0524060726165771484 1.1552917957305908203 1.0474824905395507812 0.94663608074188232422 1.0722039937973022461 1.1501359939575195312 1.0926920175552368164 1.2103254795074462891 1.2526881694793701172 0.95699465274810791016 1.0490992069244384766 1.128029942512512207 0.99234497547149658203 1.156537175178527832 0.98441290855407714844 0.93059760332107543945 0.91394245624542236328 0.91652017831802368164 0.93380320072174072266 0.77712225914001464844 0.88128411769866943359 0.74991387128829956055 0.59471887350082397461 0.84527570009231567383 0.94398319721221923828 1.1217683553695678711 1.1673876047134399414 1.1077549457550048828 1.0239125490188598633 0.910266876220703125 1.1295338869094848633 1.1867983341217041016 1.0765931606292724609 1.1305269002914428711 1.1291512250900268555 1.08414459228515625 0.8463885188102722168 0.71691662073135375977 0.92517435550689697266 1.0526157617568969727 1.0383780002593994141 1.0301929712295532227 1.0279250144958496094 1.0490409135818481445 1.0587943792343139648 1.0665289163589477539 1.0310088396072387695 1.0826929807662963867 1.0934218168258666992 1.0614212751388549805 1.0684568881988525391 1.1011677980422973633 1.0720680952072143555 1.0858867168426513672 1.0103832483291625977 0.95932722091674804688 1.0026135444641113281 1.0834571123123168945 1.0503456592559814453 1.0451515913009643555 1.0507065057754516602 1.0092409849166870117 1.0207247734069824219 1.0084706544876098633 0.95824998617172241211 0.97544014453887939453 0.98947477340698242188 1.0654528141021728516 0.99611264467239379883 1.0078767538070678711 1.0782265663146972656 1.0844637155532836914 1.1548409461975097656 1.1385953426361083984 1.1292290687561035156 1.0743345022201538086 0.90924233198165893555 1.145962834358215332 1.0511263608932495117 0.95059806108474731445 0.91051769256591796875 0.87736010551452636719 0.89118081331253051758 0.90860694646835327148
1.1240133047103881836 1.0627505779266357422 1.1088266372680664062 1.3031290769577026367 1.1696914434432983398 0.55025810003280639648 0.5595505833625793457 0.93501704931259155273 1.1166555881500244141 1.0272617340087890625 1.1770107746124267578 1.2513833045959472656 1.1397180557250976562 0.98877775669097900391 0.94892704486846923828 1.0403341054916381836 1.0314176082611083984 0.90044432878494262695 0.81369769573211669922 0.81413930654525756836 1.133889317512512207 1.2313126325607299805 1.1307073831558227539 1.0721759796142578125 0.95418345928192138672 0.8394400477409362793 0.91775524616241455078 1.0294804573059082031 1.0504229068756103516 1.0690149068832397461 1.0999885797500610352 1.1019407510757446289 1.0927011966705322266 1.0931675434112548828 1.0867792367935180664 1.0929992198944091797 1.0862431526184082031 1.0770640373229980469 1.0700166225433349609 1.0707224607467651367 1.052865147590637207 1.0739421844482421875 1.1198053359985351562 1.1418747901916503906 1.1811361312866210938 1.2947975397109985352 1.1926534175872802734 1.2030794620513916016 1.1933280229568481445 1.1494643688201904297 1.1701887845993041992 1.1642777919769287109 1.1988755464553833008 1.2129546403884887695 1.0810189247131347656 0.88756400346755981445 0.896152496337890625 0.57121413946151733398 0.32486709952354431152 0.87633788585662841797 0.75598621368408203125 0.64069098234176635742 1.0025385618209838867 1.2441630363464355469 1.165001988410949707 1.2007094621658325195 1.2463359832763671875 1.1186625957489013672 0.76755362749099731445 0.50964063405990600586 0.29239103198051452637 0.37043213844299316406 0.23720332980155944824 0.80033260583877563477 1.0614218711853027344 1.1163488626480102539 1.1177088022232055664 1.0269962549209594727 1.1088993549346923828 1.0440573692321777344 1.0887999534606933594 1.1646287441253662109 1.0925580263137817383 1.1090989112854003906 1.2411062717437744141 1.1915049552917480469 1.0323433876037597656 1.0567618608474731445 0.97907060384750366211 1.1223996877670288086 1.0262154340744018555 0.94719594717025756836 0.98927450180053710938 0.94160759449005126953 0.8590221405029296875 0.82381218671798706055 0.92979109287261962891 0.91894066333770751953 0.64071100950241088867 0.80947846174240112305 0.92765349149703979492 0.99321770668029785156 1.1806124448776245117 1.125109553337097168 1.0170532464981079102 0.93152397871017456055 0.89739024639129638672 0.86111772060394287109 0.98208969831466674805 1.1681650876998901367 1.2461954355239868164 1.2467582225799560547 1.1704776287078857422 0.8054485321044921875 1.015353083610534668 1.057422637939453125 1.0340988636016845703 1.0472527742385864258 1.0865607261657714844 1.1325315237045288086 1.1225932836532592773 1.0792304277420043945 1.0719435214996337891 1.0392482280731201172 1.0872892141342163086 1.0596235990524291992 1.0816874504089355469 1.1254857778549194336 1.1003588438034057617 1.0697093009948730469 0.98776644468307495117 1.0009037256240844727 0.99524575471878051758 1.0676224231719970703 1.0983955860137939453 1.1394405364990234375 1.1135529279708862305 1.0989127159118652344 1.0388505458831787109 0.98744791746139526367 0.94167149066925048828 0.93400770425796508789 0.99780142307281494141 1.0853447914123535156 1.1172143220901489258 1.1184067726135253906 1.129039764404296875 1.0894958972930908203 1.1367505788803100586 1.1457864046096801758 1.1047407388687133789 0.92938703298568725586 0.90187084674835205078 1.1488132476806640625 1.0069931745529174805 1.0087255239486694336 0.96240329742431640625 0.78526300191879272461 0.89909541606903076172 0.9383487701416015625
1.1573717594146728516 1.0713794231414794922 1.2017941474914550781 1.2887207269668579102 0.80786329507827758789 0.36254104971885681152 0.71047818660736083984 1.1963737010955810547 1.094875335693359375 1.139532923698425293 1.1657884120941162109 1.0732878446578979492 0.98500400781631469727 0.87710529565811157227 0.87046712636947631836 1.0732423067092895508 1.0258636474609375 0.8016255497932434082 0.64846724271774291992 0.86583614349365234375 1.1928050518035888672 1.1018300056457519531 1.0585162639617919922 0.95972627401351928711 0.94304645061492919922 0.95217615365982055664 0.99922138452529907227 1.0571568012237548828 1.0582299232482910156 1.0549317598342895508 1.0758482217788696289 1.1028630733489990234 1.1071255207061767578 1.10335540771484375 1.1065094470977783203 1.1171336174011230469 1.1354854106903076172 1.1365510225296020508 1.1303747892379760742 1.1109374761581420898 1.1145347356796264648 1.1245794296264648438 1.1387516260147094727 1.1394420862197875977 1.2592180967330932617 1.2195107936859130859 0.96440583467483520508 1.0987322330474853516 1.1546815633773803711 1.0860892534255981445 1.0726236104965209961 1.0913065671920776367 1.1384863853454589844 1.1253206729888916016 1.0880463123321533203 0.86451166868209838867 0.86650222539901733398 0.39174640178680419922 0.26170465350151062012 1.0628935098648071289 0.89681029319763183594 0.66809225082397460938 0.81717753410339355469 1.2380577325820922852 1.1972631216049194336 1.1681349277496337891 1.2100974321365356445 1.2754521369934082031 1.181260228157043457 0.81489074230194091797 0.69528973102569580078 0.82616782188415527344 0.67462480068206787109 0.46691083908081054688 0.8493792414665222168 0.97884070873260498047 1.0133273601531982422 0.9761905670166015625 1.0592697858810424805 1.1242356300354003906 1.0834678411483764648 1.21096038818359375 1.1867438554763793945 1.0587532520294189453 1.1376897096633911133 1.2295421361923217773 1.1655629873275756836 1.1158788204193115234 1.0224809646606445312 1.0055006742477416992 1.1491835117340087891 1.0685222148895263672 0.91930359601974487305 0.81585448980331420898 0.8952808380126953125 0.91488397121429443359 0.92801958322525024414 0.89605295658111572266 0.63676041364669799805 0.51454240083694458008 0.9608981013298034668 0.87506735324859619141 0.93427896499633789062 1.0856510400772094727 0.99926680326461791992 0.90536534786224365234 0.8321501612663269043 0.90382623672485351562 0.8738505244255065918 0.74234068393707275391 0.69381743669509887695 0.9076773524284362793 1.2377506494522094727 0.94483357667922973633 1.0343149900436401367 1.0528233051300048828 1.0496963262557983398 1.0434397459030151367 1.1302133798599243164 1.1063164472579956055 1.1072051525115966797 1.1067388057708740234 1.0959756374359130859 1.046713709831237793 0.99289268255233764648 1.039950251579284668 0.96759432554244995117 1.0245468616485595703 1.0960274934768676758 1.0129208564758300781 1.0141657590866088867 1.0787589550018310547 1.0562772750854492188 1.0842869281768798828 1.0956881046295166016 1.0942957401275634766 1.1741734743118286133 1.1876339912414550781 1.1951166391372680664 1.1935892105102539062 1.1941316127777099609 1.1197336912155151367 1.1560566425323486328 1.1138840913772583008 1.1023080348968505859 1.0922460556030273438 1.1239743232727050781 1.1335909366607666016 1.137621760368347168 1.1244885921478271484 1.1180696487426757812 0.81994652748107910156 0.98065936565399169922 1.0623055696487426758 0.87917917966842651367 0.95262956619262695312 0.94498455524444580078 0.8559862971305847168 0.92598146200180053711 0.90861332416534423828
1.2001044750213623047 1.0594602823257446289 1.2305746078491210938 1.2199662923812866211 0.71399444341659545898 0.30291670560836791992 0.87907487154006958008 1.2037053108215332031 1.0848470926284790039 1.1392537355422973633 1.1220338344573974609 1.0030524730682373047 1.0386499166488647461 0.92086172103881835938 0.8251902461051940918 0.988147735595703125 1.0189085006713867188 0.77479344606399536133 0.75714880228042602539 0.94279432296752929688 1.0401794910430908203 1.0313216447830200195 1.0311083793640136719 0.99172449111938476562 0.9773890376091003418 1.0048279762268066406 1.0179390907287597656 1.0539788007736206055 1.0931411981582641602 1.0895942449569702148 1.099080204963684082 1.1248520612716674805 1.1508169174194335938 1.1568812131881713867 1.1651604175567626953 1.1650075912475585938 1.1588914394378662109 1.154003143310546875 1.1523662805557250977 1.1368157863616943359 1.1564981937408447266 1.1310142278671264648 1.126879572868347168 1.1369842290878295898 1.246901392936706543 1.0369005203247070312 0.70516717433929443359 0.84301108121871948242 0.88373094797134399414 0.91891896724700927734 1.0074392557144165039 1.0827678442001342773 1.0856124162673950195 0.99606174230575561523 0.93446195125579833984 0.79361176490783691406 0.59752994775772094727 0.40623399615287780762 0.38027182221412658691 1.113955378532409668 1.0093224048614501953 0.85026514530181884766 0.81976920366287231445 1.0309188365936279297 1.2253092527389526367 1.1644331216812133789 1.1698083877563476562 1.21256256103515625 1.2813546657562255859 1.1198732852935791016 1.035990595817565918 1.112238764762878418 1.0921604633331298828 0.27051103115081787109 0.32412368059158325195 0.56480604410171508789 0.64602220058441162109 0.8571751713752746582 1.04973602294921875 1.1126074790954589844 1.0931848287582397461 1.102864384651184082 1.1782130002975463867 1.1930345296859741211 1.1909619569778442383 1.1870684623718261719 1.1902641057968139648 1.1476552486419677734 1.0520000457763671875 0.98184889554977416992 1.1272897720336914062 1.1297256946563720703 1.0302129983901977539 0.85768800973892211914 0.96433341503143310547 0.975250244140625 0.89879703521728515625 0.86323767900466918945 0.75852239131927490234 0.47856366634368896484 0.67577314376831054688 0.847019195556640625 0.77763742208480834961 0.98529332876205444336 0.95430904626846313477 0.99782603979110717773 0.91660189628601074219 0.94967120885848999023 0.92944622039794921875 0.95872426033020019531 0.97515481710433959961 0.94150197505950927734 1.1439417600631713867 1.140299677848815918 0.93536812067031860352 1.0002843141555786133 1.0329632759094238281 1.1145765781402587891 1.1476027965545654297 1.0845896005630493164 0.96819853782653808594 0.99409663677215576172 1.0253292322158813477 1.0808554887771606445 1.0905487537384033203 1.1572403907775878906 1.049389958381652832 1.0617616176605224609 1.1080499887466430664 1.0689530372619628906 1.1114047765731811523 1.1250170469284057617 1.1322522163391113281 1.1127314567565917969 1.1447571516036987305 1.1732887029647827148 1.1553303003311157227 1.0699466466903686523 1.0733845233917236328 1.0249146223068237305 1.0909236669540405273 1.1455280780792236328 1.1705570220947265625 1.158295750617980957 1.1888513565063476562 1.1831470727920532227 1.1474577188491821289 1.1352486610412597656 1.0800989866256713867 0.98869842290878295898 1.1890473365783691406 1.0301227569580078125 0.85346531867980957031 0.98458963632583618164 0.90693712234497070312 0.96667337417602539062 0.99883097410202026367 0.97933763265609741211 1.0027313232421875 0.92516869306564331055
1.2139481306076049805 1.0273759365081787109 1.1731973886489868164 1.0931375026702880859 0.92991077899932861328 0.81146526336669921875 0.71156889200210571289 1.0689026117324829102 1.1101858615875244141 1.129838109016418457 1.0912748575210571289 0.88444244861602783203 0.91732400655746459961 0.76548373699188232422 0.69938319921493530273 0.74140059947967529297 0.8152821660041809082 0.88940888643264770508 0.87626278400421142578 1.0132073163986206055 1.0411521196365356445 1.0287272930145263672 1.0345122814178466797 1.0492868423461914062 1.0547822713851928711 1.0741138458251953125 1.0697437524795532227 1.1011842489242553711 1.1428524255752563477 1.1254785060882568359 1.1147329807281494141 1.1208988428115844727 1.123887181282043457 1.131234288215637207 1.1390967369079589844 1.1546324491500854492 1.1642185449600219727 1.1612563133239746094 1.1513868570327758789 1.1609673500061035156 1.1412671804428100586 1.1631733179092407227 1.1905082464218139648 1.2301582098007202148 1.2764252424240112305 0.76610368490219116211 0.40574276447296142578 0.62132465839385986328 0.54621386528015136719 0.63915926218032836914 0.85351228713989257812 1.0028275251388549805 1.1085115671157836914 0.93662106990814208984 0.62525230646133422852 0.46536651253700256348 0.50112253427505493164 0.57415652275085449219 0.23799206316471099854 0.89885973930358886719 1.1617190837860107422 0.94893634319305419922 0.85429102182388305664 0.81328797340393066406 1.0540071725845336914 1.1062704324722290039 1.1400816440582275391 1.1779935359954833984 1.1855963468551635742 1.2279280424118041992 1.1981703042984008789 1.0927537679672241211 1.2002240419387817383 0.88141840696334838867 0.67933261394500732422 0.28520143032073974609 0.37161147594451904297 0.79877835512161254883 0.97380101680755615234 0.92173540592193603516 0.94605165719985961914 0.92661809921264648438 0.96974915266036987305 1.0948539972305297852 1.2346549034118652344 1.2290838956832885742 1.1799706220626831055 1.1849352121353149414 1.0960495471954345703 1.0160051584243774414 1.0695288181304931641 1.1441295146942138672 1.1341854333877563477 0.95479971170425415039 0.90907394886016845703 1.0225584506988525391 0.91903060674667358398 0.85833597183227539062 0.85737818479537963867 0.74167805910110473633 0.76639956235885620117 0.94357705116271972656 1.0573282241821289062 1.0004886388778686523 0.9307066798210144043 1.0186676979064941406 0.97215342521667480469 0.88660794496536254883 0.86495697498321533203 0.99133503437042236328 1.0410504341125488281 1.0633144378662109375 1.0148409605026245117 1.2046815156936645508 1.068745732307434082 0.90124493837356567383 1.0241392850875854492 1.0530188083648681641 1.0260190963745117188 1.0637336969375610352 1.004807591438293457 1.0181006193161010742 0.97416490316390991211 1.0229572057723999023 1.0622687339782714844 1.1112626791000366211 1.1431984901428222656 1.1342508792877197266 1.0936902761459350586 1.1062692403793334961 1.1240410804748535156 1.1330047845840454102 1.1796908378601074219 1.1739625930786132812 1.1277877092361450195 1.127124786376953125 1.0802112817764282227 1.1218852996826171875 1.1152466535568237305 1.1138923168182373047 1.1137464046478271484 1.1135407686233520508 1.0916571617126464844 1.083998560905456543 1.0903285741806030273 1.1038576364517211914 1.1398760080337524414 1.1203296184539794922 1.0194231271743774414 0.97443240880966186523 1.0386736392974853516 1.18963623046875 0.89777171611785888672 0.9449774622917175293 0.93509370088577270508 0.95926034450531005859 1.0017163753509521484 0.99117791652679443359 0.96027261018753051758 0.92999541759490966797
1.2112226486206054688 0.98594594001770019531 1.1008591651916503906 1.1142439842224121094 1.0712174177169799805 1.1258679628372192383 1.0057477951049804688 0.80734801292419433594 1.0826963186264038086 1.0794788599014282227 0.97666913270950317383 0.72422957420349121094 0.782192230224609375 0.87811100482940673828 0.94866061210632324219 0.9203459620475769043 0.95367246866226196289 1.0050661563873291016 1.0209894180297851562 1.0279482603073120117 1.0313600301742553711 1.0251216888427734375 1.0214287042617797852 1.0398890972137451172 1.0387570858001708984 1.0515701770782470703 1.0684810876846313477 1.1046545505523681641 1.1447870731353759766 1.1303701400756835938 1.1178251504898071289 1.1243828535079956055 1.1306021213531494141 1.1263219118118286133 1.1353698968887329102 1.1557281017303466797 1.1599783897399902344 1.1654062271118164062 1.1577970981597900391 1.1636961698532104492 1.1254912614822387695 1.1290159225463867188 1.2264974117279052734 1.255484461784362793 1.0586975812911987305 0.81428009271621704102 0.89950197935104370117 1.0731816291809082031 1.0493832826614379883 0.63300901651382446289 0.50044322013854980469 0.55865210294723510742 0.7150732874870300293 0.75910276174545288086 0.87830853462219238281 0.94647467136383056641 0.92329883575439453125 0.75968801975250244141 0.45872402191162109375 0.71226751804351806641 1.1277838945388793945 1.0729202032089233398 0.96141970157623291016 0.91978132724761962891 0.92247104644775390625 1.0615854263305664062 1.1807554960250854492 1.20410919189453125 1.1434648036956787109 1.124028325080871582 1.1813184022903442383 1.1655442714691162109 1.0837273597717285156 1.1518940925598144531 0.84185349941253662109 0.74490493535995483398 0.51952701807022094727 0.68836820125579833984 0.78805911540985107422 0.84629762172698974609 0.95019882917404174805 1.0181729793548583984 0.92909401655197143555 0.98211252689361572266 1.1218658685684204102 1.2300701141357421875 1.1959248781204223633 1.1752550601959228516 1.1339727640151977539 1.0373818874359130859 1.0326771736145019531 1.1143550872802734375 1.1584562063217163086 0.99085789918899536133 0.98496216535568237305 1.0833305120468139648 0.96571177244186401367 0.86677688360214233398 0.94121658802032470703 0.87644255161285400391 0.93724966049194335938 0.99583595991134643555 1.0686178207397460938 0.95792782306671142578 0.98064619302749633789 1.0518729686737060547 0.94419074058532714844 0.90722793340682983398 0.99294143915176391602 1.0555940866470336914 1.1230106353759765625 1.1551173925399780273 1.1350532770156860352 1.1030613183975219727 1.2177982330322265625 1.087206721305847168 1.0141937732696533203 1.0631685256958007812 1.0236794948577880859 1.0370190143585205078 1.0948866605758666992 1.0447953939437866211 1.0774300098419189453 1.1006201505661010742 1.1027960777282714844 1.0966111421585083008 1.1245378255844116211 1.1701222658157348633 1.2000894546508789062 1.199863433837890625 1.2002072334289550781 1.1944974660873413086 1.1311348676681518555 1.0703083276748657227 1.0887871980667114258 1.1398786306381225586 1.1079380512237548828 1.130292057991027832 1.0884070396423339844 1.0943348407745361328 1.1252006292343139648 1.1586730480194091797 1.1450338363647460938 1.0684729814529418945 1.0440794229507446289 1.1005841493606567383 1.0858106613159179688 1.0095529556274414062 0.99979680776596069336 1.021529078483581543 0.88820558786392211914 1.1909033060073852539 1.1935712099075317383 0.92527776956558227539 0.95751017332077026367 0.97208118438720703125 1.0571151971817016602 1.0464111566543579102 1.0048888921737670898 0.90651971101760864258
1.2069497108459472656 1.1793898344039916992 1.1747128963470458984 1.2734557390213012695 1.1781675815582275391 1.0251959562301635742 1.1705563068389892578 0.67085826396942138672 0.96620476245880126953 1.0181958675384521484 0.84103047847747802734 0.81709909439086914062 0.9369919896125793457 1.0207020044326782227 1.0194264650344848633 1.0210833549499511719 1.0180559158325195312 1.0199642181396484375 1.0574862957000732422 1.0594069957733154297 1.0458587408065795898 1.0497019290924072266 1.0397310256958007812 1.0618344545364379883 1.0886293649673461914 1.0776902437210083008 1.0910098552703857422 1.1198441982269287109 1.1294715404510498047 1.1187720298767089844 1.1284492015838623047 1.1470791101455688477 1.1454333066940307617 1.1484540700912475586 1.1633051633834838867 1.1600476503372192383 1.1653038263320922852 1.1633127927780151367 1.1733832359313964844 1.1712367534637451172 1.0997308492660522461 1.0983690023422241211 1.1247236728668212891 0.98378044366836547852 0.95337265729904174805 1.0009845495223999023 1.0911185741424560547 1.197451472282409668 1.1746695041656494141 1.0617837905883789062 0.83392095565795898438 0.59836274385452270508 0.83910953998565673828 1.0385073423385620117 1.0925458669662475586 1.1380103826522827148 1.1188762187957763672 0.90638506412506103516 1.0121297836303710938 1.1109662055969238281 1.0034369230270385742 1.0520888566970825195 1.0848671197891235352 1.0567538738250732422 1.0067468881607055664 1.0229027271270751953 1.1150792837142944336 1.1885085105895996094 1.1464288234710693359 1.1040092706680297852 1.1257154941558837891 1.2096596956253051758 1.1437320709228515625 1.1061354875564575195 1.0862692594528198242 0.96668386459350585938 0.83049231767654418945 0.89111727476119995117 0.97960329055786132812 1.0019512176513671875 1.0631363391876220703 1.0867896080017089844 1.0202031135559082031 0.93069607019424438477 1.112749934196472168 1.2229927778244018555 1.2166787385940551758 1.182877659797668457 1.1450448036193847656 1.0767139196395874023 1.0387156009674072266 1.0629992485046386719 1.1517121791839599609 1.0691491365432739258 0.93530768156051635742 1.1061260700225830078 1.0768249034881591797 0.94699758291244506836 0.92091917991638183594 0.90178567171096801758 0.89386957883834838867 0.98289924860000610352 1.0739998817443847656 1.0246677398681640625 1.0142621994018554688 1.0171808004379272461 0.92646795511245727539 0.95853197574615478516 1.053386688232421875 1.0843057632446289062 1.0518537759780883789 1.0599918365478515625 1.091582179069519043 1.1398231983184814453 1.1920173168182373047 1.2423090934753417969 0.99295324087142944336 1.004071354866027832 0.96882730722427368164 1.0206205844879150391 1.1217725276947021484 1.1234457492828369141 1.1184644699096679688 1.1688656806945800781 1.2034997940063476562 1.2023383378982543945 1.2021688222885131836 1.2027329206466674805 1.1447570323944091797 0.98789733648300170898 1.0083920955657958984 1.108432769775390625 1.1282502412796020508 1.1164780855178833008 1.1571533679962158203 1.1232565641403198242 1.0900728702545166016 1.0717254877090454102 1.0612306594848632812 1.0709292888641357422 1.0688217878341674805 0.99224901199340820312 1.0945141315460205078 1.0770572423934936523 1.0342651605606079102 1.032793879508972168 0.9700768589973449707 0.90529221296310424805 1.0259726047515869141 0.93618422746658325195 0.91032910346984863281 1.0711210966110229492 1.190976262092590332 0.97345232963562011719 0.94466173648834228516 0.91517579555511474609 0.98420679569244384766 0.97248113155364990234 0.99397599697113037109 0.89059525728225708008
1.1661130189895629883 1.1757338047027587891 1.2269582748413085938 1.2979083061218261719 0.98278856277465820312 0.83339846134185791016 1.1803361177444458008 0.79693633317947387695 0.65355056524276733398 0.83128017187118530273 0.8492514491081237793 0.91622632741928100586 1.0327361822128295898 1.0457798242568969727 1.0578765869140625 1.0935169458389282227 1.0745649337768554688 1.0354418754577636719 1.062094569206237793 1.0876643657684326172 1.0793282985687255859 1.0800864696502685547 1.0854330062866210938 1.122095942497253418 1.1287004947662353516 1.1074590682983398438 1.1167702674865722656 1.1298962831497192383 1.1218483448028564453 1.1170141696929931641 1.1376726627349853516 1.1455663442611694336 1.1588956117630004883 1.1756153106689453125 1.1654670238494873047 1.1612724065780639648 1.1698577404022216797 1.1638756990432739258 1.1898778676986694336 1.1808646917343139648 1.1317842006683349609 1.165476679801940918 1.1726155281066894531 1.0313543081283569336 1.0991466045379638672 1.1669193506240844727 1.2423090934753417969 1.2459543943405151367 1.0162618160247802734 0.67724090814590454102 0.57892382144927978516 0.85130929946899414062 0.93607223033905029297 0.99503487348556518555 0.99450117349624633789 1.0161513090133666992 1.0462243556976318359 0.76664793491363525391 0.85210001468658447266 1.1552585363388061523 1.0573525428771972656 1.107921600341796875 1.1876598596572875977 1.1866015195846557617 1.0583846569061279297 0.97297555208206176758 0.91867500543594360352 1.039961695671081543 1.1031609773635864258 1.0791894197463989258 1.0551804304122924805 1.1300671100616455078 1.1454482078552246094 1.0619519948959350586 1.0316730737686157227 1.0907362699508666992 1.1055136919021606445 1.0153682231903076172 0.89725279808044433594 0.86840730905532836914 0.90180891752243041992 1.1211909055709838867 1.1468046903610229492 0.9421094059944152832 0.98848569393157958984 1.1512441635131835938 1.200347900390625 1.2006220817565917969 1.1686702966690063477 1.1144980192184448242 1.0813236236572265625 1.0650666952133178711 1.0581248998641967773 1.0810753107070922852 1.0027312040328979492 1.0742360353469848633 1.0903705358505249023 1.0674303770065307617 0.92308223247528076172 0.91900587081909179688 0.95455837249755859375 1.0351116657257080078 1.0897349119186401367 1.1222835779190063477 1.0078803300857543945 0.9520823359489440918 0.96993285417556762695 1.0798212289810180664 1.1386011838912963867 1.1306823492050170898 1.1021112203598022461 1.1880718469619750977 1.1078912019729614258 0.93183040618896484375 0.91275209188461303711 1.0999033451080322266 1.11212158203125 0.96472966670989990234 1.0902683734893798828 1.156247258186340332 1.1535804271697998047 1.1026418209075927734 1.1129562854766845703 1.2041935920715332031 1.1684894561767578125 1.1215341091156005859 1.1241916418075561523 1.0803188085556030273 0.90321582555770874023 0.93333303928375244141 1.033039093017578125 1.0287667512893676758 1.1008269786834716797 1.1032254695892333984 1.0285261869430541992 0.99306750297546386719 1.0499238967895507812 0.98367524147033691406 0.88480323553085327148 0.95447117090225219727 0.96471357345581054688 0.92707818746566772461 0.99094420671463012695 1.0285614728927612305 1.0246927738189697266 0.96792441606521606445 0.90558516979217529297 0.94301718473434448242 0.91402333974838256836 0.84833246469497680664 1.0078357458114624023 0.99363380670547485352 1.1926796436309814453 0.94886964559555053711 0.91862249374389648438 0.95978152751922607422 0.9210516810417175293 0.9444701075553894043 0.88891458511352539062 0.84024071693420410156
1.0900548696517944336 1.0795682668685913086 1.2378755807876586914 1.2382208108901977539 0.89471262693405151367 0.88740926980972290039 1.134432673454284668 0.82675689458847045898 0.53621077537536621094 0.93948757648468017578 0.90383547544479370117 0.99386620521545410156 1.0719773769378662109 1.0490813255310058594 1.0587980747222900391 1.0875123739242553711 1.0763972997665405273 1.0788967609405517578 1.093371272087097168 1.096646428108215332 1.0881165266036987305 1.0906329154968261719 1.0912910699844360352 1.1155765056610107422 1.1247848272323608398 1.1322218179702758789 1.1437451839447021484 1.1501431465148925781 1.1122686862945556641 1.1171095371246337891 1.1495463848114013672 1.1566350460052490234 1.1830143928527832031 1.1881716251373291016 1.1713770627975463867 1.1874599456787109375 1.1867104768753051758 1.1775031089782714844 1.1571907997131347656 1.1189514398574829102 1.1569085121154785156 1.2299305200576782227 1.2668839693069458008 1.1036739349365234375 1.1501598358154296875 1.2530096769332885742 1.2047169208526611328 1.0979452133178710938 0.8696753382682800293 0.50407516956329345703 0.788417816162109375 0.97161722183227539062 1.0029610395431518555 1.0200018882751464844 1.0073992013931274414 1.0310213565826416016 1.0294868946075439453 0.97301286458969116211 0.97210574150085449219 1.1663091182708740234 1.1906683444976806641 1.1273294687271118164 1.0906163454055786133 1.0927371978759765625 1.0839657783508300781 1.0286904573440551758 0.95124989748001098633 0.99856716394424438477 0.99862307310104370117 1.1116579771041870117 1.0622751712799072266 1.0548409223556518555 1.1544297933578491211 1.0275964736938476562 0.92384266853332519531 0.84158545732498168945 1.1344884634017944336 0.96551120281219482422 0.92097115516662597656 0.94660180807113647461 0.99150860309600830078 1.1252311468124389648 1.0173273086547851562 1.0310188531875610352 0.97885054349899291992 1.0908479690551757812 1.2042202949523925781 1.2160055637359619141 1.2081978321075439453 1.159440159797668457 1.1480863094329833984 1.1275252103805541992 1.0611907243728637695 1.0187603235244750977 1.0221897363662719727 1.0709409713745117188 1.1065896749496459961 1.13225555419921875 1.049345850944519043 0.94977116584777832031 0.8994439244270324707 0.8513088226318359375 0.98763459920883178711 1.0660251379013061523 1.0376219749450683594 1.0422520637512207031 1.1017876863479614258 1.1136232614517211914 1.0373741388320922852 1.0978195667266845703 1.1036927700042724609 1.1552739143371582031 1.1227905750274658203 1.0716823339462280273 1.0794502496719360352 1.0583001375198364258 1.1836326122283935547 0.97626727819442749023 1.0249205827713012695 1.1492878198623657227 1.0927726030349731445 1.174821019172668457 1.206020355224609375 1.1834650039672851562 1.10700225830078125 1.0292651653289794922 1.0353101491928100586 1.0159360170364379883 0.91677820682525634766 0.90388357639312744141 1.0325386524200439453 0.92987143993377685547 0.97885030508041381836 0.99932944774627685547 0.95267164707183837891 0.94242089986801147461 0.99064958095550537109 0.92981564998626708984 0.85626083612442016602 0.9426116943359375 0.98324370384216308594 0.90309804677963256836 0.99706184864044189453 1.054993748664855957 1.0448163747787475586 0.88477623462677001953 0.75467991828918457031 0.88843333721160888672 0.86980259418487548828 0.96079194545745849609 1.0099081993103027344 0.99889576435089111328 1.1932357549667358398 1.082135319709777832 1.013289332389831543 1.0394569635391235352 1.0023022890090942383 1.0806515216827392578 0.99080491065979003906 0.79534900188446044922
1.0647549629211425781 1.0133994817733764648 1.1202840805053710938 1.194385528564453125 0.97819989919662475586 0.89953696727752685547 1.0950157642364501953 0.99360948801040649414 0.50267201662063598633 0.97219717502593994141 0.87990212440490722656 1.0392410755157470703 1.0776293277740478516 1.0701930522918701172 1.0624107122421264648 1.0803241729736328125 1.1156455278396606445 1.1295548677444458008 1.1185508966445922852 1.1251450777053833008 1.100115656852722168 1.1005223989486694336 1.1071250438690185547 1.1299916505813598633 1.1376295089721679688 1.1267472505569458008 1.1397719383239746094 1.1389584541320800781 1.1190974712371826172 1.1254760026931762695 1.1396819353103637695 1.1674915552139282227 1.1859925985336303711 1.1966620683670043945 1.1883234977722167969 1.1919821500778198242 1.1909376382827758789 1.177168726921081543 1.1280584335327148438 1.1014392375946044922 1.1690250635147094727 1.2906107902526855469 1.1772427558898925781 1.024077296257019043 1.191304326057434082 1.1297137737274169922 0.9653987884521484375 0.91841322183609008789 0.6126683354377746582 0.72697865962982177734 0.98324608802795410156 1.0320553779602050781 1.042622685432434082 1.0155206918716430664 0.99981981515884399414 1.0111968517303466797 0.98420876264572143555 1.0245736837387084961 0.52494353055953979492 1.1790090799331665039 1.1867471933364868164 1.1406526565551757812 1.1137472391128540039 1.0789471864700317383 1.0884695053100585938 0.88754659891128540039 0.70128965377807617188 0.90298068523406982422 1.0325739383697509766 1.2997468709945678711 1.1639692783355712891 1.0650240182876586914 1.1172593832015991211 1.1193486452102661133 0.88521039485931396484 0.86441898345947265625 1.0709894895553588867 0.96604317426681518555 0.95364022254943847656 0.90344262123107910156 1.0000745058059692383 1.059304356575012207 1.0983923673629760742 1.1602767705917358398 1.1679869890213012695 1.1349698305130004883 1.1228889226913452148 1.2026548385620117188 1.2415065765380859375 1.2150837182998657227 1.1589294672012329102 1.18495941162109375 1.1198562383651733398 1.0299345254898071289 1.0396414995193481445 1.0247292518615722656 1.0172488689422607422 1.1376677751541137695 1.1752276420593261719 1.0460764169692993164 0.92744565010070800781 0.83993601799011230469 1.0645043849945068359 1.0929723978042602539 1.1118508577346801758 1.0634596347808837891 1.0634773969650268555 1.0717023611068725586 1.0798382759094238281 1.1065140962600708008 1.0567367076873779297 0.99818879365921020508 1.0106056928634643555 1.0480482578277587891 1.1054722070693969727 1.1260999441146850586 1.1785068511962890625 1.1343522071838378906 1.1053705215454101562 1.1137149333953857422 1.0832071304321289062 1.2064023017883300781 1.1234230995178222656 1.0672929286956787109 0.94045537710189819336 0.92500066757202148438 1.0048480033874511719 0.97865492105484008789 0.83612841367721557617 0.86508721113204956055 1.0230629444122314453 0.99251097440719604492 0.95886260271072387695 0.96808403730392456055 0.90601086616516113281 0.92861020565032958984 0.91467905044555664062 0.90856760740280151367 0.92600548267364501953 0.90466618537902832031 0.94616794586181640625 0.95866888761520385742 0.96002477407455444336 0.99093085527420043945 0.97719168663024902344 0.79144084453582763672 0.69331794977188110352 0.85248160362243652344 0.92997747659683227539 0.98764681816101074219 0.99537587165832519531 0.95690417289733886719 1.1943924427032470703 1.0142284631729125977 0.95697844028472900391 0.94156664609909057617 0.8843529820442199707 0.99078905582427978516 1.1584650278091430664 1.1086866855621337891
0.97092670202255249023 1.0055940151214599609 1.0669727325439453125 1.1124286651611328125 1.0122407674789428711 0.94737422466278076172 1.14058685302734375 0.89336043596267700195 0.43579846620559692383 0.71108740568161010742 0.65561735630035400391 0.97597587108612060547 1.071123957633972168 1.1287180185317993164 1.0691884756088256836 1.0549818277359008789 1.1165710687637329102 1.1529495716094970703 1.1475694179534912109 1.130131840705871582 1.1243352890014648438 1.1299009323120117188 1.1375602483749389648 1.1414380073547363281 1.1327363252639770508 1.1442676782608032227 1.1487481594085693359 1.1534255743026733398 1.1449340581893920898 1.1344580650329589844 1.1563856601715087891 1.1325929164886474609 1.160915374755859375 1.1759437322616577148 1.1662706136703491211 1.1331809759140014648 1.1035963296890258789 1.1792848110198974609 1.1508840322494506836 1.099635004997253418 1.1735506057739257812 1.2980424165725708008 0.8764254450798034668 0.63852125406265258789 0.93853580951690673828 0.87187206745147705078 0.67084676027297973633 0.37122395634651184082 0.55917763710021972656 1.0062545537948608398 1.0207219123840332031 1.0314197540283203125 1.0210808515548706055 1.024210810661315918 1.0301897525787353516 1.0400041341781616211 1.0359681844711303711 1.1129250526428222656 0.66326349973678588867 0.92605024576187133789 1.0763628482818603516 1.0812535285949707031 1.0787094831466674805 1.0715328454971313477 1.1196613311767578125 1.1138284206390380859 1.1348413228988647461 1.1763703823089599609 1.1105470657348632812 1.3119618892669677734 1.2420084476470947266 1.1565557718276977539 1.1448475122451782227 1.11344146728515625 1.027515411376953125 1.0450882911682128906 1.1415871381759643555 1.0189279317855834961 1.0307053327560424805 1.0420680046081542969 1.0977737903594970703 1.1057877540588378906 1.1811504364013671875 1.1873670816421508789 1.2082579135894775391 1.1867040395736694336 1.1046063899993896484 1.0810704231262207031 1.1819670200347900391 1.2584674358367919922 1.2354996204376220703 1.2134451866149902344 1.1797993183135986328 1.1196500062942504883 1.083400726318359375 1.0444622039794921875 0.95912933349609375 1.0029567480087280273 1.0906519889831542969 1.073078155517578125 0.93919610977172851562 0.90101355314254760742 0.9918314814567565918 0.95984113216400146484 1.0190327167510986328 1.0026428699493408203 1.0838141441345214844 1.1166710853576660156 1.0901365280151367188 1.0813935995101928711 1.0341724157333374023 1.0722944736480712891 1.0848870277404785156 1.0926613807678222656 1.0976923704147338867 1.1162298917770385742 1.1532735824584960938 1.1363995075225830078 1.0883946418762207031 1.2079868316650390625 1.2081356048583984375 1.2114261388778686523 1.0884337425231933594 1.0320911407470703125 0.83664262294769287109 0.75833898782730102539 0.88557636737823486328 0.86397409439086914062 0.80222332477569580078 0.86203432083129882812 0.94744211435317993164 1.0340678691864013672 1.0128870010375976562 0.98309725522994995117 0.95057022571563720703 0.96030646562576293945 0.94009953737258911133 0.99388998746871948242 0.8986561894416809082 0.88394981622695922852 0.91924202442169189453 0.91698324680328369141 0.93840140104293823242 0.8996601104736328125 0.86629092693328857422 0.66160941123962402344 0.79151117801666259766 0.84522402286529541016 0.93768423795700073242 0.98411566019058227539 1.027016758918762207 0.94972640275955200195 1.1951124668121337891 1.1738348007202148438 1.0792784690856933594 1.0124329328536987305 0.87906312942504882812 0.88511812686920166016 0.88142478466033935547 0.95517575740814208984
1.0211700201034545898 1.0509128570556640625 1.1079157590866088867 0.95352375507354736328 0.88846915960311889648 0.93164211511611938477 1.1090644598007202148 0.41725957393646240234 0.82473576068878173828 0.94964969158172607422 0.90914952754974365234 0.98758369684219360352 1.1031501293182373047 1.1515347957611083984 1.0684338808059692383 1.0586435794830322266 1.0969856977462768555 1.1093078851699829102 1.1404912471771240234 1.1431553363800048828 1.1180827617645263672 1.1446738243103027344 1.1493359804153442383 1.1347198486328125 1.160170435905456543 1.1523736715316772461 1.162567138671875 1.1782271862030029297 1.1711473464965820312 1.1676393747329711914 1.1583156585693359375 1.1427494287490844727 1.1442521810531616211 1.142647862434387207 1.1160558462142944336 1.1283285617828369141 1.1074671745300292969 1.2079180479049682617 1.1941562891006469727 1.1515791416168212891 1.2530660629272460938 1.231922149658203125 0.84019649028778076172 0.69102311134338378906 0.69667255878448486328 0.71945786476135253906 0.36478292942047119141 0.64434760808944702148 1.0505709648132324219 1.0808935165405273438 1.0468857288360595703 1.0513516664505004883 1.0506082773208618164 1.0639692544937133789 1.0749273300170898438 1.0935875177383422852 1.0953509807586669922 1.1244301795959472656 1.0983787775039672852 0.85456395149230957031 0.66012555360794067383 0.79145902395248413086 0.7945830225944519043 0.70085752010345458984 1.0067272186279296875 1.2154134511947631836 1.2262603044509887695 1.1820178031921386719 1.1171416044235229492 1.0776522159576416016 1.2232973575592041016 1.2375074625015258789 1.2489001750946044922 1.246540069580078125 1.1675271987915039062 1.0442583560943603516 1.0759934186935424805 1.0693235397338867188 1.0682709217071533203 1.226477503776550293 1.2769635915756225586 1.2278829813003540039 1.1684091091156005859 1.044243931770324707 1.1826337575912475586 1.1522742509841918945 1.0577967166900634766 0.97175478935241699219 1.0216032266616821289 1.1255583763122558594 1.2022883892059326172 1.2546888589859008789 1.2682970762252807617 1.1834628582000732422 1.0601121187210083008 1.0613113641738891602 1.0490489006042480469 1.022404789924621582 1.0759129524230957031 1.0549856424331665039 0.97747606039047241211 0.87568223476409912109 0.86535614728927612305 0.93576830625534057617 1.0336208343505859375 1.0654939413070678711 1.0680316686630249023 1.1110235452651977539 1.0897523164749145508 1.0318323373794555664 1.0803743600845336914 1.1095026731491088867 1.0944342613220214844 1.0523138046264648438 0.93032419681549072266 0.86192059516906738281 1.1127587556838989258 1.1764482259750366211 1.2072855234146118164 1.2112962007522583008 1.1019208431243896484 0.99162286520004272461 0.9613482356071472168 1.0817221403121948242 0.77368009090423583984 0.75725066661834716797 0.85380899906158447266 0.81635463237762451172 0.8094685673713684082 0.87940526008605957031 0.91685926914215087891 0.94784873723983764648 1.0386207103729248047 1.0054668188095092773 0.99232494831085205078 0.90937703847885131836 0.8801428675651550293 0.98696285486221313477 0.9158928990364074707 0.88515329360961914062 0.90765261650085449219 0.92774969339370727539 0.91576850414276123047 0.8352171778678894043 0.75953388214111328125 0.74405908584594726562 0.8123614192008972168 0.86206227540969848633 0.92525118589401245117 1.0062413215637207031 1.0428451299667358398 1.0091458559036254883 1.1971249580383300781 1.0791188478469848633 1.1233797073364257812 1.1432508230209350586 1.0619275569915771484 1.0025848150253295898 0.8373063206672668457 0.8035430908203125
1.1341063976287841797 1.0845201015472412109 0.98930937051773071289 0.93081670999526977539 0.88722342252731323242 0.92210125923156738281 0.87890356779098510742 0.65743237733840942383 0.97280651330947875977 0.9252211451530456543 0.95107924938201904297 1.0112973451614379883 1.1283568143844604492 1.1286137104034423828 1.0620359182357788086 1.0635361671447753906 1.0726131200790405273 1.0770227909088134766 1.0839732885360717773 1.1162477731704711914 1.113682866096496582 1.1321799755096435547 1.1150380373001098633 1.1228522062301635742 1.1613898277282714844 1.1479965448379516602 1.1742417812347412109 1.1702394485473632812 1.1682888269424438477 1.16458892822265625 1.142197728157043457 1.1311753988265991211 1.1421160697937011719 1.1349936723709106445 1.1090811491012573242 1.0723780393600463867 1.0515131950378417969 1.1349978446960449219 1.1712447404861450195 1.1344192028045654297 1.3016942739486694336 1.2318341732025146484 0.91321140527725219727 0.73381805419921875 0.62562257051467895508 0.47090205550193786621 0.29189825057983398438 1.1087718009948730469 1.0836509466171264648 1.1024032831192016602 1.086443781852722168 1.082757115364074707 1.0802216529846191406 1.0791670083999633789 1.118161320686340332 1.1195939779281616211 1.0848670005798339844 1.1042902469635009766 1.1232117414474487305 1.0992114543914794922 0.92143172025680541992 0.58677065372467041016 0.26134118437767028809 0.35906648635864257812 0.77869236469268798828 0.87981301546096801758 0.86688828468322753906 0.8260714411735534668 0.92053323984146118164 1.0774465799331665039 1.175883173942565918 1.0665862560272216797 1.188992619514465332 1.252213597297668457 1.2555000782012939453 1.2120296955108642578 1.0964713096618652344 0.96193736791610717773 0.9455725550651550293 1.1816209554672241211 1.241827845573425293 1.1581757068634033203 1.1066099405288696289 1.1033222675323486328 1.1922048330307006836 1.118538975715637207 0.89012873172760009766 0.78654253482818603516 0.90478205680847167969 0.98790955543518066406 0.99690216779708862305 1.0523860454559326172 1.1984095573425292969 1.2697571516036987305 1.2282454967498779297 1.0801497697830200195 1.0827174186706542969 1.1504244804382324219 1.0831110477447509766 1.0576205253601074219 0.99504059553146362305 0.87452912330627441406 0.7813466191291809082 0.88729637861251831055 1.0459911823272705078 1.1081871986389160156 1.0418629646301269531 1.07891082763671875 1.0724549293518066406 1.012547612190246582 1.0519663095474243164 0.99620443582534790039 1.0909560918807983398 1.073041081428527832 1.062243342399597168 1.1486734151840209961 1.1555216312408447266 1.2087317705154418945 1.1906206607818603516 0.97119009494781494141 0.87342369556427001953 0.86674743890762329102 0.89060956239700317383 1.1106868982315063477 0.91758143901824951172 0.67474001646041870117 0.83018016815185546875 0.88067406415939331055 0.95057225227355957031 0.94606757164001464844 0.95225441455841064453 0.96853768825531005859 1.0289633274078369141 0.98680233955383300781 0.98703968524932861328 0.94305902719497680664 0.94475716352462768555 0.97510695457458496094 0.94802725315093994141 0.91202652454376220703 0.91561740636825561523 0.90498149394989013672 0.90034586191177368164 0.77261042594909667969 0.78191709518432617188 0.81442886590957641602 0.78154200315475463867 0.80199068784713745117 0.94102019071578979492 1.0321904420852661133 1.034946441650390625 1.0799262523651123047 1.1989774703979492188 1.0122857093811035156 1.1036419868469238281 1.0992325544357299805 0.95081865787506103516 0.929668426513671875 0.93387806415557861328 0.82906156778335571289
1.0338914394378662109 1.0601404905319213867 0.89890199899673461914 0.91262614727020263672 0.71414482593536376953 0.54998606443405151367 0.52514070272445678711 0.79276537895202636719 0.99074923992156982422 0.93463951349258422852 0.96222347021102905273 1.0915529727935791016 1.1880884170532226562 1.1161023378372192383 1.0571379661560058594 1.0708733797073364258 1.116455078125 1.1374036073684692383 1.1073420047760009766 1.0888729095458984375 1.1336132287979125977 1.1596187353134155273 1.1242911815643310547 1.1481009721755981445 1.1595320701599121094 1.1479188203811645508 1.151699066162109375 1.1490235328674316406 1.160136103630065918 1.1803865432739257812 1.1374690532684326172 1.1156663894653320312 1.1361339092254638672 1.1433689594268798828 1.1774685382843017578 1.1260474920272827148 1.0590543746948242188 1.0376240015029907227 1.0784848928451538086 1.1345332860946655273 1.3139902353286743164 1.1465333700180053711 0.86511957645416259766 0.71543139219284057617 1.0183221101760864258 0.87808954715728759766 0.31824225187301635742 1.0959041118621826172 1.0830338001251220703 1.0753626823425292969 1.0895339250564575195 1.0997556447982788086 1.0861686468124389648 1.0835300683975219727 1.0940492153167724609 1.106213688850402832 1.0908912420272827148 1.0685443878173828125 1.0581493377685546875 1.0309125185012817383 1.0593307018280029297 1.0220503807067871094 0.31932121515274047852 0.47761148214340209961 0.58294987678527832031 0.44371813535690307617 0.42067602276802062988 0.72151094675064086914 0.82457655668258666992 0.9104430079460144043 1.144896388053894043 1.1032427549362182617 1.0768131017684936523 1.15424346923828125 1.2592039108276367188 1.241008758544921875 1.2176636457443237305 1.2164232730865478516 1.1820868253707885742 1.177730560302734375 1.1857192516326904297 1.1332547664642333984 1.1579314470291137695 1.1412250995635986328 1.0778068304061889648 0.92175388336181640625 0.93161302804946899414 0.98002970218658447266 1.0342301130294799805 1.0488443374633789062 1.0392638444900512695 0.97023564577102661133 1.0116553306579589844 1.215346217155456543 1.2670303583145141602 1.2057435512542724609 1.0446119308471679688 1.1903489828109741211 1.0849313735961914062 1.0702365636825561523 1.0610183477401733398 0.93795728683471679688 0.73966354131698608398 0.94192892313003540039 1.1162513494491577148 1.0986819267272949219 1.079915165901184082 1.0399806499481201172 1.0220412015914916992 1.0519039630889892578 0.9617455601692199707 0.98155862092971801758 0.97253763675689697266 0.96839642524719238281 1.033721923828125 1.1014333963394165039 1.2117671966552734375 1.2121813297271728516 1.1127067804336547852 0.88886129856109619141 0.78361850976943969727 0.83432698249816894531 0.77665233612060546875 1.0457907915115356445 1.1206024885177612305 0.68262177705764770508 0.77434688806533813477 0.87656551599502563477 0.93024766445159912109 0.96532648801803588867 0.94345808029174804688 0.97290313243865966797 1.0167429447174072266 0.99807918071746826172 0.91525232791900634766 0.93169051408767700195 0.926361083984375 0.92468214035034179688 0.968807220458984375 0.94021314382553100586 0.94035518169403076172 0.91157257556915283203 0.80803543329238891602 0.71121430397033691406 0.82108193635940551758 0.86609548330307006836 0.76469647884368896484 0.82534098625183105469 0.98282593488693237305 1.0168858766555786133 1.0160050392150878906 1.0570675134658813477 1.1998094320297241211 1.034510493278503418 1.0296577215194702148 1.1127604246139526367 0.97977882623672485352 0.90260946750640869141 0.86423283815383911133 0.8063786625862121582
0.86210882663726806641 0.92004752159118652344 0.74111253023147583008 0.71190339326858520508 0.75598829984664916992 0.74533712863922119141 0.80450540781021118164 0.92959928512573242188 0.96696573495864868164 1.013392329216003418 1.0022910833358764648 1.0895752906799316406 1.1545902490615844727 1.1200605630874633789 1.0441168546676635742 1.0417497158050537109 1.1058650016784667969 1.1360237598419189453 1.1189053058624267578 1.0676110982894897461 1.1557792425155639648 1.2028843164443969727 1.1825060844421386719 1.1876920461654663086 1.1875483989715576172 1.1735179424285888672 1.1412837505340576172 1.14542388916015625 1.1782422065734863281 1.1723954677581787109 1.1323210000991821289 1.1149255037307739258 1.1436681747436523438 1.1519417762756347656 1.2097390890121459961 1.1402344703674316406 1.0798234939575195312 1.0320870876312255859 1.0363144874572753906 1.178661346435546875 1.234004974365234375 0.84723103046417236328 0.88794356584548950195 1.0379629135131835938 1.1096770763397216797 0.99968808889389038086 0.54411417245864868164 1.0947368144989013672 1.0941985845565795898 1.0779247283935546875 1.0460580587387084961 1.0433667898178100586 1.0791634321212768555 1.0666755437850952148 1.0746896266937255859 1.1164278984069824219 1.1486916542053222656 1.1556247472763061523 1.1676802635192871094 1.1359413862228393555 1.0303318500518798828 1.0980097055435180664 0.60548049211502075195 0.97759449481964111328 1.1159731149673461914 1.0914129018783569336 1.0957601070404052734 0.88946747779846191406 0.70667231082916259766 0.84717714786529541016 1.1642283201217651367 1.2127280235290527344 1.1220966577529907227 1.0668611526489257812 1.1574754714965820312 1.2302646636962890625 1.1942961215972900391 1.1820077896118164062 1.2132484912872314453 1.2366949319839477539 1.2119060754776000977 1.1580414772033691406 1.0933076143264770508 1.0129107236862182617 0.97278666496276855469 1.0741641521453857422 1.0748647451400756836 0.89795130491256713867 0.95216912031173706055 1.0568699836730957031 1.0716558694839477539 1.0590147972106933594 1.0118544101715087891 1.0297620296478271484 1.1648193597793579102 1.265343785285949707 1.2079246044158935547 1.209172368049621582 1.0716471672058105469 1.0543293952941894531 1.0874952077865600586 0.94057369232177734375 0.76768851280212402344 0.92601400613784790039 1.0032985210418701172 0.99853634834289550781 0.9882723689079284668 1.0528523921966552734 1.0280288457870483398 0.98440748453140258789 0.93122112751007080078 0.88616484403610229492 0.81689029932022094727 0.89995294809341430664 1.0083563327789306641 1.1983740329742431641 1.2119942903518676758 1.148167729377746582 1.0599193572998046875 0.94889539480209350586 0.7569281458854675293 0.8389517664909362793 0.83900338411331176758 1.0163551568984985352 1.1537947654724121094 0.7449753880500793457 0.73525500297546386719 0.89147460460662841797 0.93149232864379882812 1.0117887258529663086 1.0010520219802856445 1.0006772279739379883 1.025343775749206543 0.99206644296646118164 0.96579164266586303711 0.92468482255935668945 0.94724565744400024414 0.93382674455642700195 0.94177913665771484375 0.95470410585403442383 0.82815909385681152344 0.70924991369247436523 0.67108017206192016602 0.75831675529479980469 0.83714473247528076172 0.91829198598861694336 0.8885682225227355957 0.90143823623657226562 1.0142649412155151367 1.0122221708297729492 1.0134074687957763672 1.0030791759490966797 1.2006049156188964844 1.0231307744979858398 0.99694651365280151367 1.0233185291290283203 1.0733798742294311523 1.0043151378631591797 0.89425069093704223633 0.74728465080261230469
0.77857565879821777344 0.65863209962844848633 0.85561668872833251953 0.93832421302795410156 0.9925963282585144043 1.0138101577758789062 1.0300319194793701172 1.0852183103561401367 1.0643440485000610352 1.0529159307479858398 1.015912175178527832 1.0529012680053710938 1.1164598464965820312 1.0860488414764404297 1.0276092290878295898 1.0203363895416259766 1.0362401008605957031 1.0450534820556640625 1.1013404130935668945 1.0090868473052978516 1.0552194118499755859 1.1349903345108032227 1.1377494335174560547 1.1575016975402832031 1.1847116947174072266 1.1782833337783813477 1.1420123577117919922 1.1681046485900878906 1.1460559368133544922 1.1220619678497314453 1.1004792451858520508 1.1099779605865478516 1.136826634407043457 1.1414644718170166016 1.0941873788833618164 1.0511209964752197266 1.0530778169631958008 1.0850374698638916016 1.1117867231369018555 1.2614850997924804688 1.1267377138137817383 0.82377129793167114258 0.84684658050537109375 0.98122256994247436523 0.94943058490753173828 0.38675442337989807129 0.30750706791877746582 1.0351380109786987305 1.1982371807098388672 1.1311929225921630859 1.0786598920822143555 1.0702810287475585938 1.0664243698120117188 1.0932019948959350586 1.0930814743041992188 1.0952718257904052734 1.0807951688766479492 1.0789597034454345703 1.1010547876358032227 1.1676517724990844727 1.1754279136657714844 1.1932451725006103516 0.59290099143981933594 0.75598424673080444336 1.0608445405960083008 1.147322535514831543 1.1192033290863037109 0.99691891670227050781 0.78997629880905151367 0.91172403097152709961 1.1529657840728759766 1.0992782115936279297 1.1067904233932495117 1.040021061897277832 1.0386806726455688477 1.1338409185409545898 1.1453757286071777344 1.1860846281051635742 1.2446198463439941406 1.2221456766128540039 1.1031035184860229492 0.99031692743301391602 0.92260050773620605469 0.95843577384948730469 1.1030439138412475586 1.0012655258178710938 0.94651210308074951172 0.87136173248291015625 0.92014878988265991211 0.90868532657623291016 1.0256600379943847656 0.96685051918029785156 0.9829362034797668457 0.94153451919555664062 0.97082304954528808594 1.0285772085189819336 1.2469621896743774414 1.2603620290756225586 1.1119099855422973633 1.0045499801635742188 1.1268126964569091797 1.0344183444976806641 0.85627102851867675781 0.94274246692657470703 0.92934417724609375 1.0252513885498046875 1.0377547740936279297 1.0049680471420288086 0.9079100489616394043 0.90490520000457763672 0.96794450283050537109 0.96394944190979003906 1.0070477724075317383 0.96217811107635498047 0.97875690460205078125 1.212128758430480957 1.2129919528961181641 1.0215334892272949219 0.84288084506988525391 0.90514189004898071289 0.77721506357192993164 0.81570589542388916016 0.80397057533264160156 1.0236299037933349609 1.1475863456726074219 0.78936433792114257812 0.74468010663986206055 0.88891786336898803711 0.92675888538360595703 0.99130487442016601562 1.0288376808166503906 1.0314581394195556641 1.0004296302795410156 0.96363425254821777344 0.99761217832565307617 0.9814427495002746582 0.91998475790023803711 0.79219913482666015625 0.76937472820281982422 0.76543343067169189453 0.65773761272430419922 0.64936929941177368164 0.73615586757659912109 0.87748503684997558594 0.96830570697784423828 0.95407146215438842773 0.88146471977233886719 0.91038078069686889648 1.0173103809356689453 1.0591984987258911133 1.060830235481262207 1.0223548412322998047 1.2015148401260375977 1.1884597539901733398 0.96663773059844970703 0.89803677797317504883 1.0077266693115234375 0.95658564567565917969 0.89074021577835083008 0.69992494583129882812
0.89733624458312988281 0.7052548527717590332 0.79390597343444824219 0.89865756034851074219 1.0204067230224609375 1.0242884159088134766 1.0932230949401855469 1.1197121143341064453 1.0502054691314697266 1.0163074731826782227 1.0396730899810791016 1.0767459869384765625 1.1137194633483886719 1.0706908702850341797 1.038928985595703125 1.030629277229309082 1.0362273454666137695 1.0448354482650756836 1.0924830436706542969 1.0669075250625610352 1.0569757223129272461 1.054696202278137207 1.0438810586929321289 1.0579985380172729492 1.1652899980545043945 1.1985929012298583984 1.1977463960647583008 1.1991550922393798828 1.1856511831283569336 1.1427490711212158203 1.1324454545974731445 1.1270669698715209961 1.1354802846908569336 1.1536599397659301758 1.1107393503189086914 1.0617154836654663086 1.0809053182601928711 1.1369358301162719727 1.2059341669082641602 1.3264243602752685547 1.2700397968292236328 0.91934680938720703125 0.74702501296997070312 0.65101444721221923828 0.53963249921798706055 0.6141102910041809082 0.51370918750762939453 0.68286293745040893555 1.246374964714050293 1.1463915109634399414 1.0916641950607299805 1.0898392200469970703 1.1181726455688476562 1.1352131366729736328 1.1257299184799194336 1.1269632577896118164 1.1447237730026245117 1.1430923938751220703 1.1344672441482543945 1.1117397546768188477 1.1240525245666503906 1.2270814180374145508 0.79627370834350585938 0.3627084195613861084 0.93788194656372070312 1.0420860052108764648 1.1200431585311889648 0.95350384712219238281 0.88630586862564086914 0.99531710147857666016 1.0200606584548950195 0.93674063682556152344 1.1217675209045410156 1.1392265558242797852 1.1558698415756225586 1.1244518756866455078 1.086434483528137207 1.0277540683746337891 1.0036996603012084961 1.0103914737701416016 0.9892794489860534668 0.98514407873153686523 0.99084585905075073242 0.98130166530609130859 1.0046800374984741211 0.96946197748184204102 1.0426790714263916016 1.068262934684753418 0.95716744661331176758 0.90252149105072021484 1.0050971508026123047 0.92530739307403564453 0.96294283866882324219 0.96495413780212402344 0.95521843433380126953 0.91935050487518310547 0.98177629709243774414 1.2594020366668701172 1.2577339410781860352 1.1028079986572265625 1.0564266443252563477 1.0954970121383666992 0.89337509870529174805 0.917148590087890625 0.96527040004730224609 0.95588034391403198242 0.94404441118240356445 0.90364253520965576172 0.85486841201782226562 0.85427075624465942383 0.96458578109741210938 0.98067170381546020508 1.0576491355895996094 1.2065980434417724609 1.2124602794647216797 1.2150702476501464844 1.1178525686264038086 0.92082959413528442383 0.77481520175933837891 0.83069670200347900391 0.80334013700485229492 0.78032696247100830078 0.80321413278579711914 1.0429251194000244141 1.1770179271697998047 0.84709417819976806641 0.7395464777946472168 0.86954021453857421875 0.85428851842880249023 0.90883606672286987305 1.0096333026885986328 0.98585134744644165039 0.96424126625061035156 0.95750814676284790039 0.88374358415603637695 0.85936701297760009766 0.82389670610427856445 0.757419586181640625 0.69849896430969238281 0.68516319990158081055 0.72046792507171630859 0.77444154024124145508 0.82230609655380249023 0.87796640396118164062 0.94321435689926147461 0.96380954980850219727 1.0040746927261352539 0.99579912424087524414 1.0162656307220458984 1.0791794061660766602 1.0533851385116577148 1.0201476812362670898 1.1463655233383178711 1.2034909725189208984 0.96298968791961669922 1.0221080780029296875 1.064617156982421875 0.95625901222229003906 0.93333357572555541992 0.7553183436393737793
0.95629608631134033203 0.80120712518692016602 0.87582755088806152344 0.95085281133651733398 0.95523506402969360352 0.93717944622039794922 0.97252672910690307617 1.0463614463806152344 1.055561065673828125 1.1254442930221557617 1.1271172761917114258 1.0985240936279296875 1.1099418401718139648 1.0876077413558959961 1.0472350120544433594 1.0456520318984985352 1.0707820653915405273 1.0808320045471191406 1.1049584150314331055 1.1049704551696777344 1.0780544281005859375 1.0859389305114746094 1.0566812753677368164 1.0569750070571899414 1.1524088382720947266 1.2002990245819091797 1.2209131717681884766 1.2176051139831542969 1.1563811302185058594 1.1165267229080200195 1.1171326637268066406 1.1196380853652954102 1.1356785297393798828 1.1851094961166381836 1.1230900287628173828 1.0818865299224853516 1.1182378530502319336 1.1378916501998901367 1.1348456144332885742 1.2840949296951293945 1.0731161832809448242 0.39338511228561401367 0.37577021121978759766 0.90199351310729980469 0.96962571144104003906 0.95911180973052978516 0.72309988737106323242 0.64969247579574584961 1.206166386604309082 1.1576886177062988281 1.0976709127426147461 1.0978385210037231445 1.0880757570266723633 1.0920233726501464844 1.0930736064910888672 1.1171683073043823242 1.1343340873718261719 1.1555558443069458008 1.1428053379058837891 1.1198236942291259766 1.1086955070495605469 1.2226243019104003906 1.1434473991394042969 0.46548688411712646484 0.94986009597778320312 1.0733218193054199219 1.1481145620346069336 1.1707162857055664062 1.1286096572875976562 1.2273508310317993164 1.1861739158630371094 1.0811929702758789062 1.0618714094161987305 1.1535215377807617188 1.1599656343460083008 1.0986013412475585938 1.0382262468338012695 1.0669381618499755859 1.0226283073425292969 1.0216687917709350586 1.0303528308868408203 1.1053011417388916016 1.0006303787231445312 1.0558701753616333008 1.0468477010726928711 1.0134011507034301758 0.99653297662734985352 0.95856052637100219727 0.99737137556076049805 1.0902062654495239258 1.0141714811325073242 0.93721884489059448242 0.95139408111572265625 0.98500907421112060547 1.0024200677871704102 1.0187137126922607422 1.0024689435958862305 1.0382492542266845703 1.2552818059921264648 1.2154287099838256836 1.0343683958053588867 1.0366296768188476562 0.91555511951446533203 0.87631255388259887695 0.89426314830780029297 0.87641853094100952148 0.87344986200332641602 0.90427201986312866211 0.88938945531845092773 0.92026549577713012695 0.98052209615707397461 0.93133789300918579102 1.0547070503234863281 1.213822484016418457 1.213746190071105957 1.1583687067031860352 1.0599977970123291016 0.91792643070220947266 0.83140170574188232422 0.76711231470108032227 0.73841249942779541016 0.76985442638397216797 0.93674612045288085938 1.0131397247314453125 1.1574034690856933594 1.0113766193389892578 0.62013667821884155273 0.72944927215576171875 0.77535825967788696289 0.82226717472076416016 0.88464063405990600586 0.71078461408615112305 0.89197015762329101562 1.046984553337097168 0.79569977521896362305 0.81013494729995727539 0.83362907171249389648 0.81409662961959838867 0.82683050632476806641 0.78098183870315551758 0.84283769130706787109 0.84015393257141113281 0.80223673582077026367 0.83836340904235839844 0.88871610164642333984 0.89683842658996582031 0.94477045536041259766 0.9683691859245300293 0.98839873075485229492 1.0894894599914550781 1.1004526615142822266 1.0343126058578491211 1.1304968595504760742 1.2035183906555175781 0.96057361364364624023 0.90604507923126220703 1.0302343368530273438 1.04264068603515625 0.97422748804092407227 0.78448975086212158203
1.0524394512176513672 0.98944181203842163086 1.1190336942672729492 1.0640480518341064453 0.99261224269866943359 0.96373444795608520508 0.98442131280899047852 0.94305813312530517578 1.0792970657348632812 1.1984231472015380859 1.1662106513977050781 1.1122707128524780273 1.104077458381652832 1.099306941032409668 1.0353760719299316406 1.045834660530090332 1.1175179481506347656 1.1518112421035766602 1.1290506124496459961 1.1130341291427612305 1.114321589469909668 1.1394281387329101562 1.1286640167236328125 1.1222240924835205078 1.1644555330276489258 1.1946433782577514648 1.1785800457000732422 1.1802930831909179688 1.1190347671508789062 1.1206160783767700195 1.1444641351699829102 1.1695712804794311523 1.1760358810424804688 1.177265167236328125 1.1100648641586303711 1.0784811973571777344 1.0981166362762451172 1.0870950222015380859 1.0031944513320922852 1.0348820686340332031 1.1733061075210571289 0.992923736572265625 1.0025625228881835938 1.1714495420455932617 1.0419619083404541016 1.1365686655044555664 1.1532163619995117188 1.0045826435089111328 1.1682187318801879883 1.1326216459274291992 1.1170058250427246094 1.1204066276550292969 1.1208562850952148438 1.1182459592819213867 1.1223654747009277344 1.1227148771286010742 1.1147402524948120117 1.1028064489364624023 1.0950462818145751953 1.1083767414093017578 1.0920740365982055664 1.1218483448028564453 1.2614698410034179688 0.71434485912322998047 0.74561423063278198242 1.1395727396011352539 1.1436021327972412109 1.1329423189163208008 1.1099315881729125977 1.1244908571243286133 1.1354402303695678711 1.0528147220611572266 0.99542993307113647461 1.0996466875076293945 1.0886155366897583008 1.0299166440963745117 1.0796885490417480469 1.0612198114395141602 1.0619193315505981445 1.1132235527038574219 1.1437015533447265625 1.0802351236343383789 0.95360404253005981445 1.136220097541809082 1.0811672210693359375 0.83647590875625610352 0.85568463802337646484 0.88344496488571166992 0.85883849859237670898 1.0455584526062011719 1.0747563838958740234 0.91425937414169311523 0.96635854244232177734 1.0193622112274169922 1.0513916015625 0.96176379919052124023 0.95009756088256835938 0.98887979984283447266 1.1617474555969238281 1.2515138387680053711 1.1357007026672363281 1.0712233781814575195 0.97667473554611206055 0.84016573429107666016 0.7830994725227355957 0.79566746950149536133 0.82287883758544921875 0.89248818159103393555 1.001278996467590332 1.0558339357376098633 1.1137915849685668945 1.1459909677505493164 1.2156240940093994141 1.214903712272644043 0.99942749738693237305 1.0787420272827148438 1.0260053873062133789 0.95283311605453491211 0.95284152030944824219 0.87498831748962402344 0.69118320941925048828 0.77423101663589477539 0.88427358865737915039 0.95507520437240600586 1.1293921470642089844 1.1779676675796508789 0.69789707660675048828 0.6683318018913269043 0.78276991844177246094 0.72568219900131225586 0.67563199996948242188 0.91453593969345092773 1.1253030300140380859 1.0231634378433227539 0.60999917984008789062 0.7421417236328125 0.82659929990768432617 0.86191403865814208984 0.8479683995246887207 0.90351873636245727539 0.99805551767349243164 0.94543886184692382812 0.93722110986709594727 0.92126005887985229492 0.92908436059951782227 0.89124989509582519531 0.99260199069976806641 0.97157150506973266602 0.9928963780403137207 1.0758407115936279297 1.0916635990142822266 1.0416375398635864258 1.1093941926956176758 1.2033318281173706055 1.0380855798721313477 0.8846791386604309082 0.92197978496551513672 0.99859601259231567383 0.97511959075927734375 0.78322654962539672852
1.021427154541015625 0.98873460292816162109 1.046990513801574707 1.0223604440689086914 0.99942445755004882812 1.0159125328063964844 1.0125521421432495117 0.99803173542022705078 0.98617917299270629883 1.0477321147918701172 1.1987389326095581055 1.1745733022689819336 1.1229259967803955078 1.1480962038040161133 1.0483984947204589844 1.0834058523178100586 1.2194983959197998047 1.175381779670715332 1.1703596115112304688 1.1384941339492797852 1.1142814159393310547 1.1311898231506347656 1.1321086883544921875 1.1500394344329833984 1.2241638898849487305 1.1400762796401977539 1.0487570762634277344 1.1568965911865234375 1.1293500661849975586 1.1314666271209716797 1.1791433095932006836 1.2147828340530395508 1.2095777988433837891 1.191036224365234375 1.1241595745086669922 1.1058335304260253906 1.1354047060012817383 1.1177697181701660156 1.1190134286880493164 1.0647079944610595703 1.0919394493103027344 1.1730588674545288086 1.1918964385986328125 1.1877775192260742188 1.1886289119720458984 1.2002905607223510742 1.20243072509765625 1.1762354373931884766 1.1604888439178466797 1.1214548349380493164 1.132632136344909668 1.1331564188003540039 1.1241141557693481445 1.1133825778961181641 1.1094383001327514648 1.1042084693908691406 1.1123582124710083008 1.1040204763412475586 1.1047239303588867188 1.1048996448516845703 1.0770735740661621094 1.0844054222106933594 1.1690524816513061523 1.1296341419219970703 0.4586429297924041748 0.87674844264984130859 1.0800807476043701172 1.0914254188537597656 1.0801290273666381836 1.116222381591796875 1.1299946308135986328 1.1193922758102416992 1.1071945428848266602 1.1154327392578125 1.1048668622970581055 1.1406615972518920898 1.1187092065811157227 1.1279311180114746094 1.1067783832550048828 1.1867066621780395508 1.1881119012832641602 1.0956397056579589844 1.0521847009658813477 1.1842250823974609375 1.04360198974609375 0.63160246610641479492 0.77170604467391967773 0.84061324596405029297 0.78540861606597900391 1.1131176948547363281 1.060191035270690918 1.0539799928665161133 1.0302259922027587891 1.0280481576919555664 1.0050520896911621094 0.93304681777954101562 1.0015484094619750977 0.97308766841888427734 0.96487015485763549805 1.227110743522644043 1.2472434043884277344 1.2021515369415283203 1.1034921407699584961 0.89853370189666748047 0.79943764209747314453 0.76859754323959350586 0.90126258134841918945 0.97439855337142944336 1.0001111030578613281 0.97209721803665161133 1.0931948423385620117 1.2176127433776855469 1.2168674468994140625 1.1452192068099975586 1.0189322233200073242 0.98378086090087890625 1.0768476724624633789 0.90546000003814697266 0.82130372524261474609 0.87673360109329223633 0.72952878475189208984 0.8337802886962890625 0.82685202360153198242 0.84757173061370849609 1.0371897220611572266 1.2001931667327880859 0.94655120372772216797 0.70756435394287109375 0.60535264015197753906 0.63301050662994384766 0.81349873542785644531 1.0932586193084716797 1.1267108917236328125 0.85646015405654907227 0.58852589130401611328 0.8380260467529296875 0.88695883750915527344 1.0842460393905639648 0.95933574438095092773 0.93575710058212280273 0.92799991369247436523 0.90079605579376220703 0.91564029455184936523 0.85615205764770507812 0.95527374744415283203 0.99154776334762573242 1.0268400907516479492 0.97640931606292724609 0.98214453458786010742 1.0369881391525268555 1.1070494651794433594 1.0791441202163696289 1.1416950225830078125 1.2048594951629638672 0.95780122280120849609 0.93387961387634277344 0.96093386411666870117 0.94959086179733276367 1.0111348628997802734 0.76329863071441650391
0.97656416893005371094 0.94588208198547363281 0.96294653415679931641 0.972637176513671875 0.95145237445831298828 0.96272605657577514648 1.0085704326629638672 1.0119769573211669922 1.0158169269561767578 1.0582834482192993164 1.0886479616165161133 1.0611145496368408203 1.1229567527770996094 1.1139192581176757812 1.0084640979766845703 1.0984174013137817383 1.1178767681121826172 1.0756796598434448242 1.1314693689346313477 1.0649284124374389648 1.0961714982986450195 1.125540614128112793 1.1092426776885986328 1.0408427715301513672 1.0803049802780151367 1.072109222412109375 0.99944770336151123047 1.0822207927703857422 1.1659212112426757812 1.1325293779373168945 1.1879298686981201172 1.2429280281066894531 1.1299005746841430664 1.0906778573989868164 1.1320667266845703125 1.1057552099227905273 1.1457062959671020508 1.1321709156036376953 1.1233893632888793945 1.1069707870483398438 1.1291651725769042969 1.1059601306915283203 1.0920044183731079102 1.092559814453125 1.108646392822265625 1.1101316213607788086 1.1253066062927246094 1.1241286993026733398 1.1060533523559570312 1.1088302135467529297 1.1260284185409545898 1.1341150999069213867 1.1424497365951538086 1.1298450231552124023 1.1291189193725585938 1.1177997589111328125 1.1081554889678955078 1.1198209524154663086 1.1192880868911743164 1.1102062463760375977 1.0976413488388061523 1.0965646505355834961 1.0983561277389526367 1.2065824270248413086 0.89901024103164672852 0.3734486997127532959 0.84686946868896484375 0.98885750770568847656 1.0509476661682128906 1.1165779829025268555 1.0816797018051147461 1.0431883335113525391 1.0208339691162109375 1.0394120216369628906 1.1070443391799926758 1.1320188045501708984 1.0168638229370117188 1.0217881202697753906 1.0357214212417602539 1.2220479249954223633 1.0671694278717041016 0.94749844074249267578 1.1153998374938964844 1.2055908441543579102 0.95156151056289672852 0.50673854351043701172 0.66683787107467651367 1.0102992057800292969 1.0115698575973510742 1.0194650888442993164 0.96109944581985473633 0.998561859130859375 1.0915632247924804688 1.0572745800018310547 0.93891322612762451172 0.90542578697204589844 1.0006107091903686523 1.0273101329803466797 0.92069536447525024414 0.98579365015029907227 1.1866277456283569336 1.2423471212387084961 1.1768357753753662109 1.0632119178771972656 0.86708861589431762695 0.84672713279724121094 0.89099717140197753906 1.0160837173461914062 1.1371433734893798828 1.134624481201171875 1.2175207138061523438 1.2178335189819335938 1.0793983936309814453 1.0757862329483032227 1.0095638036727905273 0.91385674476623535156 0.89950162172317504883 0.82252252101898193359 0.80186545848846435547 0.73993968963623046875 0.76077049970626831055 0.91234636306762695312 0.94104409217834472656 0.87248939275741577148 1.0142191648483276367 1.0963592529296875 1.1482359170913696289 0.80998623371124267578 0.46363329887390136719 0.77854061126708984375 1.1183820962905883789 1.0762338638305664062 0.99139267206192016602 0.58439278602600097656 0.64581239223480224609 0.86166083812713623047 0.97283691167831420898 0.98838919401168823242 0.95463633537292480469 0.95982688665390014648 0.9065081477165222168 0.92482244968414306641 0.93661361932754516602 0.82382512092590332031 0.8987477421760559082 0.96231645345687866211 1.0224010944366455078 0.97365605831146240234 1.0297101736068725586 1.0656745433807373047 1.0800117254257202148 1.0973452329635620117 1.1185307502746582031 1.2048687934875488281 1.1344658136367797852 0.94333893060684204102 0.91292154788970947266 0.91184139251708984375 0.98632061481475830078 0.76709395647048950195
1.1200716495513916016 0.78845649957656860352 0.83759468793869018555 0.95787668228149414062 0.97160196304321289062 0.98056209087371826172 1.0167319774627685547 0.97837388515472412109 0.95611572265625 1.0247024297714233398 1.0064752101898193359 0.97715753316879272461 1.0380921363830566406 0.94607567787170410156 0.92077726125717163086 1.0557401180267333984 1.0537499189376831055 1.0289454460144042969 1.0781241655349731445 1.0704268217086791992 1.0893409252166748047 1.0966162681579589844 1.0793486833572387695 1.0027259588241577148 1.0543767213821411133 1.0875802040100097656 1.028667449951171875 1.0513335466384887695 1.1337485313415527344 1.110361933708190918 1.1995630264282226562 1.2376123666763305664 1.0496547222137451172 1.0103496313095092773 1.0737383365631103516 1.0947040319442749023 1.142199397087097168 1.1468689441680908203 1.1306246519088745117 1.0917249917984008789 1.1345908641815185547 1.1652456521987915039 1.1161972284317016602 1.104626774787902832 1.1212430000305175781 1.1216478347778320312 1.1341021060943603516 1.1244176626205444336 1.0997000932693481445 1.0998163223266601562 1.114415287971496582 1.1316938400268554688 1.1455839872360229492 1.163327336311340332 1.1566417217254638672 1.124558568000793457 1.1249219179153442383 1.1472727060317993164 1.1487817764282226562 1.1639555692672729492 1.1453332901000976562 1.1347436904907226562 1.1206955909729003906 1.1374801397323608398 1.2573637962341308594 0.96536201238632202148 0.39179033041000366211 0.37455758452415466309 0.61631029844284057617 0.99128544330596923828 1.0524016618728637695 1.0232626199722290039 1.0041372776031494141 1.0024751424789428711 1.0373594760894775391 1.0517265796661376953 0.96583032608032226562 1.0364679098129272461 1.0483492612838745117 0.87298035621643066406 0.93648123741149902344 1.1421948671340942383 1.1850061416625976562 1.1991631984710693359 0.78793317079544067383 0.37837588787078857422 0.77706706523895263672 0.93502181768417358398 0.91455549001693725586 0.95855432748794555664 1.0058171749114990234 1.0630376338958740234 1.0404278039932250977 0.98746156692504882812 1.0241653919219970703 1.0932320356369018555 1.1332545280456542969 1.0335811376571655273 0.94508421421051025391 1.0258675813674926758 1.0806096792221069336 1.2291879653930664062 1.2366400957107543945 1.1566435098648071289 1.0019308328628540039 0.82565218210220336914 0.83878648281097412109 0.93839371204376220703 1.1329444646835327148 1.2170591354370117188 1.2171288728713989258 1.1279543638229370117 1.0121822357177734375 1.0424885749816894531 0.99281394481658935547 0.97282350063323974609 0.96237868070602416992 0.8280327916145324707 0.74017775058746337891 0.68745303153991699219 0.76445013284683227539 1.0251525640487670898 0.95988267660140991211 0.92018479108810424805 1.0564007759094238281 1.0293931961059570312 1.1965577602386474609 1.0034689903259277344 0.54759043455123901367 0.84837579727172851562 1.1466975212097167969 1.1586972475051879883 1.0415513515472412109 0.40512043237686157227 0.75433713197708129883 0.84880030155181884766 0.85402655601501464844 0.94197553396224975586 0.85314232110977172852 0.96173721551895141602 0.89243656396865844727 0.92978239059448242188 0.89406847953796386719 0.89282780885696411133 0.90765875577926635742 0.97947752475738525391 1.0202769041061401367 1.0328336954116821289 1.0666681528091430664 1.0736718177795410156 1.078960418701171875 1.0623524188995361328 1.1910454034805297852 1.2085388898849487305 1.0973868370056152344 0.95003879070281982422 0.85540902614593505859 0.91975915431976318359 0.95080894231796264648 0.80434656143188476562
1.2174910306930541992 0.63635504245758056641 0.83334702253341674805 0.91115236282348632812 0.93406397104263305664 1.0175505876541137695 1.016282200813293457 0.98156553506851196289 0.94520008563995361328 0.95435237884521484375 0.976375579833984375 0.96092134714126586914 0.95957958698272705078 0.96129757165908813477 0.96870315074920654297 1.0616033077239990234 1.0370624065399169922 1.0469834804534912109 1.0599476099014282227 1.1055226325988769531 1.1154921054840087891 1.0695022344589233398 1.0422489643096923828 1.0244828462600708008 1.0773104429244995117 1.1332249641418457031 1.118249058723449707 1.1068975925445556641 1.1208312511444091797 1.126646876335144043 1.2232035398483276367 1.1433286666870117188 0.96276873350143432617 1.0285590887069702148 1.0872238874435424805 1.1118072271347045898 1.1520454883575439453 1.1783171892166137695 1.1430948972702026367 1.1221678256988525391 1.0787196159362792969 1.1396530866622924805 1.1004946231842041016 1.1342366933822631836 1.2051346302032470703 1.2041009664535522461 1.1068634986877441406 1.0686833858489990234 1.0568681955337524414 1.0727685689926147461 1.0727183818817138672 1.1058039665222167969 1.134581446647644043 1.1565970182418823242 1.1555869579315185547 1.1414376497268676758 1.1491029262542724609 1.1567503213882446289 1.1590888500213623047 1.1629723310470581055 1.1468731164932250977 1.1436316967010498047 1.1351054906845092773 1.1214607954025268555 1.1446181535720825195 1.2627539634704589844 1.2071421146392822266 0.91816747188568115234 0.83437001705169677734 0.60769319534301757812 0.56274843215942382812 0.69247078895568847656 0.80857503414154052734 0.92974466085433959961 1.0161646604537963867 0.97628003358840942383 1.0109810829162597656 0.98004817962646484375 0.72542613744735717773 0.77022480964660644531 1.1053018569946289062 1.1820675134658813477 1.143790125846862793 1.0785257816314697266 0.39958268404006958008 0.34400719404220581055 0.75605607032775878906 0.84029251337051391602 0.88932263851165771484 0.97310459613800048828 1.0159082412719726562 0.95138186216354370117 0.88854867219924926758 0.95244550704956054688 1.0760080814361572266 1.0640711784362792969 1.0148367881774902344 0.92113709449768066406 0.84683257341384887695 0.94178992509841918945 0.97092860937118530273 0.93487834930419921875 1.0712442398071289062 1.2306998968124389648 1.2274698019027709961 1.0065392255783081055 0.97932589054107666016 1.2219030857086181641 1.2172603607177734375 1.2193714380264282227 1.1447223424911499023 1.1472315788269042969 1.0538235902786254883 1.0110257863998413086 0.96320194005966186523 0.97396051883697509766 0.9735081791877746582 1.0931653976440429688 1.0814414024353027344 0.89810222387313842773 0.77323073148727416992 0.94157838821411132812 0.84726393222808837891 0.99366778135299682617 1.1072975397109985352 1.0919350385665893555 1.2153152227401733398 1.1669297218322753906 0.71842432022094726562 0.72282254695892333984 1.1475381851196289062 1.1424334049224853516 1.0193512439727783203 0.63713663816452026367 0.91465729475021362305 0.99138349294662475586 0.78342378139495849609 0.81903761625289916992 0.81236249208450317383 0.99950575828552246094 0.96306812763214111328 0.95155709981918334961 0.90868961811065673828 0.92863994836807250977 0.92040514945983886719 1.0003511905670166016 1.0036885738372802734 1.0495369434356689453 1.0753067731857299805 1.0603574514389038086 1.0345488786697387695 1.0576130151748657227 1.2073132991790771484 1.0646817684173583984 1.0419636964797973633 0.95120722055435180664 0.95288830995559692383 0.93722307682037353516 0.92535060644149780273 0.83010458946228027344
1.2754837274551391602 0.72327154874801635742 0.87995994091033935547 0.82831674814224243164 0.92714875936508178711 0.94374346733093261719 0.98723047971725463867 1.0116558074951171875 0.96675932407379150391 0.94462251663208007812 0.9449831843376159668 0.96477270126342773438 0.98429912328720092773 1.0116606950759887695 1.0267518758773803711 1.0477895736694335938 1.0479648113250732422 1.0577481985092163086 1.0695750713348388672 1.1073790788650512695 1.1143941879272460938 1.0839605331420898438 1.0598738193511962891 1.0407717227935791016 1.0808103084564208984 1.1316401958465576172 1.1407128572463989258 1.1331549882888793945 1.1316243410110473633 1.1552146673202514648 1.2035419940948486328 1.0602390766143798828 1.0032962560653686523 1.0617452859878540039 1.113322138786315918 1.1208758354187011719 1.1798871755599975586 1.2101204395294189453 1.1237680912017822266 1.0751572847366333008 1.1199151277542114258 1.1666482686996459961 1.0996613502502441406 1.0948425531387329102 1.1141861677169799805 1.0527473688125610352 1.0163463354110717773 1.0072541236877441406 1.0401489734649658203 1.0498297214508056641 1.0673670768737792969 1.0795334577560424805 1.0923755168914794922 1.1211372613906860352 1.1478757858276367188 1.150035858154296875 1.1504174470901489258 1.145839691162109375 1.135897517204284668 1.1305619478225708008 1.1278591156005859375 1.1305460929870605469 1.1212301254272460938 1.1126348972320556641 1.0880466699600219727 1.0780283212661743164 1.1478404998779296875 1.1433631181716918945 1.1735111474990844727 0.98415082693099975586 0.69518738985061645508 0.61215180158615112305 0.36457979679107666016 0.47583502531051635742 0.72452884912490844727 0.8227011561393737793 1.0110162496566772461 1.0346413850784301758 0.49383556842803955078 0.93516600131988525391 1.0436233282089233398 0.97879767417907714844 1.0593067407608032227 0.84100800752639770508 0.82241356372833251953 0.96708160638809204102 0.93369972705841064453 0.93249452114105224609 1.0013183355331420898 1.0057654380798339844 1.0179779529571533203 0.80765050649642944336 0.83450639247894287109 0.84855484962463378906 0.92752593755722045898 1.007599949836730957 1.0635638236999511719 1.0567293167114257812 1.0073844194412231445 1.0696632862091064453 1.0317209959030151367 1.0111032724380493164 1.0158436298370361328 1.0974920988082885742 1.1787028312683105469 1.2203372716903686523 1.2009729146957397461 1.2190928459167480469 1.1746488809585571289 1.0329434871673583984 1.0835548639297485352 1.1204519271850585938 0.93258869647979736328 0.9158337712287902832 0.9398161768913269043 0.89949560165405273438 0.89092099666595458984 0.97033363580703735352 1.0141772031784057617 1.1331794261932373047 0.96137255430221557617 0.72689461708068847656 0.87317115068435668945 0.96042120456695556641 1.066340327262878418 1.0790207386016845703 1.1691486835479736328 1.0366939306259155273 0.71174633502960205078 0.51532983779907226562 0.9028822779655456543 0.99889034032821655273 0.69751405715942382812 0.76293051242828369141 0.90962141752243041992 1.0075191259384155273 0.81761956214904785156 0.73698019981384277344 0.83326643705368041992 0.9526717066764831543 1.0444583892822265625 1.021023869514465332 0.87744283676147460938 0.92447614669799804688 0.95770215988159179688 0.96431303024291992188 0.94009196758270263672 1.0781513452529907227 1.0878682136535644531 1.0326439142227172852 1.028109431266784668 1.1249469518661499023 1.20909881591796875 1.05759429931640625 1.0062804222106933594 0.95409214496612548828 0.92292797565460205078 0.93110138177871704102 0.91391158103942871094 0.75458860397338867188
1.2463933229446411133 0.9578183293342590332 1.0747286081314086914 0.74356818199157714844 0.84189766645431518555 0.91349631547927856445 0.90622687339782714844 0.99901276826858520508 0.96975457668304443359 0.93190819025039672852 0.96669793128967285156 0.98296254873275756836 1.0017988681793212891 1.0210199356079101562 1.0321791172027587891 1.0173963308334350586 1.0429844856262207031 1.0923744440078735352 1.0557230710983276367 1.0553978681564331055 1.0714493989944458008 1.0779392719268798828 1.0839295387268066406 1.0781308412551879883 1.0788389444351196289 1.1096045970916748047 1.1348880529403686523 1.1366641521453857422 1.1336357593536376953 1.1618824005126953125 1.1413842439651489258 1.0388326644897460938 1.0220568180084228516 1.0990903377532958984 1.1185994148254394531 1.0980355739593505859 1.1633532047271728516 1.1615356206893920898 1.0788244009017944336 1.0804643630981445312 1.1325845718383789062 1.1629644632339477539 1.0545227527618408203 1.0227254629135131836 1.0637867450714111328 1.0604238510131835938 1.0597209930419921875 1.0673615932464599609 1.0744038820266723633 1.0746504068374633789 1.0548365116119384766 1.0283863544464111328 0.85735666751861572266 1.0372253656387329102 1.1213780641555786133 1.164080500602722168 1.1579173803329467773 1.1417627334594726562 1.1233186721801757812 1.1202096939086914062 1.1269725561141967773 1.1285471916198730469 1.1269098520278930664 1.1285899877548217773 1.1073601245880126953 1.0872114896774291992 1.0762693881988525391 1.1250579357147216797 1.2657701969146728516 1.2793098688125610352 1.028279423713684082 1.061022639274597168 0.93935930728912353516 0.56468313932418823242 0.45402625203132629395 0.51032459735870361328 0.68655133247375488281 0.64686918258666992188 0.33021938800811767578 0.8266060948371887207 1.1394641399383544922 1.0957354307174682617 0.78736138343811035156 0.62180745601654052734 1.0548813343048095703 1.102748870849609375 0.97023206949234008789 1.0466592311859130859 1.0864281654357910156 1.0505596399307250977 0.91080552339553833008 0.90334969758987426758 0.84602206945419311523 0.8978023529052734375 0.95290583372116088867 1.0071463584899902344 1.1058799028396606445 1.1398283243179321289 1.1385235786437988281 1.0804899930953979492 1.0122352838516235352 0.91420090198516845703 0.96442878246307373047 1.1176540851593017578 1.1554530858993530273 1.2178850173950195312 1.2183922529220581055 1.1157138347625732422 1.0808973312377929688 0.99098658561706542969 1.0092442035675048828 1.0411393642425537109 0.85394078493118286133 0.85196501016616821289 0.90079218149185180664 0.88232511281967163086 0.89910769462585449219 0.88336700201034545898 0.89233952760696411133 0.77967870235443115234 0.95428884029388427734 0.86104583740234375 0.92914849519729614258 0.91053783893585205078 0.90495181083679199219 1.0571675300598144531 1.1389651298522949219 1.1036547422409057617 0.91019237041473388672 0.56222116947174072266 0.60320228338241577148 0.76751399040222167969 0.47074770927429199219 0.89145559072494506836 0.7982380986213684082 0.90081143379211425781 0.81798368692398071289 0.66473311185836791992 0.80544209480285644531 0.92125207185745239258 1.0697213411331176758 1.0246962308883666992 0.88250082731246948242 0.86236327886581420898 0.9441960453987121582 0.93292891979217529297 0.95563030242919921875 1.0836770534515380859 1.0695598125457763672 1.0295752286911010742 1.0065464973449707031 1.1574796438217163086 1.2102986574172973633 1.1071825027465820312 0.96028947830200195312 0.95359301567077636719 0.88253843784332275391 0.88035213947296142578 0.872028350830078125 0.77294534444808959961
1.2932311296463012695 0.95387804508209228516 0.89036583900451660156 0.45215526223182678223 0.70095986127853393555 0.80487829446792602539 0.90203821659088134766 0.94584351778030395508 0.95446109771728515625 0.96857559680938720703 1.0277901887893676758 1.0343866348266601562 1.0378628969192504883 0.99607288837432861328 1.022463679313659668 1.0697760581970214844 1.0531316995620727539 1.0952025651931762695 1.0532823801040649414 1.040135502815246582 1.0588502883911132812 1.0809556245803833008 1.0938886404037475586 1.093817591667175293 1.0921015739440917969 1.099451899528503418 1.1227968931198120117 1.1290240287780761719 1.1388200521469116211 1.1484274864196777344 1.132825016975402832 1.0689219236373901367 1.0849239826202392578 1.1252107620239257812 1.0898458957672119141 1.0882030725479125977 1.1685346364974975586 1.1716344356536865234 1.0801303386688232422 1.1175153255462646484 1.1377707719802856445 1.1612542867660522461 1.0814273357391357422 1.0245528221130371094 1.048489689826965332 1.0560785531997680664 1.0664712190628051758 1.0699826478958129883 1.0582257509231567383 1.0575195550918579102 1.031459808349609375 0.93768942356109619141 0.70734030008316040039 0.94355803728103637695 1.1670073270797729492 1.1767916679382324219 1.1623383760452270508 1.1400959491729736328 1.1284319162368774414 1.127138972282409668 1.1290479898452758789 1.130652308464050293 1.1243441104888916016 1.1047652959823608398 1.0888607501983642578 1.0959138870239257812 1.1049302816390991211 1.0952001810073852539 1.1399035453796386719 1.1701377630233764648 1.1989192962646484375 1.1793560981750488281 1.0061299800872802734 0.81579488515853881836 0.83327728509902954102 0.93872141838073730469 1.0130429267883300781 0.8888505101203918457 0.51742327213287353516 0.55352747440338134766 0.76852804422378540039 0.73486006259918212891 0.55331552028656005859 0.51940476894378662109 0.69382679462432861328 0.89953196048736572266 1.0675826072692871094 1.0697238445281982422 1.0517251491546630859 0.92759555578231811523 0.87679064273834228516 0.77217942476272583008 0.72024565935134887695 0.82623046636581420898 0.90744894742965698242 0.93363326787948608398 0.92768019437789916992 0.95451492071151733398 1.0096540451049804688 1.061365962028503418 1.1268186569213867188 1.034109950065612793 1.0089738368988037109 1.0965032577514648438 1.1789444684982299805 1.2184922695159912109 1.169634699821472168 0.98058748245239257812 0.98967349529266357422 0.98696446418762207031 0.98260772228240966797 0.87105619907379150391 0.85997140407562255859 0.87050378322601318359 0.89915674924850463867 0.92693853378295898438 0.88575524091720581055 0.89152795076370239258 0.87310141324996948242 0.76363599300384521484 0.89795529842376708984 1.0012019872665405273 0.94566595554351806641 0.95919442176818847656 1.0094311237335205078 1.1386597156524658203 1.1412899494171142578 0.9483140110969543457 0.82320189476013183594 0.79675114154815673828 0.44297546148300170898 0.39357036352157592773 0.64818572998046875 1.0681015253067016602 0.99050986766815185547 0.90769785642623901367 0.71205991506576538086 0.63171619176864624023 0.73637378215789794922 0.86076015233993530273 1.0440104007720947266 1.0157940387725830078 0.91961997747421264648 0.90277230739593505859 0.94805353879928588867 0.93757432699203491211 0.98262566328048706055 1.0693554878234863281 1.096332550048828125 1.0587128400802612305 1.0538880825042724609 1.2101331949234008789 1.1854578256607055664 1.1315631866455078125 0.96402585506439208984 0.93786293268203735352 0.91922158002853393555 0.92199146747589111328 0.91517025232315063477 0.7817681431770324707
1.201928257942199707 0.98346179723739624023 0.64450687170028686523 0.50972437858581542969 0.64971917867660522461 0.68440419435501098633 0.88724678754806518555 0.99617296457290649414 0.95588260889053344727 1.0098839998245239258 1.0064299106597900391 1.0467499494552612305 1.031716465950012207 1.0119341611862182617 1.0441490411758422852 1.0958018302917480469 1.0536258220672607422 1.0462729930877685547 1.0475441217422485352 1.0459514856338500977 1.0976059436798095703 1.100626826286315918 1.1051797866821289062 1.1241277456283569336 1.1172147989273071289 1.1140214204788208008 1.1355286836624145508 1.1294293403625488281 1.1353478431701660156 1.1437790393829345703 1.1513693332672119141 1.1198159456253051758 1.1379895210266113281 1.1415445804595947266 1.1064051389694213867 1.1382377147674560547 1.1839026212692260742 1.1553311347961425781 1.0619882345199584961 1.1098608970642089844 1.106713414192199707 1.100177764892578125 1.1388970613479614258 1.0900003910064697266 1.0721927881240844727 1.0803978443145751953 1.0664460659027099609 1.0950847864151000977 1.1168508529663085938 1.097136378288269043 1.1221359968185424805 0.95911347866058349609 0.66274338960647583008 0.90481662750244140625 1.1625798940658569336 1.2119078636169433594 1.177907109260559082 1.1635607481002807617 1.1583119630813598633 1.1527476310729980469 1.1392734050750732422 1.1268767118453979492 1.1257096529006958008 1.1088862419128417969 1.124138951301574707 1.0968700647354125977 1.0729238986968994141 1.0506135225296020508 0.99149423837661743164 0.91860431432723999023 0.95851427316665649414 1.1443616151809692383 1.0993402004241943359 0.8293743133544921875 0.99834614992141723633 1.1596907377243041992 1.051558375358581543 0.87678956985473632812 0.80369818210601806641 0.77026695013046264648 0.88150227069854736328 0.68733441829681396484 0.8103154301643371582 0.95788359642028808594 0.89533203840255737305 0.96883940696716308594 1.1051868200302124023 1.0056017637252807617 0.91682404279708862305 0.93194496631622314453 0.91236191987991333008 0.83503383398056030273 0.89762794971466064453 0.88239675760269165039 0.94794112443923950195 0.92192637920379638672 0.92512506246566772461 0.9669011235237121582 1.0518741607666015625 1.1316360235214233398 1.1463569402694702148 1.0583422183990478516 1.0397019386291503906 1.1092928647994995117 1.2216018438339233398 1.159424901008605957 1.1890872716903686523 0.86309838294982910156 0.89914500713348388672 1.0099768638610839844 0.89889252185821533203 0.78122049570083618164 0.80571860074996948242 0.89826416969299316406 0.91686272621154785156 0.93699449300765991211 0.8975817561149597168 0.91272020339965820312 0.85840302705764770508 0.85512381792068481445 0.98130255937576293945 1.0141092538833618164 0.92068403959274291992 1.0463633537292480469 1.1001878976821899414 1.2410643100738525391 1.1342035531997680664 0.91973787546157836914 0.91131252050399780273 0.67615306377410888672 0.34957072138786315918 0.44706761837005615234 0.8458118438720703125 1.0080475807189941406 0.93673312664031982422 0.70722669363021850586 0.69789958000183105469 0.77206581830978393555 0.81967532634735107422 0.85474127531051635742 0.99797815084457397461 1.0326840877532958984 0.94670146703720092773 0.90355098247528076172 0.82282197475433349609 0.92803275585174560547 1.0057260990142822266 1.0109882354736328125 1.0434392690658569336 1.0953631401062011719 1.2024760246276855469 1.1893221139907836914 1.0654703378677368164 1.0748820304870605469 0.97888779640197753906 0.83611917495727539062 0.82574582099914550781 0.8652350306510925293 0.9077593684196472168 0.77197104692459106445
1.3063558340072631836 1.1215798854827880859 0.54743546247482299805 0.79835599660873413086 0.89249783754348754883 0.66355139017105102539 0.92783367633819580078 0.9900735020637512207 1.0466778278350830078 1.0208781957626342773 1.0148222446441650391 1.0502759218215942383 1.0819001197814941406 1.0732272863388061523 1.0790407657623291016 1.0713309049606323242 1.0180732011795043945 1.0454431772232055664 1.0722273588180541992 1.1036183834075927734 1.1070241928100585938 1.0936347246170043945 1.104664921760559082 1.1189736127853393555 1.1119712591171264648 1.1126714944839477539 1.1268306970596313477 1.125326991081237793 1.1477957963943481445 1.1441557407379150391 1.1369314193725585938 1.1520912647247314453 1.130227208137512207 1.1278684139251708984 1.1181387901306152344 1.1701691150665283203 1.1890642642974853516 1.1056746244430541992 1.0342012643814086914 1.0780969858169555664 1.0712591409683227539 1.0650918483734130859 1.1442344188690185547 1.132367253303527832 1.1232919692993164062 1.1196054220199584961 1.0810531377792358398 1.0996549129486083984 1.1362118721008300781 1.1149187088012695312 1.2104893922805786133 0.58464068174362182617 0.92353463172912597656 1.100590825080871582 1.1295268535614013672 1.1540853977203369141 1.161545872688293457 1.1474812030792236328 1.1617285013198852539 1.1520994901657104492 1.1252952814102172852 1.1201443672180175781 1.1481684446334838867 1.12976837158203125 1.1053059101104736328 1.0651462078094482422 1.0162105560302734375 1.0106946229934692383 1.0051175355911254883 0.96738928556442260742 1.2536400556564331055 1.3040804862976074219 1.2950282096862792969 1.1754930019378662109 1.1795952320098876953 1.1800661087036132812 1.0842684507369995117 0.86821603775024414062 0.77053749561309814453 0.7864678502082824707 0.88309067487716674805 0.86932516098022460938 0.79181385040283203125 0.92353689670562744141 0.99453210830688476562 0.89256995916366577148 1.0485177040100097656 0.92644631862640380859 0.92677217721939086914 1.0189342498779296875 1.0445148944854736328 1.0098356008529663086 0.97144937515258789062 0.92481094598770141602 0.96660614013671875 0.95661157369613647461 0.93208295106887817383 0.95556688308715820312 1.0043367147445678711 1.0555101633071899414 1.102854609489440918 1.0999687910079956055 1.0731428861618041992 1.0763940811157226562 1.2221623659133911133 1.106122136116027832 1.1589654684066772461 0.96385514736175537109 0.81015169620513916016 0.88743793964385986328 0.77636176347732543945 0.74507462978363037109 0.80290740728378295898 0.87737631797790527344 0.91165071725845336914 0.92911422252655029297 0.98466569185256958008 0.66724127531051635742 0.84016591310501098633 0.87099301815032958984 1.0312789678573608398 1.0755121707916259766 0.92549395561218261719 0.98727834224700927734 0.93069881200790405273 1.1145969629287719727 0.82455539703369140625 0.49834656715393066406 0.89766001701354980469 0.75735294818878173828 0.17471563816070556641 0.40710499882698059082 0.82766401767730712891 0.89199209213256835938 0.70722401142120361328 0.70544332265853881836 0.91607260704040527344 0.90754896402359008789 0.89846283197402954102 0.89255094528198242188 0.95644080638885498047 0.93258482217788696289 0.88257241249084472656 0.88513112068176269531 0.79027342796325683594 0.90199071168899536133 1.0234100818634033203 1.0461190938949584961 1.0053341388702392578 1.196539759635925293 1.2055093050003051758 1.213267207145690918 1.0551259517669677734 0.7681630253791809082 0.76085132360458374023 0.75197178125381469727 0.80624437332153320312 0.92986071109771728516 0.94452619552612304688 0.74253964424133300781
1.3058960437774658203 1.1041851043701171875 0.80429315567016601562 0.82064801454544067383 0.86943989992141723633 0.45632907748222351074 0.75673389434814453125 0.92205953598022460938 1.0039969682693481445 0.98442327976226806641 1.0530780553817749023 1.0618516206741333008 1.0538549423217773438 1.0489473342895507812 1.0752682685852050781 1.0267184972763061523 1.0234813690185546875 1.0668200254440307617 1.0868477821350097656 1.0927019119262695312 1.0854493379592895508 1.0817558765411376953 1.119599461555480957 1.1223552227020263672 1.1310007572174072266 1.1371558904647827148 1.14875030517578125 1.1397141218185424805 1.1538749933242797852 1.16008758544921875 1.1526501178741455078 1.1467983722686767578 1.1408959627151489258 1.145295262336730957 1.1264806985855102539 1.1903271675109863281 1.1850798130035400391 1.0842344760894775391 1.0592142343521118164 1.0751008987426757812 1.0948914289474487305 1.1147497892379760742 1.1743301153182983398 1.1694563627243041992 1.1488264799118041992 1.1273548603057861328 1.0896843671798706055 1.1062320470809936523 1.136653900146484375 1.1182173490524291992 1.1928853988647460938 0.46175095438957214355 1.0832017660140991211 1.1438270807266235352 1.0667872428894042969 1.082369685173034668 1.1035693883895874023 1.1227315664291381836 1.1175531148910522461 1.1471875905990600586 1.1290533542633056641 1.09770965576171875 1.0943542718887329102 1.1074968576431274414 1.0789934396743774414 1.055538177490234375 1.0369369983673095703 0.98353302478790283203 0.96268248558044433594 0.94387954473495483398 1.1292917728424072266 1.2621415853500366211 1.2379974126815795898 1.2692357301712036133 1.2729718685150146484 1.3054319620132446289 1.2882479429244995117 1.0641623735427856445 0.73823457956314086914 0.79409039020538330078 0.92453539371490478516 1.0037287473678588867 0.93219244480133056641 0.95583349466323852539 1.0700767040252685547 0.94388693571090698242 1.0460318326950073242 0.89221906661987304688 1.0351533889770507812 1.0379108190536499023 1.0106463432312011719 0.97748613357543945312 0.99259126186370849609 0.92563867568969726562 0.92133122682571411133 0.9098949432373046875 0.93144249916076660156 1.0000003576278686523 1.0606343746185302734 1.0393880605697631836 1.0497622489929199219 1.1221870183944702148 1.1402161121368408203 1.2012720108032226562 1.2240784168243408203 1.0515331029891967773 1.0954412221908569336 1.0339580774307250977 0.86749994754791259766 0.82729244232177734375 0.70188999176025390625 0.73486238718032836914 0.78342700004577636719 0.85550493001937866211 0.91139173507690429688 0.94917529821395874023 0.90128421783447265625 0.51307195425033569336 1.0225813388824462891 0.98292756080627441406 1.1411497592926025391 1.1762318611145019531 1.0096430778503417969 0.98737478256225585938 0.99143785238265991211 1.116585850715637207 1.0409241914749145508 0.64821219444274902344 0.65742909908294677734 0.45851889252662658691 0.16738560795783996582 0.22585971653461456299 0.54724025726318359375 0.87856251001358032227 0.9754085540771484375 0.77731287479400634766 0.8976942896842956543 0.97196942567825317383 0.93250805139541625977 0.9509099125862121582 0.98093473911285400391 0.93991094827651977539 0.81806337833404541016 0.92212557792663574219 0.84497445821762084961 0.91380542516708374023 1.0543435811996459961 1.0658867359161376953 1.1150338649749755859 1.2130721807479858398 1.1030929088592529297 1.0607326030731201172 1.1690248250961303711 1.1970174312591552734 1.195181727409362793 1.2123152017593383789 1.2289327383041381836 1.1202396154403686523 0.96511518955230712891 0.72435724735260009766
1.2878340482711791992 1.103558659553527832 1.049129486083984375 0.83323228359222412109 0.71166360378265380859 0.62098371982574462891 0.59276700019836425781 0.84946179389953613281 1.022423863410949707 0.98662531375885009766 1.0199332237243652344 1.050825953483581543 1.0320351123809814453 1.0321172475814819336 1.0426999330520629883 1.0340816974639892578 1.0490005016326904297 1.094803929328918457 1.0541739463806152344 1.048482060432434082 1.05748748779296875 1.0696393251419067383 1.0816687345504760742 1.0935261249542236328 1.1089103221893310547 1.1159515380859375 1.1253504753112792969 1.1172879934310913086 1.1332033872604370117 1.1429901123046875 1.1401050090789794922 1.1266109943389892578 1.1468657255172729492 1.1459757089614868164 1.1228553056716918945 1.2136758565902709961 1.130747675895690918 1.0184934139251708984 1.0438761711120605469 1.0499118566513061523 1.1036007404327392578 1.1727142333984375 1.215184330940246582 1.0951581001281738281 1.0375552177429199219 1.0864109992980957031 1.0967431068420410156 1.0967642068862915039 1.075532078742980957 1.0764938592910766602 1.1266368627548217773 0.54642099142074584961 1.0933572053909301758 1.1425611972808837891 1.0788199901580810547 1.0287047624588012695 1.0379806756973266602 1.0815986394882202148 1.056387782096862793 1.0592029094696044922 1.1011495590209960938 1.1264089345932006836 1.0892618894577026367 1.0812129974365234375 1.0412620306015014648 0.99285566806793212891 1.1000385284423828125 1.2094576358795166016 1.1573717594146728516 1.0831419229507446289 1.1776124238967895508 1.2022835016250610352 1.0733989477157592773 1.0007433891296386719 1.0061931610107421875 1.1066687107086181641 1.1689778566360473633 1.2229741811752319336 0.8937899470329284668 0.94623386859893798828 0.93747413158416748047 0.96248590946197509766 0.90694421529769897461 0.91663986444473266602 0.9479491114616394043 0.92426419258117675781 0.83108729124069213867 0.76134520769119262695 0.8996346592903137207 0.85601073503494262695 0.84622251987457275391 0.9407641291618347168 1.0001696348190307617 0.9456360936164855957 0.97393459081649780273 0.90754884481430053711 0.8683446049690246582 0.98633110523223876953 0.9818255305290222168 0.97856402397155761719 0.98399657011032104492 1.0579558610916137695 1.2149014472961425781 1.22446441650390625 1.1669501066207885742 1.020398259162902832 0.95594429969787597656 0.95786195993423461914 0.87803745269775390625 0.89111340045928955078 0.83035868406295776367 0.92392134666442871094 0.82480400800704956055 0.86564373970031738281 0.93511509895324707031 0.88414424657821655273 0.64545744657516479492 0.65002691745758056641 1.0400441884994506836 0.95944869518280029297 1.0916510820388793945 1.0191122293472290039 0.89817088842391967773 0.99279546737670898438 1.0589174032211303711 1.0378021001815795898 1.0517380237579345703 0.79398041963577270508 0.79774701595306396484 0.55437672138214111328 0.28447934985160827637 0.52584695816040039062 0.8384196162223815918 0.84284955263137817383 0.88780325651168823242 0.99893593788146972656 0.90045338869094848633 0.95999765396118164062 0.89348071813583374023 0.95229017734527587891 0.98831093311309814453 0.94414597749710083008 0.85143101215362548828 0.94780635833740234375 0.86215162277221679688 0.81665748357772827148 1.0250631570816040039 1.1051946878433227539 1.135901331901550293 1.20398712158203125 1.1260277032852172852 1.0105901956558227539 0.91156935691833496094 0.94961410760879516602 0.9967358708381652832 1.1032316684722900391 1.2423124313354492188 1.2358856201171875 1.1554490327835083008 0.88460433483123779297
1.179993748664855957 1.2088171243667602539 1.15929412841796875 1.0484920740127563477 0.85481888055801391602 0.91432386636734008789 0.71882176399230957031 0.71419119834899902344 1.0319690704345703125 0.95440006256103515625 0.99975478649139404297 0.98483258485794067383 0.96759229898452758789 0.97787100076675415039 0.98472452163696289062 1.039109349250793457 1.087947845458984375 1.0668420791625976562 1.0614887475967407227 1.0512300729751586914 1.0376217365264892578 1.049467921257019043 1.0515571832656860352 1.0723513364791870117 1.0934633016586303711 1.0959653854370117188 1.1125768423080444336 1.1086505651473999023 1.1155107021331787109 1.12784576416015625 1.1108719110488891602 1.0984125137329101562 1.1046990156173706055 1.1029227972030639648 1.1261230707168579102 1.1508246660232543945 1.0233055353164672852 1.0013661384582519531 1.0361472368240356445 1.0698395967483520508 1.1425938606262207031 1.2404763698577880859 1.1358211040496826172 0.94717246294021606445 0.98107612133026123047 1.0625211000442504883 1.0959963798522949219 1.0723806619644165039 1.0673720836639404297 1.1342854499816894531 1.1216909885406494141 0.36421123147010803223 0.68745648860931396484 1.0521584749221801758 1.1314014196395874023 1.1035867929458618164 1.0666508674621582031 1.1021869182586669922 1.0847480297088623047 1.0602431297302246094 1.0650964975357055664 1.1161592006683349609 0.96676373481750488281 1.0194268226623535156 1.0344178676605224609 1.0392538309097290039 1.1886017322540283203 1.2407662868499755859 1.1921712160110473633 1.1375367641448974609 1.0910315513610839844 1.0792893171310424805 1.0096905231475830078 1.0418568849563598633 1.066997528076171875 1.0957202911376953125 1.1505035161972045898 1.1371102333068847656 0.94354265928268432617 0.94264936447143554688 1.0438122749328613281 0.9366251826286315918 0.91284835338592529297 0.86648064851760864258 0.83036041259765625 0.9572531580924987793 0.82715874910354614258 0.78518640995025634766 0.79042142629623413086 0.83418715000152587891 0.87230348587036132812 0.90625733137130737305 1.0087256431579589844 1.0264502763748168945 0.9439487457275390625 0.87995612621307373047 0.87718182802200317383 0.87639200687408447266 0.79995256662368774414 0.91887271404266357422 1.0893148183822631836 1.1430642604827880859 1.2221989631652832031 1.1807875633239746094 1.0776321887969970703 1.0499622821807861328 0.94534343481063842773 0.91944259405136108398 0.9335339665412902832 0.84496122598648071289 0.8458716273307800293 0.93226236104965209961 0.79326099157333374023 0.91641068458557128906 0.91815221309661865234 0.72686427831649780273 0.47533497214317321777 0.98860329389572143555 1.0555195808410644531 1.0405580997467041016 1.0670050382614135742 0.96591359376907348633 0.97300326824188232422 1.0068993568420410156 1.1069835424423217773 1.0507614612579345703 1.0273989439010620117 1.2161910533905029297 1.1090257167816162109 0.95364218950271606445 0.46914428472518920898 0.20979808270931243896 0.70429241657257080078 0.82637459039688110352 0.97772812843322753906 0.95972001552581787109 1.02352142333984375 1.0237878561019897461 0.90368872880935668945 0.90953505039215087891 0.99241435527801513672 0.9281285405158996582 0.89770537614822387695 0.94567704200744628906 0.93852317333221435547 0.93018734455108642578 1.0611078739166259766 1.1512730121612548828 1.1399774551391601562 1.2138550281524658203 1.1251617670059204102 1.0447106361389160156 0.92702502012252807617 0.92225444316864013672 0.92563408613204956055 0.85067397356033325195 0.89167988300323486328 1.1652209758758544922 1.248442530632019043 1.0198749303817749023
1.0922787189483642578 1.1865470409393310547 1.1235804557800292969 1.2200797796249389648 0.99672806262969970703 0.90903353691101074219 0.73664784431457519531 0.55236470699310302734 0.86696207523345947266 0.93142724037170410156 1.0020334720611572266 0.97877711057662963867 0.95192879438400268555 0.94829404354095458984 0.9435443878173828125 1.0060774087905883789 1.0723959207534790039 1.0120183229446411133 1.0151304006576538086 1.0374662876129150391 1.0209302902221679688 1.0451650619506835938 1.0404671430587768555 1.0300617218017578125 1.0685832500457763672 1.1130789518356323242 1.0993478298187255859 1.1179821491241455078 1.1321831941604614258 1.1291164159774780273 1.1226607561111450195 1.1052390336990356445 1.1210137605667114258 1.1644703149795532227 1.1768441200256347656 0.97287809848785400391 0.9606876373291015625 0.99402326345443725586 1.0302413702011108398 1.1032923460006713867 1.1580188274383544922 1.1859993934631347656 1.0142641067504882812 0.93712329864501953125 0.97190558910369873047 1.0442291498184204102 1.0769543647766113281 1.0689854621887207031 1.073813319206237793 1.1087945699691772461 1.0455914735794067383 0.48260438442230224609 0.57940334081649780273 0.66595178842544555664 0.6130231022834777832 0.75831949710845947266 0.96135729551315307617 1.09908294677734375 1.11563873291015625 1.0443207025527954102 0.99983185529708862305 0.52938383817672729492 0.71239995956420898438 0.95638883113861083984 1.0162056684494018555 0.96248954534530639648 0.99330317974090576172 1.1124013662338256836 0.98601901531219482422 0.98531031608581542969 0.85955911874771118164 0.96712464094161987305 1.1341023445129394531 1.1349176168441772461 1.2458993196487426758 1.214453577995300293 1.2081354856491088867 1.196797490119934082 1.0328443050384521484 0.87325525283813476562 0.98697930574417114258 0.98271465301513671875 1.0038329362869262695 1.0302138328552246094 0.96838420629501342773 1.0205407142639160156 0.99453067779541015625 0.97560650110244750977 0.97396302223205566406 0.98700380325317382812 0.98691511154174804688 1.0303010940551757812 1.0008015632629394531 0.90017914772033691406 0.82833695411682128906 0.88607376813888549805 0.99641627073287963867 1.0766401290893554688 1.1125726699829101562 1.1756931543350219727 1.144614100456237793 1.2277394533157348633 1.2267937660217285156 1.1405723094940185547 1.0558593273162841797 1.0177530050277709961 0.91334986686706542969 0.94645619392395019531 0.92843621969223022461 0.8247432708740234375 0.89178520441055297852 0.90415358543395996094 0.83161902427673339844 0.94189912080764770508 0.77496284246444702148 0.48697701096534729004 0.62949919700622558594 0.92050343751907348633 1.0515524148941040039 1.0671606063842773438 0.98024618625640869141 1.00562286376953125 1.0031925439834594727 1.077202916145324707 1.1732553243637084961 1.1082800626754760742 1.023568272590637207 1.1534315347671508789 1.164446711540222168 0.66337919235229492188 0.24858765304088592529 0.51669359207153320312 0.62000596523284912109 0.6232331395149230957 0.76100516319274902344 0.92613840103149414062 0.94106513261795043945 0.95146089792251586914 0.98496443033218383789 0.94101423025131225586 0.95119059085845947266 0.84581404924392700195 0.90148150920867919922 0.93699133396148681641 0.94156974554061889648 0.9573879241943359375 1.0242125988006591797 1.1255888938903808594 1.1790077686309814453 1.2097408771514892578 1.1360790729522705078 1.0794376134872436523 0.89407992362976074219 0.83738934993743896484 0.88981896638870239258 0.86764276027679443359 0.88107103109359741211 1.0465109348297119141 1.1008334159851074219 1.1229115724563598633
1.0164896249771118164 1.1377233266830444336 1.2227542400360107422 1.1652348041534423828 1.1074504852294921875 0.98709774017333984375 0.77909380197525024414 0.49995374679565429688 0.61963021755218505859 0.86138010025024414062 0.93847614526748657227 0.95875364542007446289 0.92034375667572021484 0.90206050872802734375 0.89963853359222412109 1.0193750858306884766 1.0724148750305175781 1.0181273221969604492 1.0180933475494384766 1.0922136306762695312 1.1019128561019897461 0.97845882177352905273 1.0344673395156860352 1.0807639360427856445 1.1621563434600830078 1.1591690778732299805 1.1489714384078979492 1.1683888435363769531 1.1514784097671508789 1.1445833444595336914 1.1394443511962890625 1.1180988550186157227 1.154860377311706543 1.2323845624923706055 1.2007718086242675781 0.96567654609680175781 1.0507460832595825195 1.0169159173965454102 1.0796651840209960938 1.1898653507232666016 1.2092144489288330078 1.0209354162216186523 0.9625377655029296875 0.96791499853134155273 0.99004638195037841797 1.0528208017349243164 1.0723628997802734375 1.0703841447830200195 1.0799574851989746094 1.0900194644927978516 1.0127774477005004883 0.89351493120193481445 1.1158405542373657227 1.1893219947814941406 1.0862120389938354492 0.90911406278610229492 0.76308774948120117188 0.80710464715957641602 0.73633217811584472656 0.67935007810592651367 0.53873312473297119141 0.5554211735725402832 0.68896782398223876953 0.89509028196334838867 0.8798382878303527832 0.92336767911911010742 1.0195809602737426758 1.1150277853012084961 1.0928642749786376953 0.96841466426849365234 0.77420592308044433594 0.82658362388610839844 0.94608968496322631836 0.98340201377868652344 1.1205203533172607422 1.145633697509765625 1.2609521150588989258 1.2208234071731567383 1.1374341249465942383 0.90905213356018066406 0.92332756519317626953 1.0637525320053100586 1.0387146472930908203 0.98834198713302612305 1.0221319198608398438 1.0936576128005981445 1.0684659481048583984 1.0683598518371582031 1.0061868429183959961 0.99481201171875 1.0066764354705810547 0.96786582469940185547 0.86277955770492553711 0.86275136470794677734 0.94510388374328613281 1.0098911523818969727 1.0515111684799194336 0.97374486923217773438 0.99142175912857055664 1.0985758304595947266 1.1732759475708007812 1.227944493293762207 1.1282154321670532227 1.099422454833984375 1.0812524557113647461 1.0610120296478271484 0.99589467048645019531 0.9236571192741394043 0.98911052942276000977 0.92713493108749389648 0.8925316929817199707 0.81142765283584594727 0.86104631423950195312 0.94428694248199462891 0.81392788887023925781 0.58165597915649414062 0.95217931270599365234 0.99125385284423828125 1.0147409439086914062 0.96632289886474609375 0.99925237894058227539 1.0402274131774902344 1.0056195259094238281 1.1182008981704711914 1.1638463735580444336 0.92027807235717773438 1.0996783971786499023 1.0553884506225585938 1.2186912298202514648 0.90965706110000610352 0.3399912416934967041 0.93936699628829956055 0.87604248523712158203 0.78441900014877319336 0.81066083908081054688 0.84558695554733276367 0.93086522817611694336 0.96782219409942626953 0.99701935052871704102 1.0383676290512084961 1.0245784521102905273 0.94864648580551147461 0.93952143192291259766 1.0154743194580078125 1.0578005313873291016 1.0366389751434326172 1.0816187858581542969 1.1336538791656494141 1.2157639265060424805 1.1196751594543457031 1.1167124509811401367 1.0789597034454345703 0.94905751943588256836 0.81524127721786499023 0.79019123315811157227 0.80704325437545776367 0.89033555984497070312 1.0709965229034423828 1.0389631986618041992 1.066019892692565918
1.0832837820053100586 1.1634452342987060547 1.2071652412414550781 1.0894277095794677734 1.0093573331832885742 1.0972043275833129883 0.72384333610534667969 0.4442380070686340332 0.31566959619522094727 0.47719186544418334961 0.72692859172821044922 0.87787097692489624023 0.87054312229156494141 0.86559027433395385742 0.86881589889526367188 0.98039704561233520508 1.0079300403594970703 1.0127441883087158203 1.1563686132431030273 1.1986501216888427734 1.1896492242813110352 1.1671435832977294922 1.1620569229125976562 1.1246527433395385742 1.1318540573120117188 1.1136341094970703125 1.1404618024826049805 1.147732853889465332 1.1184830665588378906 1.1366645097732543945 1.1330415010452270508 1.0924365520477294922 1.1483862400054931641 1.3122732639312744141 1.2802321910858154297 0.920551300048828125 0.98195081949234008789 0.9820912480354309082 1.1698362827301025391 1.2640688419342041016 1.135626673698425293 0.98918932676315307617 1.0091302394866943359 1.0233441591262817383 1.0534722805023193359 1.0891854763031005859 1.1156793832778930664 1.1200890541076660156 1.1059068441390991211 0.77124369144439697266 0.92829203605651855469 1.0490578413009643555 1.033816218376159668 1.1825517416000366211 1.1646534204483032227 1.1168485879898071289 1.063074946403503418 1.1194782257080078125 0.78785884380340576172 0.74732697010040283203 0.76130366325378417969 0.85988914966583251953 0.79501259326934814453 0.86879724264144897461 0.83710157871246337891 0.70085364580154418945 0.79741328954696655273 0.92353898286819458008 0.8152707219123840332 0.76172441244125366211 0.92048817873001098633 0.83429342508316040039 0.91788733005523681641 0.9670225977897644043 1.0165613889694213867 1.0186089277267456055 1.045731663703918457 1.1818028688430786133 1.1921193599700927734 1.0345003604888916016 0.90244162082672119141 0.93473798036575317383 0.96799314022064208984 0.98332774639129638672 0.97141098976135253906 1.0082151889801025391 1.1006753444671630859 1.0875164270401000977 0.98515987396240234375 0.97753655910491943359 0.94304853677749633789 0.91842979192733764648 0.88825267553329467773 0.97251069545745849609 1.0094146728515625 1.0241234302520751953 1.0173813104629516602 1.0600118637084960938 1.1029943227767944336 1.1509488821029663086 1.2289365530014038086 1.1729286909103393555 1.0491340160369873047 1.0921206474304199219 1.0070180892944335938 0.92723977565765380859 1.10002899169921875 1.128718256950378418 1.1379265785217285156 1.0077426433563232422 0.9353364109992980957 0.86720281839370727539 0.88555848598480224609 0.89111953973770141602 0.85943484306335449219 0.58644425868988037109 0.67113691568374633789 0.94745004177093505859 0.98510700464248657227 0.98096358776092529297 1.033679962158203125 1.016629338264465332 1.0648494958877563477 1.1307851076126098633 1.0796598196029663086 0.6140868067741394043 0.86944395303726196289 0.98522925376892089844 1.0947663784027099609 0.87479960918426513672 0.39305129647254943848 0.94255363941192626953 1.0769077539443969727 1.011668086051940918 0.88489443063735961914 0.94689989089965820312 0.95691531896591186523 0.94884479045867919922 0.93142271041870117188 0.94724714756011962891 0.95819950103759765625 1.0322016477584838867 1.0061192512512207031 1.0281252861022949219 1.0379564762115478516 1.0433602333068847656 1.0254540443420410156 1.1559332609176635742 1.2170835733413696289 1.1039611101150512695 1.101634979248046875 1.0846838951110839844 1.0191015005111694336 0.88074207305908203125 0.78552144765853881836 0.68503010272979736328 0.82091480493545532227 0.91082388162612915039 1.0657306909561157227 1.0689858198165893555
1.1235495805740356445 1.0611206293106079102 1.1472764015197753906 1.1293610334396362305 1.0856455564498901367 1.0710656642913818359 0.60851263999938964844 0.57417857646942138672 0.63306510448455810547 0.75521463155746459961 0.79570168256759643555 0.905506134033203125 0.88256001472473144531 0.87063699960708618164 0.93480801582336425781 0.99666535854339599609 0.99899172782897949219 1.0172077417373657227 1.0968797206878662109 1.1181132793426513672 1.0835201740264892578 1.1793330907821655273 1.1238476037979125977 1.1000200510025024414 1.1296666860580444336 1.1417523622512817383 1.1710106134414672852 1.1675847768783569336 1.1316885948181152344 1.2047232389450073242 1.1654734611511230469 1.0641714334487915039 1.1800203323364257812 1.2654093503952026367 0.92482578754425048828 0.9168236851692199707 0.99662613868713378906 1.0947933197021484375 1.1287916898727416992 1.070171356201171875 1.018032073974609375 1.0172219276428222656 0.99795931577682495117 1.013460993766784668 1.0314556360244750977 1.0808532238006591797 1.1427270174026489258 1.072554469108581543 0.71916472911834716797 0.60724699497222900391 0.99852836132049560547 1.1823593378067016602 1.0970585346221923828 1.1309360265731811523 1.0974071025848388672 1.0452628135681152344 0.94828712940216064453 1.0265078544616699219 1.0806055068969726562 1.1937922239303588867 1.0899364948272705078 0.86097502708435058594 0.9236266016960144043 0.9894390106201171875 0.94114899635314941406 0.7662499547004699707 0.62124073505401611328 0.65687209367752075195 0.67446768283843994141 0.71683782339096069336 0.99894005060195922852 1.0434020757675170898 1.0691671371459960938 1.1235649585723876953 1.0255511999130249023 1.182353973388671875 1.1956932544708251953 1.1799528598785400391 1.1461385488510131836 1.0328468084335327148 0.92805790901184082031 0.93653053045272827148 0.94247418642044067383 0.94963759183883666992 0.98053872585296630859 0.98374485969543457031 1.0001580715179443359 0.9895007014274597168 0.94599008560180664062 0.91010171175003051758 0.91554594039916992188 0.98599112033843994141 1.0592839717864990234 1.0752748250961303711 1.0658411979675292969 1.080675959587097168 1.0589162111282348633 1.112499237060546875 1.1713157892227172852 1.2302073240280151367 1.1419516801834106445 1.1947190761566162109 1.0697877407073974609 1.0359501838684082031 0.91718876361846923828 0.82899934053421020508 0.81571155786514282227 0.91342413425445556641 0.95871192216873168945 0.96142238378524780273 0.98063397407531738281 0.93442702293395996094 0.86256384849548339844 0.77893567085266113281 0.80428397655487060547 0.51394003629684448242 0.72800409793853759766 0.92374140024185180664 0.91788005828857421875 0.95271700620651245117 1.0028825998306274414 1.0313408374786376953 1.0266357660293579102 1.1128432750701904297 1.0620361566543579102 0.77486753463745117188 0.74362850189208984375 1.0218816995620727539 1.0377590656280517578 0.45678544044494628906 0.34551459550857543945 0.68598484992980957031 0.8020038604736328125 0.94733816385269165039 0.96869361400604248047 0.91965639591217041016 0.95648622512817382812 0.97218531370162963867 0.92384093999862670898 0.88295704126358032227 0.94363981485366821289 0.95993608236312866211 0.93699187040328979492 0.93314778804779052734 0.98900884389877319336 0.98763316869735717773 1.0121958255767822266 1.1738772392272949219 1.2188494205474853516 1.0945255756378173828 1.0715299844741821289 1.0271959304809570312 1.0647145509719848633 0.91829955577850341797 0.83207148313522338867 0.60698503255844116211 0.70666939020156860352 0.79911065101623535156 1.057262420654296875 1.1182030439376831055
1.0634889602661132812 0.89039987325668334961 1.0570234060287475586 1.1567580699920654297 1.1115024089813232422 1.010935664176940918 0.69839102029800415039 0.72881525754928588867 0.76489633321762084961 0.85201525688171386719 0.80492734909057617188 1.0081413984298706055 0.98410087823867797852 0.64834135770797729492 0.81022489070892333984 0.91939604282379150391 1.0428743362426757812 1.003348231315612793 1.090342402458190918 1.1154488325119018555 1.1118947267532348633 1.1890152692794799805 1.1451507806777954102 1.0961130857467651367 1.1292232275009155273 1.1392725706100463867 1.1265987157821655273 1.1285469532012939453 1.1246726512908935547 1.2243924140930175781 1.1493929624557495117 0.98232728242874145508 1.2151541709899902344 0.82571876049041748047 0.80151140689849853516 0.97766995429992675781 1.0288671255111694336 1.1498790979385375977 1.0046497583389282227 0.93614268302917480469 0.9683310389518737793 1.0094766616821289062 1.000672459602355957 1.0194197893142700195 1.0620462894439697266 1.1656402349472045898 1.0173419713973999023 0.59371894598007202148 0.49207767844200134277 0.97162717580795288086 1.1164586544036865234 1.0908577442169189453 0.98604047298431396484 1.0147603750228881836 1.0165971517562866211 0.9929230809211730957 1.0170922279357910156 0.93510848283767700195 0.93932741880416870117 1.2235529422760009766 1.1415849924087524414 0.95682442188262939453 1.0305103063583374023 1.0747232437133789062 1.0157207250595092773 0.9591770172119140625 0.77253091335296630859 0.8542397618293762207 0.76116532087326049805 0.68399900197982788086 0.82921695709228515625 0.80793237686157226562 0.8981119990348815918 0.98763293027877807617 0.94915175437927246094 0.99781966209411621094 1.0792479515075683594 1.1107712984085083008 1.1479403972625732422 0.99850308895111083984 0.93581175804138183594 1.0083550214767456055 0.9570700526237487793 0.94090235233306884766 0.99528205394744873047 0.99288678169250488281 0.97726368904113769531 0.93534970283508300781 0.88934665918350219727 0.93722945451736450195 1.0443942546844482422 1.0831841230392456055 1.0878930091857910156 1.0674960613250732422 1.1063934564590454102 1.1272454261779785156 1.1420013904571533203 1.2316119670867919922 1.2309315204620361328 1.2016023397445678711 1.022772669792175293 1.088709712028503418 1.2030255794525146484 0.95869886875152587891 0.79232043027877807617 0.71867126226425170898 0.72073692083358764648 0.80788898468017578125 0.88081067800521850586 0.88270401954650878906 0.9287319183349609375 0.98528122901916503906 0.9549897313117980957 0.77605712413787841797 0.71421217918395996094 0.53264230489730834961 0.87998801469802856445 0.97946852445602416992 1.0518268346786499023 1.0299694538116455078 1.032225489616394043 1.0446710586547851562 1.0525715351104736328 1.1219114065170288086 1.1096798181533813477 1.0037683248519897461 0.5924320220947265625 0.86105239391326904297 0.59377408027648925781 0.54782682657241821289 0.7781226038932800293 0.81872880458831787109 0.7979666590690612793 0.87521767616271972656 0.96298921108245849609 0.93004781007766723633 0.95259898900985717773 0.90680462121963500977 0.89165794849395751953 0.95056986808776855469 0.93643778562545776367 0.9350503087043762207 0.93391960859298706055 0.97439652681350708008 1.0755350589752197266 1.0110017061233520508 0.99103718996047973633 1.2181304693222045898 1.212781071662902832 0.99872452020645141602 1.0234112739562988281 1.0191860198974609375 1.0433521270751953125 1.0860983133316040039 0.94390237331390380859 0.78376102447509765625 0.59389120340347290039 0.69381034374237060547 0.97712093591690063477 1.1233475208282470703
1.0604909658432006836 0.99912846088409423828 0.99086141586303710938 1.0699865818023681641 1.1713783740997314453 0.8984248042106628418 0.75935339927673339844 0.87093764543533325195 0.83938515186309814453 0.90747016668319702148 0.98582690954208374023 1.1178038120269775391 0.90294110774993896484 0.82275956869125366211 0.70488107204437255859 0.72231769561767578125 1.0509072542190551758 1.0253455638885498047 1.0751764774322509766 1.1123975515365600586 1.1382237672805786133 1.1730352640151977539 1.1953126192092895508 1.1575521230697631836 1.1394379138946533203 1.1049680709838867188 1.0791559219360351562 1.1106059551239013672 1.1547014713287353516 1.2595756053924560547 1.0217190980911254883 0.91173040866851806641 1.2240287065505981445 0.69063597917556762695 0.97541409730911254883 1.0443537235260009766 1.0737136602401733398 1.0693250894546508789 1.0243914127349853516 1.0026859045028686523 1.017210841178894043 1.0286638736724853516 1.0489450693130493164 1.0542644262313842773 1.1215875148773193359 0.9986260533332824707 0.51246368885040283203 0.72718697786331176758 0.95238465070724487305 1.0028059482574462891 0.99582529067993164062 0.94817250967025756836 0.90010952949523925781 0.91014027595520019531 0.92826998233795166016 0.92204385995864868164 0.89257794618606567383 0.94279474020004272461 1.0258957147598266602 1.2078161239624023438 1.0257503986358642578 0.87419050931930541992 0.94105637073516845703 1.037241816520690918 1.0750116109848022461 1.0664991140365600586 1.0758560895919799805 1.0773463249206542969 0.94260442256927490234 0.94756501913070678711 0.98069548606872558594 0.90652137994766235352 0.89685392379760742188 0.83499348163604736328 0.92185950279235839844 0.95895445346832275391 1.0960963964462280273 1.1323513984680175781 1.1781064271926879883 0.95500856637954711914 0.89610171318054199219 0.94990992546081542969 0.89566278457641601562 0.91571658849716186523 0.92127555608749389648 0.91685533523559570312 0.8685162663459777832 0.9226099848747253418 0.97279888391494750977 1.0326402187347412109 1.0905506610870361328 1.1184455156326293945 1.0858179330825805664 1.0995680093765258789 1.1347635984420776367 1.141213536262512207 1.234440922737121582 1.2276102304458618164 1.1273466348648071289 1.1584029197692871094 1.1108361482620239258 0.96976375579833984375 1.1164766550064086914 1.1971956491470336914 0.98614650964736938477 0.96014487743377685547 1.0211663246154785156 0.9528039097785949707 0.86806339025497436523 0.81584554910659790039 0.87712681293487548828 0.93262058496475219727 0.93048608303070068359 0.75291216373443603516 0.6140416264533996582 0.50756484270095825195 0.66985547542572021484 1.0075724124908447266 1.1337960958480834961 1.0704240798950195312 1.0809514522552490234 1.1353667974472045898 1.1918082237243652344 1.1366496086120605469 1.1114253997802734375 1.0961883068084716797 0.59446227550506591797 0.2910111546516418457 0.43683156371116638184 0.694118499755859375 0.85102218389511108398 0.95610445737838745117 0.85446196794509887695 0.81931173801422119141 0.94272345304489135742 0.91226637363433837891 0.98286539316177368164 0.98475086688995361328 0.96433287858963012695 0.96736413240432739258 0.98458302021026611328 0.9860712885856628418 0.97079819440841674805 1.0160436630249023438 1.0837705135345458984 1.1055185794830322266 1.2029051780700683594 1.2185168266296386719 1.155367732048034668 0.90911328792572021484 0.98419457674026489258 0.95787227153778076172 0.98983132839202880859 1.1517724990844726562 0.87930345535278320312 0.96106731891632080078 0.76497286558151245117 0.61510455608367919922 0.81134909391403198242 1.0652750730514526367
1.0871673822402954102 1.1031852960586547852 0.96837854385375976562 0.87841820716857910156 1.0063832998275756836 0.97030210494995117188 0.95520156621932983398 0.87014055252075195312 0.89542609453201293945 1.0168215036392211914 1.1012672185897827148 1.2272357940673828125 1.1890350580215454102 1.061496734619140625 0.89927691221237182617 0.36576467752456665039 0.86407196521759033203 1.1076520681381225586 0.97062212228775024414 1.1111587285995483398 1.1530115604400634766 1.1370482444763183594 1.1628156900405883789 1.1655255556106567383 1.1276391744613647461 1.0487931966781616211 1.0311553478240966797 1.0846941471099853516 1.1864695549011230469 1.2072582244873046875 0.92772853374481201172 0.92185777425765991211 1.1529154777526855469 0.63209497928619384766 1.0088088512420654297 1.1000839471817016602 1.1087609529495239258 1.0618674755096435547 1.0322152376174926758 1.0312639474868774414 1.0377223491668701172 1.0167211294174194336 1.0135873556137084961 1.0594860315322875977 1.0781633853912353516 0.63123273849487304688 0.51644665002822875977 1.0623466968536376953 1.0877469778060913086 1.0716714859008789062 1.0860826969146728516 1.0774117708206176758 0.96189987659454345703 0.84064453840255737305 0.93574035167694091797 0.86760663986206054688 0.73816454410552978516 0.7539043426513671875 1.0280843973159790039 1.2056157588958740234 0.97394287586212158203 0.95262533426284790039 1.093075871467590332 1.1096976995468139648 1.0595781803131103516 1.046206355094909668 1.1129988431930541992 1.1446752548217773438 1.0527912378311157227 1.0071984529495239258 0.96418458223342895508 0.95976519584655761719 1.023433685302734375 1.0092934370040893555 1.0292810201644897461 0.97843700647354125977 1.0560624599456787109 1.2155801057815551758 1.2054859399795532227 1.0646578073501586914 0.9980589747428894043 0.97998267412185668945 0.95761024951934814453 0.94861435890197753906 0.97459864616394042969 1.0044143199920654297 0.97592920064926147461 0.98963415622711181641 0.95878565311431884766 0.98026680946350097656 1.0051109790802001953 1.0310986042022705078 1.0633505582809448242 1.0979095697402954102 1.0891718864440917969 1.2037584781646728516 1.2348493337631225586 1.1479488611221313477 1.1535899639129638672 1.0440503358840942383 1.079198002815246582 1.0609617233276367188 0.89295125007629394531 1.2131421566009521484 1.1605275869369506836 0.98332399129867553711 1.0076439380645751953 1.0845488309860229492 1.1119084358215332031 0.96711945533752441406 0.98042654991149902344 1.0091886520385742188 0.86895692348480224609 0.8639767765998840332 1.0190007686614990234 0.8747794032096862793 0.54827153682708740234 0.93168812990188598633 1.0374703407287597656 1.0599164962768554688 1.116139531135559082 1.1901472806930541992 1.0162630081176757812 0.8050892949104309082 1.027714848518371582 1.0139019489288330078 0.37385517358779907227 0.60177916288375854492 0.85097891092300415039 0.6401316523551940918 0.73988580703735351562 0.821807861328125 0.93343496322631835938 0.92114520072937011719 0.94187271595001220703 0.89501285552978515625 0.91604852676391601562 0.98318248987197875977 0.98156559467315673828 0.93870306015014648438 0.8961315155029296875 0.9472859501838684082 1.007846832275390625 1.0532002449035644531 1.0861377716064453125 1.2011543512344360352 1.2200609445571899414 1.1676825284957885742 0.94087082147598266602 0.72826874256134033203 0.75607192516326904297 0.81680703163146972656 0.92151653766632080078 1.0459637641906738281 1.0233987569808959961 0.84643787145614624023 0.87567383050918579102 0.69318425655364990234 0.67912238836288452148 1.0653707981109619141
1.0911576747894287109 1.0710368156433105469 1.0388541221618652344 0.95023894309997558594 0.83773374557495117188 0.91769558191299438477 0.92305606603622436523 0.98510539531707763672 0.93909180164337158203 0.9638690948486328125 1.1081184148788452148 1.1478061676025390625 1.166168212890625 1.1534934043884277344 1.0148872137069702148 0.49164384603500366211 0.50642538070678710938 1.0138419866561889648 0.98704540729522705078 1.0380046367645263672 1.0632600784301757812 1.0810198783874511719 1.1590549945831298828 1.2147188186645507812 1.1866499185562133789 1.0723066329956054688 1.0000826120376586914 1.0506461858749389648 1.1740869283676147461 1.1677899360656738281 0.91080534458160400391 0.94167286157608032227 1.0692907571792602539 0.81944900751113891602 1.0018545389175415039 1.051959991455078125 1.0398061275482177734 1.022526860237121582 1.0353742837905883789 1.0229414701461791992 1.0345203876495361328 1.0409102439880371094 0.9895051121711730957 0.91319864988327026367 0.78378891944885253906 0.59268319606781005859 0.38969746232032775879 0.69305622577667236328 0.97781503200531005859 1.0517140626907348633 0.97556304931640625 0.95390570163726806641 0.96384698152542114258 0.94422173500061035156 0.89710485935211181641 0.95843470096588134766 1.0380573272705078125 1.0746921300888061523 1.0820055007934570312 1.0185433626174926758 0.96365857124328613281 0.95449471473693847656 0.99993145465850830078 1.0101314783096313477 1.1041500568389892578 0.99577534198760986328 0.93245291709899902344 0.92805814743041992188 0.93333995342254638672 0.97603666782379150391 1.0108220577239990234 0.99221396446228027344 0.99107372760772705078 1.0051513910293579102 1.0790550708770751953 1.0909886360168457031 1.0707570314407348633 1.1098738908767700195 1.1810866594314575195 1.1255625486373901367 1.1057698726654052734 1.0983765125274658203 1.0766047239303588867 0.99407434463500976562 0.99212163686752319336 1.0227429866790771484 0.97709852457046508789 0.96702754497528076172 0.98307907581329345703 0.88860899209976196289 0.87763178348541259766 0.90572988986968994141 0.98510050773620605469 1.1034849882125854492 1.2286640405654907227 1.2366636991500854492 1.1170943975448608398 1.1619430780410766602 1.1025840044021606445 1.0729652643203735352 0.98768246173858642578 1.0333244800567626953 0.87235140800476074219 1.1099741458892822266 1.2200509309768676758 1.1636775732040405273 0.90041661262512207031 0.85192006826400756836 0.87044346332550048828 0.98454344272613525391 0.98513942956924438477 0.99967283010482788086 0.9313017725944519043 1.1317600011825561523 1.1522516012191772461 1.0062155723571777344 0.67558473348617553711 0.86758935451507568359 0.98426276445388793945 1.0342191457748413086 0.89400160312652587891 0.52682739496231079102 0.37713542580604553223 0.51894432306289672852 0.77935749292373657227 0.48824664950370788574 0.45424807071685791016 0.72634690999984741211 0.90782749652862548828 0.77495676279067993164 0.62097930908203125 0.79538518190383911133 0.97055578231811523438 0.92951679229736328125 0.92457449436187744141 0.92457503080368041992 0.8767516016960144043 0.87366181612014770508 0.9161046147346496582 0.98773121833801269531 1.0151400566101074219 0.96314096450805664062 0.96888613700866699219 1.0740820169448852539 1.1761488914489746094 1.2204836606979370117 1.1299823522567749023 1.0912811756134033203 1.0353472232818603516 0.94109183549880981445 0.88788968324661254883 0.91968524456024169922 0.94128024578094482422 0.91917997598648071289 1.1453468799591064453 0.89426243305206298828 0.74208211898803710938 0.64841628074645996094 0.50877410173416137695 0.99598795175552368164
1.1792412996292114258 1.2084062099456787109 1.1042385101318359375 1.0502866506576538086 0.90230870246887207031 0.81746077537536621094 0.80568403005599975586 0.89879769086837768555 0.90823537111282348633 1.0095597505569458008 1.0496807098388671875 1.0337579250335693359 1.0926109552383422852 1.202168583869934082 1.0800535678863525391 0.73683190345764160156 0.71143287420272827148 1.1489261388778686523 1.1631287336349487305 1.0379105806350708008 1.0166416168212890625 1.0724854469299316406 1.1178435087203979492 1.2089731693267822266 1.239279627799987793 1.064394831657409668 0.95810151100158691406 1.027638554573059082 1.1839897632598876953 1.1584628820419311523 0.92539501190185546875 0.96769994497299194336 1.0247449874877929688 1.0530376434326171875 1.0362043380737304688 1.0158034563064575195 0.9866377711296081543 0.98872762918472290039 1.0147291421890258789 1.0097723007202148438 1.0130112171173095703 0.95098114013671875 0.85959517955780029297 0.52378505468368530273 0.70931088924407958984 0.92551058530807495117 0.60904449224472045898 0.55254250764846801758 0.64236438274383544922 0.81379336118698120117 0.80958014726638793945 1.0240929126739501953 1.132033228874206543 1.1170098781585693359 1.0755352973937988281 1.0925848484039306641 1.0540701150894165039 1.1052079200744628906 1.1213541030883789062 1.0755994319915771484 1.0789077281951904297 1.0693142414093017578 1.0155682563781738281 1.0881732702255249023 1.0180773735046386719 0.92922109365463256836 0.90792930126190185547 0.92625117301940917969 0.9628441929817199707 0.98545438051223754883 1.0256779193878173828 1.0311006307601928711 1.0681840181350708008 1.1330062150955200195 1.1869248151779174805 1.1494193077087402344 1.155717015266418457 1.1787946224212646484 1.1558523178100585938 1.132439732551574707 1.1064059734344482422 1.1135736703872680664 1.1055253744125366211 1.0204195976257324219 0.98290926218032836914 1.031405329704284668 0.99921762943267822266 0.99501824378967285156 1.0341891050338745117 1.0334914922714233398 1.0690790414810180664 1.1535946130752563477 1.2313872575759887695 1.2371354103088378906 1.2376630306243896484 1.1059770584106445312 1.0257483720779418945 1.0443439483642578125 1.0344560146331787109 1.0378333330154418945 0.96860718727111816406 0.92319309711456298828 0.87503421306610107422 0.90296673774719238281 1.0258423089981079102 1.1986335515975952148 1.1972291469573974609 0.97462725639343261719 0.82122629880905151367 0.7382965087890625 0.854274749755859375 0.95393764972686767578 1.0111290216445922852 1.0984683036804199219 1.0473514795303344727 1.0106283426284790039 0.80069983005523681641 0.57721978425979614258 0.48187619447708129883 0.45939862728118896484 0.61651706695556640625 0.93828225135803222656 0.86322510242462158203 0.74735015630722045898 0.59868419170379638672 0.66260629892349243164 0.82587796449661254883 0.9112688899040222168 0.94097995758056640625 0.87732845544815063477 0.78378647565841674805 0.77292478084564208984 0.86836564540863037109 0.87281805276870727539 0.92508053779602050781 1.006135106086730957 1.0385441780090332031 0.93287879228591918945 0.81862670183181762695 0.93191158771514892578 0.96035045385360717773 1.0331799983978271484 1.0456429719924926758 1.1018764972686767578 1.2222176790237426758 1.1594839096069335938 1.1246637105941772461 1.0958967208862304688 1.0002803802490234375 0.81237816810607910156 0.87274980545043945312 0.94959855079650878906 0.86749416589736938477 0.82324892282485961914 1.1101689338684082031 1.0988397598266601562 0.9842364192008972168 0.79425603151321411133 0.48719227313995361328 1.0615693330764770508
1.1842118501663208008 1.2336826324462890625 1.2051501274108886719 1.2738640308380126953 1.2697021961212158203 1.1214506626129150391 0.96338772773742675781 0.78757780790328979492 0.89074152708053588867 1.0332125425338745117 1.0337929725646972656 1.1250395774841308594 1.1575399637222290039 1.2268062829971313477 0.91929548978805541992 0.59813618659973144531 0.87880432605743408203 0.95243275165557861328 1.0530315637588500977 1.1481473445892333984 1.1234127283096313477 1.063021540641784668 1.0915621519088745117 1.1363391876220703125 1.1523699760437011719 1.0216972827911376953 0.93436723947525024414 1.0204466581344604492 1.1953475475311279297 1.1033662557601928711 0.93072330951690673828 1.0150655508041381836 1.0395656824111938477 1.0376285314559936523 1.0505084991455078125 1.0270456075668334961 1.0016596317291259766 1.0709415674209594727 1.0894143581390380859 0.97179955244064331055 0.92347723245620727539 0.73246812820434570312 0.58134508132934570312 0.65787500143051147461 1.0065146684646606445 1.0430719852447509766 0.7256094813346862793 0.80573993921279907227 0.84651541709899902344 1.0608273744583129883 1.0409141778945922852 1.1888700723648071289 1.2183312177658081055 1.1682112216949462891 1.1439756155014038086 1.1562501192092895508 1.1166781187057495117 1.1167491674423217773 1.0765906572341918945 1.0279531478881835938 1.0997204780578613281 1.1113942861557006836 1.0795278549194335938 1.0255807638168334961 0.9885037541389465332 0.98675167560577392578 0.94788819551467895508 0.95141613483428955078 0.98842692375183105469 1.0236634016036987305 1.0800000429153442383 1.1334661245346069336 1.1875531673431396484 1.2033907175064086914 1.1897158622741699219 1.1584116220474243164 1.150798797607421875 1.1556390523910522461 1.1649749279022216797 1.1847395896911621094 1.1804014444351196289 1.1951718330383300781 1.2034854888916015625 1.1560572385787963867 1.0290980339050292969 1.0609658956527709961 1.0938601493835449219 1.1056473255157470703 1.1606465578079223633 1.1871486902236938477 1.2294472455978393555 1.2389870882034301758 1.239136815071105957 1.1651246547698974609 1.1100428104400634766 1.0464562177658081055 1.0245130062103271484 0.99707913398742675781 1.0424833297729492188 0.99109178781509399414 0.97091817855834960938 0.91744625568389892578 0.89505910873413085938 0.89954131841659545898 0.86610138416290283203 0.97627472877502441406 1.2249116897583007812 1.1395299434661865234 0.92054504156112670898 0.87317138910293579102 0.9668419957160949707 1.0134027004241943359 1.1224950551986694336 1.0115910768508911133 0.91779196262359619141 0.87487500905990600586 0.61286979913711547852 0.3924770653247833252 0.82005453109741210938 1.1135045289993286133 1.1501086950302124023 1.2294945716857910156 1.1944662332534790039 1.0580883026123046875 0.88678991794586181641 0.78208839893341064453 1.0496878623962402344 1.0361768007278442383 0.95523476600646972656 0.96464240550994873047 0.89813786745071411133 0.94535398483276367188 0.98286336660385131836 0.90373498201370239258 0.94789636135101318359 0.97890186309814453125 0.94622558355331420898 1.0070997476577758789 0.98930495977401733398 0.94041198492050170898 0.88115996122360229492 1.0088454484939575195 1.0671187639236450195 1.1126053333282470703 1.2220231294631958008 1.1740165948867797852 1.141391754150390625 1.1410812139511108398 0.95354211330413818359 0.77996927499771118164 0.84775662422180175781 0.80883514881134033203 0.77547740936279296875 0.87239891290664672852 1.0039408206939697266 0.98701179027557373047 0.92197149991989135742 0.97171902656555175781 0.72703647613525390625 1.086093902587890625
1.266611933708190918 1.2512711286544799805 1.197087407112121582 1.1787264347076416016 1.2150940895080566406 1.235279083251953125 1.2838299274444580078 1.2871785163879394531 1.2542622089385986328 1.260254979133605957 1.2864547967910766602 1.2525676488876342773 1.2275843620300292969 1.2752425670623779297 1.1343277692794799805 0.96636176109313964844 0.86374336481094360352 0.66853636503219604492 0.79226541519165039062 1.0183936357498168945 1.0869802236557006836 1.0801601409912109375 1.1412062644958496094 1.2073174715042114258 1.1344722509384155273 0.93469053506851196289 0.90273964405059814453 0.98737519979476928711 1.1691838502883911133 1.1491564512252807617 0.82860046625137329102 0.94426715373992919922 0.99879336357116699219 1.0415207147598266602 1.049828648567199707 1.0811049938201904297 1.0039987564086914062 0.77248787879943847656 0.45425322651863098145 0.38042509555816650391 0.69659364223480224609 0.93851834535598754883 1.1993956565856933594 1.2299060821533203125 1.2603949308395385742 1.2226778268814086914 1.1071062088012695312 1.1497172117233276367 1.1325906515121459961 1.222904205322265625 1.2368565797805786133 1.2270486354827880859 1.2154524326324462891 1.1726437807083129883 1.1548887491226196289 1.1493583917617797852 1.1157599687576293945 1.0351880788803100586 0.99620336294174194336 1.0098507404327392578 1.0989943742752075195 0.98428612947463989258 0.96870970726013183594 0.91184157133102416992 0.99743849039077758789 1.0307649374008178711 1.0049488544464111328 1.050952911376953125 1.1285239458084106445 1.1600552797317504883 1.2234460115432739258 1.2155098915100097656 1.2181268930435180664 1.2000535726547241211 1.1960036754608154297 1.2036319971084594727 1.2038400173187255859 1.2068456411361694336 1.2063112258911132812 1.245961308479309082 1.2486854791641235352 1.2481639385223388672 1.2378799915313720703 1.2462215423583984375 1.2452813386917114258 1.2396606206893920898 1.2398253679275512695 1.2391909360885620117 1.2400841712951660156 1.240140080451965332 1.2388690710067749023 1.1235487461090087891 1.1266078948974609375 1.143263697624206543 1.0911927223205566406 1.1266082525253295898 1.0435310602188110352 0.97714143991470336914 1.0246473550796508789 0.99657416343688964844 0.92472547292709350586 0.95184576511383056641 0.98626661300659179688 0.96211075782775878906 0.94701248407363891602 0.90735137462615966797 1.0532326698303222656 1.1196846961975097656 1.0184208154678344727 1.0274362564086914062 1.0112947225570678711 1.0178940296173095703 1.071551203727722168 0.87967002391815185547 0.72640955448150634766 0.74100697040557861328 0.62034535408020019531 0.71527564525604248047 1.1571189165115356445 1.2127811908721923828 1.1932427883148193359 1.2526881694793701172 1.2350482940673828125 1.1885498762130737305 1.0088974237442016602 0.97270733118057250977 1.0870258808135986328 1.0434260368347167969 1.0892386436462402344 1.0505386590957641602 1.0136163234710693359 0.86888802051544189453 0.86878508329391479492 0.88811898231506347656 0.91560506820678710938 0.92816442251205444336 0.97042822837829589844 0.97955930233001708984 1.0251439809799194336 1.0542345046997070312 1.0232374668121337891 1.050448298454284668 0.9964262843132019043 1.194512486457824707 1.2242610454559326172 1.1078557968139648438 1.0056678056716918945 1.0534155368804931641 1.0824716091156005859 0.89254772663116455078 0.84067994356155395508 0.85427111387252807617 0.84398871660232543945 0.90181589126586914062 0.93575882911682128906 1.0315599441528320312 0.76253092288970947266 0.57177931070327758789 0.92945045232772827148 1.0960379838943481445
1.1617282629013061523 1.0878130197525024414 1.1433000564575195312 1.1596953868865966797 1.1569871902465820312 1.1476464271545410156 1.160387873649597168 1.2071386575698852539 1.1989585161209106445 1.1908830404281616211 1.2411400079727172852 1.2509571313858032227 1.1725002527236938477 0.9920787811279296875 1.1193040609359741211 1.2552245855331420898 1.2449556589126586914 1.0975472927093505859 0.88998562097549438477 0.85202747583389282227 0.9762719273567199707 1.0199234485626220703 1.1223211288452148438 1.1450107097625732422 1.1808527708053588867 1.059945225715637207 0.94459688663482666016 1.0029950141906738281 1.0891900062561035156 1.2811033725738525391 0.90078014135360717773 0.87000840902328491211 0.98962920904159545898 1.0457974672317504883 1.0883523225784301758 1.1231391429901123047 0.93384134769439697266 0.30877947807312011719 0.75562083721160888672 0.71605294942855834961 1.0799475908279418945 1.2587192058563232422 1.1884406805038452148 1.1475828886032104492 1.1889204978942871094 1.1456208229064941406 1.1264328956604003906 1.1319139003753662109 1.1877304315567016602 1.1378275156021118164 1.1085534095764160156 1.0963034629821777344 1.0431451797485351562 1.0883806943893432617 1.1545518636703491211 1.1196837425231933594 1.1682506799697875977 1.1300243139266967773 1.0637482404708862305 0.9983679652214050293 1.0732215642929077148 1.0326353311538696289 0.93744170665740966797 1.0053497552871704102 0.99401223659515380859 1.0567173957824707031 1.1141425371170043945 1.1931825876235961914 1.191817164421081543 1.1274831295013427734 1.2043691873550415039 1.2033814191818237305 1.199541926383972168 1.2317917346954345703 1.2235288619995117188 1.192599177360534668 1.1623504161834716797 1.1658388376235961914 1.1790121793746948242 1.1223607063293457031 1.0731927156448364258 1.0749493837356567383 1.072765350341796875 1.1311128139495849609 1.1956857442855834961 1.222209930419921875 1.2198320627212524414 1.1731190681457519531 1.1592773199081420898 1.2132484912872314453 1.1459662914276123047 1.0210348367691040039 1.0831141471862792969 1.0896764993667602539 1.0726128816604614258 1.0010750293731689453 1.0744860172271728516 1.0208133459091186523 0.95634043216705322266 0.92982441186904907227 0.9225165247917175293 1.0246727466583251953 0.99393415451049804688 0.91075116395950317383 0.95032042264938354492 1.0036838054656982422 0.96737772226333618164 1.0412049293518066406 1.0176689624786376953 1.0336823463439941406 1.1129713058471679688 0.98651486635208129883 0.95822727680206298828 0.88499981164932250977 0.8000965118408203125 0.86406791210174560547 0.71776211261749267578 0.60563069581985473633 0.95256733894348144531 1.0763620138168334961 1.0413724184036254883 0.99307483434677124023 1.0520191192626953125 1.2048866748809814453 1.0667412281036376953 1.0884554386138916016 1.0967131853103637695 1.0356842279434204102 1.0458197593688964844 1.0850961208343505859 1.0665302276611328125 1.1009923219680786133 1.0151549577713012695 0.76942533254623413086 0.69170588254928588867 0.80844503641128540039 0.95558643341064453125 0.96012085676193237305 0.97262775897979736328 1.0139970779418945312 1.0695530176162719727 1.0615333318710327148 1.1653723716735839844 1.2252907752990722656 1.1375870704650878906 0.96478044986724853516 0.82929724454879760742 0.9259077906608581543 0.90212136507034301758 0.92946350574493408203 0.8860931396484375 0.87724000215530395508 0.89136511087417602539 0.90254390239715576172 0.78051167726516723633 0.93987190723419189453 0.65897595882415771484 0.4800968170166015625 1.1876510381698608398 1.0924706459045410156
1.2097496986389160156 0.83971714973449707031 1.0830711126327514648 1.1678354740142822266 1.0970875024795532227 1.1575256586074829102 1.149022221565246582 1.1170604228973388672 1.1123890876770019531 1.1264853477478027344 1.1280519962310791016 1.1422961950302124023 1.2445590496063232422 1.2131148576736450195 0.93487340211868286133 0.97503882646560668945 1.0644224882125854492 1.1153028011322021484 1.0831456184387207031 0.79132670164108276367 0.8786118626594543457 0.95153117179870605469 1.0516892671585083008 1.1380727291107177734 1.1098638772964477539 1.0680372714996337891 0.99394804239273071289 1.0170626640319824219 1.0360116958618164062 1.2185033559799194336 1.0335440635681152344 0.82259732484817504883 1.0306152105331420898 1.0829511880874633789 1.0542846918106079102 1.1032140254974365234 0.81147241592407226562 0.7740923762321472168 1.0449607372283935547 0.93629002571105957031 1.0996320247650146484 1.0583678483963012695 1.0819315910339355469 1.1348627805709838867 1.1098423004150390625 1.0747376680374145508 1.0222668647766113281 1.0779359340667724609 1.148409724235534668 1.0385138988494873047 1.0693384408950805664 1.0463414192199707031 0.98516082763671875 0.96623814105987548828 0.96879220008850097656 1.0034426450729370117 0.99376094341278076172 0.92204487323760986328 0.98174852132797241211 1.0458427667617797852 0.99213784933090209961 1.0662680864334106445 1.0127136707305908203 1.0684775114059448242 1.0894804000854492188 1.1401097774505615234 1.1904708147048950195 1.1392335891723632812 1.1276336908340454102 1.1753160953521728516 1.2205386161804199219 1.2353456020355224609 1.2205299139022827148 1.0893541574478149414 1.039269566535949707 1.0203464031219482422 1.0258907079696655273 1.0533810853958129883 1.0386072397232055664 0.99924129247665405273 1.0162831544876098633 1.0624945163726806641 1.1034502983093261719 1.0258820056915283203 1.0216557979583740234 1.0898746252059936523 1.0970166921615600586 1.0448198318481445312 1.0330542325973510742 1.1997677087783813477 1.1381585597991943359 0.97000962495803833008 1.0826158523559570312 1.0640505552291870117 1.0523462295532226562 0.99972373247146606445 0.96445924043655395508 1.0542774200439453125 0.94861352443695068359 0.90628093481063842773 0.9568493962287902832 0.99391722679138183594 0.98977482318878173828 1.0687781572341918945 1.0916593074798583984 1.0584027767181396484 1.0122327804565429688 0.92924714088439941406 0.96614873409271240234 1.0216252803802490234 1.104066014289855957 1.225612640380859375 1.1895158290863037109 1.1633409261703491211 1.059456944465637207 0.95462065935134887695 0.67530107498168945312 0.29586690664291381836 0.67348241806030273438 1.058422088623046875 1.0362693071365356445 0.89907431602478027344 1.0394790172576904297 1.2265449762344360352 1.0957607030868530273 1.1136374473571777344 1.1688382625579833984 1.1024243831634521484 1.0116559267044067383 1.1027182340621948242 1.1165120601654052734 1.1073023080825805664 1.1144853830337524414 1.1507611274719238281 0.81360709667205810547 0.62746751308441162109 0.77645361423492431641 0.91415292024612426758 0.94546240568161010742 0.98565971851348876953 1.0550239086151123047 1.038580775260925293 1.228062748908996582 1.2056382894515991211 1.0246201753616333008 0.97863447666168212891 0.81255698204040527344 0.82985693216323852539 0.77037441730499267578 0.81985265016555786133 0.86843329668045043945 0.86568671464920043945 0.92293155193328857422 0.92685413360595703125 0.80262774229049682617 0.67724931240081787109 0.39924299716949462891 0.8644383549690246582 1.192801356315612793 1.0438079833984375
1.2729276418685913086 1.1480627059936523438 1.0129630565643310547 1.0912218093872070312 1.1726872920989990234 1.0647423267364501953 1.1077915430068969727 1.1435594558715820312 1.1279773712158203125 1.1263463497161865234 1.1382795572280883789 1.1222929954528808594 1.1628911495208740234 1.2524838447570800781 1.0817186832427978516 0.98278832435607910156 0.96046197414398193359 1.0364488363265991211 1.0967198610305786133 1.0990641117095947266 0.81366205215454101562 0.80135476589202880859 0.96019327640533447266 0.96950238943099975586 0.91216844320297241211 0.89093744754791259766 0.93844634294509887695 0.97025346755981445312 1.0668630599975585938 1.2204775810241699219 1.0861700773239135742 0.89715927839279174805 1.0114359855651855469 0.97651726007461547852 0.95839220285415649414 1.030835270881652832 0.62497311830520629883 0.87777161598205566406 1.1830331087112426758 0.96367567777633666992 0.9659646153450012207 0.91214841604232788086 0.90382063388824462891 0.91087687015533447266 0.98049336671829223633 1.1342433691024780273 1.1106870174407958984 1.1258599758148193359 1.1980804204940795898 1.1224367618560791016 1.0890303850173950195 1.0651335716247558594 0.9245135188102722168 0.78059166669845581055 1.0063025951385498047 0.96209824085235595703 0.88536339998245239258 0.90453606843948364258 0.97675269842147827148 1.0608661174774169922 1.0782424211502075195 1.0633516311645507812 1.0936547517776489258 1.133823394775390625 1.1206051111221313477 1.1389791965484619141 1.1602175235748291016 1.1891196966171264648 1.2401285171508789062 1.2580785751342773438 1.259526371955871582 1.1327513456344604492 0.9533188939094543457 0.93799531459808349609 0.95341843366622924805 0.94928079843521118164 0.96727299690246582031 0.95823228359222412109 0.9389514923095703125 0.94835150241851806641 0.88366591930389404297 0.94581747055053710938 1.0247986316680908203 0.89414697885513305664 0.91269606351852416992 1.0340831279754638672 1.0030168294906616211 0.95931792259216308594 1.016094207763671875 1.1812158823013305664 1.1679972410202026367 1.0388474464416503906 1.1077278852462768555 1.0520104169845581055 1.0296427011489868164 1.0400097370147705078 1.0629618167877197266 0.95780318975448608398 1.0964871644973754883 1.006102442741394043 0.96098846197128295898 0.99446266889572143555 1.0064445734024047852 1.065486907958984375 1.119412541389465332 1.0766295194625854492 1.0639404058456420898 1.032954096794128418 0.92811578512191772461 1.078694462776184082 1.0568125247955322266 1.1276078224182128906 1.1595857143402099609 1.2317489385604858398 1.1639540195465087891 0.93063384294509887695 0.88129448890686035156 0.51530027389526367188 0.76475965976715087891 0.93410515785217285156 0.88889551162719726562 0.85135322809219360352 1.0622224807739257812 1.1999448537826538086 1.1196714639663696289 1.1142079830169677734 1.0669745206832885742 1.0679687261581420898 1.0196821689605712891 0.98265314102172851562 1.0029748678207397461 0.98409187793731689453 1.0710808038711547852 1.183537602424621582 1.1790889501571655273 0.96903496980667114258 0.8676891326904296875 0.82784485816955566406 0.93431514501571655273 1.0137884616851806641 1.0605981349945068359 1.0834567546844482422 1.2277683019638061523 1.1311545372009277344 1.0119348764419555664 1.0467975139617919922 1.0544190406799316406 1.0178811550140380859 0.98552548885345458984 0.99802571535110473633 0.9581425786018371582 0.94315004348754882812 0.95699787139892578125 1.0237214565277099609 1.0235637426376342773 0.83067679405212402344 0.45905184745788574219 0.89105719327926635742 1.0254443883895874023 0.88272011280059814453
1.169600367546081543 1.0929051637649536133 1.0547848939895629883 1.0816270112991333008 1.2053550481796264648 1.2843164205551147461 1.1720947027206420898 1.0890012979507446289 1.090900421142578125 1.1228439807891845703 1.1532378196716308594 1.1652313470840454102 1.1437002420425415039 1.1844984292984008789 1.2051243782043457031 1.2086558341979980469 1.2368351221084594727 1.1634751558303833008 1.1165890693664550781 1.2351460456848144531 0.81709498167037963867 0.56662148237228393555 0.82608282566070556641 0.87081366777420043945 0.88526779413223266602 0.86947065591812133789 0.98683953285217285156 0.9912573695182800293 0.97858530282974243164 1.1562294960021972656 1.0766645669937133789 0.88148540258407592773 0.87249296903610229492 0.87955081462860107422 0.89779835939407348633 0.94700449705123901367 0.88354218006134033203 1.0895606279373168945 1.1097874641418457031 0.95487159490585327148 0.97520428895950317383 0.99441093206405639648 0.95025515556335449219 0.90329158306121826172 0.7246735692024230957 0.81797426939010620117 1.0232765674591064453 1.1972061395645141602 1.1503021717071533203 1.0606529712677001953 1.0357291698455810547 1.1062084436416625977 0.9814116358757019043 0.79875189065933227539 0.97698831558227539062 0.92576086521148681641 0.9796581268310546875 1.0165022611618041992 1.0077797174453735352 1.0198354721069335938 1.027859807014465332 1.0566072463989257812 1.1492251157760620117 1.1829330921173095703 1.1572641134262084961 1.162324070930480957 1.2227153778076171875 1.2593240737915039062 1.2528047561645507812 1.1984015703201293945 1.1090095043182373047 0.96182209253311157227 0.92990720272064208984 0.92753809690475463867 0.93552666902542114258 0.94585537910461425781 0.97339689731597900391 0.93305569887161254883 0.96315395832061767578 1.015034794807434082 0.86456924676895141602 0.95833021402359008789 0.9782466888427734375 0.90545743703842163086 0.95524287223815917969 0.91743940114974975586 0.78256958723068237305 0.76440960168838500977 0.98277837038040161133 1.2355556488037109375 1.1322305202484130859 1.0635938644409179688 1.0456066131591796875 1.0060102939605712891 1.0073767900466918945 1.0022345781326293945 1.0911915302276611328 0.98266547918319702148 1.0377454757690429688 1.1264129877090454102 0.98523831367492675781 0.98962199687957763672 0.97580748796463012695 0.98496186733245849609 1.025858759880065918 1.0599187612533569336 1.076426386833190918 1.0619004964828491211 0.96471071243286132812 1.0639863014221191406 1.1345955133438110352 1.0735902786254882812 1.0551408529281616211 1.2219067811965942383 1.2421447038650512695 1.0202492475509643555 0.92878985404968261719 0.59793466329574584961 0.88000595569610595703 1.0026166439056396484 0.93950140476226806641 1.0540981292724609375 1.0632358789443969727 1.089300990104675293 1.0869139432907104492 0.92386764287948608398 1.0138108730316162109 1.0356588363647460938 0.99166035652160644531 0.92006415128707885742 0.9931176304817199707 0.98584532737731933594 1.0034898519515991211 0.98736178874969482422 1.066432952880859375 1.1545786857604980469 1.1720418930053710938 1.1145715713500976562 0.97570526599884033203 1.0364010334014892578 1.1067490577697753906 1.1928458213806152344 1.2283514738082885742 1.1287705898284912109 1.0735940933227539062 0.98752593994140625 0.91471397876739501953 0.95180457830429077148 0.93538117408752441406 0.98459070920944213867 0.95432418584823608398 1.0020993947982788086 1.0115258693695068359 0.99826014041900634766 0.91355746984481811523 0.98703354597091674805 0.56528699398040771484 0.44100284576416015625 0.68486201763153076172 1.0874725580215454102
1.2010750770568847656 0.88891953229904174805 0.79673570394515991211 0.88704240322113037109 1.0559858083724975586 1.2227028608322143555 1.2879735231399536133 1.2876348495483398438 1.239424586296081543 1.1786010265350341797 1.1579326391220092773 1.1623321771621704102 1.1679003238677978516 1.1837576627731323242 1.1679135560989379883 1.1761765480041503906 1.1920511722564697266 1.2086081504821777344 1.2498091459274291992 1.2934304475784301758 1.0979803800582885742 0.75634658336639404297 0.76033890247344970703 0.87088346481323242188 0.77171230316162109375 0.80371111631393432617 0.99733495712280273438 1.0784987211227416992 0.98405569791793823242 1.1425800323486328125 1.0488737821578979492 0.90252381563186645508 0.89726650714874267578 0.85152971744537353516 0.84772539138793945312 0.83933919668197631836 0.85434699058532714844 0.95360487699508666992 1.0408209562301635742 1.0311419963836669922 1.1727441549301147461 1.1658257246017456055 1.080153346061706543 1.049630284309387207 1.0894433259963989258 1.0244698524475097656 0.8859456181526184082 0.77252191305160522461 1.0044978857040405273 1.1071979999542236328 1.1156504154205322266 1.067265629768371582 1.0778443813323974609 0.96302038431167602539 0.99847543239593505859 1.038647770881652832 1.0271992683410644531 1.0209356546401977539 1.001941680908203125 1.0111708641052246094 0.99881005287170410156 1.0485759973526000977 1.1333308219909667969 1.2011749744415283203 1.2615821361541748047 1.2402765750885009766 1.2613816261291503906 1.2161809206008911133 1.1355952024459838867 1.0097157955169677734 0.91140711307525634766 0.91722285747528076172 0.94221413135528564453 0.98273807764053344727 1.0156965255737304688 1.0140432119369506836 0.97682392597198486328 0.96196764707565307617 1.0083456039428710938 0.93230992555618286133 0.82584196329116821289 0.98662596940994262695 0.93841034173965454102 0.87816256284713745117 0.91770726442337036133 0.78332591056823730469 0.77371931076049804688 1.00360107421875 1.1562665700912475586 1.2610515356063842773 1.0837649106979370117 1.0339934825897216797 1.0034888982772827148 0.95149189233779907227 0.97465246915817260742 0.97992205619812011719 1.0898873805999755859 1.0524032115936279297 1.0372254848480224609 1.1616218090057373047 1.0693248510360717773 1.0643854141235351562 1.0536108016967773438 1.0202835798263549805 0.99790453910827636719 0.97059208154678344727 1.1011680364608764648 1.1610273122787475586 1.0929726362228393555 1.1067173480987548828 0.96932375431060791016 1.0594626665115356445 1.0772286653518676758 1.1274088621139526367 1.2375417947769165039 0.95667093992233276367 0.84274762868881225586 0.57337963581085205078 0.30033561587333679199 0.77652472257614135742 0.81370139122009277344 1.0413476228713989258 1.0457805395126342773 1.0082004070281982422 0.88516277074813842773 0.76693940162658691406 0.99662077426910400391 0.8999169468879699707 1.0372658967971801758 1.0364370346069335938 1.0230726003646850586 1.1105664968490600586 1.0890438556671142578 0.9517199397087097168 0.93796622753143310547 0.90956628322601318359 0.94958341121673583984 0.99424034357070922852 1.0673770904541015625 1.0882490873336791992 1.1046495437622070312 1.2300704717636108398 1.1675077676773071289 1.1490752696990966797 1.071915745735168457 1.002276301383972168 0.90212762355804443359 0.94583034515380859375 0.89879882335662841797 0.83614057302474975586 0.88789182901382446289 1.0008893013000488281 0.98293381929397583008 0.96719366312026977539 0.79878485202789306641 0.56807416677474975586 0.52747142314910888672 0.98555994033813476562 1.2174234390258789062 1.2758634090423583984
1.2429076433181762695 1.1193451881408691406 0.86891257762908935547 0.83608072996139526367 0.86042940616607666016 0.83592236042022705078 1.0463700294494628906 1.2085998058319091797 1.2920572757720947266 1.2921078205108642578 1.2451483011245727539 1.1500056982040405273 1.1665601730346679688 1.211783289909362793 1.0777879953384399414 1.1251276731491088867 1.1424934864044189453 1.1509970426559448242 1.233318328857421875 1.2404007911682128906 1.2871645689010620117 1.2572817802429199219 1.1226992607116699219 0.86604195833206176758 0.64542597532272338867 0.59288865327835083008 0.83258736133575439453 1.0056878328323364258 1.0035302639007568359 1.1020612716674804688 1.0582065582275390625 0.94484680891036987305 0.74896216392517089844 0.56625127792358398438 0.54157233238220214844 0.53845983743667602539 0.85266488790512084961 1.1087765693664550781 0.98475819826126098633 1.0672323703765869141 1.1155585050582885742 1.0396152734756469727 0.99917846918106079102 1.0215479135513305664 1.1360194683074951172 1.225829005241394043 1.0919656753540039062 1.0339282751083374023 0.91837096214294433594 0.90198254585266113281 1.0074884891510009766 1.0197255611419677734 1.0049908161163330078 1.059894561767578125 0.94360947608947753906 1.0228483676910400391 1.0344492197036743164 1.0619879961013793945 1.0889642238616943359 1.1202195882797241211 1.1481571197509765625 1.1839015483856201172 1.2180172204971313477 1.2628712654113769531 1.2224773168563842773 1.1707953214645385742 1.1744657754898071289 1.0346562862396240234 0.942546844482421875 0.91821998357772827148 0.90334200859069824219 0.9893710017204284668 1.0042185783386230469 1.0064016580581665039 0.98899078369140625 0.94795691967010498047 0.92099106311798095703 0.98583483695983886719 0.93202859163284301758 0.66989231109619140625 0.8413626551628112793 1.0067119598388671875 0.86890929937362670898 0.71105164289474487305 0.63748466968536376953 0.68517267704010009766 0.84512430429458618164 1.0761331319808959961 1.1820939779281616211 1.2644145488739013672 1.0667624473571777344 0.96931803226470947266 0.94359338283538818359 0.92315721511840820312 0.97361886501312255859 1.0002471208572387695 1.037952423095703125 0.98321247100830078125 1.0106910467147827148 1.0693354606628417969 1.1032804250717163086 1.0844787359237670898 1.0160483121871948242 0.96491849422454833984 1.0009071826934814453 1.0812778472900390625 0.97839444875717163086 1.013531804084777832 1.0937595367431640625 1.1479517221450805664 0.91245311498641967773 0.9745286107063293457 1.1048866510391235352 1.0473489761352539062 1.1697610616683959961 1.0101253986358642578 0.73732781410217285156 0.56219083070755004883 0.15765027701854705811 0.26131135225296020508 0.63946336507797241211 0.96951955556869506836 0.98653107881546020508 0.67179030179977416992 0.46372967958450317383 0.6051985621452331543 0.79048418998718261719 0.78726822137832641602 0.92001324892044067383 1.0316981077194213867 0.99831533432006835938 1.1276382207870483398 1.0580019950866699219 0.83952414989471435547 0.89058011770248413086 0.92250829935073852539 0.99700915813446044922 0.99955666065216064453 0.99298673868179321289 1.0492837429046630859 1.17116546630859375 1.2311418056488037109 1.1424653530120849609 1.050574183464050293 0.9268919825553894043 1.0192885398864746094 1.0259401798248291016 0.95152670145034790039 0.8733895421028137207 0.85338795185089111328 0.91462606191635131836 1.0037752389907836914 1.0081201791763305664 0.91533368825912475586 0.76624071598052978516 0.46895393729209899902 0.77064120769500732422 1.1301361322402954102 1.0734423398971557617 1.2004032135009765625
1.1940510272979736328 1.1600173711776733398 1.0997173786163330078 0.95735949277877807617 1.0772954225540161133 0.67508834600448608398 0.85067284107208251953 0.98164832592010498047 0.94451808929443359375 1.0007114410400390625 1.0135319232940673828 1.0211496353149414062 1.151250004768371582 1.2435759305953979492 1.012326359748840332 1.0884085893630981445 1.1749436855316162109 1.1419070959091186523 1.239429473876953125 1.1054915189743041992 1.0705646276473999023 1.2084376811981201172 1.2937541007995605469 1.1934126615524291992 0.61098456382751464844 0.42901590466499328613 0.680782318115234375 0.89540177583694458008 1.0201296806335449219 1.0013449192047119141 1.0363832712173461914 0.86068183183670043945 0.37807363271713256836 0.66213077306747436523 0.77653157711029052734 0.84287780523300170898 0.67253482341766357422 0.93726360797882080078 0.97883844375610351562 1.0505826473236083984 1.0205184221267700195 0.93258684873580932617 0.93085205554962158203 0.9068787693977355957 0.89969080686569213867 1.0025621652603149414 0.9348595738410949707 0.94355696439743041992 1.0159271955490112305 0.94824516773223876953 0.99557644128799438477 1.0337508916854858398 0.9594472050666809082 1.0129843950271606445 0.99791717529296875 1.0412669181823730469 1.1190460920333862305 1.1495577096939086914 1.1946471929550170898 1.2560085058212280273 1.2550539970397949219 1.2671592235565185547 1.2009195089340209961 1.1984567642211914062 1.1842082738876342773 1.1314321756362915039 1.0059987306594848633 0.94734585285186767578 0.90520757436752319336 0.92338842153549194336 0.97371828556060791016 0.97990584373474121094 0.96416622400283813477 0.95903736352920532227 0.93112492561340332031 0.89924919605255126953 0.97508209943771362305 0.99596792459487915039 0.8935546875 0.68237614631652832031 0.91188895702362060547 0.88992494344711303711 0.66353243589401245117 0.59797322750091552734 0.63654607534408569336 0.76183176040649414062 0.93156039714813232422 1.0744203329086303711 1.2591520547866821289 1.2412253618240356445 1.0135074853897094727 0.92911821603775024414 0.92565000057220458984 0.96045601367950439453 1.0242512226104736328 1.0408892631530761719 0.92681586742401123047 0.96889400482177734375 1.0404176712036132812 1.0683904886245727539 1.0917115211486816406 1.0601980686187744141 0.87538927793502807617 0.96856325864791870117 1.0371999740600585938 1.1877778768539428711 1.0340206623077392578 0.74576145410537719727 0.98261648416519165039 1.15163421630859375 0.99235427379608154297 0.77884906530380249023 1.1664121150970458984 1.0651307106018066406 1.1555385589599609375 1.1706322431564331055 0.94639128446578979492 0.71667450666427612305 0.20917823910713195801 0.54970180988311767578 0.57016044855117797852 0.49388706684112548828 0.35784569382667541504 0.40247568488121032715 0.91028672456741333008 1.1323740482330322266 1.0248565673828125 0.71725136041641235352 0.99583142995834350586 0.97336107492446899414 0.89312207698822021484 1.0003907680511474609 0.81672108173370361328 0.80618274211883544922 0.8891194462776184082 0.92030000686645507812 0.97394734621047973633 1.0072367191314697266 1.0154136419296264648 1.0738301277160644531 1.233416438102722168 1.1896181106567382812 1.0810123682022094727 1.1531330347061157227 1.1020134687423706055 0.94901144504547119141 0.87974184751510620117 0.90385985374450683594 0.88474297523498535156 0.8650493621826171875 0.91033256053924560547 0.97224849462509155273 0.98894983530044555664 1.0245269536972045898 0.96178185939788818359 0.65705484151840209961 0.82368654012680053711 1.1313180923461914062 1.0772939920425415039 1.0959846973419189453
1.1775072813034057617 1.0641992092132568359 1.1391128301620483398 1.0912241935729980469 1.2089374065399169922 0.90723270177841186523 0.82062613964080810547 0.96458774805068969727 0.90133255720138549805 1.0344220399856567383 1.0030230283737182617 1.012237548828125 1.1606829166412353516 1.2847839593887329102 1.0215791463851928711 1.0427149534225463867 1.227904200553894043 1.2139241695404052734 1.2561500072479248047 1.1311522722244262695 0.99439978599548339844 1.1655254364013671875 1.2023119926452636719 1.2762553691864013672 1.0375732183456420898 0.61427289247512817383 0.40452280640602111816 0.55254578590393066406 0.88573980331420898438 0.96930408477783203125 1.0047731399536132812 0.64623153209686279297 0.55725681781768798828 0.89350932836532592773 1.0011893510818481445 1.0098314285278320312 0.89890015125274658203 0.50422334671020507812 0.71407163143157958984 1.0600751638412475586 1.1513414382934570312 1.1475335359573364258 1.1253219842910766602 1.1596970558166503906 1.141800999641418457 1.1159242391586303711 1.216686248779296875 1.1751995086669921875 1.0771982669830322266 0.94795250892639160156 0.98644709587097167969 1.0083280801773071289 1.0406738519668579102 0.94469428062438964844 1.0229158401489257812 1.1289517879486083984 1.1320078372955322266 1.187388300895690918 1.2089024782180786133 1.1812196969985961914 1.1944118738174438477 1.166315913200378418 1.1725709438323974609 1.206211090087890625 1.1582328081130981445 0.96661770343780517578 0.88197368383407592773 0.91229879856109619141 0.93268680572509765625 0.93884980678558349609 0.91568732261657714844 0.98087263107299804688 0.99229705333709716797 1.0104348659515380859 0.99616789817810058594 1.0124658346176147461 0.96607494354248046875 0.81965607404708862305 0.71345716714859008789 0.76500332355499267578 0.76388162374496459961 0.66396176815032958984 0.70071452856063842773 0.81567966938018798828 0.80424064397811889648 0.81664854288101196289 0.92792648077011108398 1.1848390102386474609 1.2671781778335571289 1.1890401840209960938 0.99125516414642333984 0.9168078303337097168 0.96655094623565673828 1.0143024921417236328 1.0483940839767456055 1.0256377458572387695 0.96709078550338745117 1.0152842998504638672 1.1169663667678833008 0.95554292201995849609 1.0663748979568481445 1.1650311946868896484 1.106852412223815918 1.1282259225845336914 1.0542691946029663086 1.1816613674163818359 1.2509447336196899414 0.86995625495910644531 0.665576934814453125 0.85002702474594116211 0.80146932601928710938 0.62296032905578613281 1.1137968301773071289 1.08432769775390625 1.1645675897598266602 1.1309225559234619141 0.78884917497634887695 0.50007706880569458008 0.44675213098526000977 0.95420819520950317383 0.9703814387321472168 0.90028625726699829102 0.9278481602668762207 0.7534313201904296875 0.83164399862289428711 1.0068100690841674805 0.96236616373062133789 0.98398250341415405273 0.87787383794784545898 0.68599599599838256836 0.77960008382797241211 0.90607988834381103516 0.79577434062957763672 0.84120690822601318359 0.87713414430618286133 0.94595980644226074219 0.98834973573684692383 1.014989018440246582 1.0679450035095214844 1.1224036216735839844 1.2329585552215576172 1.0708464384078979492 0.99301677942276000977 0.97319680452346801758 1.0577106475830078125 1.1660858392715454102 1.1738331317901611328 1.0270364284515380859 0.92031836509704589844 0.84379494190216064453 0.93838429450988769531 0.96506202220916748047 0.94908106327056884766 0.98108339309692382812 0.99723899364471435547 0.76479107141494750977 0.61714774370193481445 1.0039083957672119141 0.92485225200653076172 0.9490985870361328125
1.1959061622619628906 1.1375136375427246094 1.1440092325210571289 1.1145166158676147461 1.2555524110794067383 0.88338065147399902344 0.89674180746078491211 0.71201556921005249023 1.0002715587615966797 1.0995461940765380859 1.0471181869506835938 1.0311720371246337891 1.1070092916488647461 1.1545078754425048828 1.0234599113464355469 1.0279195308685302734 1.154732823371887207 1.2660043239593505859 1.0790798664093017578 0.98757719993591308594 0.97703498601913452148 1.1550378799438476562 1.1784615516662597656 1.1195334196090698242 1.2655681371688842773 1.1802746057510375977 0.84128266572952270508 0.38870164752006530762 0.48973935842514038086 0.63850969076156616211 0.71439701318740844727 0.62023341655731201172 0.82815176248550415039 1.121359705924987793 1.1497801542282104492 1.1064606904983520508 1.0842378139495849609 0.81081712245941162109 0.4430891573429107666 0.65459346771240234375 1.0225076675415039062 1.1465876102447509766 1.1375255584716796875 1.178595423698425293 1.1618781089782714844 1.0865142345428466797 1.1422401666641235352 1.1121481657028198242 1.0493688583374023438 0.99911999702453613281 1.0439203977584838867 0.99567395448684692383 0.99366915225982666016 1.0310546159744262695 1.1535056829452514648 1.2278732061386108398 1.2268397808074951172 1.1770454645156860352 1.1361846923828125 1.1717733144760131836 1.1438728570938110352 1.1258938312530517578 1.1790994405746459961 1.0711550712585449219 0.97987687587738037109 0.95078885555267333984 0.96148204803466796875 0.94817262887954711914 0.93566626310348510742 0.94636046886444091797 0.9478905797004699707 1.0084412097930908203 1.0279638767242431641 1.054648280143737793 1.0159746408462524414 0.89821267127990722656 0.76577979326248168945 0.6264355778694152832 0.66181355714797973633 0.87673699855804443359 0.86798179149627685547 0.83936959505081176758 0.8821995854377746582 0.91183292865753173828 0.93870133161544799805 0.97830146551132202148 1.1818003654479980469 1.2688807249069213867 1.2124327421188354492 1.1313242912292480469 0.98457384109497070312 0.89470708370208740234 1.0022757053375244141 1.041605830192565918 1.0467630624771118164 1.0154688358306884766 0.92969268560409545898 0.89901942014694213867 1.1382936239242553711 1.0209076404571533203 1.0673718452453613281 1.0778019428253173828 0.99855387210845947266 1.0951229333877563477 1.1156058311462402344 1.0495591163635253906 1.1093671321868896484 1.1685456037521362305 0.91269987821578979492 0.64164006710052490234 0.51815748214721679688 0.59743273258209228516 1.0329767465591430664 1.0585341453552246094 1.1862955093383789062 1.060619354248046875 0.54486918449401855469 0.57335394620895385742 0.77979737520217895508 1.0098360776901245117 1.0918092727661132812 0.9306557774543762207 0.95276790857315063477 0.93335843086242675781 0.73510843515396118164 0.68933701515197753906 0.8828455805778503418 0.95194596052169799805 0.88440370559692382812 0.96234655380249023438 0.94006299972534179688 0.79015642404556274414 0.72008210420608520508 0.81762921810150146484 0.87218916416168212891 0.96147686243057250977 0.97375547885894775391 1.0720546245574951172 1.0957865715026855469 1.1712342500686645508 1.2339035272598266602 1.040760040283203125 0.92626595497131347656 0.97535270452499389648 1.0115679502487182617 0.98211961984634399414 1.0733788013458251953 1.1940228939056396484 1.1959946155548095703 1.0990852117538452148 1.0209156274795532227 0.98909842967987060547 0.8914095759391784668 0.79868108034133911133 0.64310044050216674805 0.56053179502487182617 0.47322675585746765137 0.59373289346694946289 0.71679711341857910156 0.76791608333587646484
1.1837340593338012695 1.0951637029647827148 1.1849179267883300781 1.2040309906005859375 1.2469087839126586914 0.74892473220825195312 0.92116391658782958984 0.71837002038955688477 1.1454167366027832031 1.0947327613830566406 1.1033073663711547852 1.0531235933303833008 1.0914491415023803711 1.1575706005096435547 1.0817799568176269531 1.0458550453186035156 1.1335676908493041992 1.2089371681213378906 0.87551289796829223633 0.91886210441589355469 1.0299046039581298828 1.2090005874633789062 1.2562277317047119141 1.1286361217498779297 1.1758074760437011719 1.2667341232299804688 1.2330806255340576172 0.64310121536254882812 0.47783106565475463867 0.62222301959991455078 1.0027784109115600586 1.0005782842636108398 0.77741491794586181641 0.91089159250259399414 1.104155421257019043 1.1619169712066650391 1.249182581901550293 1.0899666547775268555 0.85135281085968017578 0.7513878941535949707 0.68180096149444580078 0.7616227269172668457 0.8712590336799621582 0.87303763628005981445 0.84013754129409790039 0.95769393444061279297 1.1342399120330810547 1.1619315147399902344 1.0996762514114379883 1.1163650751113891602 1.0886967182159423828 1.063640594482421875 1.1424995660781860352 1.1798429489135742188 1.2270998954772949219 1.2183665037155151367 1.1620380878448486328 1.1684701442718505859 1.1844999790191650391 1.184848785400390625 1.1596140861511230469 1.1514112949371337891 1.0670785903930664062 0.97606486082077026367 0.96821689605712890625 0.99640262126922607422 0.97864699363708496094 0.93493795394897460938 0.95393693447113037109 0.98817616701126098633 0.97874611616134643555 0.93420112133026123047 0.99176955223083496094 0.98979681730270385742 0.89974451065063476562 0.74820959568023681641 0.71305173635482788086 0.82490462064743041992 0.91440874338150024414 0.90825307369232177734 0.85791075229644775391 0.84782022237777709961 0.90690940618515014648 0.97007530927658081055 1.0582014322280883789 1.1951164007186889648 1.270287632942199707 1.206049799919128418 1.1349112987518310547 1.0511125326156616211 0.91780120134353637695 0.8757712244987487793 0.96587973833084106445 0.99250197410583496094 0.96010637283325195312 0.9836247563362121582 1.0919913053512573242 0.90103268623352050781 0.92055422067642211914 1.0817915201187133789 1.0373719930648803711 1.0570849180221557617 1.0663779973983764648 1.1680341958999633789 1.1560530662536621094 1.1464455127716064453 1.1221426725387573242 1.1363157033920288086 1.1274448633193969727 1.1138179302215576172 0.89030373096466064453 0.66329902410507202148 1.0654408931732177734 1.0575633049011230469 1.1921789646148681641 0.74336796998977661133 0.82104706764221191406 1.0147333145141601562 0.92633253335952758789 0.89657884836196899414 1.0210012197494506836 0.96961390972137451172 1.0472767353057861328 0.86165642738342285156 0.79304730892181396484 0.80968487262725830078 0.83363819122314453125 0.81083267927169799805 0.77103257179260253906 0.91121733188629150391 0.93905431032180786133 0.8833522796630859375 0.82294946908950805664 0.85539346933364868164 0.87939244508743286133 0.8412335515022277832 0.86260175704956054688 0.99675261974334716797 1.0877059698104858398 1.198162078857421875 1.2352377176284790039 0.94769263267517089844 0.8686606287956237793 0.98407799005508422852 1.003049015998840332 0.96679627895355224609 0.93144637346267700195 0.87726306915283203125 1.0695515871047973633 1.1932661533355712891 1.0930321216583251953 0.9025923609733581543 0.81063020229339599609 0.86443382501602172852 0.91525888442993164062 0.90189695358276367188 0.84727936983108520508 0.56646192073822021484 0.53312897682189941406 0.84898513555526733398
1.1987882852554321289 1.0191695690155029297 1.1265109777450561523 1.2186337709426879883 0.93797242641448974609 0.58655947446823120117 0.76727765798568725586 0.82896345853805541992 1.1699514389038085938 1.0988305807113647461 1.2320046424865722656 1.1388378143310546875 1.1348855495452880859 1.188294529914855957 1.1202751398086547852 1.1035170555114746094 1.2773330211639404297 1.1330573558807373047 0.85446792840957641602 0.90576314926147460938 1.0364043712615966797 1.24788665771484375 0.97015804052352905273 0.9776541590690612793 1.0570933818817138672 1.1377691030502319336 1.2840598821640014648 0.79495090246200561523 0.96950155496597290039 0.93313449621200561523 0.92888110876083374023 1.15541839599609375 1.0514365434646606445 0.92344081401824951172 0.90543150901794433594 1.1527173519134521484 1.1968929767608642578 1.2969838380813598633 1.2239196300506591797 0.90037786960601806641 0.71450555324554443359 0.73627340793609619141 0.75176060199737548828 0.70355558395385742188 0.70816361904144287109 0.83760863542556762695 0.87331813573837280273 0.89105492830276489258 0.94378274679183959961 1.0161310434341430664 1.2060183286666870117 1.2889788150787353516 1.2598066329956054688 1.2128876447677612305 1.1941300630569458008 1.1395753622055053711 1.1329311132431030273 1.1775915622711181641 1.1300085783004760742 1.1831518411636352539 1.1710124015808105469 1.1060067415237426758 0.99909895658493041992 1.0101741552352905273 1.0146557092666625977 0.98144650459289550781 0.923709869384765625 0.96996521949768066406 1.0349236726760864258 0.98334020376205444336 0.95325493812561035156 0.97059291601181030273 0.97314774990081787109 0.90422046184539794922 0.80004125833511352539 0.8508440852165222168 0.74946045875549316406 0.87583589553833007812 0.91251772642135620117 0.85099184513092041016 0.83843708038330078125 0.91964501142501831055 0.95754951238632202148 1.0381250381469726562 1.131522059440612793 1.2496542930603027344 1.210398554801940918 1.178813934326171875 1.1270258426666259766 1.1173954010009765625 1.0711722373962402344 0.95571649074554443359 0.92163413763046264648 0.98464864492416381836 1.0195001363754272461 1.0701526403427124023 1.1611623764038085938 1.0484426021575927734 0.99796926975250244141 1.1196733713150024414 1.1272317171096801758 1.0828540325164794922 1.1350117921829223633 1.0913622379302978516 1.0716441869735717773 1.1263093948364257812 1.1593347787857055664 1.0728005170822143555 1.0136648416519165039 1.2296614646911621094 1.0115731954574584961 0.57534372806549072266 0.76720678806304931641 1.0146059989929199219 0.96871179342269897461 0.68666684627532958984 1.1128129959106445312 1.1040920019149780273 0.97952723503112792969 0.92426723241806030273 0.97908765077590942383 0.89238816499710083008 0.93471074104309082031 0.96422630548477172852 0.92948663234710693359 0.84261298179626464844 0.93937325477600097656 0.8371372222900390625 0.85781657695770263672 0.88413298130035400391 0.86674588918685913086 0.86235082149505615234 0.85524868965148925781 0.87936455011367797852 0.81784743070602416992 0.77780783176422119141 0.86140412092208862305 0.95855891704559326172 1.0672076940536499023 1.2292829751968383789 1.2360603809356689453 1.0316884517669677734 0.86725640296936035156 0.95996201038360595703 0.9605515599250793457 0.90112578868865966797 0.82007634639739990234 0.71418142318725585938 0.70645374059677124023 1.0009288787841796875 1.1463657617568969727 1.1154379844665527344 1.0747476816177368164 1.0976386070251464844 1.0853140354156494141 0.99696767330169677734 0.86027252674102783203 0.63266223669052124023 0.38709989190101623535 0.65342980623245239258
1.1292952299118041992 1.0508998632431030273 1.0554683208465576172 1.2260279655456542969 0.97553771734237670898 0.51580917835235595703 0.78896623849868774414 1.0709723234176635742 1.2007849216461181641 1.037007451057434082 1.0112318992614746094 1.0112385749816894531 1.141712188720703125 1.1759412288665771484 1.0771534442901611328 1.0580614805221557617 1.2941530942916870117 1.1021814346313476562 0.93124663829803466797 1.0605270862579345703 1.0959055423736572266 1.2819095849990844727 0.86292338371276855469 0.7303066253662109375 1.1122689247131347656 1.2004010677337646484 1.0492117404937744141 0.98831421136856079102 1.1553152799606323242 1.237307429313659668 1.2209378480911254883 1.2901898622512817383 1.2893939018249511719 1.2905244827270507812 1.1938009262084960938 1.2146357297897338867 1.2136516571044921875 1.1954128742218017578 1.3223143815994262695 1.3222522735595703125 1.2321146726608276367 1.0410457849502563477 0.91971313953399658203 0.90329879522323608398 0.76119989156723022461 0.88709795475006103516 0.85728448629379272461 0.85376542806625366211 0.91819596290588378906 1.092282414436340332 1.2227847576141357422 1.2465107440948486328 1.1742436885833740234 1.1354832649230957031 1.1453123092651367188 1.1106830835342407227 1.161515355110168457 1.1901956796646118164 1.1631408929824829102 1.1653562784194946289 1.0495091676712036133 0.99443197250366210938 1.0030901432037353516 1.0479984283447265625 0.99307167530059814453 0.93864965438842773438 0.88550293445587158203 0.95146459341049194336 1.0104374885559082031 1.0529930591583251953 1.0660856962203979492 0.9720528721809387207 0.80972594022750854492 0.64473819732666015625 0.8146889805793762207 0.87395018339157104492 0.78659546375274658203 0.96816933155059814453 0.96528387069702148438 0.89395242929458618164 0.98428374528884887695 1.0417964458465576172 1.0662593841552734375 1.108264923095703125 1.1963864564895629883 1.2300059795379638672 1.1958754062652587891 1.2017532587051391602 1.0984663963317871094 1.0442146062850952148 1.1539160013198852539 1.1944506168365478516 1.0991312265396118164 0.96484982967376708984 1.0249016284942626953 1.0845683813095092773 1.0069794654846191406 1.072320103645324707 1.108956456184387207 0.98358827829360961914 1.1004575490951538086 1.0986812114715576172 1.1182336807250976562 1.1146217584609985352 1.1634012460708618164 1.1468350887298583984 1.1776872873306274414 0.97286826372146606445 0.92739450931549072266 1.1262224912643432617 1.1903206110000610352 0.74090421199798583984 0.28547072410583496094 0.52291923761367797852 0.55160051584243774414 0.76505309343338012695 1.0049138069152832031 1.0282967090606689453 0.97971487045288085938 0.92121601104736328125 0.9402758479118347168 0.92132198810577392578 0.9746723175048828125 0.95480686426162719727 0.9828389286994934082 0.96385324001312255859 1.0215822458267211914 1.0020313262939453125 0.9516086578369140625 0.85606062412261962891 0.81232535839080810547 0.83196359872817993164 1.0046868324279785156 1.0407404899597167969 1.0170797109603881836 0.8941256403923034668 0.93927091360092163086 1.0263638496398925781 1.0691307783126831055 1.2362878322601318359 1.2370072603225708008 1.057276606559753418 0.88618904352188110352 0.88324654102325439453 0.95614898204803466797 0.95808947086334228516 0.85869103670120239258 0.76575863361358642578 0.60858881473541259766 0.67876327037811279297 0.94083708524703979492 1.1256890296936035156 1.144084930419921875 1.1090896129608154297 1.0431408882141113281 0.97973138093948364258 0.66368520259857177734 0.4881763458251953125 0.64383518695831298828 0.81407147645950317383
1.1186980009078979492 1.1266427040100097656 1.1005768775939941406 1.2535684108734130859 1.2603747844696044922 0.89485001564025878906 0.98777520656585693359 0.94362598657608032227 1.1332062482833862305 1.0386452674865722656 1.0003826618194580078 1.0713093280792236328 1.2237259149551391602 0.90517830848693847656 1.0620543956756591797 1.1094383001327514648 1.2171063423156738281 0.99569857120513916016 1.0040178298950195312 1.145659327507019043 1.1533329486846923828 1.274615168571472168 0.94548857212066650391 0.51237082481384277344 1.1239185333251953125 0.97606170177459716797 0.65773510932922363281 1.0268073081970214844 1.1996107101440429688 1.2007892131805419922 1.1951673030853271484 1.1975640058517456055 1.1845099925994873047 1.1764035224914550781 1.1402690410614013672 1.1249521970748901367 1.1153670549392700195 1.0833379030227661133 1.1491198539733886719 1.1880348920822143555 1.2479078769683837891 1.2920242547988891602 1.2280423641204833984 1.1826175451278686523 0.97837930917739868164 0.95597696304321289062 0.98348081111907958984 1.0712963342666625977 1.177559971809387207 1.2658736705780029297 1.2031425237655639648 1.132868647575378418 1.1209067106246948242 1.1222612857818603516 1.1243141889572143555 1.1532492637634277344 1.2129327058792114258 1.2121013402938842773 1.1973372697830200195 1.038449406623840332 0.95377773046493530273 0.96101230382919311523 0.97413939237594604492 1.0239623785018920898 1.0209902524948120117 1.0063477754592895508 0.97906583547592163086 0.95799350738525390625 0.9899571537971496582 0.95950937271118164062 0.95202863216400146484 0.85206896066665649414 0.68993812799453735352 0.77643299102783203125 0.82866674661636352539 0.712310791015625 0.87036615610122680664 0.96882849931716918945 0.91744774580001831055 0.92925792932510375977 1.0303188562393188477 1.0812611579895019531 1.0705194473266601562 1.149865269660949707 1.2346742153167724609 1.2179659605026245117 1.1855539083480834961 1.1431546211242675781 1.0718111991882324219 0.9709498286247253418 1.0032426118850708008 1.0822534561157226562 1.1563184261322021484 1.1299492120742797852 1.0554653406143188477 0.92404055595397949219 0.83792185783386230469 0.93964809179306030273 1.0103586912155151367 1.0368114709854125977 1.0483392477035522461 1.1543238162994384766 1.1425913572311401367 1.1598649024963378906 1.1634718179702758789 1.1103370189666748047 1.0986845493316650391 0.96070504188537597656 0.96938782930374145508 1.0709948539733886719 1.2186543941497802734 0.83834254741668701172 0.27944397926330566406 0.64200890064239501953 0.89337164163589477539 0.89205634593963623047 0.90688383579254150391 1.0413461923599243164 0.84916871786117553711 0.84761923551559448242 1.0621453523635864258 0.85183221101760864258 1.083558201789855957 1.154571533203125 1.063364863395690918 1.0486798286437988281 1.0043140649795532227 0.92686593532562255859 0.93343377113342285156 0.86982613801956176758 0.79741090536117553711 0.93315339088439941406 0.94629788398742675781 0.88917535543441772461 0.94877952337265014648 1.0419369935989379883 0.93308174610137939453 0.98385888338088989258 1.0583319664001464844 1.236439824104309082 1.2234561443328857422 1.1457610130310058594 1.0031111240386962891 0.85853606462478637695 0.94692659378051757812 0.96945995092391967773 0.93011957406997680664 0.90889173746109008789 0.77251607179641723633 0.60891413688659667969 0.51677662134170532227 0.56199151277542114258 0.55072170495986938477 0.55287224054336547852 0.56098443269729614258 0.36862191557884216309 0.32045102119445800781 0.83669650554656982422 0.91561752557754516602 0.8903757929801940918
1.1255668401718139648 1.1334694623947143555 1.1700214147567749023 1.2691322565078735352 1.2736784219741821289 0.78500282764434814453 0.87855607271194458008 0.90950286388397216797 1.0861158370971679688 1.1748287677764892578 1.0208626985549926758 1.1375609636306762695 1.1394830942153930664 0.70175147056579589844 1.1979861259460449219 1.0928108692169189453 0.99185407161712646484 0.97988277673721313477 0.9690558314323425293 1.0303845405578613281 1.1111028194427490234 1.2986497879028320312 1.233925938606262207 0.72207486629486083984 0.76125687360763549805 0.7934741973876953125 0.63191252946853637695 0.80278259515762329102 1.1155331134796142578 1.2046689987182617188 1.1567020416259765625 1.1217243671417236328 1.1447600126266479492 1.1380875110626220703 1.1213790178298950195 1.1186685562133789062 1.1100437641143798828 1.0782679319381713867 1.0602540969848632812 1.0454241037368774414 1.0145213603973388672 0.99016010761260986328 1.0407906770706176758 1.1140042543411254883 1.1797266006469726562 1.1833963394165039062 1.1915775537490844727 1.2670733928680419922 1.2640433311462402344 1.1829551458358764648 1.1343898773193359375 1.1211416721343994141 1.1347633600234985352 1.1378896236419677734 1.1634540557861328125 1.2248750925064086914 1.2001551389694213867 1.1936128139495849609 1.0304746627807617188 0.90628015995025634766 0.9645068049430847168 0.98406350612640380859 0.98855900764465332031 1.0008143186569213867 0.98584705591201782227 1.011887669563293457 1.0466892719268798828 0.90642029047012329102 0.99249505996704101562 0.95684063434600830078 0.86393654346466064453 0.88366079330444335938 1.0352933406829833984 1.0119497776031494141 0.92580306529998779297 0.7702357172966003418 0.99941021203994750977 0.95478069782257080078 0.92215877771377563477 0.90240311622619628906 0.97528147697448730469 1.0890343189239501953 1.1012157201766967773 1.2215361595153808594 1.2184003591537475586 1.1974567174911499023 1.1481711864471435547 1.068759918212890625 1.0339639186859130859 1.0342607498168945312 0.99878460168838500977 1.0012680292129516602 1.0374616384506225586 1.1039928197860717773 1.1283524036407470703 1.0570760965347290039 0.98427271842956542969 1.0827997922897338867 0.98874163627624511719 0.96271729469299316406 0.8056100010871887207 1.0465183258056640625 1.1836875677108764648 1.1288110017776489258 1.1301455497741699219 1.1278731822967529297 1.0992534160614013672 1.1657813787460327148 1.1193089485168457031 1.0712969303131103516 1.2623813152313232422 1.0664021968841552734 0.49199748039245605469 0.97363865375518798828 0.91242122650146484375 0.94436866044998168945 0.89062607288360595703 1.0680369138717651367 1.0863463878631591797 1.12476348876953125 1.224282383918762207 1.1547914743423461914 1.1279797554016113281 1.1491696834564208984 1.0959693193435668945 1.0638958215713500977 1.0343099832534790039 1.0262458324432373047 0.98492217063903808594 0.9363276362419128418 0.9105987548828125 0.89569693803787231445 0.86456263065338134766 0.78496909141540527344 0.87115019559860229492 0.99035334587097167969 1.027792811393737793 0.95224481821060180664 1.088263392448425293 1.2375104427337646484 1.1022299528121948242 1.1041009426116943359 0.93199813365936279297 0.95253890752792358398 0.9312184453010559082 0.93429136276245117188 0.91296184062957763672 0.83843505382537841797 0.82643538713455200195 0.78454977273941040039 0.79338085651397705078 0.78852796554565429688 0.64120531082153320312 0.64808833599090576172 0.68201148509979248047 0.67890077829360961914 0.70061379671096801758 0.89462625980377197266 1.0164475440979003906 0.95174264907836914062
1.1102685928344726562 1.1112576723098754883 1.1329977512359619141 1.32015228271484375 1.2450826168060302734 0.74100553989410400391 0.73881089687347412109 0.86677312850952148438 0.89260208606719970703 1.1164214611053466797 0.93167906999588012695 0.97002941370010375977 0.9237887263298034668 0.89055263996124267578 1.1790194511413574219 1.0457372665405273438 1.0077741146087646484 0.99745362997055053711 0.94922494888305664062 1.0241218805313110352 1.1213097572326660156 1.3089075088500976562 0.98445820808410644531 0.56969451904296875 0.49775347113609313965 0.67131978273391723633 0.71468472480773925781 1.0132097005844116211 1.1850259304046630859 1.2367181777954101562 1.1977460384368896484 1.1665554046630859375 1.1918504238128662109 1.1356176137924194336 1.134613037109375 1.1828712224960327148 1.169360041618347168 1.1331205368041992188 1.0897109508514404297 1.0779597759246826172 1.1151514053344726562 1.0803159475326538086 1.0694835186004638672 1.0562500953674316406 1.1263636350631713867 1.1887302398681640625 1.2635818719863891602 1.2097176313400268555 1.1568986177444458008 1.1388328075408935547 1.1315404176712036133 1.1226437091827392578 1.1428229808807373047 1.1896635293960571289 1.2160838842391967773 1.167670130729675293 1.1436276435852050781 0.97511827945709228516 0.88145691156387329102 0.88935863971710205078 0.94579517841339111328 0.99759972095489501953 1.0458769798278808594 1.0782582759857177734 1.0644121170043945312 1.0859903097152709961 1.0765892267227172852 0.96169960498809814453 0.98104637861251831055 0.97162145376205444336 0.89800482988357543945 1.0231800079345703125 0.9459616541862487793 0.9520041346549987793 0.98307281732559204102 0.93929111957550048828 0.93902122974395751953 0.8933340907096862793 0.84500157833099365234 0.93745654821395874023 1.0646342039108276367 1.0905961990356445312 1.1847491264343261719 1.2337423563003540039 1.191907048225402832 1.1805136203765869141 1.1006205081939697266 1.0515204668045043945 1.0339212417602539062 1.02386474609375 1.0559508800506591797 1.0336439609527587891 1.0121620893478393555 1.0264109373092651367 1.0442997217178344727 1.0907100439071655273 1.0813622474670410156 1.16326141357421875 1.1036170721054077148 0.96909797191619873047 0.60461866855621337891 0.71304976940155029297 1.0961384773254394531 1.0982383489608764648 1.024563908576965332 1.0391701459884643555 1.0713021755218505859 1.1138911247253417969 1.1042665243148803711 1.0664150714874267578 1.2365678548812866211 1.1239275932312011719 0.40957313776016235352 0.94195020198822021484 0.91131079196929931641 1.0633846521377563477 1.1119558811187744141 1.1942532062530517578 1.1105293035507202148 1.0632127523422241211 1.1275731325149536133 1.1596611738204956055 1.0699112415313720703 1.0306044816970825195 1.0445140600204467773 1.0736556053161621094 1.017163395881652832 1.0116287469863891602 0.87883585691452026367 0.85946625471115112305 0.91266995668411254883 0.92798650264739990234 0.91578090190887451172 0.91326850652694702148 1.0256035327911376953 0.98201948404312133789 1.0096126794815063477 1.0171512365341186523 1.2401354312896728516 1.2393807172775268555 1.1351058483123779297 1.1305755376815795898 0.98612552881240844727 0.89096063375473022461 0.95712053775787353516 0.90363347530364990234 0.86798882484436035156 0.87402760982513427734 0.88704788684844970703 0.84184575080871582031 0.80715274810791015625 0.91819435358047485352 0.97667634487152099609 1.0546244382858276367 1.0322484970092773438 1.0077555179595947266 0.86613678932189941406 0.89265346527099609375 0.95231848955154418945 0.9749476313591003418
1.0964161157608032227 1.1041429042816162109 1.1879173517227172852 1.2737213373184204102 1.1671999692916870117 0.68331414461135864258 0.51520806550979614258 0.83892488479614257812 0.81316220760345458984 0.93633359670639038086 0.95693105459213256836 1.0004780292510986328 0.69382685422897338867 1.0274829864501953125 1.1910184621810913086 1.0721367597579956055 1.0322103500366210938 1.010901331901550293 1.0084974765777587891 1.080050349235534668 1.1389240026473999023 1.2545616626739501953 1.1334214210510253906 0.59889233112335205078 0.43146696686744689941 0.63414293527603149414 0.87211966514587402344 1.0616118907928466797 1.0654234886169433594 1.1218839883804321289 1.1299445629119873047 1.1034601926803588867 1.1500617265701293945 1.1063618659973144531 1.0806128978729248047 1.0634769201278686523 1.0626683235168457031 1.0864338874816894531 1.1401598453521728516 1.1943163871765136719 1.1362435817718505859 1.1616648435592651367 1.2310098409652709961 1.2266135215759277344 1.1634795665740966797 1.1919536590576171875 1.1922262907028198242 1.1490881443023681641 1.1373896598815917969 1.1308349370956420898 1.1144145727157592773 1.118714451789855957 1.2206684350967407227 1.2287575006484985352 1.1182439327239990234 1.015270233154296875 1.0537531375885009766 1.0593026876449584961 0.9102687835693359375 0.866947174072265625 0.96699512004852294922 1.0415025949478149414 1.0265690088272094727 1.0658507347106933594 1.0582660436630249023 1.0616651773452758789 0.97892248630523681641 0.80582308769226074219 0.80581247806549072266 0.84647220373153686523 0.9508736729621887207 0.86064130067825317383 0.97153300046920776367 1.1786663532257080078 1.1101291179656982422 1.1334973573684692383 1.0165777206420898438 0.91578030586242675781 0.99955630302429199219 1.086697697639465332 1.1081141233444213867 1.1106568574905395508 1.2170343399047851562 1.2010840177536010742 1.1626369953155517578 1.1190067529678344727 1.0620912313461303711 1.0431526899337768555 1.027907252311706543 0.99592286348342895508 1.0323485136032104492 1.0491046905517578125 1.0559797286987304688 1.0353928804397583008 1.0308861732482910156 1.091570734977722168 1.112847447395324707 1.1096336841583251953 1.1018928289413452148 1.1164703369140625 0.91163313388824462891 0.65417486429214477539 0.68697303533554077148 0.81304168701171875 0.87699228525161743164 0.96810966730117797852 1.0895301103591918945 0.91190928220748901367 0.97830039262771606445 1.1062470674514770508 1.1624016761779785156 0.71472460031509399414 0.48961699008941650391 0.82475841045379638672 1.0360684394836425781 1.1159169673919677734 1.1469023227691650391 1.0904181003570556641 1.0615113973617553711 0.97704267501831054688 1.0954415798187255859 1.0249396562576293945 1.0170309543609619141 1.0396831035614013672 1.0042297840118408203 0.97567087411880493164 0.98199868202209472656 0.92031651735305786133 0.78695178031921386719 0.87071269750595092773 0.94454807043075561523 0.98660600185394287109 0.9589831233024597168 1.0169695615768432617 1.0041292905807495117 0.96692627668380737305 0.95007842779159545898 1.1613098382949829102 1.2387408018112182617 1.1408416032791137695 1.0608376264572143555 1.0423237085342407227 1.0153352022171020508 0.87380200624465942383 0.95024532079696655273 0.85108858346939086914 0.82458287477493286133 0.85659027099609375 0.90536546707153320312 0.95039892196655273438 0.86585235595703125 0.82481968402862548828 0.79678738117218017578 0.82940030097961425781 0.84105151891708374023 0.8787841796875 0.85139989852905273438 0.90540796518325805664 0.95349746942520141602 0.97674673795700073242
1.0846602916717529297 1.0924688577651977539 1.2603547573089599609 1.212429046630859375 1.1933754682540893555 0.90213316679000854492 0.43903231620788574219 0.54780107736587524414 0.73213785886764526367 1.0257111787796020508 1.0421892404556274414 0.99116384983062744141 0.58747369050979614258 0.89166963100433349609 1.1891324520111083984 1.0763374567031860352 1.0737655162811279297 1.0586946010589599609 1.1253861188888549805 1.1811807155609130859 1.2363741397857666016 1.1512448787689208984 1.0791553258895874023 0.81901311874389648438 0.52003699541091918945 0.75095945596694946289 1.0416703224182128906 1.0041368007659912109 1.0120093822479248047 1.1078642606735229492 1.0702027082443237305 1.0287454128265380859 1.0791131258010864258 1.0384325981140136719 1.0863697528839111328 1.0834460258483886719 1.057783961296081543 1.0214021205902099609 0.99095559120178222656 1.0880959033966064453 1.078304290771484375 1.0714229345321655273 1.1655584573745727539 1.2124549150466918945 1.2428902387619018555 1.1937737464904785156 1.1475927829742431641 1.1371667385101318359 1.1317631006240844727 1.1123694181442260742 1.1274199485778808594 1.2106889486312866211 1.2915872335433959961 1.1263796091079711914 1.0289553403854370117 1.0229486227035522461 1.0042728185653686523 1.1739445924758911133 1.2259602546691894531 0.98649549484252929688 0.95546126365661621094 1.0883935689926147461 1.0072346925735473633 1.0397026538848876953 1.0135049819946289062 1.0303194522857666016 0.8882204890251159668 0.74598091840744018555 0.959865570068359375 0.99833619594573974609 0.82876056432723999023 0.75769656896591186523 0.95579189062118530273 1.0544588565826416016 1.0519946813583374023 0.99154138565063476562 1.0035897493362426758 1.0428284406661987305 1.1056576967239379883 1.1047242879867553711 1.1169950962066650391 1.2067266702651977539 1.2255076169967651367 1.1528047323226928711 1.1472127437591552734 1.0956946611404418945 1.0300852060317993164 1.0225071907043457031 1.0075352191925048828 0.94880235195159912109 1.0247765779495239258 1.0780862569808959961 0.9952099919319152832 1.1002347469329833984 1.1359108686447143555 1.1373227834701538086 1.0531451702117919922 1.0905177593231201172 1.0900331735610961914 1.1559253931045532227 1.1424398422241210938 0.90343958139419555664 0.78524887561798095703 0.55756926536560058594 0.43871039152145385742 0.76896250247955322266 1.1180868148803710938 0.78725844621658325195 0.85710257291793823242 0.82041925191879272461 0.80026787519454956055 0.97931319475173950195 1.0170161724090576172 0.87443262338638305664 0.99554598331451416016 1.1434577703475952148 1.078431248664855957 1.022922515869140625 1.0525933504104614258 1.0214238166809082031 1.0958287715911865234 1.0815768241882324219 0.98452997207641601562 0.97019118070602416992 0.94682544469833374023 0.90790259838104248047 0.99475914239883422852 0.85226303339004516602 0.88899111747741699219 0.92300248146057128906 0.92396050691604614258 0.95767897367477416992 0.92327719926834106445 0.89494669437408447266 0.89708530902862548828 0.93862783908843994141 1.0620886087417602539 1.2404896020889282227 1.1694076061248779297 1.1211574077606201172 1.112738490104675293 1.0106127262115478516 0.9439551234245300293 0.79375678300857543945 0.82510256767272949219 0.86146789789199829102 0.86350089311599731445 0.86489391326904296875 0.87757265567779541016 0.83895146846771240234 0.79220205545425415039 0.79975980520248413086 0.82820802927017211914 0.81588399410247802734 0.82985848188400268555 0.83139508962631225586 0.81652742624282836914 0.81550061702728271484 0.91220033168792724609 0.95763665437698364258
1.1675282716751098633 1.2027188539505004883 1.2527630329132080078 1.0072494745254516602 1.1237771511077880859 1.0140191316604614258 0.87063837051391601562 0.31101688742637634277 0.78282701969146728516 1.0643212795257568359 0.96157145500183105469 0.89574152231216430664 0.59168910980224609375 0.88353079557418823242 1.1636126041412353516 1.0898090600967407227 1.049948573112487793 1.0620105266571044922 1.1282827854156494141 1.1491601467132568359 1.2009897232055664062 1.1177861690521240234 0.79788988828659057617 0.73164945840835571289 0.53838801383972167969 0.93500363826751708984 1.0768616199493408203 0.99735462665557861328 1.0552941560745239258 1.1656481027603149414 1.065449833869934082 1.0575257539749145508 0.9852421879768371582 0.80211925506591796875 0.80984663963317871094 0.76781374216079711914 0.63854074478149414062 0.6565259099006652832 0.80565637350082397461 0.91401124000549316406 0.92175561189651489258 0.99778133630752563477 1.1350872516632080078 1.2820305824279785156 1.1652960777282714844 1.136160731315612793 1.1347095966339111328 1.1290421485900878906 1.1186540126800537109 1.1463304758071899414 1.240014195442199707 1.2609635591506958008 1.0852937698364257812 1.0025898218154907227 1.073853611946105957 1.0505510568618774414 1.0239692926406860352 0.95993560552597045898 1.1186220645904541016 1.1462342739105224609 1.0178610086441040039 0.91193127632141113281 0.89459687471389770508 0.91054439544677734375 0.8295281529426574707 0.81236708164215087891 0.68023151159286499023 0.9605967402458190918 1.0617296695709228516 1.0105354785919189453 0.8424746394157409668 0.94324892759323120117 1.0490620136260986328 0.95237243175506591797 0.90437752008438110352 0.93547457456588745117 0.96389418840408325195 1.0247405767440795898 1.0884296894073486328 1.1181659698486328125 1.1714290380477905273 1.191109776496887207 1.2084953784942626953 1.1488677263259887695 1.1001638174057006836 1.1249260902404785156 1.0834774971008300781 0.98081976175308227539 0.98625016212463378906 0.91669899225234985352 1.0030306577682495117 1.1111049652099609375 0.94743329286575317383 1.0689617395401000977 1.1638138294219970703 1.1540875434875488281 1.122379302978515625 1.2081626653671264648 1.2078860998153686523 1.0901889801025390625 1.1761354207992553711 1.1949367523193359375 1.0913263559341430664 1.2035065889358520508 0.89167428016662597656 0.54676854610443115234 0.40163886547088623047 0.26480621099472045898 0.40164923667907714844 0.59719586372375488281 1.0519716739654541016 1.0908024311065673828 1.142529606819152832 1.0304466485977172852 0.87892818450927734375 0.86996316909790039062 0.92536318302154541016 1.0616980791091918945 1.0070081949234008789 1.0260262489318847656 1.0493270158767700195 0.9891096949577331543 1.0351309776306152344 0.93643367290496826172 0.93111628293991088867 0.89722180366516113281 1.0204917192459106445 0.94995719194412231445 0.95539426803588867188 0.91905272006988525391 0.9191887974739074707 0.92856323719024658203 0.88652890920639038086 0.86896646022796630859 0.96768468618392944336 1.0371433496475219727 1.2327340841293334961 1.2425903081893920898 0.95134699344635009766 0.98561900854110717773 0.86772418022155761719 1.0011910200119018555 0.82358962297439575195 0.76618093252182006836 0.82174855470657348633 0.86376398801803588867 0.9134051203727722168 0.94829756021499633789 0.91100549697875976562 0.79225432872772216797 0.79601776599884033203 0.86538040637969970703 0.82649099826812744141 0.80009025335311889648 0.79480701684951782227 0.83248919248580932617 0.89298939704895019531 0.89219647645950317383 0.95615595579147338867 0.99722349643707275391
1.2563813924789428711 1.2238849401473999023 1.067261815071105957 0.95968031883239746094 0.96474033594131469727 0.92868947982788085938 0.53611505031585693359 0.30712208151817321777 1.0005931854248046875 1.0669472217559814453 0.96643465757369995117 0.96716254949569702148 0.87576282024383544922 1.0584691762924194336 1.2120455503463745117 1.2127487659454345703 1.1630681753158569336 1.1180936098098754883 1.0367715358734130859 1.0758624076843261719 1.2427102327346801758 1.1256518363952636719 0.91506683826446533203 0.5119120478630065918 0.33586779236793518066 0.79372793436050415039 1.0778670310974121094 0.97610419988632202148 0.99790042638778686523 1.0726851224899291992 1.0252898931503295898 0.85687553882598876953 0.52715498208999633789 0.60237711668014526367 0.71736156940460205078 0.49264013767242431641 0.63216447830200195312 0.83028811216354370117 0.77570039033889770508 0.85466301441192626953 1.0158214569091796875 1.0671856403350830078 1.2045339345932006836 1.2169288396835327148 1.1344506740570068359 1.1403911113739013672 1.1362386941909790039 1.1085948944091796875 1.1158479452133178711 1.2507755756378173828 1.2303941249847412109 1.0734159946441650391 0.99053937196731567383 1.0333178043365478516 1.0712363719940185547 1.0177744626998901367 1.0451154708862304688 0.87985259294509887695 0.94440460205078125 0.97179931402206420898 1.1171650886535644531 0.96169894933700561523 0.98739153146743774414 0.80911391973495483398 0.55296361446380615234 0.59508359432220458984 0.75377225875854492188 1.0948393344879150391 1.0362732410430908203 1.0234637260437011719 0.99238342046737670898 0.95463609695434570312 0.94553977251052856445 0.8516985774040222168 0.87532162666320800781 0.94405078887939453125 0.96769952774047851562 1.0331766605377197266 1.0509794950485229492 1.1173914670944213867 1.1793408393859863281 1.1927894353866577148 1.2117350101470947266 1.1554073095321655273 1.0511939525604248047 1.0944902896881103516 1.146134495735168457 1.1618132591247558594 1.0165818929672241211 0.91146701574325561523 1.0234632492065429688 1.0761470794677734375 0.9177443385124206543 1.0520838499069213867 1.1191506385803222656 1.1381511688232421875 1.1182733774185180664 1.1659145355224609375 0.97313487529754638672 0.95666205883026123047 1.0294885635375976562 1.1312760114669799805 1.0684412717819213867 1.151055455207824707 1.2005652189254760742 1.0486224889755249023 0.59070914983749389648 0.19502338767051696777 0.19211277365684509277 0.86389291286468505859 1.0671567916870117188 1.0991835594177246094 1.0266356468200683594 0.99972039461135864258 0.96811777353286743164 0.95565700531005859375 1.015183568000793457 1.0344951152801513672 0.96948260068893432617 1.0277386903762817383 1.0119653940200805664 1.0520049333572387695 0.98275798559188842773 0.88231712579727172852 0.91163027286529541016 0.92426019906997680664 0.88068652153015136719 0.91108125448226928711 0.90231931209564208984 0.93758243322372436523 0.98310005664825439453 0.98795741796493530273 0.99673658609390258789 1.0077365636825561523 0.99817061424255371094 1.0363968610763549805 1.244328618049621582 1.1823410987854003906 0.93944460153579711914 0.91185426712036132812 0.8300501704216003418 0.85114955902099609375 0.90359097719192504883 0.89482098817825317383 0.86065769195556640625 0.84995001554489135742 0.85082423686981201172 0.89970624446868896484 0.87004584074020385742 0.84089887142181396484 0.79836171865463256836 0.77770161628723144531 0.84715813398361206055 0.84919530153274536133 0.84762907028198242188 0.94242662191390991211 0.90986543893814086914 0.93895733356475830078 1.0203838348388671875 0.96001267433166503906
1.1030749082565307617 1.0182832479476928711 0.98752987384796142578 1.045546412467956543 0.96054315567016601562 0.91705822944641113281 0.63813865184783935547 0.53534656763076782227 1.1327116489410400391 1.0290067195892333984 1.0410538911819458008 1.0439826250076293945 0.76172214746475219727 0.84054994583129882812 1.2484451532363891602 1.1900597810745239258 1.0901367664337158203 1.084050297737121582 1.090918421745300293 1.112331390380859375 1.2469581365585327148 0.91547149419784545898 0.93290126323699951172 0.44434824585914611816 0.39383798837661743164 0.69532173871994018555 0.85895931720733642578 0.928325653076171875 1.0665543079376220703 0.98516041040420532227 0.80538123846054077148 0.41051048040390014648 0.6115868687629699707 0.9679152369499206543 1.1356799602508544922 0.93740487098693847656 0.802982330322265625 0.86125236749649047852 0.94039481878280639648 0.9610652923583984375 1.0475724935531616211 1.1283214092254638672 1.2826061248779296875 1.170649409294128418 1.1403144598007202148 1.146030426025390625 1.1295603513717651367 1.1001735925674438477 1.2070709466934204102 1.2598931789398193359 1.06714630126953125 0.91489076614379882812 0.94087719917297363281 1.0206079483032226562 1.0173046588897705078 0.93652123212814331055 1.0314110517501831055 0.90421813726425170898 0.95002794265747070312 0.98325741291046142578 1.0452593564987182617 1.0099329948425292969 1.0615037679672241211 0.83380168676376342773 0.94806832075119018555 0.97355836629867553711 0.83507436513900756836 1.0092087984085083008 1.0693275928497314453 1.0389957427978515625 1.0575892925262451172 1.1064025163650512695 1.0115895271301269531 0.87599194049835205078 0.85773336887359619141 0.9529253840446472168 1.0233585834503173828 1.0327876806259155273 1.0688766241073608398 1.1549652814865112305 1.1856758594512939453 1.1897031068801879883 1.2192020416259765625 1.1572622060775756836 1.0461552143096923828 1.0262918472290039062 1.0764138698577880859 1.1533545255661010742 1.1917833089828491211 1.0523394346237182617 1.0394220352172851562 1.0763746500015258789 0.88061827421188354492 1.0592705011367797852 1.1628947257995605469 1.2048791646957397461 1.1084606647491455078 1.0514451265335083008 1.071574091911315918 1.0156319141387939453 0.99420094490051269531 1.0608012676239013672 1.0889527797698974609 1.0392863750457763672 1.1168695688247680664 1.1693475246429443359 1.1570998430252075195 0.96767908334732055664 0.28418576717376708984 0.61545968055725097656 0.89278495311737060547 0.96434724330902099609 1.0376988649368286133 1.1316280364990234375 1.1163058280944824219 0.99473655223846435547 0.90153002738952636719 0.95522469282150268555 0.9720427393913269043 0.97412276268005371094 0.99431085586547851562 1.0547438859939575195 1.0119042396545410156 0.89834332466125488281 0.9658463597297668457 1.0040581226348876953 0.9687626957893371582 0.96674883365631103516 1.0170776844024658203 1.03765106201171875 1.0025588274002075195 1.0324007272720336914 1.0139497518539428711 0.93920671939849853516 0.94365930557250976562 1.0435866117477416992 1.2333369255065917969 1.2421896457672119141 1.0827467441558837891 1.0751384496688842773 0.97322154045104980469 0.93287891149520874023 0.92286068201065063477 0.84927952289581298828 0.82780355215072631836 0.79895794391632080078 0.88508599996566772461 0.90032422542572021484 0.8318850398063659668 0.79011386632919311523 0.74228316545486450195 0.72920489311218261719 0.87609267234802246094 0.89893501996994018555 0.90748137235641479492 0.95849174261093139648 0.90014511346817016602 0.92692047357559204102 0.98740726709365844727 0.92089217901229858398
1.0869219303131103516 1.0393913984298706055 1.054510951042175293 1.0704011917114257812 1.0714572668075561523 0.86318886280059814453 0.39947947859764099121 0.69661915302276611328 1.1244646310806274414 1.0124946832656860352 1.1227922439575195312 1.1363861560821533203 0.64146471023559570312 0.50069367885589599609 1.1829011440277099609 1.0992511510848999023 1.0305712223052978516 1.031847834587097168 1.1014821529388427734 1.2626839876174926758 1.2263435125350952148 0.93283802270889282227 0.95120984315872192383 0.26941278576850891113 0.28539621829986572266 0.35008913278579711914 0.32015997171401977539 0.64448118209838867188 0.89211827516555786133 0.68387168645858764648 0.71177619695663452148 0.84545952081680297852 0.99933975934982299805 1.1152292490005493164 1.0458925962448120117 0.9889958500862121582 0.84126114845275878906 0.90944391489028930664 0.96428966522216796875 0.98252195119857788086 1.023833155632019043 1.2552870512008666992 1.2321618795394897461 1.145571589469909668 1.1445534229278564453 1.1386367082595825195 1.1332418918609619141 1.1476809978485107422 1.236388087272644043 1.0462726354598999023 1.0487000942230224609 0.95114737749099731445 0.99295192956924438477 1.0866657495498657227 1.0450686216354370117 0.85386490821838378906 0.93210142850875854492 0.8398005366325378418 0.83369505405426025391 1.0895743370056152344 1.0588663816452026367 0.99945437908172607422 0.87332874536514282227 0.67917919158935546875 1.0506033897399902344 1.1493458747863769531 1.0101284980773925781 0.94248294830322265625 1.102694392204284668 1.0778356790542602539 1.0744484663009643555 1.0163308382034301758 1.0103979110717773438 1.0850775241851806641 1.0383079051971435547 1.0642342567443847656 1.0472476482391357422 1.0587058067321777344 1.1376551389694213867 1.1908723115921020508 1.2043309211730957031 1.1868392229080200195 1.2381535768508911133 1.115492701530456543 1.0240759849548339844 0.95891976356506347656 1.0315593481063842773 1.0040259361267089844 1.1546306610107421875 1.1233613491058349609 0.97547882795333862305 1.0796728134155273438 0.92078757286071777344 0.91143304109573364258 1.0158591270446777344 1.1689589023590087891 1.0931246280670166016 1.0333381891250610352 1.1223245859146118164 1.0781241655349731445 1.0164930820465087891 1.0871808528900146484 1.1737996339797973633 1.0208154916763305664 1.0575990676879882812 1.0940593481063842773 1.1083767414093017578 0.89587134122848510742 0.37152948975563049316 0.52575254440307617188 0.64758819341659545898 0.87289422750473022461 0.91984087228775024414 0.86359238624572753906 1.1122384071350097656 1.2053819894790649414 1.1168954372406005859 0.98904728889465332031 1.0124790668487548828 0.94598442316055297852 0.9875323176383972168 1.0473418235778808594 1.0432116985321044922 0.97511750459671020508 0.97329616546630859375 0.97437447309494018555 1.0600446462631225586 1.0349254608154296875 1.0160118341445922852 0.99060660600662231445 0.98938173055648803711 0.98892712593078613281 1.0400092601776123047 1.1314268112182617188 1.0768173933029174805 1.1558860540390014648 1.2315797805786132812 1.231984257698059082 1.0294824838638305664 0.95814245939254760742 1.1075137853622436523 0.97363412380218505859 0.94471597671508789062 0.87105828523635864258 0.82254034280776977539 0.84457504749298095703 0.87880480289459228516 0.92342323064804077148 0.83716309070587158203 0.79082399606704711914 0.82209938764572143555 0.83503144979476928711 0.98358327150344848633 1.0234115123748779297 1.028049468994140625 1.1402930021286010742 1.1085600852966308594 1.0471189022064208984 1.0287688970565795898 0.94721394777297973633
1.0785012245178222656 0.98391360044479370117 0.94755572080612182617 0.89769470691680908203 0.93619060516357421875 0.84466344118118286133 0.22889575362205505371 0.75574964284896850586 1.1650297641754150391 1.068816065788269043 1.1627118587493896484 1.2116577625274658203 0.60434514284133911133 0.93347281217575073242 1.1948372125625610352 1.169869542121887207 1.0546072721481323242 1.0585578680038452148 1.1889119148254394531 1.2393404245376586914 1.0195289850234985352 0.88912719488143920898 0.75918662548065185547 0.36064898967742919922 0.65267080068588256836 0.62612664699554443359 0.92606383562088012695 0.89968085289001464844 0.84928572177886962891 0.99597936868667602539 1.0395139455795288086 1.0585359334945678711 1.1332727670669555664 1.1793769598007202148 1.209601283073425293 1.1935453414916992188 1.0923931598663330078 0.98542273044586181641 0.92581820487976074219 0.95095992088317871094 1.0869998931884765625 1.3041070699691772461 1.1782685518264770508 1.1490039825439453125 1.1432298421859741211 1.1298056840896606445 1.1488153934478759766 1.2131099700927734375 1.2189072370529174805 0.97111928462982177734 0.99876797199249267578 1.0193498134613037109 1.0614707469940185547 1.1127045154571533203 1.0158631801605224609 0.82161217927932739258 0.68609786033630371094 0.59036809206008911133 0.8492596745491027832 1.0547080039978027344 1.1028494834899902344 0.96207219362258911133 0.68436920642852783203 0.77969598770141601562 1.1268953084945678711 1.0214698314666748047 0.91980314254760742188 0.9879958033561706543 0.98152625560760498047 0.99219840764999389648 0.92453420162200927734 0.92155224084854125977 0.96972870826721191406 0.977375030517578125 0.98317492008209228516 1.0992069244384765625 1.1080820560455322266 1.1143685579299926758 1.1766015291213989258 1.2019339799880981445 1.2129049301147460938 1.1468867063522338867 1.1109588146209716797 1.0120401382446289062 0.97401422262191772461 0.94830322265625 0.95050340890884399414 0.98873287439346313477 1.0607231855392456055 1.0781614780426025391 1.0884705781936645508 1.0787659883499145508 1.0517629384994506836 0.92606717348098754883 0.87531822919845581055 1.0068718194961547852 1.0617191791534423828 1.113930821418762207 1.2082648277282714844 1.1541707515716552734 1.0528895854949951172 1.1157976388931274414 1.1828358173370361328 1.0012251138687133789 1.050389409065246582 1.1017588376998901367 1.0169454813003540039 0.42361775040626525879 0.77702999114990234375 0.91051006317138671875 0.9442679286003112793 1.0304830074310302734 1.0802637338638305664 1.1417975425720214844 1.1248074769973754883 1.1182845830917358398 1.0806777477264404297 1.0823388099670410156 0.9562676548957824707 1.0128179788589477539 1.0236220359802246094 1.0238852500915527344 1.0710543394088745117 1.1119894981384277344 1.0650379657745361328 0.98581945896148681641 1.0898296833038330078 1.0950167179107666016 1.0378196239471435547 1.0605118274688720703 1.073675990104675293 1.0792584419250488281 1.0961120128631591797 1.140689849853515625 1.1637450456619262695 1.0721316337585449219 1.1658023595809936523 1.2186638116836547852 1.1453907489776611328 1.0822508335113525391 1.1087392568588256836 1.108539581298828125 1.0318648815155029297 1.039834141731262207 1.0456041097640991211 1.0514091253280639648 1.0951627492904663086 1.0053565502166748047 0.93505746126174926758 0.92783969640731811523 1.0347743034362792969 1.1693525314331054688 1.2326246500015258789 1.2720420360565185547 1.2714332342147827148 1.2716630697250366211 1.2483541965484619141 1.1800385713577270508 1.1199202537536621094 1.0151582956314086914
1.1946184635162353516 0.98657429218292236328 0.95043230056762695312 0.87416446208953857422 0.83141487836837768555 0.74622565507888793945 0.28112891316413879395 0.99587047100067138672 1.0998102426528930664 1.132783055305480957 1.2122101783752441406 0.8278331756591796875 0.52256971597671508789 0.90430301427841186523 1.0912150144577026367 1.2407258749008178711 1.1594552993774414062 1.1432718038558959961 1.2747712135314941406 1.1059304475784301758 0.85162073373794555664 0.72449517250061035156 0.4248180389404296875 0.64193803071975708008 0.76550394296646118164 0.76046478748321533203 0.95408380031585693359 1.0793880224227905273 1.144456028938293457 1.1406416893005371094 1.0325057506561279297 1.0270169973373413086 1.0419293642044067383 1.0777891874313354492 1.167061924934387207 1.2005548477172851562 1.1577918529510498047 1.1025424003601074219 1.0425142049789428711 1.0504121780395507812 1.2443844079971313477 1.2535172700881958008 1.1429258584976196289 1.1439785957336425781 1.1368390321731567383 1.1273386478424072266 1.18505859375 1.265125274658203125 1.1199965476989746094 0.92244678735733032227 0.95895045995712280273 0.96924519538879394531 1.0083134174346923828 0.99111121892929077148 0.9123509526252746582 1.0178854465484619141 0.92232859134674072266 0.57225060462951660156 0.89112418889999389648 1.0378144979476928711 1.0429537296295166016 0.79581445455551147461 0.71536940336227416992 0.97072142362594604492 1.0693507194519042969 1.0194543600082397461 1.1099941730499267578 1.1502922773361206055 1.1016770601272583008 1.0673003196716308594 1.010168910026550293 1.0253889560699462891 1.0059248208999633789 0.99478381872177124023 1.0440566539764404297 1.0553972721099853516 1.0986950397491455078 1.1550149917602539062 1.1854317188262939453 1.1962146759033203125 1.1934922933578491211 1.1411461830139160156 1.0805466175079345703 1.0562011003494262695 1.0524848699569702148 1.0543142557144165039 0.97559666633605957031 0.99258220195770263672 1.0103039741516113281 1.0501871109008789062 1.1277980804443359375 1.1333502531051635742 1.0944969654083251953 0.98162895441055297852 1.0049498081207275391 0.91269326210021972656 0.60527980327606201172 0.83271056413650512695 1.0375124216079711914 1.1332088708877563477 1.1187459230422973633 1.10997772216796875 1.1455941200256347656 0.97406786680221557617 0.89647698402404785156 0.97897005081176757812 0.8114554286003112793 0.54568719863891601562 1.0899519920349121094 1.0097756385803222656 0.94009011983871459961 1.0483707189559936523 0.99684035778045654297 1.0214382410049438477 1.043346405029296875 1.1217504739761352539 1.0647155046463012695 1.1131273508071899414 0.97627085447311401367 1.0013099908828735352 1.0238481760025024414 1.084719538688659668 1.0747712850570678711 1.0946646928787231445 1.0918762683868408203 1.033148646354675293 1.0582365989685058594 1.1342597007751464844 1.1263265609741210938 1.122989654541015625 1.1289032697677612305 1.186335444450378418 1.1828548908233642578 1.0601929426193237305 1.0197869539260864258 1.0163959264755249023 1.1388516426086425781 1.2425080537796020508 1.2129011154174804688 1.1194804906845092773 1.1724081039428710938 1.2345244884490966797 1.2555350065231323242 1.2559804916381835938 1.2571351528167724609 1.2583127021789550781 1.259796142578125 1.2520431280136108398 1.2642904520034790039 1.2638101577758789062 1.2659622430801391602 1.2668517827987670898 1.2687029838562011719 1.2429140806198120117 1.2146790027618408203 1.2716958522796630859 1.2627308368682861328 1.2569081783294677734 1.252222895622253418 1.1748809814453125
1.2037057876586914062 1.0576747655868530273 1.0439393520355224609 0.85696709156036376953 0.73854863643646240234 0.54667127132415771484 0.79664242267608642578 1.2251391410827636719 1.1653134822845458984 1.1554530858993530273 0.7935670018196105957 0.32298624515533447266 0.69949638843536376953 0.93460988998413085938 1.0711935758590698242 1.1402082443237304688 1.2050009965896606445 1.2389390468597412109 1.2217481136322021484 0.87361496686935424805 0.49514305591583251953 0.62158191204071044922 0.88639158010482788086 0.85151690244674682617 0.84472769498825073242 0.84931194782257080078 0.84089028835296630859 0.98003941774368286133 1.0608229637145996094 1.1150784492492675781 1.0457478761672973633 1.0299382209777832031 1.0196430683135986328 1.0138912200927734375 1.0526942014694213867 1.0685416460037231445 1.1043208837509155273 1.0348371267318725586 1.0827133655548095703 1.1167770624160766602 1.3102916479110717773 1.1673767566680908203 1.1348627805709838867 1.1350579261779785156 1.1232484579086303711 1.1367349624633789062 1.2426401376724243164 1.2129491567611694336 0.98028326034545898438 0.92355638742446899414 0.92365318536758422852 0.96244710683822631836 1.0044287443161010742 0.97324967384338378906 0.97194230556488037109 1.0229059457778930664 1.0941641330718994141 1.0795749425888061523 1.0991388559341430664 0.88080173730850219727 0.78341060876846313477 0.64688152074813842773 0.9930502772331237793 1.0379948616027832031 0.91589194536209106445 0.97661370038986206055 1.0171601772308349609 1.0956430435180664062 1.1247875690460205078 1.1198012828826904297 1.1025753021240234375 1.0504007339477539062 1.0333669185638427734 1.0064377784729003906 1.0006805658340454102 1.0189378261566162109 1.0981023311614990234 1.16989898681640625 1.1853250265121459961 1.1587549448013305664 1.1473109722137451172 1.1943542957305908203 1.1238493919372558594 1.0981094837188720703 1.1073584556579589844 1.0177072286605834961 1.0555078983306884766 1.0202589035034179688 1.040467381477355957 1.0924917459487915039 1.1350072622299194336 1.1767698526382446289 1.1363409757614135742 1.0737191438674926758 1.0998582839965820312 1.068095088005065918 0.96884751319885253906 0.66287672519683837891 0.46218115091323852539 0.65121889114379882812 1.0497621297836303711 1.0445513725280761719 1.0167229175567626953 0.94729590415954589844 0.92780512571334838867 0.98878347873687744141 0.75661778450012207031 0.88205105066299438477 1.0506739616394042969 1.0691597461700439453 1.0245140790939331055 0.93719410896301269531 0.82763659954071044922 0.8600489497184753418 0.90494447946548461914 0.96524089574813842773 1.0027484893798828125 1.0757129192352294922 1.1108748912811279297 1.0498846769332885742 1.0738787651062011719 1.06082916259765625 1.0318913459777832031 1.0420440435409545898 1.0113832950592041016 0.97656464576721191406 1.0917608737945556641 1.1512291431427001953 1.1551271677017211914 1.1869206428527832031 1.2403440475463867188 1.2396742105484008789 1.0967202186584472656 0.97514110803604125977 0.9937184453010559082 1.0336055755615234375 1.094777226448059082 1.2458944320678710938 1.1718189716339111328 0.90790486335754394531 1.0799802541732788086 1.1326178312301635742 1.0962228775024414062 1.125720977783203125 1.1728737354278564453 1.2473405599594116211 1.2608828544616699219 1.2626508474349975586 1.2318284511566162109 1.2044479846954345703 1.1108063459396362305 1.119069218635559082 1.0864151716232299805 1.0227410793304443359 0.94673871994018554688 1.0664688348770141602 1.2010250091552734375 1.2306210994720458984 1.2740987539291381836 1.1931868791580200195
1.1641250848770141602 1.0633680820465087891 1.0465257167816162109 0.81203377246856689453 0.42303681373596191406 0.54417312145233154297 1.0935174226760864258 1.1233811378479003906 1.1236389875411987305 1.0350722074508666992 0.51716637611389160156 0.63766247034072875977 1.0009397268295288086 1.0112729072570800781 1.0310027599334716797 1.0090260505676269531 1.0780808925628662109 1.1436607837677001953 0.88918280601501464844 0.45602443814277648926 0.47826489806175231934 0.95570790767669677734 1.0243694782257080078 0.97990703582763671875 0.94065886735916137695 0.92763102054595947266 0.89618587493896484375 0.73890089988708496094 0.70702254772186279297 0.95294463634490966797 1.1206164360046386719 1.1596225500106811523 1.0437439680099487305 1.0494875907897949219 0.97089827060699462891 1.0597373247146606445 1.2276331186294555664 1.1188236474990844727 1.0952509641647338867 1.2314797639846801758 1.2523975372314453125 1.1492551565170288086 1.1364778280258178711 1.1252658367156982422 1.1270929574966430664 1.1737585067749023438 1.2719960212707519531 1.0495295524597167969 0.99776422977447509766 0.9543520808219909668 1.0155559778213500977 1.0129433870315551758 1.0218738317489624023 0.95441579818725585938 0.98312705755233764648 0.99490374326705932617 0.97790586948394775391 1.0933171510696411133 1.0861766338348388672 0.58849960565567016602 0.5132268071174621582 0.7836742401123046875 0.88926136493682861328 0.83442217111587524414 0.87253141403198242188 1.0263876914978027344 1.0999675989151000977 1.1175763607025146484 1.1981385946273803711 1.1333005428314208984 0.97534126043319702148 1.0003564357757568359 1.0012831687927246094 0.94707399606704711914 1.0089641809463500977 1.0822401046752929688 1.1324063539505004883 1.1848894357681274414 1.2080149650573730469 1.1429861783981323242 1.0724265575408935547 1.1930146217346191406 1.0969356298446655273 1.0234448909759521484 1.0795496702194213867 1.0881665945053100586 0.96651297807693481445 0.9425633549690246582 1.0321254730224609375 1.0737798213958740234 1.0938369035720825195 1.0503190755844116211 1.1844514608383178711 1.1700206995010375977 1.1051954030990600586 1.015931248664855957 1.1802566051483154297 1.1971379518508911133 0.97843194007873535156 0.69533193111419677734 0.61695981025695800781 0.81645286083221435547 0.98175680637359619141 0.98854815959930419922 1.0064945220947265625 0.89187479019165039062 0.76753664016723632812 1.0324714183807373047 1.0357362031936645508 1.0868536233901977539 1.0135637521743774414 0.84849345684051513672 0.88345491886138916016 0.9183508753776550293 0.89737010002136230469 0.84787338972091674805 0.94342303276062011719 1.0193687677383422852 1.008373260498046875 1.096562504768371582 1.0935740470886230469 1.0412032604217529297 1.0469467639923095703 1.0533001422882080078 1.0545279979705810547 1.0927991867065429688 1.170029759407043457 1.2018053531646728516 1.2266430854797363281 1.2352837324142456055 1.1507432460784912109 1.0618642568588256836 0.86622488498687744141 0.90531110763549804688 1.0283560752868652344 1.0311810970306396484 1.1220639944076538086 1.2478176355361938477 1.1897499561309814453 0.86733144521713256836 1.0375726222991943359 1.1161557435989379883 1.0612468719482421875 0.9462496638298034668 0.92133241891860961914 0.94210290908813476562 1.0770627260208129883 1.1003592014312744141 1.0553156137466430664 1.0469291210174560547 1.0052901506423950195 1.0209637880325317383 1.007567286491394043 0.97584003210067749023 0.91279661655426025391 0.85866957902908325195 0.94156038761138916016 0.94005447626113891602 1.099618077278137207 1.1853524446487426758
1.1981401443481445312 1.0362333059310913086 1.092258453369140625 0.79042339324951171875 0.32177972793579101562 1.0434942245483398438 1.1733345985412597656 1.217741847038269043 1.2421792745590209961 0.85633331537246704102 0.50168216228485107422 0.7229798436164855957 1.0282127857208251953 1.0224208831787109375 1.0355844497680664062 1.1116892099380493164 1.1450802087783813477 0.885364532470703125 0.68202573060989379883 0.84346103668212890625 0.86888384819030761719 1.0750328302383422852 1.0752565860748291016 1.0794787406921386719 1.0068084001541137695 0.98388493061065673828 0.99764275550842285156 0.95725220441818237305 0.88777315616607666016 0.52520579099655151367 0.78756517171859741211 1.0653420686721801758 1.083789825439453125 1.1418159008026123047 1.0955699682235717773 1.1454098224639892578 1.1831494569778442383 1.1411204338073730469 1.1077963113784790039 1.2942601442337036133 1.2300978899002075195 1.1561664342880249023 1.1219980716705322266 1.107770085334777832 1.1362451314926147461 1.1865291595458984375 1.2393021583557128906 1.0345613956451416016 1.0539644956588745117 0.96072298288345336914 0.86056303977966308594 0.83873164653778076172 0.88353449106216430664 0.88364875316619873047 0.95394146442413330078 0.93760740756988525391 0.97541517019271850586 1.0945043563842773438 0.9366391301155090332 0.77917790412902832031 0.92526644468307495117 0.83084779977798461914 0.80919295549392700195 1.0042867660522460938 0.88462114334106445312 0.93469411134719848633 0.96377259492874145508 1.2065018415451049805 1.0870548486709594727 1.0082546472549438477 1.0539343357086181641 1.0904103517532348633 0.90351444482803344727 0.89214426279067993164 1.0317267179489135742 1.081981658935546875 1.1429754495620727539 1.1863056421279907227 1.2122566699981689453 1.1568293571472167969 1.0355372428894042969 1.1216025352478027344 1.1641799211502075195 1.1084691286087036133 1.1255924701690673828 1.1813762187957763672 1.1045625209808349609 0.96192151308059692383 1.0118098258972167969 1.1510303020477294922 1.1064704656600952148 0.98465889692306518555 1.1203500032424926758 1.144808650016784668 1.1587865352630615234 1.081940770149230957 1.0756436586380004883 1.1496024131774902344 1.2166346311569213867 1.0917130708694458008 0.90695041418075561523 0.90123802423477172852 0.6248906254768371582 0.46116039156913757324 0.50782936811447143555 0.43801173567771911621 0.98512148857116699219 1.0860379934310913086 1.0756245851516723633 1.0253061056137084961 1.0403925180435180664 1.0090771913528442383 1.0241224765777587891 1.0920678377151489258 1.0135779380798339844 0.99421453475952148438 0.97975105047225952148 0.97246122360229492188 0.99152797460556030273 1.1133129596710205078 1.1015470027923583984 1.0545852184295654297 1.0477356910705566406 1.1385971307754516602 1.1813435554504394531 1.2114218473434448242 1.2352051734924316406 1.2357349395751953125 1.2285590171813964844 1.1619570255279541016 1.0037102699279785156 0.9247341156005859375 0.78164833784103393555 0.84186887741088867188 0.9735088348388671875 0.98983424901962280273 1.1235767602920532227 1.2504878044128417969 1.2105264663696289062 0.86492651700973510742 0.99744278192520141602 0.95578324794769287109 0.98922812938690185547 0.91268008947372436523 0.98313766717910766602 1.0045456886291503906 0.9087581634521484375 1.0273897647857666016 1.0483453273773193359 1.0723233222961425781 1.0525156259536743164 0.97190743684768676758 0.95782488584518432617 0.93651545047760009766 0.92700481414794921875 0.80805087089538574219 0.84363496303558349609 0.88923996686935424805 0.93101257085800170898 1.1394313573837280273
0.84018373489379882812 0.46537187695503234863 0.55025488138198852539 0.43156290054321289062 0.28544884920120239258 0.66773551702499389648 0.8973585963249206543 1.1447865962982177734 1.1597791910171508789 0.47838708758354187012 0.32732248306274414062 0.76165127754211425781 1.0320323705673217773 1.0463471412658691406 1.0306774377822875977 1.0064667463302612305 0.81986814737319946289 0.92035716772079467773 1.0654146671295166016 1.0540821552276611328 1.1349043846130371094 1.0572998523712158203 1.0061011314392089844 1.0696506500244140625 1.0881543159484863281 1.0710964202880859375 0.99255788326263427734 0.94888967275619506836 1.0568436384201049805 0.92648494243621826172 0.50923299789428710938 0.66334450244903564453 0.75881963968276977539 0.81849598884582519531 0.84687781333923339844 0.83003920316696166992 0.70945924520492553711 0.87456995248794555664 0.9952742457389831543 1.3048845529556274414 1.1856287717819213867 1.1209527254104614258 1.0970400571823120117 1.0975055694580078125 1.1618291139602661133 1.2005811929702758789 1.1585462093353271484 1.0724352598190307617 1.1246565580368041992 1.0452876091003417969 0.98881500959396362305 0.88000798225402832031 0.85310441255569458008 0.91929298639297485352 0.96308660507202148438 0.96311026811599731445 1.0197893381118774414 1.0203111171722412109 0.64568412303924560547 1.1421532630920410156 1.1156965494155883789 0.98503404855728149414 0.92059051990509033203 1.0499500036239624023 1.1013250350952148438 0.94052463769912719727 0.84937256574630737305 1.060422062873840332 0.99300360679626464844 1.0331313610076904297 1.1088902950286865234 1.0175347328186035156 0.85158479213714599609 0.99786096811294555664 1.0486437082290649414 1.0934821367263793945 1.1702698469161987305 1.1967153549194335938 1.2033780813217163086 1.1599125862121582031 1.0704896450042724609 1.055048823356628418 1.1267837285995483398 1.1228231191635131836 1.1632421016693115234 1.1193598508834838867 1.1390323638916015625 1.062157750129699707 1.090480804443359375 1.1014882326126098633 0.94778192043304443359 0.97684389352798461914 1.0675830841064453125 1.1111482381820678711 1.1321715116500854492 1.1383184194564819336 1.0655131340026855469 1.0618959665298461914 1.1129574775695800781 1.1903535127639770508 1.2099187374114990234 1.1752351522445678711 1.0889520645141601562 0.82721936702728271484 0.64816987514495849609 0.38107788562774658203 1.0137133598327636719 1.0995692014694213867 0.97324353456497192383 0.92434340715408325195 0.95622706413269042969 1.05474853515625 1.1012444496154785156 1.0975431203842163086 1.0377666950225830078 1.0006059408187866211 0.90814924240112304688 0.98002004623413085938 1.1173719167709350586 1.1064583063125610352 1.0624860525131225586 1.0633500814437866211 1.1113425493240356445 1.2216469049453735352 1.2461494207382202148 1.2340109348297119141 1.2205920219421386719 1.1824755668640136719 1.1032259464263916016 1.015732884407043457 0.87337100505828857422 0.81258416175842285156 0.59128516912460327148 0.7443065643310546875 0.89709907770156860352 0.94565111398696899414 1.1226215362548828125 1.2444126605987548828 1.2128303050994873047 0.88580143451690673828 1.0249931812286376953 1.0430095195770263672 0.90532040596008300781 0.86338746547698974609 0.8378143310546875 1.0053279399871826172 0.86817163228988647461 0.86832910776138305664 0.91977399587631225586 0.91863709688186645508 0.96841627359390258789 1.0342949628829956055 0.97590595483779907227 0.96827393770217895508 0.93577295541763305664 0.84844422340393066406 0.77042973041534423828 0.89384454488754272461 0.91917401552200317383 1.1486423015594482422
1.086102604866027832 0.84957861900329589844 1.0083782672882080078 0.89060455560684204102 0.69094407558441162109 0.84001839160919189453 0.69607084989547729492 0.56033688783645629883 0.53385728597640991211 0.10302519053220748901 0.35960856080055236816 0.75236481428146362305 0.90084826946258544922 0.87525463104248046875 0.9392998814582824707 0.92638552188873291016 0.93994414806365966797 1.0438556671142578125 1.1110571622848510742 1.0127142667770385742 1.1688077449798583984 1.2219407558441162109 1.207085728645324707 1.0932325124740600586 1.0556532144546508789 1.0677938461303710938 1.0556547641754150391 1.0560082197189331055 1.0573500394821166992 1.1080666780471801758 1.1297914981842041016 0.93966352939605712891 0.84527325630187988281 0.95939618349075317383 0.9264933466911315918 0.83173418045043945312 0.89185488224029541016 0.89444190263748168945 1.0131077766418457031 1.1775052547454833984 1.0786142349243164062 1.1048127412796020508 1.0788774490356445312 1.0766472816467285156 1.1482551097869873047 1.2223581075668334961 1.1555991172790527344 1.0469278097152709961 1.1100008487701416016 1.0883902311325073242 0.98099875450134277344 0.82126152515411376953 0.90843272209167480469 1.0618205070495605469 1.0429369211196899414 1.044243931770324707 1.0467373132705688477 0.90331256389617919922 0.54083997011184692383 0.90768003463745117188 0.94672727584838867188 1.184347987174987793 1.1203657388687133789 1.0852849483489990234 1.0835547447204589844 1.0167300701141357422 1.0801494121551513672 1.0731979608535766602 1.0161746740341186523 1.0087007284164428711 0.97032910585403442383 0.8641948699951171875 0.84418541193008422852 0.98452001810073852539 1.0458177328109741211 1.1597303152084350586 1.1824914216995239258 1.1760388612747192383 1.1783841848373413086 1.1771360635757446289 1.1152929067611694336 1.0398824214935302734 1.1335432529449462891 1.1550676822662353516 1.1426801681518554688 1.1207628250122070312 1.0400846004486083984 1.0496908426284790039 1.0740299224853515625 1.0024008750915527344 0.85324996709823608398 1.0143474340438842773 1.0828894376754760742 1.0810784101486206055 1.1128569841384887695 1.1408101320266723633 1.083563685417175293 1.0271588563919067383 1.0399503707885742188 1.0731436014175415039 1.0833398103713989258 1.0726318359375 1.0711690187454223633 1.0413991212844848633 0.91428196430206298828 0.6265742182731628418 0.74980968236923217773 0.74215310811996459961 0.76992422342300415039 0.85556417703628540039 0.92876780033111572266 1.0849472284317016602 1.1083105802536010742 1.0406645536422729492 1.0480979681015014648 0.93686318397521972656 0.97030335664749145508 1.0567454099655151367 1.0906161069869995117 1.0577633380889892578 1.0810251235961914062 1.1578449010848999023 1.2067000865936279297 1.2189038991928100586 1.2320249080657958984 1.0700225830078125 1.0481415987014770508 1.1256008148193359375 1.0134143829345703125 0.87376248836517333984 0.72928452491760253906 0.52117270231246948242 0.57982617616653442383 0.78650295734405517578 0.84555405378341674805 0.92139077186584472656 1.1915622949600219727 1.2451599836349487305 1.2390323877334594727 0.92182999849319458008 1.0468682050704956055 1.0166809558868408203 0.94805246591567993164 0.75370132923126220703 0.76030147075653076172 0.83554708957672119141 0.93714731931686401367 1.018384099006652832 0.99071866273880004883 0.9410120844841003418 0.88510990142822265625 0.97786027193069458008 1.0440405607223510742 1.0160833597183227539 0.88447105884552001953 0.76768964529037475586 0.66594105958938598633 0.92246907949447631836 0.92506766319274902344 1.1658354997634887695
1.2824468612670898438 1.0118607282638549805 1.1765148639678955078 0.86261725425720214844 0.91090083122253417969 1.0500780344009399414 1.1747012138366699219 0.65550798177719116211 0.11433763802051544189 0.097347222268581390381 0.745868682861328125 0.81991440057754516602 1.0153133869171142578 1.0561400651931762695 1.1519924402236938477 1.0371786355972290039 1.0881084203720092773 1.0663908720016479492 1.116377711296081543 1.0960963964462280273 1.3044276237487792969 1.2136956453323364258 1.1710565090179443359 1.159954071044921875 1.0812432765960693359 1.0095115900039672852 0.99877715110778808594 1.08298492431640625 1.0662751197814941406 1.0470408201217651367 1.1698808670043945312 1.1137359142303466797 0.94495314359664916992 0.98311257362365722656 1.0169156789779663086 0.98262101411819458008 0.98297923803329467773 0.98752295970916748047 1.17954254150390625 1.1720901727676391602 1.1195430755615234375 1.12505340576171875 1.0909630060195922852 1.0868499279022216797 1.1616240739822387695 1.1993997097015380859 1.1661573648452758789 1.0279251337051391602 0.97264236211776733398 1.0892765522003173828 1.0202071666717529297 0.75790143013000488281 0.74115461111068725586 0.89361578226089477539 0.75796872377395629883 0.8830292820930480957 0.86997359991073608398 0.60592657327651977539 0.60914349555969238281 0.6521390080451965332 0.99496310949325561523 1.2294026613235473633 1.1736521720886230469 1.0419505834579467773 0.94096851348876953125 1.0348554849624633789 1.1320968866348266602 1.0901275873184204102 1.0337283611297607422 0.99290949106216430664 0.92198944091796875 0.92330300807952880859 0.92594540119171142578 0.97931212186813354492 1.0800250768661499023 1.1929430961608886719 1.1453551054000854492 1.1595549583435058594 1.152415156364440918 1.1743298768997192383 1.1531879901885986328 1.063895106315612793 0.98415696620941162109 1.1812617778778076172 1.1435768604278564453 1.0883681774139404297 0.96414852142333984375 0.97236424684524536133 1.1839888095855712891 1.0963072776794433594 0.92634463310241699219 1.0534272193908691406 1.0535668134689331055 1.0345367193222045898 1.078065037727355957 1.1278858184814453125 1.1170461177825927734 1.0496568679809570312 1.0106433629989624023 1.0343225002288818359 1.070402979850769043 1.0871680974960327148 1.0638630390167236328 0.97073614597320556641 0.60628616809844970703 0.77027398347854614258 1.025524139404296875 0.99695879220962524414 0.89028090238571166992 0.94100147485733032227 0.94762313365936279297 1.0098847150802612305 1.0453416109085083008 1.0286278724670410156 0.92893123626708984375 0.92955505847930908203 1.0279092788696289062 1.0739579200744628906 1.0691354274749755859 1.1467947959899902344 1.2070821523666381836 1.2170046567916870117 1.2196236848831176758 1.2398993968963623047 1.1787045001983642578 1.0035066604614257812 1.0003244876861572266 0.95241093635559082031 0.71676075458526611328 0.77466613054275512695 0.55950725078582763672 0.58882600069046020508 0.69036644697189331055 0.72383332252502441406 0.79152154922485351562 0.9854348301887512207 1.1864703893661499023 1.2577663660049438477 1.2012646198272705078 0.95944893360137939453 1.1070814132690429688 0.94813948869705200195 0.97232007980346679688 0.87702745199203491211 0.79831790924072265625 0.71553748846054077148 0.78333109617233276367 0.90637302398681640625 0.87542694807052612305 0.96285533905029296875 0.88418483734130859375 0.90166246891021728516 0.98507827520370483398 1.0449011325836181641 0.87161403894424438477 0.63554710149765014648 0.5878689885139465332 0.91183966398239135742 0.95195549726486206055 1.2074100971221923828
1.3126226663589477539 1.1072531938552856445 1.0859612226486206055 0.70306193828582763672 0.98281729221343994141 1.0063475370407104492 1.216174006462097168 1.0919022560119628906 0.50453573465347290039 0.21650396287441253662 0.89068961143493652344 0.93858838081359863281 1.177949070930480957 1.1500185728073120117 1.0742892026901245117 1.0222063064575195312 1.1111879348754882812 1.0691267251968383789 0.99733740091323852539 1.1056768894195556641 1.2473115921020507812 1.1170235872268676758 1.1112216711044311523 1.1714026927947998047 1.1775965690612792969 1.1498547792434692383 1.0906147956848144531 1.0718065500259399414 1.0819909572601318359 1.0461870431900024414 1.173295140266418457 1.1191161870956420898 0.96841347217559814453 0.92041534185409545898 1.0332409143447875977 1.0289022922515869141 1.1650118827819824219 1.2133932113647460938 1.1719008684158325195 1.1073751449584960938 1.1507471799850463867 1.1402299404144287109 1.1233617067337036133 1.127274632453918457 1.1918320655822753906 1.1884399652481079102 1.097225189208984375 1.0440889596939086914 0.95508724451065063477 1.0562212467193603516 1.0282948017120361328 0.71406692266464233398 0.46213096380233764648 0.57667410373687744141 0.63373482227325439453 0.74238628149032592773 0.68701750040054321289 0.71412867307662963867 0.68093132972717285156 0.58075988292694091797 0.74166011810302734375 1.1271116733551025391 1.183703303337097168 1.0519074201583862305 0.98713892698287963867 1.0480866432189941406 1.1228742599487304688 1.1846883296966552734 1.1299585103988647461 1.0342880487442016602 0.94811081886291503906 0.89111596345901489258 0.93322569131851196289 1.0232603549957275391 1.1599155664443969727 1.188370823860168457 1.1538262367248535156 1.1703572273254394531 1.1878006458282470703 1.1636192798614501953 1.1414190530776977539 1.1135948896408081055 0.96097397804260253906 0.99604821205139160156 1.1107535362243652344 1.0395803451538085938 0.97689104080200195312 1.0717567205429077148 1.2327514886856079102 1.1365811824798583984 0.94822150468826293945 1.0597776174545288086 1.0582532882690429688 1.0705009698867797852 1.1148382425308227539 1.127961277961730957 1.1699239015579223633 1.1569617986679077148 1.0570329427719116211 1.0190155506134033203 1.0549854040145874023 1.0790259838104248047 1.0550037622451782227 0.75300759077072143555 0.39750230312347412109 0.8564281463623046875 1.1329475641250610352 1.1536340713500976562 0.92856848239898681641 0.85800302028656005859 0.77230566740036010742 0.78886193037033081055 0.84127831459045410156 0.86184012889862060547 0.97002249956130981445 1.0141748189926147461 1.0384144783020019531 1.0924048423767089844 1.1565500497817993164 1.1983257532119750977 1.2012206315994262695 1.2209857702255249023 1.1868168115615844727 1.1020953655242919922 1.1082640886306762695 0.94986140727996826172 0.94732850790023803711 0.81492537260055541992 0.56189358234405517578 0.67593973875045776367 0.61151295900344848633 0.79969310760498046875 0.78889006376266479492 0.82906126976013183594 0.97644335031509399414 1.2099431753158569336 1.1735949516296386719 1.2611556053161621094 1.114066004753112793 0.93596816062927246094 1.1539227962493896484 1.1522179841995239258 0.89040344953536987305 0.95741689205169677734 1.0447318553924560547 0.92334973812103271484 0.70701760053634643555 0.73499053716659545898 0.63904321193695068359 0.66331815719604492188 0.68483400344848632812 0.83686554431915283203 0.94834363460540771484 1.08968353271484375 0.90587604045867919922 0.7369181513786315918 0.73877519369125366211 0.9751618504524230957 0.92047172784805297852 1.1366094350814819336
1.2964987754821777344 1.1906347274780273438 0.91546368598937988281 0.81553542613983154297 0.97616773843765258789 1.0160970687866210938 1.2172350883483886719 1.1961352825164794922 0.59232920408248901367 0.10438474267721176147 0.31489962339401245117 0.44091713428497314453 0.73012238740921020508 0.88358938694000244141 1.015954136848449707 1.1405335664749145508 1.1301199197769165039 1.1409679651260375977 0.99367296695709228516 0.97096139192581176758 1.1038918495178222656 1.1368752717971801758 1.1314452886581420898 1.1585940122604370117 1.1613099575042724609 1.1772637367248535156 1.1661520004272460938 1.1683619022369384766 1.1675149202346801758 1.1225047111511230469 1.1977595090866088867 1.2703330516815185547 1.2130665779113769531 1.1633639335632324219 1.1744606494903564453 1.2475713491439819336 1.2403612136840820312 1.1448701620101928711 1.0958715677261352539 1.1276540756225585938 1.1446546316146850586 1.1423815488815307617 1.1456779241561889648 1.2028264999389648438 1.2376010417938232422 1.1697256565093994141 1.1184890270233154297 1.0871186256408691406 0.96186494827270507812 1.0410341024398803711 1.07991790771484375 0.83755970001220703125 0.44715824723243713379 0.74255824089050292969 0.89498376846313476562 0.69751083850860595703 0.78555589914321899414 1.0602529048919677734 1.0209319591522216797 0.92860448360443115234 0.72451215982437133789 0.88783842325210571289 1.2057397365570068359 1.1485228538513183594 1.1111772060394287109 1.0720565319061279297 1.0473909378051757812 1.1013737916946411133 1.0914466381072998047 1.0473744869232177734 1.0507897138595581055 0.98867118358612060547 0.97693049907684326172 1.1116760969161987305 1.1974077224731445312 1.171164393424987793 1.1713804006576538086 1.1892527341842651367 1.17749786376953125 1.142102360725402832 1.1046367883682250977 1.158679962158203125 1.0944963693618774414 0.98431295156478881836 1.0825697183609008789 1.0664985179901123047 0.97102916240692138672 1.1504939794540405273 1.1758590936660766602 1.0376616716384887695 1.0288382768630981445 1.1058201789855957031 1.0824266672134399414 1.1269013881683349609 1.1354780197143554688 1.1273691654205322266 1.1628067493438720703 1.144757390022277832 0.94297838211059570312 1.0989732742309570312 1.1447877883911132812 1.111269831657409668 0.89239341020584106445 0.83341795206069946289 0.78171509504318237305 0.86024326086044311523 1.0866987705230712891 1.1362180709838867188 1.0230422019958496094 0.99873489141464233398 0.944019317626953125 0.92805731296539306641 1.0282275676727294922 0.99366140365600585938 1.0283415317535400391 1.0791523456573486328 1.105412602424621582 1.1480793952941894531 1.1907687187194824219 1.184163212776184082 1.2115453481674194336 1.2231315374374389648 1.1178339719772338867 0.99407845735549926758 1.0132561922073364258 0.8029873967170715332 0.75801265239715576172 0.59833806753158569336 0.67719131708145141602 0.71144926548004150391 0.69661670923233032227 0.88156414031982421875 0.99121302366256713867 1.1051146984100341797 1.2429034709930419922 1.2648074626922607422 1.2641748189926147461 1.1812067031860351562 1.094733119010925293 1.0167452096939086914 0.99650651216506958008 1.1731727123260498047 1.1947928667068481445 1.0351293087005615234 0.9723994135856628418 1.0116471052169799805 0.95989495515823364258 0.88232177495956420898 0.8409404754638671875 0.4338988959789276123 0.29176685214042663574 0.43105345964431762695 0.66381216049194335938 0.94981199502944946289 0.75649744272232055664 0.70068901777267456055 0.60527849197387695312 0.81530779600143432617 0.74393725395202636719 1.200354456901550293
1.2518807649612426758 0.94036197662353515625 0.84870582818984985352 0.85807412862777709961 0.93544268608093261719 0.97106695175170898438 1.1162801980972290039 1.147753596305847168 0.56745475530624389648 0.14620515704154968262 0.38901501893997192383 0.67188811302185058594 1.0364284515380859375 1.0709756612777709961 0.96476066112518310547 0.87976056337356567383 1.2154983282089233398 1.2033071517944335938 1.081704258918762207 1.0031868219375610352 1.001338958740234375 1.2555623054504394531 1.2702232599258422852 1.1444303989410400391 1.0910179615020751953 1.1356041431427001953 1.0687527656555175781 1.1111546754837036133 1.1452572345733642578 1.1685146093368530273 1.2423135042190551758 1.1917796134948730469 1.1532518863677978516 1.1557929515838623047 1.1384431123733520508 1.1457006931304931641 1.1115260124206542969 1.1144057512283325195 1.1281754970550537109 1.1473439931869506836 1.1243730783462524414 1.1362382173538208008 1.2152459621429443359 1.2651499509811401367 1.2132490873336791992 1.1410754919052124023 1.1125110387802124023 1.097603917121887207 0.9550825953483581543 1.0549066066741943359 0.99515622854232788086 0.9014466404914855957 0.53989684581756591797 0.92056196928024291992 0.95504713058471679688 0.72977805137634277344 0.95315396785736083984 1.0982300043106079102 0.97583001852035522461 0.90322291851043701172 0.97818797826766967773 1.06189727783203125 1.1574348211288452148 1.0766725540161132812 1.0986626148223876953 1.052857518196105957 1.0414297580718994141 1.0731930732727050781 0.98547965288162231445 0.90128654241561889648 0.89098376035690307617 0.99742680788040161133 1.0975015163421630859 1.1867246627807617188 1.1988471746444702148 1.1937696933746337891 1.1851999759674072266 1.16764068603515625 1.1688525676727294922 1.1627751588821411133 1.1543296575546264648 1.0891306400299072266 0.98294925689697265625 1.0554376840591430664 1.0066832304000854492 1.0063775777816772461 1.1094989776611328125 1.2811899185180664062 1.1716803312301635742 0.95081120729446411133 1.1569057703018188477 1.1336730718612670898 1.0093362331390380859 1.0698639154434204102 1.0656970739364624023 1.0827547311782836914 1.1374298334121704102 1.2273058891296386719 0.72420132160186767578 0.88127183914184570312 1.0059220790863037109 0.72060310840606689453 0.78580951690673828125 1.166371464729309082 1.2266126871109008789 1.1100057363510131836 1.066950678825378418 1.1508687734603881836 1.0855274200439453125 1.0698858499526977539 1.0743204355239868164 1.0434132814407348633 0.94723451137542724609 0.9489091038703918457 1.0568482875823974609 1.1055097579956054688 1.1915982961654663086 1.1961345672607421875 1.1843633651733398438 1.1872301101684570312 1.2308045625686645508 1.1452707052230834961 1.0450656414031982422 0.90418142080307006836 0.92642426490783691406 0.89123129844665527344 0.62619781494140625 0.66138041019439697266 0.83148473501205444336 0.7810916900634765625 0.85156810283660888672 0.9205570220947265625 1.0604860782623291016 1.1693780422210693359 1.2697608470916748047 1.1726459264755249023 1.1064512729644775391 1.0902326107025146484 1.0930639505386352539 1.0064861774444580078 0.85601431131362915039 0.9842236638069152832 1.1389375925064086914 1.1590234041213989258 1.0959267616271972656 1.035790562629699707 1.0320130586624145508 1.1035478115081787109 1.0918731689453125 1.0457743406295776367 0.80877268314361572266 0.50031751394271850586 0.32767590880393981934 0.38309442996978759766 0.55377936363220214844 0.42614793777465820312 0.4201812744140625 0.6747722625732421875 0.91676253080368041992 1.2751839160919189453
1.2375798225402832031 0.83558624982833862305 0.78709810972213745117 0.8617966771125793457 0.9265899658203125 0.95651078224182128906 1.0500603914260864258 0.94741404056549072266 0.60889059305191040039 0.43778401613235473633 0.39686542749404907227 0.77497565746307373047 1.0718797445297241211 1.1036663055419921875 0.96691870689392089844 0.84520941972732543945 0.856647491455078125 0.96833628416061401367 1.2833316326141357422 1.1223682165145874023 1.0000559091567993164 1.1314928531646728516 1.229971766471862793 1.1395262479782104492 1.1063977479934692383 1.0732303857803344727 1.0736184120178222656 1.1244158744812011719 1.1292941570281982422 1.0846015214920043945 1.091711878776550293 1.1256296634674072266 1.1248357295989990234 1.118094325065612793 1.1175532341003417969 1.1308221817016601562 1.1271882057189941406 1.129521489143371582 1.1445003747940063477 1.140761256217956543 1.1540749073028564453 1.2206289768218994141 1.3005081415176391602 1.2173742055892944336 1.0164998769760131836 0.92860621213912963867 0.97142881155014038086 0.970333099365234375 0.97393196821212768555 1.0543992519378662109 0.89203423261642456055 0.5188465118408203125 0.58580452203750610352 1.1135107278823852539 1.1589528322219848633 0.93492603302001953125 1.0171364545822143555 1.1262263059616088867 1.0507965087890625 1.0109894275665283203 1.0580374002456665039 0.96273934841156005859 1.1163523197174072266 1.0299046039581298828 1.0133054256439208984 0.97987014055252075195 1.0148830413818359375 0.97556984424591064453 0.82432347536087036133 0.84109669923782348633 0.92060685157775878906 1.0654228925704956055 1.1695616245269775391 1.2223151922225952148 1.2093168497085571289 1.1537054777145385742 1.1305880546569824219 1.1272257566452026367 1.1710895299911499023 1.1724487543106079102 1.0169699192047119141 0.97297376394271850586 0.89404588937759399414 0.99972254037857055664 1.0368465185165405273 1.1435692310333251953 1.1683237552642822266 1.1372082233428955078 1.0098996162414550781 0.9456856846809387207 1.1294916868209838867 1.0647690296173095703 0.96797448396682739258 1.0377125740051269531 1.0677194595336914062 1.0839003324508666992 1.1720359325408935547 1.2668650150299072266 0.84894949197769165039 0.33586227893829345703 0.50692158937454223633 0.86871135234832763672 1.0846133232116699219 1.1589926481246948242 1.126544952392578125 1.0668817758560180664 1.0212388038635253906 1.0746481418609619141 0.98400545120239257812 1.029225468635559082 1.2590366601943969727 1.1824551820755004883 1.0997360944747924805 1.0345656871795654297 0.9805774688720703125 1.0613144636154174805 1.157545924186706543 1.1711747646331787109 1.1753356456756591797 1.2204061746597290039 1.2033445835113525391 1.0554785728454589844 0.97661381959915161133 0.82891166210174560547 0.82144689559936523438 0.63928163051605224609 0.45005750656127929688 0.76592767238616943359 0.94216430187225341797 0.89638686180114746094 0.91321355104446411133 1.1811480522155761719 1.2719330787658691406 1.25231170654296875 1.2292932271957397461 1.054345250129699707 1.0470340251922607422 1.0399999618530273438 1.0375882387161254883 0.93939769268035888672 0.81648814678192138672 0.8712666630744934082 1.0114477872848510742 1.0701483488082885742 1.1404337882995605469 1.1756769418716430664 1.0801053047180175781 1.130664825439453125 1.1431783437728881836 1.1266155242919921875 1.1998353004455566406 1.2060389518737792969 1.1495500802993774414 0.75187075138092041016 0.43913730978965759277 0.22355732321739196777 0.45749628543853759766 0.71127647161483764648 0.88754922151565551758 1.2808452844619750977
1.1793526411056518555 0.94597619771957397461 0.8602835536003112793 0.8002097010612487793 0.90339207649230957031 0.93759065866470336914 0.99026548862457275391 0.94279128313064575195 1.0219058990478515625 0.82505738735198974609 0.31236049532890319824 0.51516181230545043945 0.79810792207717895508 1.1696602106094360352 0.98937231302261352539 0.96123290061950683594 0.84444320201873779297 0.78003555536270141602 1.1426810026168823242 1.2891503572463989258 1.1060013771057128906 1.0922800302505493164 1.1522556543350219727 1.1230601072311401367 1.1915385723114013672 1.1121587753295898438 1.0356209278106689453 1.1412562131881713867 1.1777811050415039062 1.1174300909042358398 1.114392399787902832 1.1399343013763427734 1.1527277231216430664 1.1466559171676635742 1.1351187229156494141 1.1208810806274414062 1.1117423772811889648 1.1128437519073486328 1.1502968072891235352 1.1692017316818237305 1.2258561849594116211 1.1978850364685058594 1.1045145988464355469 1.1248289346694946289 0.93775409460067749023 0.83021211624145507812 0.7141888737678527832 0.85584235191345214844 0.98284757137298583984 1.0504173040390014648 0.9523188471794128418 0.56449419260025024414 0.73742693662643432617 1.0358304977416992188 1.1668089628219604492 1.0665475130081176758 0.97911673784255981445 1.0208426713943481445 0.95141303539276123047 1.0678961277008056641 1.1142933368682861328 1.0698125362396240234 1.0577329397201538086 0.99531823396682739258 1.0516250133514404297 1.0247645378112792969 0.94299829006195068359 0.86460530757904052734 0.85040044784545898438 0.96826952695846557617 1.0433347225189208984 1.1343282461166381836 1.2245218753814697266 1.2248321771621704102 1.1834915876388549805 1.0522217750549316406 1.1337304115295410156 1.1653076410293579102 1.2100300788879394531 1.1104425191879272461 0.94123399257659912109 0.99566900730133056641 0.99836260080337524414 1.0578604936599731445 1.202785491943359375 1.2818393707275390625 1.1237238645553588867 0.95298826694488525391 0.92570471763610839844 1.0180368423461914062 1.1011244058609008789 1.0691760778427124023 1.0208444595336914062 1.0374978780746459961 1.1049706935882568359 1.1178758144378662109 1.2000412940979003906 1.2153065204620361328 0.92985880374908447266 0.35244408249855041504 0.74032074213027954102 1.041489720344543457 1.0538182258605957031 1.1025563478469848633 1.0709644556045532227 1.0216248035430908203 1.0027948617935180664 1.0389897823333740234 1.1627247333526611328 1.1151584386825561523 1.0939308404922485352 0.94694894552230834961 0.98407042026519775391 1.0400893688201904297 1.0705955028533935547 1.1045930385589599609 1.161106109619140625 1.1760774850845336914 1.2103096246719360352 1.2531957626342773438 1.1014904975891113281 0.95453178882598876953 0.87393182516098022461 0.82521915435791015625 0.67413133382797241211 0.50041478872299194336 0.79384374618530273438 1.0010737180709838867 0.97009479999542236328 1.0412874221801757812 1.1491221189498901367 1.2828209400177001953 1.166568756103515625 1.2713556289672851562 1.1354427337646484375 0.95694208145141601562 1.0233399868011474609 1.0341860055923461914 0.97853493690490722656 0.82753086090087890625 0.86293101310729980469 0.79718232154846191406 0.93908452987670898438 1.0727610588073730469 1.0993735790252685547 1.0973478555679321289 1.0017209053039550781 1.0500404834747314453 1.1208041906356811523 1.0937345027923583984 1.0435247421264648438 1.0762366056442260742 1.1641808748245239258 1.1548473834991455078 1.0757126808166503906 0.3740590214729309082 0.4469998478889465332 0.55484473705291748047 0.85678011178970336914 1.2680525779724121094
1.2039802074432373047 0.97817093133926391602 0.9663187861442565918 0.79344379901885986328 0.85636001825332641602 0.79762876033782958984 0.83003377914428710938 0.90683561563491821289 0.95033037662506103516 0.96778982877731323242 0.72705990076065063477 0.35869631171226501465 0.79115980863571166992 1.2472698688507080078 1.1052978038787841797 0.98662889003753662109 0.93109834194183349609 0.92942118644714355469 1.0178357362747192383 1.2143722772598266602 1.1906292438507080078 1.2163892984390258789 1.1241896152496337891 1.0035248994827270508 1.1305396556854248047 1.1677671670913696289 1.0847277641296386719 1.1309038400650024414 1.1559655666351318359 1.1644549369812011719 1.1860628128051757812 1.1889520883560180664 1.170023798942565918 1.1525596380233764648 1.1518836021423339844 1.1239751577377319336 1.1354404687881469727 1.1795542240142822266 1.2150300741195678711 1.1958886384963989258 1.1294434070587158203 1.0358717441558837891 1.0339833498001098633 1.0124604701995849609 0.85061484575271606445 0.74674057960510253906 0.63588845729827880859 0.8302485346794128418 1.0391736030578613281 0.96507465839385986328 0.79026585817337036133 0.81112623214721679688 0.73400777578353881836 0.87737566232681274414 0.87344431877136230469 0.89545392990112304688 0.84979552030563354492 0.89539498090744018555 0.95504409074783325195 1.058293461799621582 1.0376349687576293945 1.000988006591796875 0.96339613199234008789 0.95359754562377929688 1.0151805877685546875 0.89843881130218505859 0.86078643798828125 0.90615266561508178711 0.92455404996871948242 1.0504361391067504883 1.1361259222030639648 1.2280385494232177734 1.2382977008819580078 1.1623787879943847656 1.1123290061950683594 1.0307857990264892578 1.1555221080780029297 1.1858358383178710938 1.1391581296920776367 1.0851806402206420898 1.1020319461822509766 1.072491765022277832 1.0908513069152832031 1.0552660226821899414 1.2148729562759399414 1.1741707324981689453 0.99120062589645385742 0.94576156139373779297 0.96928387880325317383 1.0858681201934814453 1.1692997217178344727 1.0884746313095092773 1.0412567853927612305 1.0633890628814697266 1.1134079694747924805 1.093233942985534668 1.1398961544036865234 1.2300095558166503906 0.87581485509872436523 0.42490461468696594238 0.44483679533004760742 0.87755441665649414062 0.98801720142364501953 0.97612321376800537109 0.92868351936340332031 0.90545988082885742188 0.78651410341262817383 0.85418909788131713867 0.91377037763595581055 0.93341213464736938477 0.78698903322219848633 0.8169765472412109375 1.0019747018814086914 1.0487108230590820312 1.0525755882263183594 1.1294995546340942383 1.1789755821228027344 1.1934883594512939453 1.2324317693710327148 1.2034074068069458008 1.0446301698684692383 0.88206899166107177734 0.77784997224807739258 0.72810763120651245117 0.46420952677726745605 0.64601355791091918945 0.94156372547149658203 0.93184262514114379883 0.94281202554702758789 1.0608650445938110352 1.2342046499252319336 1.1419783830642700195 1.1797300577163696289 1.2419557571411132812 1.0339778661727905273 0.91312313079833984375 0.98734146356582641602 1.0150215625762939453 1.0153299570083618164 0.90985798835754394531 0.88324379920959472656 0.65120804309844970703 0.87100261449813842773 1.0621767044067382812 1.1693899631500244141 1.1675717830657958984 1.0891023874282836914 1.1046376228332519531 1.158054351806640625 1.0559066534042358398 1.0362796783447265625 1.1115163564682006836 1.0911093950271606445 1.0895869731903076172 0.67771643400192260742 0.53932714462280273438 0.81123250722885131836 0.81073015928268432617 0.87928092479705810547 1.24506378173828125
1.1912596225738525391 1.044568181037902832 1.1062946319580078125 1.1255649328231811523 1.1281132698059082031 0.94895082712173461914 0.90626394748687744141 0.87628281116485595703 0.89048755168914794922 0.91097265481948852539 0.83081650733947753906 0.91186124086380004883 1.1222708225250244141 1.1952089071273803711 1.1781877279281616211 1.0715807676315307617 0.96279382705688476562 0.9138278961181640625 0.93787759542465209961 0.9953568577766418457 1.1912075281143188477 1.310278773307800293 1.0989078283309936523 0.96900999546051025391 1.1770654916763305664 1.2580221891403198242 1.1251020431518554688 1.0718530416488647461 1.0641424655914306641 1.0969944000244140625 1.1337009668350219727 1.1495480537414550781 1.1577510833740234375 1.1455131769180297852 1.2039078474044799805 1.2270298004150390625 1.2749524116516113281 1.2686352729797363281 1.1618825197219848633 1.1101508140563964844 1.0410664081573486328 0.98940104246139526367 0.99578249454498291016 0.92271518707275390625 0.76535981893539428711 0.55848360061645507812 0.45634371042251586914 0.56046658754348754883 0.76171833276748657227 0.77091562747955322266 0.84083312749862670898 0.80507689714431762695 0.88695609569549560547 1.0270018577575683594 0.98116916418075561523 0.83129638433456420898 0.79322969913482666016 0.93061774969100952148 0.97459405660629272461 0.94210141897201538086 1.0032430887222290039 1.028475642204284668 1.0542176961898803711 0.90633100271224975586 0.88857853412628173828 0.89008992910385131836 0.97185415029525756836 1.0036921501159667969 1.0863081216812133789 1.1431634426116943359 1.1437431573867797852 1.251263737678527832 1.1949944496154785156 1.0727982521057128906 1.1044248342514038086 1.0464203357696533203 1.1705414056777954102 1.2144788503646850586 1.0614950656890869141 1.0787930488586425781 1.0495084524154663086 1.1673371791839599609 1.0861239433288574219 0.99993807077407836914 1.130214691162109375 1.0726162195205688477 0.98677521944046020508 0.95767164230346679688 1.0555390119552612305 1.1703324317932128906 1.0720694065093994141 0.9844900965690612793 1.0042251348495483398 1.0741574764251708984 1.1637816429138183594 1.1121199131011962891 1.1065770387649536133 1.2030329704284667969 0.90865701436996459961 0.74460881948471069336 0.45238283276557922363 0.70865803956985473633 0.93850857019424438477 1.0200104713439941406 0.7581768035888671875 0.92569237947463989258 1.1074101924896240234 1.1575784683227539062 1.1846979856491088867 1.1795715093612670898 1.1521984338760375977 1.0386376380920410156 1.074629664421081543 1.0879771709442138672 1.0449373722076416016 1.140377044677734375 1.2138255834579467773 1.2179566621780395508 1.2293515205383300781 1.0801866054534912109 1.0155899524688720703 0.89694267511367797852 0.82593482732772827148 0.55750745534896850586 0.55320817232131958008 0.81692540645599365234 0.98023307323455810547 0.89226299524307250977 0.97177547216415405273 1.1774003505706787109 1.1404253244400024414 1.0562677383422851562 1.2558004856109619141 1.1761096715927124023 1.0069776773452758789 0.87421113252639770508 0.86870414018630981445 0.96755433082580566406 1.0005308389663696289 0.96190333366394042969 0.95284378528594970703 0.63232338428497314453 0.72392117977142333984 1.0676798820495605469 1.0994091033935546875 1.0428473949432373047 1.1053174734115600586 1.0945909023284912109 1.2105014324188232422 1.0110641717910766602 1.0221810340881347656 1.0973582267761230469 1.0952937602996826172 0.87599301338195800781 0.59555685520172119141 1.0116900205612182617 1.0639399290084838867 0.99331444501876831055 1.0389120578765869141 1.308020472526550293
1.2881128787994384766 1.1818610429763793945 1.1956108808517456055 1.0470839738845825195 0.91733002662658691406 1.0972594022750854492 1.0136820077896118164 1.0041216611862182617 0.91852480173110961914 0.87371659278869628906 0.90863204002380371094 1.0888341665267944336 1.1970025300979614258 1.1187081336975097656 1.146117091178894043 1.0886583328247070312 1.0307533740997314453 0.97051209211349487305 0.90411859750747680664 0.87041115760803222656 0.96635347604751586914 1.1291791200637817383 1.0402035713195800781 0.91604810953140258789 1.134648442268371582 1.2542551755905151367 1.1559485197067260742 1.0772024393081665039 1.0577013492584228516 1.0964151620864868164 1.1217010021209716797 1.1015346050262451172 1.1438150405883789062 1.1783951520919799805 1.2717132568359375 1.2114882469177246094 1.0959835052490234375 1.0888739824295043945 1.0632572174072265625 1.0190873146057128906 1.0226932764053344727 0.98605996370315551758 0.98821920156478881836 0.67945116758346557617 0.60724902153015136719 0.63951325416564941406 0.66166526079177856445 0.73018205165863037109 0.87081313133239746094 0.85381656885147094727 0.80322271585464477539 0.80817621946334838867 1.0824410915374755859 0.95672214031219482422 1.0074219703674316406 0.82675266265869140625 0.59562355279922485352 0.93687808513641357422 1.133870244026184082 1.105591893196105957 1.0443352460861206055 1.063856959342956543 1.009347081184387207 0.96392953395843505859 0.98921853303909301758 0.98429101705551147461 1.0028960704803466797 1.0405291318893432617 1.0893462896347045898 1.1650655269622802734 1.1702699661254882812 1.2493565082550048828 1.1712908744812011719 1.066388249397277832 1.1050891876220703125 1.0729709863662719727 1.1446859836578369141 1.1880356073379516602 1.0252740383148193359 0.97205525636672973633 1.0804088115692138672 1.1471643447875976562 1.1312074661254882812 0.93388295173645019531 0.97116130590438842773 0.9213911890983581543 0.87610393762588500977 0.98515021800994873047 1.0963685512542724609 1.0922313928604125977 1.0265848636627197266 1.0195145606994628906 1.0294170379638671875 1.0810568332672119141 1.1528738737106323242 1.1410158872604370117 1.1179853677749633789 1.1526514291763305664 1.1914935111999511719 1.1654769182205200195 0.65585988759994506836 0.62978231906890869141 0.86607682704925537109 0.73542010784149169922 0.50518268346786499023 0.78843224048614501953 1.0438157320022583008 1.2434408664703369141 1.2254587411880493164 1.1489646434783935547 1.0822303295135498047 1.0931417942047119141 1.1080765724182128906 1.078908085823059082 1.0718028545379638672 1.1690200567245483398 1.24147796630859375 1.246049046516418457 1.1925766468048095703 1.0918133258819580078 1.0554174184799194336 0.92386496067047119141 0.92596989870071411133 0.44684600830078125 0.69237786531448364258 0.940189361572265625 0.98165649175643920898 0.96661752462387084961 1.1970849037170410156 1.1976450681686401367 1.0963501930236816406 1.2153100967407226562 1.286400914192199707 1.1314667463302612305 0.97796922922134399414 0.85989898443222045898 0.88067209720611572266 0.92353779077529907227 1.0224885940551757812 0.98787438869476318359 0.97875219583511352539 0.79249292612075805664 0.68451905250549316406 1.0015457868576049805 0.96118706464767456055 0.81879341602325439453 1.0695883035659790039 1.1492037773132324219 1.0131860971450805664 0.88863110542297363281 0.99914282560348510742 0.97492891550064086914 0.8580926060676574707 0.54890751838684082031 0.93174415826797485352 1.0607985258102416992 0.99277639389038085938 1.1211395263671875 1.23377227783203125 1.3115661144256591797
1.3414676189422607422 1.2887474298477172852 1.1763907670974731445 0.88537180423736572266 0.78633785247802734375 0.72413736581802368164 0.76756429672241210938 0.9994551539421081543 1.0373964309692382812 0.9144675135612487793 0.89190465211868286133 0.57856440544128417969 1.076871037483215332 1.2410762310028076172 1.1171778440475463867 1.0527657270431518555 1.0902943611145019531 1.085894465446472168 0.97514700889587402344 0.95550733804702758789 0.94824463129043579102 0.96478831768035888672 1.0566456317901611328 0.95754313468933105469 1.0262253284454345703 1.1703163385391235352 1.1523571014404296875 1.0802278518676757812 1.0650500059127807617 1.2382920980453491211 1.2181081771850585938 1.206061244010925293 1.1819070577621459961 1.0989633798599243164 0.98793017864227294922 0.95594203472137451172 0.99320429563522338867 0.94720661640167236328 0.91138291358947753906 0.88789415359497070312 0.95587998628616333008 0.9700838923454284668 0.85668146610260009766 0.41547986865043640137 0.49695870280265808105 0.90506142377853393555 1.0685290098190307617 1.0092554092407226562 1.0527086257934570312 0.94863522052764892578 0.89316415786743164062 0.78110772371292114258 1.0376850366592407227 1.0747120380401611328 1.1608115434646606445 1.0056625604629516602 0.59049630165100097656 0.85283911228179931641 1.1052094697952270508 1.1323336362838745117 1.1084735393524169922 1.0737096071243286133 0.95759969949722290039 0.99075281620025634766 0.94208204746246337891 0.96785277128219604492 1.026005864143371582 1.1146596670150756836 1.1748713254928588867 1.2362790107727050781 1.1686965227127075195 1.1479188203811645508 1.1537868976593017578 1.0764749050140380859 1.1118493080139160156 1.1014784574508666992 1.1436488628387451172 1.1945253610610961914 1.0352561473846435547 0.96197652816772460938 0.99786043167114257812 1.1750186681747436523 1.0931689739227294922 0.99149870872497558594 0.93701040744781494141 0.88668090105056762695 0.90713542699813842773 1.0395765304565429688 0.96181523799896240234 1.0164837837219238281 1.0602879524230957031 1.09053802490234375 1.0926771163940429688 1.1063845157623291016 1.0796629190444946289 1.0732656717300415039 1.0786914825439453125 1.1036752462387084961 1.1427007913589477539 1.0208981037139892578 0.7696387171745300293 0.40925434231758117676 0.62596964836120605469 0.46188876032829284668 0.73021775484085083008 0.97521770000457763672 1.0623651742935180664 1.100612640380859375 1.0447922945022583008 0.94394075870513916016 0.82499927282333374023 0.98850476741790771484 1.0798914432525634766 1.0458834171295166016 1.1266216039657592773 1.1970624923706054688 1.27246856689453125 1.2303313016891479492 1.050104975700378418 1.0385544300079345703 1.0271615982055664062 0.98441743850708007812 0.87812948226928710938 0.4549852907657623291 0.86228060722351074219 0.92569452524185180664 0.93689870834350585938 1.1208547353744506836 1.2399325370788574219 1.0776695013046264648 1.0593838691711425781 1.2571864128112792969 1.2820749282836914062 1.0244572162628173828 0.97738385200500488281 0.89042735099792480469 0.89834135770797729492 0.79240566492080688477 0.80051022768020629883 0.61244547367095947266 0.40966138243675231934 0.40833914279937744141 0.37889981269836425781 0.80317783355712890625 0.77456986904144287109 0.81948643922805786133 1.1112577915191650391 1.0997970104217529297 1.1226531267166137695 1.0008906126022338867 0.95502942800521850586 0.92152792215347290039 0.33707877993583679199 0.63363558053970336914 0.92096525430679321289 1.0810358524322509766 1.059846043586730957 1.1333495378494262695 1.1527823209762573242 1.2241781949996948242
1.3387813568115234375 1.1169068813323974609 0.9440034031867980957 0.42727801203727722168 0.25654488801956176758 0.2577781379222869873 0.98511534929275512695 0.90732866525650024414 1.1054933071136474609 0.94502621889114379883 0.84612756967544555664 0.7687854766845703125 0.35666292905807495117 1.1163320541381835938 1.0511602163314819336 0.97454458475112915039 0.96463692188262939453 1.0398628711700439453 1.0580217838287353516 1.0122486352920532227 0.98438209295272827148 1.0606751441955566406 1.1469191312789916992 1.0553468465805053711 1.1319527626037597656 1.2468484640121459961 1.2587586641311645508 1.1701749563217163086 1.107227325439453125 1.1833693981170654297 1.0699353218078613281 1.0094856023788452148 1.0063986778259277344 0.9422658085823059082 0.96267133951187133789 1.0469201803207397461 0.98228049278259277344 0.92052197456359863281 0.83927929401397705078 0.85248941183090209961 0.78287535905838012695 0.52037215232849121094 0.34022957086563110352 0.60161131620407104492 0.81170642375946044922 0.95932787656784057617 1.0049452781677246094 0.94837105274200439453 1.1091127395629882812 1.0759682655334472656 1.0032601356506347656 0.99819028377532958984 0.8415692448616027832 0.98238790035247802734 1.1706244945526123047 1.1670454740524291992 0.70059084892272949219 0.81939494609832763672 1.0639426708221435547 1.0588985681533813477 1.0468767881393432617 1.1084163188934326172 1.0487487316131591797 1.0220954418182373047 1.0191870927810668945 1.0530645847320556641 1.146920323371887207 1.1565704345703125 1.2216949462890625 1.213358759880065918 1.1789718866348266602 1.14304351806640625 1.1417260169982910156 1.0873246192932128906 1.1246519088745117188 1.1266068220138549805 1.1389127969741821289 1.1342710256576538086 1.049290776252746582 1.0492285490036010742 1.0950145721435546875 1.071194767951965332 0.9999230504035949707 0.98791927099227905273 0.87649434804916381836 0.93462353944778442383 1.0088213682174682617 1.0925011634826660156 0.93304747343063354492 1.0541559457778930664 1.1099643707275390625 1.0976276397705078125 1.1353875398635864258 1.1326558589935302734 1.0920588970184326172 1.0820338726043701172 1.0910689830780029297 1.1470817327499389648 1.1442893743515014648 0.56679898500442504883 0.51225054264068603516 0.26596856117248535156 0.68834990262985229492 0.79380971193313598633 0.78447306156158447266 1.1084630489349365234 1.1783578395843505859 1.0968849658966064453 0.90805184841156005859 0.82058608531951904297 0.92728710174560546875 1.0495482683181762695 1.1008015871047973633 1.0762646198272705078 1.1459510326385498047 1.2702822685241699219 1.2873657941818237305 1.1019775867462158203 1.0317095518112182617 0.99276483058929443359 0.98912990093231201172 0.84133148193359375 0.51379895210266113281 0.66845077276229858398 0.87083280086517333984 0.9177379608154296875 1.0171988010406494141 1.2430800199508666992 1.1353131532669067383 1.0637880563735961914 0.9973316192626953125 1.2494558095932006836 1.2760591506958007812 0.92178630828857421875 0.90427881479263305664 0.94583207368850708008 0.96769994497299194336 0.88349211215972900391 0.68004876375198364258 0.63618141412734985352 0.76124835014343261719 0.9411194920539855957 0.87124007940292358398 0.52142876386642456055 0.44584292173385620117 0.64930886030197143555 0.90229362249374389648 0.78510200977325439453 0.94261491298675537109 1.1375927925109863281 1.2152094841003417969 1.1895394325256347656 0.35692793130874633789 0.88928401470184326172 1.0545861721038818359 1.0742870569229125977 1.0899577140808105469 1.1000074148178100586 1.0927405357360839844 1.1693978309631347656
1.3269792795181274414 0.62391889095306396484 0.4123814702033996582 0.60117238759994506836 0.49419605731964111328 0.83370912075042724609 1.0327677726745605469 0.898345947265625 1.02571868896484375 1.1303256750106811523 0.97368717193603515625 1.0283833742141723633 0.29534730315208435059 0.32161381840705871582 0.48361089825630187988 0.84166449308395385742 0.86366635560989379883 0.69664156436920166016 0.91721594333648681641 0.94937527179718017578 0.98241835832595825195 1.0682805776596069336 0.98692190647125244141 0.79961425065994262695 0.79279488325119018555 0.74356740713119506836 0.73665308952331542969 0.77888154983520507812 0.87328106164932250977 0.89573520421981811523 0.92319571971893310547 0.94782346487045288086 0.95484620332717895508 0.96772199869155883789 0.99967187643051147461 0.86025995016098022461 0.60339391231536865234 0.61680150032043457031 0.44705605506896972656 0.42809382081031799316 0.34456175565719604492 0.67686134576797485352 0.63939118385314941406 0.90062868595123291016 0.97352427244186401367 0.98559898138046264648 0.83799040317535400391 0.92435097694396972656 1.0807344913482666016 1.1241247653961181641 1.0765385627746582031 1.0984009504318237305 1.0127377510070800781 1.0699135065078735352 1.1686329841613769531 1.0965721607208251953 0.71126580238342285156 0.8577880859375 0.96971887350082397461 1.0647443532943725586 1.0536882877349853516 1.0716652870178222656 1.1273692846298217773 1.0549211502075195312 1.0744268894195556641 1.1463063955307006836 1.1529562473297119141 1.1978476047515869141 1.2215884923934936523 1.1358455419540405273 1.1443696022033691406 1.1852250099182128906 1.1411675214767456055 1.1079478263854980469 1.1114696264266967773 1.1500582695007324219 1.0655790567398071289 1.0755443572998046875 1.0772020816802978516 1.0682001113891601562 1.1445411443710327148 1.02887725830078125 0.78840166330337524414 0.6641972661018371582 0.9160906672477722168 0.92842835187911987305 1.0084753036499023438 1.0806680917739868164 1.098850250244140625 0.93391871452331542969 1.0814335346221923828 1.0281769037246704102 1.0726521015167236328 1.102404475212097168 1.1159516572952270508 1.1472477912902832031 1.1404178142547607422 1.1739424467086791992 1.0923866033554077148 0.34201732277870178223 0.34783855080604553223 0.65266221761703491211 0.75614702701568603516 0.8166363835334777832 0.69712817668914794922 0.7548821568489074707 0.71852135658264160156 0.74819433689117431641 0.78162485361099243164 0.89340454339981079102 0.99592393636703491211 1.0176559686660766602 1.0068325996398925781 1.0191675424575805664 1.1941967010498046875 1.2881258726119995117 1.2536530494689941406 0.99801898002624511719 1.0187773704528808594 0.99360364675521850586 0.97083050012588500977 0.68911349773406982422 0.35394084453582763672 0.67964762449264526367 0.92680335044860839844 0.99688923358917236328 1.1958527565002441406 1.2456289529800415039 1.0931265354156494141 1.1086046695709228516 1.0377740859985351562 1.2791517972946166992 1.1566021442413330078 0.94953489303588867188 0.82600355148315429688 1.0146105289459228516 1.0355018377304077148 1.002040863037109375 1.1070446968078613281 1.2261154651641845703 1.2112843990325927734 1.1832052469253540039 1.1624579429626464844 1.1233575344085693359 0.80247914791107177734 0.41092982888221740723 0.43966755270957946777 0.51013553142547607422 0.67342847585678100586 0.8263676762580871582 1.1054803133010864258 0.86788791418075561523 0.64710849523544311523 1.0964888334274291992 1.0428698062896728516 1.0358844995498657227 1.0838876962661743164 1.1050018072128295898 1.0644549131393432617 1.2389718294143676758
1.336765289306640625 0.83596915006637573242 0.75366789102554321289 0.92404866218566894531 0.37097877264022827148 0.99131464958190917969 1.023273468017578125 1.0079684257507324219 1.037469029426574707 1.1694585084915161133 1.1559948921203613281 1.0845483541488647461 0.668048858642578125 0.81595200300216674805 1.0263842344284057617 0.98216009140014648438 1.226960301399230957 1.0591330528259277344 0.75602191686630249023 0.65701580047607421875 0.59707111120223999023 0.51763415336608886719 0.55821657180786132812 0.63315999507904052734 0.77299547195434570312 0.49875771999359130859 0.53267109394073486328 0.83112496137619018555 0.78511589765548706055 0.83718842267990112305 1.0296692848205566406 0.98508334159851074219 0.98464453220367431641 1.0040655136108398438 0.8976853489875793457 0.451457977294921875 0.66353094577789306641 1.1165444850921630859 1.1628495454788208008 0.99412816762924194336 0.64524030685424804688 1.1262078285217285156 1.0037060976028442383 0.7971770167350769043 1.0158724784851074219 1.1746462583541870117 0.89937162399291992188 1.0693769454956054688 1.0828241109848022461 0.99559646844863891602 1.1358115673065185547 1.1696027517318725586 1.1958820819854736328 1.235827326774597168 1.2017009258270263672 0.90932047367095947266 0.63281482458114624023 0.87386071681976318359 0.9328181147575378418 1.0386233329772949219 0.98323613405227661133 1.0892941951751708984 1.1309943199157714844 1.0640046596527099609 1.1153053045272827148 1.2643384933471679688 1.2471179962158203125 1.2086490392684936523 1.1603629589080810547 1.104554295539855957 1.1333929300308227539 1.2183438539505004883 1.1451205015182495117 1.1211165189743041992 1.1148587465286254883 1.1346979141235351562 0.96899324655532836914 1.0000152587890625 1.0468384027481079102 1.0831696987152099609 1.2355585098266601562 1.109619140625 0.65171945095062255859 0.52246266603469848633 0.96087831258773803711 1.0066962242126464844 1.0013806819915771484 1.0337351560592651367 1.1134623289108276367 0.93403017520904541016 1.0318779945373535156 0.98669826984405517578 1.0516098737716674805 1.0739002227783203125 1.0806457996368408203 1.0960541963577270508 1.1105835437774658203 1.1252280473709106445 0.77897936105728149414 0.6342270970344543457 0.82533890008926391602 0.9452031254768371582 0.91188818216323852539 0.80361497402191162109 0.80974489450454711914 0.76039886474609375 0.67044997215270996094 0.76782983541488647461 0.81780958175659179688 0.93090045452117919922 1.0068395137786865234 0.93839222192764282227 0.88039612770080566406 1.0209344625473022461 1.2374173402786254883 1.2683632373809814453 1.1569961309432983398 0.98189270496368408203 0.90053248405456542969 0.93824446201324462891 0.77845793962478637695 0.57999074459075927734 0.87571895122528076172 0.97365605831146240234 0.98173004388809204102 1.0889704227447509766 1.2723706960678100586 1.1951284408569335938 1.1587480306625366211 1.1536924839019775391 1.0872948169708251953 1.2973773479461669922 1.0253672599792480469 0.88304501771926879883 0.98165261745452880859 1.1740914583206176758 1.214141845703125 1.219336390495300293 1.243010401725769043 1.2402372360229492188 1.1850441694259643555 1.1513872146606445312 1.1516575813293457031 1.1452554464340209961 1.0689311027526855469 0.71672904491424560547 0.17174774408340454102 0.35137513279914855957 0.84930819272994995117 0.92381131649017333984 0.62656044960021972656 0.44370663166046142578 0.92528164386749267578 1.0378820896148681641 0.99192106723785400391 1.0264093875885009766 1.0790500640869140625 1.1494324207305908203 1.0877271890640258789 1.2759020328521728516
1.3321425914764404297 0.99456989765167236328 1.0610840320587158203 0.79335206747055053711 0.37008813023567199707 1.0032848119735717773 0.92510235309600830078 0.94599437713623046875 1.0292242765426635742 1.1327013969421386719 1.1733515262603759766 1.1408895254135131836 0.87476468086242675781 0.47516831755638122559 0.96409243345260620117 0.76837885379791259766 1.1726821660995483398 1.1554431915283203125 1.21698760986328125 1.1503341197967529297 1.059502720832824707 0.8290996551513671875 0.81457132101058959961 0.87634515762329101562 0.90193259716033935547 1.0195394754409790039 0.62616872787475585938 0.98522901535034179688 0.97012937068939208984 0.7926152348518371582 0.88164681196212768555 0.74400234222412109375 0.80270683765411376953 0.72661489248275756836 0.40554463863372802734 0.39419865608215332031 0.89449596405029296875 1.1231069564819335938 1.2351349592208862305 1.1087639331817626953 0.58613699674606323242 0.97509539127349853516 1.0168068408966064453 0.97226774692535400391 0.97353631258010864258 1.1095392704010009766 0.78736007213592529297 1.0957442522048950195 1.0547274351119995117 1.0524963140487670898 1.1434267759323120117 1.132162928581237793 1.1286638975143432617 1.1983510255813598633 1.1960905790328979492 1.2017927169799804688 0.90328431129455566406 0.89501434564590454102 0.89130449295043945312 0.90165340900421142578 0.9106470942497253418 1.0351842641830444336 1.0809904336929321289 1.045010685920715332 1.1360245943069458008 1.1864403486251831055 1.2269608974456787109 1.1448094844818115234 1.0914450883865356445 1.1008254289627075195 1.144266963005065918 1.215465545654296875 1.1311658620834350586 1.0465567111968994141 1.1151635646820068359 1.0635439157485961914 0.94108557701110839844 1.0003690719604492188 1.0202629566192626953 1.0866553783416748047 1.2579010725021362305 1.0564644336700439453 0.9084841609001159668 0.65759676694869995117 0.93146562576293945312 1.0277754068374633789 0.99870830774307250977 1.0089709758758544922 1.1250852346420288086 0.9639720916748046875 1.0879181623458862305 1.1159669160842895508 1.193480372428894043 1.1322218179702758789 1.0826380252838134766 1.0647089481353759766 1.0520130395889282227 1.0161540508270263672 0.74425435066223144531 1.1981327533721923828 1.1495501995086669922 1.0292323827743530273 1.0020606517791748047 1.1017608642578125 1.0648622512817382812 0.98590862751007080078 0.99558079242706298828 0.94357836246490478516 0.93219029903411865234 0.96763151884078979492 0.92761641740798950195 0.9231268763542175293 0.99104201793670654297 1.1890590190887451172 1.2962530851364135742 1.2174685001373291016 1.0737744569778442383 0.97169816493988037109 0.83721995353698730469 0.86776566505432128906 0.46977961063385009766 0.68280178308486938477 1.1395009756088256836 0.93780982494354248047 0.97072046995162963867 1.0924865007400512695 1.1956137418746948242 1.1738469600677490234 1.1567971706390380859 1.1577095985412597656 1.1164529323577880859 1.2789821624755859375 1.2881875038146972656 0.97341275215148925781 0.9915720820426940918 0.92223399877548217773 1.0386512279510498047 1.1421742439270019531 1.2359344959259033203 1.2167862653732299805 1.1356306076049804688 0.9827442169189453125 0.72748476266860961914 0.65695196390151977539 0.7443243861198425293 0.62867748737335205078 0.3945502936840057373 0.2223017960786819458 0.36290773749351501465 0.32448077201843261719 0.23936857283115386963 0.49176564812660217285 0.943450927734375 1.0332400798797607422 0.95319664478302001953 0.96256631612777709961 1.0237807035446166992 1.0622546672821044922 1.0138837099075317383 1.2194057703018188477
1.3294084072113037109 1.0643268823623657227 0.62772971391677856445 0.99743568897247314453 0.56890392303466796875 0.8766632080078125 0.90904653072357177734 0.87534481287002563477 0.88811004161834716797 1.022908329963684082 1.0488399267196655273 1.0365990400314331055 0.98086279630661010742 0.71710574626922607422 1.131827235221862793 0.76579356193542480469 1.0535546541213989258 1.0331284999847412109 1.0264210700988769531 1.0737875699996948242 1.2602342367172241211 1.2523751258850097656 1.1615926027297973633 1.1131302118301391602 0.764492034912109375 1.0698016881942749023 0.91218358278274536133 0.93558198213577270508 1.0099681615829467773 0.87658601999282836914 0.74885225296020507812 0.51599705219268798828 0.82830184698104858398 0.64733242988586425781 0.66288232803344726562 0.64595818519592285156 0.95197159051895141602 1.0501495599746704102 1.1526812314987182617 1.1337075233459472656 0.88295042514801025391 0.80303990840911865234 0.89640289545059204102 0.87813913822174072266 0.93583238124847412109 1.1271753311157226562 0.94978845119476318359 1.0281727313995361328 1.1224203109741210938 1.0754554271697998047 1.0881551504135131836 1.0411834716796875 1.008787989616394043 1.0980315208435058594 1.2013100385665893555 1.2619686126708984375 0.80777269601821899414 0.74228662252426147461 0.77674180269241333008 0.8709875941276550293 1.037522435188293457 1.0513135194778442383 1.0698320865631103516 1.0060395002365112305 1.0899358987808227539 1.1777495145797729492 1.2223790884017944336 1.1555464267730712891 1.1223468780517578125 1.1182470321655273438 1.1433463096618652344 1.1750398874282836914 1.1024335622787475586 0.99467074871063232422 1.0907491445541381836 1.0545111894607543945 1.0345289707183837891 1.0655233860015869141 1.0820300579071044922 1.0865244865417480469 1.2309082746505737305 0.92438113689422607422 0.86113202571868896484 0.84415066242218017578 0.78363770246505737305 1.0038689374923706055 1.0379302501678466797 1.0079396963119506836 1.1683710813522338867 0.90185922384262084961 1.0615273714065551758 1.0249480009078979492 1.0705924034118652344 1.1205943822860717773 1.0971888303756713867 1.0826354026794433594 1.0389285087585449219 0.829845428466796875 0.59483289718627929688 1.0606545209884643555 1.2360662221908569336 1.2383978366851806641 1.1538234949111938477 1.130564570426940918 1.0941894054412841797 1.0784430503845214844 1.0747452974319458008 1.0235285758972167969 0.9830182194709777832 0.97277098894119262695 0.96801835298538208008 0.97062522172927856445 1.0740854740142822266 1.2372833490371704102 1.2703320980072021484 1.1601566076278686523 1.036660313606262207 0.94059616327285766602 0.8058974146842956543 0.92390257120132446289 0.56634289026260375977 0.75083345174789428711 0.94001275300979614258 0.88428074121475219727 0.99786776304244995117 1.1351950168609619141 1.2174198627471923828 1.1759804487228393555 1.1336089372634887695 1.1460790634155273438 1.0812213420867919922 1.2012739181518554688 1.2063577175140380859 1.0260078907012939453 0.89949464797973632812 0.729705810546875 0.56749939918518066406 0.57179850339889526367 0.82030099630355834961 0.90028518438339233398 0.73689281940460205078 0.48295414447784423828 0.48031762242317199707 0.75938981771469116211 1.0459266901016235352 1.0757883787155151367 0.54702013731002807617 0.38871088624000549316 0.45679512619972229004 0.71628212928771972656 0.81165367364883422852 0.52049601078033447266 0.88160037994384765625 1.0579186677932739258 1.0050573348999023438 1.0276727676391601562 1.0396877527236938477 1.0029764175415039062 1.0386691093444824219 1.1872321367263793945
1.3276628255844116211 1.048989415168762207 0.584072113037109375 1.1951183080673217773 0.86611580848693847656 0.96266800165176391602 1.0318915843963623047 0.96958422660827636719 0.85021376609802246094 0.99193501472473144531 1.0444128513336181641 0.92461305856704711914 0.81111162900924682617 0.73767745494842529297 1.2047982215881347656 1.1352773904800415039 1.14406585693359375 1.2230727672576904297 1.1675003767013549805 1.1342498064041137695 1.1479231119155883789 1.1318027973175048828 1.1536707878112792969 1.2389146089553833008 1.2092238664627075195 1.0664918422698974609 0.78959774971008300781 0.89896667003631591797 1.0285828113555908203 1.1783165931701660156 0.94173967838287353516 0.77980303764343261719 1.0560519695281982422 1.057942509651184082 1.0029720067977905273 0.71732407808303833008 1.0084606409072875977 1.0195692777633666992 1.006981968879699707 1.0435030460357666016 1.2031126022338867188 1.2255443334579467773 1.1380783319473266602 1.0528767108917236328 1.0201663970947265625 0.86789679527282714844 0.96976125240325927734 1.0204819440841674805 1.1163669824600219727 1.1699495315551757812 1.1442725658416748047 1.0710562467575073242 0.93954521417617797852 0.98464906215667724609 1.2234499454498291016 1.2070964574813842773 0.90118712186813354492 0.87490713596343994141 0.95324099063873291016 0.93234390020370483398 1.0743025541305541992 1.0618500709533691406 1.0758535861968994141 1.0225926637649536133 1.1034333705902099609 1.1613318920135498047 1.1897699832916259766 1.1888301372528076172 1.1401808261871337891 1.1222780942916870117 1.1194176673889160156 1.0824881792068481445 1.1598820686340332031 1.0487675666809082031 0.97349935770034790039 1.118512272834777832 1.0836735963821411133 1.1036093235015869141 1.0902166366577148438 1.0382493734359741211 1.1874907016754150391 0.96739965677261352539 0.56344509124755859375 0.61392843723297119141 0.76881122589111328125 0.91516315937042236328 1.0326762199401855469 1.0316444635391235352 1.1844730377197265625 0.80964374542236328125 0.99270433187484741211 1.0308680534362792969 1.0274242162704467773 0.92812073230743408203 0.95306116342544555664 1.0401213169097900391 0.96272993087768554688 0.70596718788146972656 0.92202246189117431641 0.83155494928359985352 0.9199625849723815918 1.0525722503662109375 1.1052906513214111328 1.1162619590759277344 1.1153708696365356445 1.1509016752243041992 1.1158874034881591797 1.1041284799575805664 1.0418189764022827148 1.0216857194900512695 1.0290927886962890625 1.0490741729736328125 1.1360939741134643555 1.2599126100540161133 1.1983369588851928711 1.1713737249374389648 1.0885295867919921875 0.89478844404220581055 0.81552940607070922852 0.79847824573516845703 0.45834392309188842773 0.50433737039566040039 0.67501246929168701172 0.81392663717269897461 0.97087407112121582031 1.1153888702392578125 1.2081785202026367188 1.1968027353286743164 1.1933826208114624023 1.1953803300857543945 1.0616621971130371094 1.1671073436737060547 1.2324808835983276367 1.0249373912811279297 1.030861973762512207 1.124538421630859375 1.1330978870391845703 0.88445907831192016602 0.62323266267776489258 0.65895175933837890625 0.83208543062210083008 1.0205632448196411133 1.0220665931701660156 1.0516612529754638672 1.0748490095138549805 0.7976792454719543457 0.36632654070854187012 0.74717605113983154297 0.97241222858428955078 1.0525288581848144531 1.0794237852096557617 0.70769345760345458984 0.35190904140472412109 0.75992286205291748047 0.90805518627166748047 0.94445323944091796875 1.0765992403030395508 0.99373608827590942383 1.0040342807769775391 1.2180141210556030273
1.2717536687850952148 1.2085330486297607422 1.1139664649963378906 1.2115697860717773438 1.2506994009017944336 1.2015575170516967773 1.2064306735992431641 1.0410864353179931641 0.86437505483627319336 1.0162774324417114258 1.2073247432708740234 1.1870807409286499023 1.0061298608779907227 0.66121530532836914062 1.1234263181686401367 1.1069881916046142578 1.1474535465240478516 1.2428520917892456055 1.1393142938613891602 1.1263355016708374023 1.0780897140502929688 1.1218097209930419922 1.1416809558868408203 1.2491650581359863281 1.2249779701232910156 1.1788631677627563477 0.93482345342636108398 0.84355461597442626953 1.0959168672561645508 1.1390365362167358398 1.0282965898513793945 0.73365831375122070312 0.69343066215515136719 0.80240911245346069336 0.81226342916488647461 0.74527263641357421875 0.99655729532241821289 1.0688215494155883789 0.89314252138137817383 0.96485728025436401367 1.0529754161834716797 1.0856707096099853516 1.1131291389465332031 1.1429808139801025391 1.0682276487350463867 1.0758635997772216797 1.0964998006820678711 0.99582654237747192383 0.84875118732452392578 1.0221018791198730469 1.1231367588043212891 1.1741173267364501953 1.114453434944152832 1.1079572439193725586 1.2929838895797729492 1.0663274526596069336 1.1286478042602539062 1.1984268426895141602 1.0468823909759521484 0.97421783208847045898 1.032299041748046875 1.103725433349609375 1.2178819179534912109 1.0911641120910644531 1.1801846027374267578 1.2101984024047851562 1.1687304973602294922 1.1554089784622192383 1.131866455078125 1.0976070165634155273 1.0522886514663696289 1.0265309810638427734 1.2185394763946533203 1.0770021677017211914 1.0530092716217041016 1.1145018339157104492 1.1128557920455932617 1.1506580114364624023 1.1901797056198120117 1.0616079568862915039 1.0851683616638183594 1.2226002216339111328 1.2185528278350830078 0.84807443618774414062 0.61165714263916015625 0.79475945234298706055 1.0147935152053833008 1.0967022180557250977 1.2179127931594848633 0.80346798896789550781 0.89757502079010009766 0.86946195363998413086 0.60406273603439331055 0.7546622157096862793 0.82472348213195800781 0.88209730386734008789 0.80803459882736206055 0.82337230443954467773 1.2111855745315551758 1.1897559165954589844 1.1327984333038330078 1.1316440105438232422 1.0865175724029541016 1.0559998750686645508 1.0748815536499023438 1.0769900083541870117 1.0688439607620239258 1.0335085391998291016 1.0454003810882568359 1.048351287841796875 1.1192079782485961914 1.1512445211410522461 1.1898818016052246094 1.2479822635650634766 1.1604948043823242188 1.2129266262054443359 1.105337977409362793 1.0502138137817382812 1.0679630041122436523 0.85641640424728393555 0.41421997547149658203 0.42291539907455444336 0.72588711977005004883 0.82222992181777954102 0.96880042552947998047 1.1747148036956787109 1.191157221794128418 1.151887059211730957 1.1887750625610351562 1.1952365636825561523 1.0915459394454956055 1.1878125667572021484 1.2294651269912719727 0.99742889404296875 0.95921158790588378906 0.97310280799865722656 0.91717493534088134766 0.94140362739562988281 1.1643568277359008789 1.1749215126037597656 1.1174628734588623047 1.0863662958145141602 1.0630483627319335938 1.0157800912857055664 0.6371548771858215332 0.39564865827560424805 0.89679265022277832031 1.159275054931640625 1.2040302753448486328 1.1881927251815795898 1.2080543041229248047 1.0881786346435546875 0.76025003194808959961 0.69820618629455566406 0.58870851993560791016 0.81808435916900634766 1.0275901556015014648 0.9709072113037109375 0.98901003599166870117 1.2626379728317260742
1.2359457015991210938 1.0318502187728881836 1.0016564130783081055 1.1282000541687011719 1.1309032440185546875 1.1520727872848510742 1.1902841329574584961 1.1898549795150756836 1.1328176259994506836 1.1011940240859985352 1.161320805549621582 1.2153832912445068359 1.0970987081527709961 0.61657798290252685547 0.9953797459602355957 1.0103640556335449219 1.1365464925765991211 1.1887553930282592773 1.1522531509399414062 1.09635162353515625 1.0693749189376831055 1.0019782781600952148 1.1305407285690307617 1.1748551130294799805 1.1003571748733520508 1.1403322219848632812 1.0656476020812988281 0.96548253297805786133 1.1514918804168701172 1.0922549962997436523 1.0246833562850952148 0.92181527614593505859 0.95211130380630493164 0.98671168088912963867 1.0081180334091186523 1.0225253105163574219 0.98227667808532714844 0.88465726375579833984 0.98907357454299926758 0.87348794937133789062 0.81573760509490966797 0.96985095739364624023 1.1236191987991333008 1.1547204256057739258 1.0091339349746704102 1.111329197883605957 1.143448948860168457 1.0079722404479980469 0.85233616828918457031 0.89819341897964477539 0.85769683122634887695 0.89131927490234375 1.0732406377792358398 1.2483850717544555664 1.2866594791412353516 1.1036176681518554688 1.1705080270767211914 1.2571828365325927734 1.0409643650054931641 1.0502973794937133789 1.0842522382736206055 1.2150194644927978516 1.2456456422805786133 1.1778279542922973633 1.1754422187805175781 1.1405622959136962891 1.0899885892868041992 1.1701644659042358398 1.1466982364654541016 1.0615108013153076172 1.0528941154479980469 1.0792621374130249023 1.1796374320983886719 1.1517474651336669922 1.1372183561325073242 1.1288946866989135742 1.2187050580978393555 1.2080545425415039062 1.2350968122482299805 1.0129168033599853516 0.98848688602447509766 1.0266299247741699219 1.2291676998138427734 1.2284616231918334961 0.78107589483261108398 0.6729176640510559082 0.93378156423568725586 1.0593724250793457031 1.1511751413345336914 0.66901034116744995117 0.3047389984130859375 0.20524767041206359863 0.41148266196250915527 0.85861694812774658203 0.86596971750259399414 0.66672021150588989258 0.82188856601715087891 0.95446962118148803711 1.0832244157791137695 1.1934680938720703125 1.2019207477569580078 1.1475462913513183594 1.1124342679977416992 1.1450681686401367188 1.1048966646194458008 1.1515403985977172852 1.2164751291275024414 1.1185820102691650391 1.0335805416107177734 1.0862555503845214844 1.1208124160766601562 1.1367790699005126953 1.1832115650177001953 1.2132147550582885742 1.2151229381561279297 1.2311316728591918945 1.2289088964462280273 1.2040578126907348633 1.1209446191787719727 0.96733611822128295898 0.54347914457321166992 0.56658625602722167969 1.1311583518981933594 1.0856550931930541992 0.98893219232559204102 1.1495499610900878906 1.1914174556732177734 1.1271415948867797852 1.057979583740234375 1.1050245761871337891 1.1044138669967651367 1.1344054937362670898 1.1568393707275390625 1.0397162437438964844 1.0200225114822387695 1.043011784553527832 1.0340480804443359375 1.0839359760284423828 1.154954075813293457 1.1039730310440063477 1.0850483179092407227 1.0598742961883544922 1.0758996009826660156 0.85065054893493652344 0.63083052635192871094 1.1016504764556884766 1.2742990255355834961 1.2361705303192138672 1.179379582405090332 1.182492375373840332 1.1844966411590576172 1.2081258296966552734 1.1798715591430664062 1.1018849611282348633 0.9344660639762878418 0.8146050572395324707 1.0090091228485107422 0.94680172204971313477 0.93802982568740844727 1.2888547182083129883
1.2488169670104980469 1.1178500652313232422 1.0427308082580566406 1.0471923351287841797 1.016712188720703125 1.0830864906311035156 1.1603176593780517578 1.1630748510360717773 1.1431409120559692383 1.1635260581970214844 1.1846312284469604492 1.193285822868347168 0.93899542093276977539 0.52434772253036499023 0.97694700956344604492 0.96974635124206542969 1.0764468908309936523 1.1600354909896850586 1.167784571647644043 1.1562945842742919922 1.1001631021499633789 1.0493181943893432617 1.0886137485504150391 1.2020436525344848633 1.0132261514663696289 1.0775507688522338867 1.0802177190780639648 1.0843468904495239258 1.0937893390655517578 1.0954663753509521484 1.0901551246643066406 1.0280989408493041992 0.99681776762008666992 0.98770993947982788086 0.96412259340286254883 1.0298820734024047852 0.98883968591690063477 0.98914110660552978516 1.0380642414093017578 0.93150657415390014648 0.83716279268264770508 0.89255708456039428711 1.0221962928771972656 1.0297408103942871094 1.0582367181777954102 1.0189591646194458008 1.1220306158065795898 1.0666409730911254883 0.79788708686828613281 0.83838027715682983398 0.87065720558166503906 0.72364765405654907227 0.88199472427368164062 1.1999517679214477539 1.2828568220138549805 1.2419962882995605469 1.1835906505584716797 0.97580546140670776367 0.7560914158821105957 0.89757597446441650391 1.0754226446151733398 1.1735626459121704102 1.1921221017837524414 1.2209953069686889648 1.1491425037384033203 1.0410611629486083984 1.0673047304153442383 1.099287867546081543 1.1173372268676757812 1.1011404991149902344 1.0591093301773071289 1.0249067544937133789 1.0866808891296386719 1.1897538900375366211 1.215678095817565918 1.1392610073089599609 1.1725721359252929688 1.1977968215942382812 1.1453431844711303711 1.011866450309753418 0.95080053806304931641 1.074589848518371582 1.1370880603790283203 1.1694281101226806641 0.79376316070556640625 0.64164590835571289062 0.83566689491271972656 1.0388165712356567383 1.0244668722152709961 0.50844472646713256836 0.15147955715656280518 0.58928728103637695312 0.81896382570266723633 0.92417925596237182617 0.80815702676773071289 0.84163594245910644531 0.91957837343215942383 0.92826282978057861328 1.0715236663818359375 1.0441825389862060547 0.98236173391342163086 1.117918848991394043 1.059172511100769043 1.0794600248336791992 0.9644845128059387207 1.0670889616012573242 1.1787427663803100586 1.0803953409194946289 1.0096399784088134766 1.121706843376159668 1.2033487558364868164 1.2020283937454223633 1.2625856399536132812 1.2340348958969116211 1.1576620340347290039 1.1302260160446166992 1.1097700595855712891 1.037184596061706543 1.1341012716293334961 1.1891881227493286133 0.91981750726699829102 0.75923997163772583008 1.1966615915298461914 1.1273094415664672852 1.0911537408828735352 1.2734093666076660156 1.2157294750213623047 1.0903804302215576172 1.0445528030395507812 1.0481319427490234375 1.115399479866027832 1.1287244558334350586 1.1727862358093261719 1.0857341289520263672 1.0052360296249389648 1.0786957740783691406 1.1290104389190673828 1.0869405269622802734 1.0910249948501586914 1.0813839435577392578 1.0676465034484863281 1.0580124855041503906 1.0702135562896728516 1.0410889387130737305 1.1573683023452758789 1.1740138530731201172 1.1071240901947021484 1.0929940938949584961 1.1199102401733398438 1.1076239347457885742 1.1251872777938842773 1.1592967510223388672 1.1154513359069824219 1.0772368907928466797 1.0671060085296630859 0.82484430074691772461 0.99271500110626220703 0.95488965511322021484 0.89714533090591430664 1.2749586105346679688
1.2855321168899536133 1.1617465019226074219 1.1011159420013427734 1.0792140960693359375 1.0333143472671508789 1.1295579671859741211 1.1302889585494995117 1.1532652378082275391 1.1143685579299926758 1.1342186927795410156 1.1504154205322265625 1.0921158790588378906 0.81376242637634277344 1.0952827930450439453 1.2566558122634887695 1.0847791433334350586 1.0855467319488525391 1.1415382623672485352 1.1684364080429077148 1.1447530984878540039 1.1519476175308227539 1.1659888029098510742 0.98234218358993530273 1.0955603122711181641 1.2364829778671264648 1.2547445297241210938 1.1816643476486206055 1.1376930475234985352 1.122221827507019043 1.2125194072723388672 1.1461145877838134766 1.0401029586791992188 0.97145295143127441406 0.99834471940994262695 0.9344183802604675293 0.90416741371154785156 0.87759149074554443359 0.91574788093566894531 0.88784939050674438477 0.92318910360336303711 0.9432824254035949707 0.82543617486953735352 1.1027138233184814453 1.1193586587905883789 1.0371609926223754883 0.9416707158088684082 1.0234929323196411133 1.2200866937637329102 0.99647831916809082031 0.95502972602844238281 0.99226182699203491211 0.87904649972915649414 0.89402192831039428711 1.172152400016784668 1.2799500226974487305 1.2016662359237670898 0.76366341114044189453 0.84428042173385620117 0.88519430160522460938 0.96352726221084594727 1.1722772121429443359 1.2321567535400390625 1.2600874900817871094 1.2212996482849121094 1.1810539960861206055 1.040957331657409668 0.9833227992057800293 1.068846583366394043 1.0577851533889770508 1.1164726018905639648 1.0308134555816650391 1.0460426807403564453 1.0611832141876220703 1.177805781364440918 1.2459875345230102539 1.0220026969909667969 0.86727380752563476562 0.82568204402923583984 0.72223877906799316406 0.84231102466583251953 0.96960282325744628906 1.211136937141418457 1.1502904891967773438 1.2548725605010986328 1.0612138509750366211 0.89290589094161987305 0.83800745010375976562 0.91953361034393310547 0.86112236976623535156 0.43333077430725097656 0.54467922449111938477 0.81075060367584228516 0.93582785129547119141 1.0280815362930297852 1.0198684930801391602 0.88095897436141967773 0.74887859821319580078 0.89264571666717529297 0.90972805023193359375 0.74035543203353881836 0.90251433849334716797 0.90615111589431762695 0.83927482366561889648 0.79345154762268066406 0.82579022645950317383 1.0556025505065917969 1.178061366081237793 1.0994385480880737305 1.1612601280212402344 1.241892695426940918 1.2158473730087280273 1.2476217746734619141 1.2513015270233154297 1.0731191635131835938 0.99011307954788208008 1.0213583707809448242 1.007290959358215332 0.99801337718963623047 1.0251091718673706055 1.0867751836776733398 1.1101489067077636719 0.76708149909973144531 0.94036209583282470703 0.96654528379440307617 0.98795342445373535156 1.253411412239074707 1.2569861412048339844 1.0778827667236328125 1.0006917715072631836 0.94628578424453735352 1.0216915607452392578 1.0602793693542480469 1.1023838520050048828 1.0527293682098388672 0.99782586097717285156 1.0313389301300048828 1.0214431285858154297 1.0147242546081542969 1.0492571592330932617 1.0659224987030029297 1.0729880332946777344 1.1295504570007324219 1.1225008964538574219 1.1084434986114501953 1.1043658256530761719 1.0629419088363647461 1.0797904729843139648 1.0672937631607055664 1.0789096355438232422 1.0457533597946166992 1.0968461036682128906 1.1449238061904907227 1.0900506973266601562 1.0800634622573852539 1.1223843097686767578 1.0037190914154052734 0.94706797599792480469 1.0432595014572143555 0.93683207035064697266 1.2327955961227416992
1.3301856517791748047 0.97933298349380493164 0.86731821298599243164 1.016371607780456543 1.112421870231628418 1.1824079751968383789 1.1635587215423583984 1.1418682336807250977 1.1487019062042236328 1.1276080608367919922 1.1166479587554931641 1.0636358261108398438 0.54536896944046020508 0.95840722322463989258 1.2272267341613769531 1.1989507675170898438 1.1251775026321411133 1.056316375732421875 1.0861974954605102539 1.1071844100952148438 1.0690839290618896484 1.1045928001403808594 1.0854250192642211914 1.1081192493438720703 1.2871387004852294922 1.2847969532012939453 1.2702193260192871094 1.2397843599319458008 1.2174878120422363281 1.2251679897308349609 1.2360713481903076172 1.2059142589569091797 1.1088927984237670898 1.0481133460998535156 0.96285617351531982422 0.92638105154037475586 0.88243114948272705078 0.92412066459655761719 0.89896434545516967773 0.75967621803283691406 0.84870058298110961914 0.81966364383697509766 1.0242825746536254883 1.0120803117752075195 0.92471152544021606445 0.8507493138313293457 0.77344572544097900391 1.1067049503326416016 1.1528203487396240234 1.0728570222854614258 1.0747742652893066406 0.97969323396682739258 0.95497858524322509766 1.1871123313903808594 1.2764290571212768555 1.1401146650314331055 0.68412643671035766602 0.87314516305923461914 1.1084971427917480469 1.1778680086135864258 1.2089059352874755859 1.0959515571594238281 1.1702154874801635742 1.1638931035995483398 1.1973407268524169922 1.0529211759567260742 0.88478374481201171875 0.98454499244689941406 1.0305310487747192383 1.0697609186172485352 1.0231491327285766602 1.0895097255706787109 1.0555529594421386719 1.1365469694137573242 1.2079341411590576172 0.86469978094100952148 0.47531920671463012695 0.47548252344131469727 0.71261525154113769531 1.0444581508636474609 1.0597425699234008789 1.2071472406387329102 1.1016098260879516602 1.099829554557800293 0.98721683025360107422 1.0181505680084228516 0.9551226496696472168 0.91566061973571777344 0.87806439399719238281 0.29551717638969421387 0.78734892606735229492 0.90925681591033935547 1.0134676694869995117 1.1556318998336791992 1.0968255996704101562 1.027740478515625 0.84603905677795410156 0.705230712890625 0.57775437831878662109 0.61282080411911010742 0.48364460468292236328 0.45321968197822570801 0.65306818485260009766 0.74455416202545166016 0.76160985231399536133 0.77882075309753417969 1.0254682302474975586 1.2394006252288818359 1.2074427604675292969 1.1678644418716430664 1.1268486976623535156 1.2179757356643676758 1.2564401626586914062 1.0551291704177856445 0.913837432861328125 0.88293534517288208008 0.96030938625335693359 0.99672263860702514648 1.0246978998184204102 1.0605639219284057617 1.0842255353927612305 0.72523504495620727539 0.70996856689453125 0.73651021718978881836 0.80014044046401977539 1.1395285129547119141 1.1986521482467651367 1.1935799121856689453 1.1863057613372802734 1.0774228572845458984 1.0155708789825439453 1.042147517204284668 1.0057072639465332031 0.99476122856140136719 0.99765020608901977539 1.0518277883529663086 1.0360885858535766602 1.0410037040710449219 1.0621942281723022461 1.057112574577331543 1.0752638578414916992 1.0580003261566162109 1.0850402116775512695 1.074087977409362793 1.0498995780944824219 1.0296444892883300781 1.0814810991287231445 1.1187038421630859375 1.1088160276412963867 1.0590536594390869141 1.113840937614440918 1.1311593055725097656 1.1296514272689819336 1.1420819759368896484 1.1724410057067871094 1.1239857673645019531 0.81546229124069213867 1.121281743049621582 0.9829756617546081543 1.1959469318389892578
1.3340191841125488281 1.1847690343856811523 0.93284106254577636719 0.62486672401428222656 0.93746507167816162109 1.0221877098083496094 0.85216724872589111328 1.0225485563278198242 1.0794017314910888672 1.0399599075317382812 0.8460102081298828125 0.61994647979736328125 0.23768770694732666016 0.60637974739074707031 1.000105738639831543 1.2141066789627075195 1.1515554189682006836 1.0878827571868896484 1.0466276407241821289 1.0720295906066894531 1.0568007230758666992 1.0560610294342041016 1.047925114631652832 1.0163938999176025391 1.0949891805648803711 1.1276645660400390625 1.134227752685546875 1.0609502792358398438 1.0420795679092407227 1.1582013368606567383 1.2390683889389038086 1.2948023080825805664 1.2680772542953491211 1.1542416810989379883 1.0755569934844970703 1.0355008840560913086 1.0880975723266601562 1.070964813232421875 1.0334706306457519531 0.74854838848114013672 0.66703212261199951172 0.75887531042098999023 1.1446135044097900391 1.0145052671432495117 0.99361598491668701172 1.0031347274780273438 0.9302762150764465332 1.1389199495315551758 1.1376096010208129883 1.0626431703567504883 0.99785697460174560547 1.013843536376953125 1.076668858528137207 1.2177377939224243164 1.2728575468063354492 1.023815155029296875 0.9392731785774230957 1.0160491466522216797 1.2148156166076660156 1.2522417306900024414 0.97430473566055297852 0.90634876489639282227 1.1321620941162109375 0.89184093475341796875 0.94471049308776855469 1.0814518928527832031 0.85592103004455566406 0.86136591434478759766 1.0425378084182739258 0.90543293952941894531 1.0657057762145996094 1.1545591354370117188 1.0876079797744750977 1.1508901119232177734 1.2621872425079345703 1.2350780963897705078 0.83044755458831787109 0.27377864718437194824 0.93094098567962646484 1.1680045127868652344 1.1721719503402709961 0.90767854452133178711 0.90471971035003662109 0.98902285099029541016 0.97412860393524169922 1.0554754734039306641 1.0340203046798706055 0.9372933506965637207 0.86127620935440063477 0.31499975919723510742 0.66415500640869140625 0.86332499980926513672 0.98395431041717529297 1.1533837318420410156 1.2114689350128173828 1.1504594087600708008 1.1248636245727539062 1.0036290884017944336 0.78838777542114257812 0.96627080440521240234 0.92508375644683837891 0.73029959201812744141 0.86950522661209106445 0.86416161060333251953 0.90489029884338378906 0.97311025857925415039 0.87743920087814331055 0.907764434814453125 1.1266368627548217773 1.1498110294342041016 1.0859003067016601562 1.1683667898178100586 1.1887676715850830078 1.1150293350219726562 1.0984741449356079102 0.94038033485412597656 1.0749617815017700195 1.1111874580383300781 1.0721427202224731445 1.0061153173446655273 1.0499813556671142578 0.79430598020553588867 0.49966755509376525879 0.73199576139450073242 0.95007151365280151367 1.1988793611526489258 1.2274826765060424805 1.2235547304153442383 1.241015315055847168 1.2094526290893554688 1.2107092142105102539 1.1848281621932983398 1.0397874116897583008 1.0153673887252807617 1.0562958717346191406 1.0713531970977783203 1.0788820981979370117 1.1080594062805175781 1.0994005203247070312 1.0758973360061645508 1.0858011245727539062 1.0962214469909667969 1.1647645235061645508 1.1222043037414550781 1.0425361394882202148 1.0793265104293823242 1.1173044443130493164 1.1481140851974487305 1.1463350057601928711 1.1143975257873535156 1.1752358675003051758 1.2365598678588867188 1.2904722690582275391 1.2572752237319946289 1.2247327566146850586 0.99785619974136352539 0.56450152397155761719 1.0826854705810546875 1.0816954374313354492 1.1320859193801879883
1.3322402238845825195 1.2274680137634277344 1.152077794075012207 0.70206975936889648438 0.57277327775955200195 0.51940882205963134766 0.36143642663955688477 0.53870230913162231445 0.6078249812126159668 0.51662653684616088867 0.30665180087089538574 0.42760604619979858398 0.28568893671035766602 0.97675073146820068359 1.1091009378433227539 1.0225220918655395508 0.96471655368804931641 1.0499622821807861328 1.0755237340927124023 1.067180633544921875 1.0874553918838500977 1.065695643424987793 1.0615955591201782227 0.98001801967620849609 1.0052572488784790039 1.1780830621719360352 1.1152944564819335938 1.0247503519058227539 1.0908454656600952148 1.1981201171875 1.0897258520126342773 1.1808362007141113281 1.2662235498428344727 1.2750132083892822266 1.2631303071975708008 1.1925548315048217773 1.103615880012512207 1.0912103652954101562 1.054148554801940918 0.86269873380661010742 0.66405719518661499023 0.73008507490158081055 1.2185443639755249023 1.1606116294860839844 1.1335813999176025391 1.1434295177459716797 0.99243217706680297852 1.1293318271636962891 1.1119874715805053711 1.0661500692367553711 0.97938781976699829102 1.0645803213119506836 1.1087291240692138672 1.226983189582824707 1.2697539329528808594 1.0609863996505737305 1.136765599250793457 1.1635092496871948242 1.1398558616638183594 1.0932260751724243164 0.91622501611709594727 1.0014700889587402344 1.1602786779403686523 0.86067295074462890625 0.86514776945114135742 1.0263807773590087891 0.88273119926452636719 0.82498341798782348633 1.0241816043853759766 0.99724286794662475586 1.0370980501174926758 1.1795939207077026367 1.1395528316497802734 1.2312824726104736328 1.3020762205123901367 1.2302356958389282227 1.0826654434204101562 0.28745639324188232422 0.9058468937873840332 1.1016199588775634766 1.086419224739074707 0.56816864013671875 0.81568861007690429688 0.8978519439697265625 0.98379778861999511719 1.0907399654388427734 1.0562834739685058594 0.92854362726211547852 0.64713531732559204102 0.78276109695434570312 0.85060507059097290039 0.76124781370162963867 0.77001243829727172852 1.0193939208984375 1.1139458417892456055 1.1578344106674194336 1.1859663724899291992 0.97432279586791992188 0.87878412008285522461 1.032382965087890625 1.0249876976013183594 0.80792945623397827148 0.68912357091903686523 0.63689094781875610352 0.78830063343048095703 1.0560587644577026367 0.90446430444717407227 0.79716199636459350586 1.0734442472457885742 1.1214601993560791016 1.1042304039001464844 1.1454601287841796875 1.2065725326538085938 1.122165679931640625 1.080809473991394043 0.81815642118453979492 1.0832151174545288086 1.1530022621154785156 1.0619525909423828125 0.92444610595703125 0.99602067470550537109 0.99818241596221923828 0.62981384992599487305 0.77017742395401000977 0.97086489200592041016 1.2229787111282348633 1.1758126020431518555 1.2286697626113891602 1.1977820396423339844 1.0336246490478515625 1.0867531299591064453 1.2417141199111938477 1.2507499456405639648 1.2471451759338378906 1.2357175350189208984 1.1773675680160522461 1.1256145238876342773 1.0929241180419921875 1.0792661905288696289 1.0957448482513427734 1.1167360544204711914 1.149145960807800293 1.1778420209884643555 1.1441266536712646484 1.1473122835159301758 1.1940146684646606445 1.1601471900939941406 1.1103310585021972656 1.1562829017639160156 1.2385134696960449219 1.2900037765502929688 1.2217813730239868164 1.0871390104293823242 0.90487349033355712891 0.80781710147857666016 0.38551861047744750977 0.21210442483425140381 0.40976351499557495117 0.81902104616165161133 0.95831894874572753906
1.2611029148101806641 1.1331101655960083008 0.99260294437408447266 0.59948951005935668945 0.4716294407844543457 0.31711462140083312988 0.7633984684944152832 1.137574315071105957 0.75377392768859863281 0.73759520053863525391 0.86606580018997192383 1.0942122936248779297 0.95550757646560668945 1.0146394968032836914 1.0841493606567382812 1.1028298139572143555 1.0100240707397460938 1.0455999374389648438 1.066628575325012207 1.0680062770843505859 1.1011301279067993164 1.1107897758483886719 1.1411367654800415039 1.1221921443939208984 1.0554345846176147461 1.0230340957641601562 1.0721031427383422852 0.91375070810317993164 0.91921055316925048828 1.1608154773712158203 1.1750780344009399414 1.033791661262512207 1.0442312955856323242 1.2820900678634643555 1.2851355075836181641 1.2839331626892089844 1.2657655477523803711 1.1587264537811279297 1.1131112575531005859 0.97173494100570678711 0.86961382627487182617 0.55305308103561401367 0.87079608440399169922 1.2053960561752319336 1.1368108987808227539 1.0971033573150634766 1.1010800600051879883 1.1121935844421386719 1.1359475851058959961 1.0971255302429199219 1.1108072996139526367 1.0737249851226806641 1.0042678117752075195 1.1090970039367675781 1.2684686183929443359 1.1911644935607910156 0.94390207529067993164 0.94313907623291015625 0.96413707733154296875 0.91568070650100708008 0.78558063507080078125 0.96542853116989135742 1.1195416450500488281 0.65798217058181762695 0.64134067296981811523 0.93866974115371704102 0.94041979312896728516 1.0240417718887329102 1.0647766590118408203 1.0403484106063842773 1.0530807971954345703 1.0807087421417236328 1.1422218084335327148 1.2811042070388793945 1.0869196653366088867 1.0132018327713012695 1.0063232183456420898 0.35094544291496276855 0.48854866623878479004 1.1133748292922973633 0.85695791244506835938 0.56036919355392456055 0.94686365127563476562 0.87141966819763183594 0.97122615575790405273 1.0571902990341186523 0.96449047327041625977 0.71080172061920166016 0.41603109240531921387 0.50730305910110473633 0.69835305213928222656 0.86370962858200073242 0.93510782718658447266 0.96316444873809814453 1.1070753335952758789 1.132943272590637207 1.1528162956237792969 0.96897518634796142578 0.98299944400787353516 1.0510582923889160156 1.0062295198440551758 0.9510663151741027832 0.94094115495681762695 0.91221857070922851562 0.56259167194366455078 0.82389849424362182617 0.82806146144866943359 0.83819186687469482422 1.0803849697113037109 1.1512204408645629883 1.1130598783493041992 1.1271111965179443359 1.2191895246505737305 1.2057613134384155273 1.1172186136245727539 0.74089145660400390625 0.98254042863845825195 1.1352576017379760742 1.0970796346664428711 1.0134232044219970703 1.0355566740036010742 1.0125265121459960938 0.82442969083786010742 0.60008567571640014648 0.88602149486541748047 1.2563846111297607422 1.1670579910278320312 1.1667627096176147461 1.1462740898132324219 1.0828955173492431641 1.0666117668151855469 1.1910544633865356445 1.2162555456161499023 1.1914042234420776367 1.1724572181701660156 1.0852533578872680664 1.2184709310531616211 1.2692966461181640625 1.1899302005767822266 1.2091462612152099609 1.2233448028564453125 1.2151662111282348633 1.2467206716537475586 1.252938389778137207 1.2449983358383178711 1.2925740480422973633 1.2909429073333740234 1.2190124988555908203 1.2173860073089599609 1.1523308753967285156 1.0241783857345581055 0.90748083591461181641 0.81107056140899658203 0.31152448058128356934 0.12729215621948242188 0.3446057438850402832 0.6370804905891418457 0.54948371648788452148 1.0223096609115600586 1.1429324150085449219
1.051110386848449707 0.81430190801620483398 0.49337443709373474121 0.54073011875152587891 1.1487973928451538086 0.78225713968276977539 1.0386766195297241211 1.224619746208190918 1.1758470535278320312 0.81678605079650878906 1.104985356330871582 1.1989367008209228516 1.2446233034133911133 0.91403931379318237305 0.78471529483795166016 1.0453878641128540039 0.94208186864852905273 0.87802553176879882812 1.0048319101333618164 1.083563685417175293 1.0700718164443969727 1.0560394525527954102 1.0166928768157958984 1.0720036029815673828 1.1280587911605834961 1.0629628896713256836 0.97605174779891967773 0.80299299955368041992 0.69458150863647460938 0.81636613607406616211 0.97992020845413208008 1.050637364387512207 1.0275523662567138672 1.1106214523315429688 1.0212984085083007812 1.0423357486724853516 1.2315834760665893555 1.2791396379470825195 1.1751337051391601562 1.1278440952301025391 1.0886173248291015625 0.94444376230239868164 0.57164341211318969727 1.0495941638946533203 1.1518256664276123047 1.1406533718109130859 1.0831809043884277344 1.1097433567047119141 1.0900006294250488281 1.0204607248306274414 1.1914807558059692383 1.1858099699020385742 0.91578263044357299805 0.94545441865921020508 1.2668792009353637695 1.0479936599731445312 0.97970277070999145508 0.82018882036209106445 0.59336858987808227539 0.71795576810836791992 0.62519133090972900391 0.87005388736724853516 0.98087382316589355469 0.74461793899536132812 0.74143910408020019531 0.95091468095779418945 1.0697972774505615234 1.0386780500411987305 1.0314126014709472656 1.045575261116027832 1.1045961380004882812 1.1022124290466308594 1.1119523048400878906 1.2934931516647338867 0.95521271228790283203 0.75549626350402832031 0.73209589719772338867 0.71571105718612670898 0.73918253183364868164 0.58525836467742919922 0.3809788823127746582 0.52412956953048706055 0.94044744968414306641 0.51724046468734741211 0.67086201906204223633 0.97370362281799316406 0.77971607446670532227 0.47493547201156616211 0.45883297920227050781 0.78744363784790039062 0.67873412370681762695 0.70649558305740356445 0.88826411962509155273 0.97231251001358032227 1.0563652515411376953 1.0968785285949707031 1.1308358907699584961 1.0283941030502319336 1.1026673316955566406 1.0719627141952514648 1.1014772653579711914 1.0789433717727661133 0.99884092807769775391 1.0526859760284423828 0.67449831962585449219 0.48380365967750549316 0.41631329059600830078 0.86484360694885253906 1.2046140432357788086 1.1647984981536865234 1.1078860759735107422 1.0847251415252685547 1.198672175407409668 1.2368822097778320312 1.1099097728729248047 0.75729513168334960938 0.86200308799743652344 1.1894993782043457031 1.078558802604675293 1.0353999137878417969 1.0313010215759277344 0.99619793891906738281 0.96676117181777954102 0.84516596794128417969 1.0652838945388793945 1.197176814079284668 1.2142086029052734375 1.0813273191452026367 1.0766626596450805664 1.158336639404296875 1.1580634117126464844 1.1614176034927368164 1.1522251367568969727 1.0662094354629516602 1.0462607145309448242 0.98834371566772460938 0.68998360633850097656 1.0102963447570800781 1.2512679100036621094 1.3237758874893188477 1.2933789491653442383 1.2142071723937988281 1.2455210685729980469 1.2003668546676635742 1.1002163887023925781 1.1687160730361938477 1.0536042451858520508 0.76793652772903442383 0.66987651586532592773 0.54766172170639038086 0.54465466737747192383 0.49788171052932739258 0.2823931276798248291 0.12768529355525970459 0.56356287002563476562 0.80358713865280151367 0.92875051498413085938 0.89973974227905273438 1.0773004293441772461 1.2294517755508422852
0.99962127208709716797 0.75212103128433227539 0.65484040975570678711 0.66757827997207641602 1.1567389965057373047 1.0808135271072387695 0.77158123254776000977 1.1467272043228149414 1.2713330984115600586 1.1124775409698486328 1.081175684928894043 1.1540709733963012695 1.2127548456192016602 0.95566320419311523438 0.39763334393501281738 0.68275165557861328125 0.63869559764862060547 0.62493437528610229492 0.75247675180435180664 0.80705088376998901367 0.73574090003967285156 0.56588381528854370117 0.45492541790008544922 0.88405609130859375 1.1314225196838378906 1.0813978910446166992 0.89972019195556640625 0.90016877651214599609 0.82538008689880371094 0.72455936670303344727 0.89761132001876831055 1.0328013896942138672 0.83828777074813842773 0.81371456384658813477 0.91142362356185913086 0.93958735466003417969 1.0949709415435791016 1.22876739501953125 1.267833709716796875 1.1931002140045166016 1.1677345037460327148 1.026089787483215332 0.43262201547622680664 1.0289938449859619141 1.0586349964141845703 1.1115716695785522461 1.1643720865249633789 1.1408160924911499023 1.0603948831558227539 0.99060225486755371094 1.1779729127883911133 1.1617667675018310547 1.2234789133071899414 1.2418473958969116211 1.2648749351501464844 1.0907905101776123047 0.99249464273452758789 0.99261862039566040039 0.57124459743499755859 0.44745486974716186523 0.38019266724586486816 0.75655484199523925781 0.69930756092071533203 0.37206283211708068848 0.82371693849563598633 0.92183256149291992188 1.0475805997848510742 1.0111614465713500977 1.0374511480331420898 1.0168621540069580078 1.0617284774780273438 1.0838320255279541016 1.0700216293334960938 1.2100474834442138672 0.93975961208343505859 1.053091883659362793 1.0619014501571655273 0.88597184419631958008 0.97553116083145141602 1.0469034910202026367 0.94180798530578613281 0.66639506816864013672 0.69420599937438964844 0.46799173951148986816 0.49795889854431152344 0.73794800043106079102 0.56498557329177856445 0.56202167272567749023 0.67064464092254638672 0.6196886897087097168 0.84671610593795776367 0.90310972929000854492 1.0554640293121337891 1.1623204946517944336 1.1461081504821777344 1.0441268682479858398 0.98656946420669555664 1.0883359909057617188 1.1507558822631835938 1.1467194557189941406 1.080659031867980957 1.0330648422241210938 1.0099352598190307617 1.077106475830078125 0.81872838735580444336 0.93540948629379272461 0.58486336469650268555 0.58292818069458007812 1.0889518260955810547 1.1565719842910766602 1.1236732006072998047 1.1232850551605224609 1.1684981584548950195 1.2327740192413330078 1.1876724958419799805 0.96145242452621459961 0.68675911426544189453 0.99093675613403320312 0.96929442882537841797 1.0486661195755004883 1.030121922492980957 1.0510920286178588867 1.03395843505859375 0.84364712238311767578 1.0094182491302490234 1.1733403205871582031 1.2089879512786865234 1.1008553504943847656 1.063948512077331543 1.1204472780227661133 1.2274203300476074219 1.2584435939788818359 1.2180871963500976562 1.0805234909057617188 1.0056394338607788086 1.0444037914276123047 0.78065341711044311523 0.71962088346481323242 0.70293593406677246094 1.0285278558731079102 1.2623158693313598633 1.1390445232391357422 1.0810903310775756836 1.0277713537216186523 1.0473692417144775391 0.93389213085174560547 0.84917747974395751953 0.90040940046310424805 0.93903636932373046875 1.0391523838043212891 1.0472111701965332031 0.89306479692459106445 0.37608987092971801758 0.57434201240539550781 0.79180234670639038086 0.89232009649276733398 1.0013358592987060547 0.9903132319450378418 1.2873405218124389648 1.1989678144454956055
0.82289564609527587891 1.1556962728500366211 1.1876993179321289062 0.87029284238815307617 0.88912367820739746094 1.1059522628784179688 0.79089891910552978516 1.1668574810028076172 1.2648772001266479492 1.1369814872741699219 1.0496171712875366211 1.2019853591918945312 1.1024177074432373047 0.78065353631973266602 0.21528334915637969971 0.16043783724308013916 0.40327483415603637695 0.70081818103790283203 0.8470541834831237793 0.93522918224334716797 1.0534092187881469727 0.98926770687103271484 0.83577185869216918945 0.7243404388427734375 0.6107781529426574707 0.7131798863410949707 0.73682248592376708984 0.84108126163482666016 0.73049032688140869141 0.57366555929183959961 0.73505854606628417969 0.59016335010528564453 0.64136022329330444336 0.79250216484069824219 0.90362524986267089844 1.0183145999908447266 1.0943444967269897461 1.0297981500625610352 1.1969550848007202148 1.2310922145843505859 1.2167367935180664062 0.9904072880744934082 0.38885959982872009277 0.66789209842681884766 0.98219931125640869141 1.1080509424209594727 1.0852960348129272461 0.98556351661682128906 0.9750919342041015625 1.0397584438323974609 1.2044620513916015625 1.1825352907180786133 1.1489017009735107422 1.2230628728866577148 1.1564296483993530273 1.0692290067672729492 1.0260850191116333008 1.0880949497222900391 0.78937107324600219727 0.63380420207977294922 0.40324372053146362305 0.54268068075180053711 0.33369013667106628418 0.64617449045181274414 1.0195643901824951172 1.1082220077514648438 1.0511339902877807617 0.99711716175079345703 1.0558862686157226562 1.0299149751663208008 1.0371097326278686523 1.0588034391403198242 1.0500025749206542969 1.2063716650009155273 1.003749847412109375 0.89000463485717773438 0.95268547534942626953 0.83509033918380737305 0.52508527040481567383 0.68368279933929443359 0.99887615442276000977 0.8742281794548034668 0.89521777629852294922 0.78467231988906860352 0.77357143163681030273 0.82307404279708862305 0.84809386730194091797 0.65793520212173461914 0.92560350894927978516 0.93806147575378417969 1.0125039815902709961 0.90481358766555786133 0.88256865739822387695 0.99743288755416870117 1.1913515329360961914 0.96996939182281494141 0.98484134674072265625 1.1190024614334106445 1.1299352645874023438 1.2113872766494750977 1.2424695491790771484 1.1884098052978515625 1.208565831184387207 1.0304982662200927734 0.98931837081909179688 1.000620722770690918 0.81981331110000610352 0.65625095367431640625 0.93514925241470336914 1.1721854209899902344 1.1768858432769775391 1.1629685163497924805 1.172467350959777832 1.1674865484237670898 1.1233881711959838867 0.90463209152221679688 0.57123601436614990234 0.44085142016410827637 0.55754011869430541992 0.96315652132034301758 0.98735344409942626953 1.0417149066925048828 1.0219705104827880859 0.82165181636810302734 0.80222940444946289062 1.1106595993041992188 1.2089325189590454102 1.1583380699157714844 1.0603309869766235352 1.0769817829132080078 1.2297680377960205078 1.2263914346694946289 1.1628632545471191406 1.0627018213272094727 1.0209405422210693359 1.0855610370635986328 0.99558693170547485352 1.1091675758361816406 0.66444993019104003906 0.64836841821670532227 1.0845634937286376953 1.2743859291076660156 1.1775629520416259766 1.0957437753677368164 1.1596109867095947266 1.1922217607498168945 1.1654907464981079102 0.972957611083984375 0.95412349700927734375 0.88400274515151977539 0.5844796299934387207 0.31490787863731384277 0.62700915336608886719 0.73132872581481933594 0.98196208477020263672 0.74738746881484985352 0.89736932516098022461 1.0604870319366455078 1.2362275123596191406 1.1236451864242553711
0.80848395824432373047 1.1423733234405517578 1.2436243295669555664 1.2356702089309692383 0.87129288911819458008 0.99416232109069824219 0.73057311773300170898 1.1750239133834838867 1.1642041206359863281 1.1606173515319824219 1.170330047607421875 1.2439521551132202148 1.0161013603210449219 0.58430576324462890625 0.1578855663537979126 0.50926673412322998047 0.80692833662033081055 0.85918420553207397461 0.96927392482757568359 0.94990235567092895508 1.1344436407089233398 1.2006171941757202148 1.2149183750152587891 1.1656136512756347656 1.1096255779266357422 1.0632123947143554688 0.71620333194732666016 0.82264870405197143555 1.0394331216812133789 0.86107069253921508789 0.75101888179779052734 0.62477868795394897461 0.68331027030944824219 0.59421956539154052734 0.78454291820526123047 1.0121511220932006836 0.92397791147232055664 0.96188938617706298828 1.1630308628082275391 1.2552758455276489258 1.2382874488830566406 1.0971671342849731445 0.60104650259017944336 0.29183349013328552246 0.72334676980972290039 0.98275989294052124023 0.92406803369522094727 1.0081061124801635742 0.99395775794982910156 0.97111845016479492188 1.163903355598449707 1.2011698484420776367 1.0147159099578857422 1.2529184818267822266 1.190877079963684082 1.1021969318389892578 0.96488487720489501953 1.0200884342193603516 0.86439836025238037109 0.77110588550567626953 0.75506734848022460938 0.44648021459579467773 0.25470140576362609863 0.89824885129928588867 1.0679242610931396484 1.0402868986129760742 1.0148954391479492188 0.98546022176742553711 1.0428700447082519531 1.0983775854110717773 1.1655462980270385742 1.0684638023376464844 1.0170456171035766602 1.110529780387878418 1.0873678922653198242 0.65520256757736206055 1.0327831506729125977 0.85321229696273803711 0.38436329364776611328 0.81109368801116943359 1.0480518341064453125 0.97284650802612304688 0.98207902908325195312 0.85515546798706054688 0.70398128032684326172 0.81227743625640869141 0.96236884593963623047 0.98023170232772827148 1.093334197998046875 1.0691943168640136719 1.1872892379760742188 1.1331425905227661133 1.0317201614379882812 1.1132243871688842773 1.1783807277679443359 1.1099898815155029297 1.1426861286163330078 1.1193778514862060547 1.0793060064315795898 1.1059267520904541016 1.1728795766830444336 1.2346564531326293945 1.2281006574630737305 1.1649048328399658203 1.069254755973815918 1.0603046417236328125 0.9477481842041015625 0.8839390873908996582 0.79380500316619873047 1.1304812431335449219 1.1277366876602172852 1.1059184074401855469 1.0322346687316894531 0.97492253780364990234 0.99977660179138183594 1.0132617950439453125 1.0973775386810302734 1.1466619968414306641 1.109836578369140625 1.0067732334136962891 1.0086369514465332031 1.0083150863647460938 0.94950789213180541992 0.83893299102783203125 0.72871518135070800781 1.1858659982681274414 1.182984471321105957 1.2225158214569091797 1.1063368320465087891 1.1191512346267700195 1.1564326286315917969 1.1377866268157958984 1.1377687454223632812 1.1088355779647827148 1.2105627059936523438 1.275063633918762207 1.0844247341156005859 1.1437784433364868164 1.0053691864013671875 0.40651023387908935547 0.65724575519561767578 0.99036794900894165039 1.1937952041625976562 1.1697285175323486328 1.0626386404037475586 1.0490152835845947266 0.93427962064743041992 0.8306338191032409668 0.88836663961410522461 0.43352067470550537109 0.31729003787040710449 0.72119748592376708984 0.74510681629180908203 0.60906136035919189453 0.88669937849044799805 0.88703078031539916992 1.0245383977890014648 1.1707737445831298828 1.231848597526550293 1.1799437999725341797
0.8960323333740234375 0.76836627721786499023 0.81898003816604614258 1.2231843471527099609 1.228831171989440918 1.1034097671508789062 1.0750600099563598633 1.2110561132431030273 1.1618424654006958008 1.1524348258972167969 1.2087531089782714844 1.1418132781982421875 0.86404824256896972656 0.49355599284172058105 0.43040630221366882324 0.25194782018661499023 0.7163524627685546875 1.0123487710952758789 1.0937837362289428711 1.0982604026794433594 1.1462595462799072266 1.2159879207611083984 1.2884716987609863281 1.2781316041946411133 1.2001085281372070312 1.1281949281692504883 1.1081806421279907227 1.0984358787536621094 1.2325084209442138672 1.2090120315551757812 1.0108067989349365234 0.94560617208480834961 0.95215737819671630859 0.82844835519790649414 0.50338327884674072266 0.82110494375228881836 0.94338423013687133789 1.1719405651092529297 1.2052998542785644531 1.2348492145538330078 1.2044506072998046875 1.0125801563262939453 0.52720934152603149414 0.29788300395011901855 0.65840387344360351562 0.82360780239105224609 0.92985075712203979492 1.0461461544036865234 0.98847639560699462891 0.86008852720260620117 1.0142043828964233398 1.2081710100173950195 0.94652324914932250977 1.2240962982177734375 1.2584723234176635742 1.1418802738189697266 0.9264265894889831543 1.0190149545669555664 0.84393554925918579102 0.81946194171905517578 0.76405793428421020508 0.72809606790542602539 0.36519023776054382324 1.0175405740737915039 0.92743104696273803711 0.91602689027786254883 1.0102574825286865234 0.96652036905288696289 0.99285274744033813477 1.0133510828018188477 1.0493631362915039062 1.1132349967956542969 1.0789868831634521484 0.97978931665420532227 0.8794574737548828125 0.66735112667083740234 0.66277092695236206055 0.55688899755477905273 0.83087319135665893555 0.99447089433670043945 1.1176873445510864258 1.0123045444488525391 1.1270856857299804688 0.98732483386993408203 0.68271285295486450195 0.79979097843170166016 0.81479871273040771484 0.496067047119140625 0.84639710187911987305 1.0864408016204833984 1.1706916093826293945 1.2206790447235107422 1.242766261100769043 1.199422001838684082 1.2156089544296264648 1.0758900642395019531 1.0641548633575439453 0.99423289299011230469 0.94936215877532958984 1.044826507568359375 0.95114791393280029297 1.1653562784194946289 1.205300450325012207 1.0666452646255493164 1.1257753372192382812 1.160055994987487793 1.0918269157409667969 0.83953762054443359375 0.59252655506134033203 0.96532636880874633789 1.0355503559112548828 1.0473703145980834961 0.99978667497634887695 1.0046867132186889648 1.0159211158752441406 1.0413099527359008789 1.0563645362854003906 1.0739026069641113281 1.1280750036239624023 1.0761252641677856445 0.99078857898712158203 0.97451877593994140625 0.98305141925811767578 0.90036088228225708008 0.74070143699645996094 1.1130646467208862305 1.1853079795837402344 1.1588399410247802734 1.1036024093627929688 1.164696812629699707 1.2183625698089599609 1.1398005485534667969 1.2189838886260986328 1.2772818803787231445 1.2265202999114990234 1.1063711643218994141 0.7523288726806640625 0.89239960908889770508 0.74331557750701904297 0.20223297178745269775 0.29863771796226501465 0.69743192195892333984 1.1039332151412963867 1.2033156156539916992 1.2259376049041748047 1.139011383056640625 1.039553523063659668 1.0020475387573242188 0.84549963474273681641 0.59856927394866943359 0.89495366811752319336 1.0855973958969116211 0.81340003013610839844 0.79083585739135742188 0.76743173599243164062 0.7162990570068359375 0.98136198520660400391 1.1604155302047729492 1.1726671457290649414 1.1263343095779418945
1.0146616697311401367 1.0208736658096313477 0.90118449926376342773 1.172182917594909668 1.1026948690414428711 1.219287872314453125 1.1888148784637451172 1.1744614839553833008 1.157652735710144043 1.1880950927734375 1.0644209384918212891 0.84117615222930908203 0.53479552268981933594 0.58608204126358032227 0.89488434791564941406 0.54588437080383300781 0.32721039652824401855 0.52100419998168945312 0.83752429485321044922 1.0632288455963134766 1.1929908990859985352 1.2198556661605834961 1.1460593938827514648 1.044078826904296875 1.0000822544097900391 0.97106587886810302734 1.0519651174545288086 1.0667268037796020508 1.1878077983856201172 1.2189741134643554688 1.1606345176696777344 1.1244624853134155273 1.1969057321548461914 1.1555916070938110352 0.87860530614852905273 0.84234446287155151367 0.87634938955307006836 0.89532363414764404297 0.99197399616241455078 1.2268973588943481445 1.2644363641738891602 1.1546356678009033203 0.92555499076843261719 0.6137358546257019043 0.88351660966873168945 0.8823604583740234375 0.89592969417572021484 0.99434369802474975586 1.0208082199096679688 0.95030355453491210938 0.84032279253005981445 1.1350804567337036133 0.99250954389572143555 1.1311879158020019531 1.2557352781295776367 1.1520490646362304688 0.87929236888885498047 0.98948091268539428711 0.79054772853851318359 0.79941159486770629883 0.91017717123031616211 0.79494583606719970703 0.36227503418922424316 0.6683400273323059082 0.63624280691146850586 0.85681146383285522461 0.98037195205688476562 1.0429556369781494141 1.0440019369125366211 1.0507467985153198242 0.90504193305969238281 0.68567734956741333008 0.9729582667350769043 0.76429718732833862305 0.95581448078155517578 1.1671994924545288086 0.92505317926406860352 0.85778295993804931641 1.0025237798690795898 0.72400468587875366211 1.0246948003768920898 1.1912398338317871094 1.2140740156173706055 1.0813112258911132812 0.78665924072265625 0.85846871137619018555 0.89248889684677124023 0.69445246458053588867 0.85481202602386474609 1.0209466218948364258 1.020238041877746582 0.97414404153823852539 0.93467408418655395508 0.83262974023818969727 0.78456377983093261719 0.62216687202453613281 0.82033884525299072266 0.96151125431060791016 0.83299058675765991211 0.93368917703628540039 0.943073272705078125 1.1710888147354125977 1.1762868165969848633 1.1399569511413574219 1.1528801918029785156 1.2294927835464477539 1.0648423433303833008 0.90935987234115600586 0.69994300603866577148 0.70848554372787475586 0.76730620861053466797 1.0030000209808349609 1.1427923440933227539 1.0932085514068603516 1.0598007440567016602 1.2180379629135131836 1.1889259815216064453 1.0976669788360595703 1.1818082332611083984 1.0987162590026855469 0.98458421230316162109 1.0013957023620605469 1.0082809925079345703 0.91503322124481201172 0.74630308151245117188 0.92802906036376953125 1.1326863765716552734 1.1259046792984008789 1.205202937126159668 1.1877063512802124023 1.2075819969177246094 1.1463502645492553711 1.0641785860061645508 1.0306534767150878906 1.0328717231750488281 1.0723479986190795898 0.90495252609252929688 0.42085435986518859863 0.2289165109395980835 0.54402154684066772461 0.7888571619987487793 0.46884709596633911133 0.50077718496322631836 0.62847733497619628906 1.0269767045974731445 1.1943070888519287109 1.2309485673904418945 0.94553905725479125977 0.58948618173599243164 0.93012011051177978516 1.1714125871658325195 1.2553651332855224609 1.0237891674041748047 0.63999330997467041016 1.0145931243896484375 0.86142146587371826172 0.9554233551025390625 1.1015413999557495117 1.1755517721176147461 1.155810236930847168
1.1036627292633056641 1.138579249382019043 1.1882760524749755859 1.1350480318069458008 0.98215693235397338867 1.0882654190063476562 1.0767643451690673828 1.1619700193405151367 1.1730670928955078125 1.2027927637100219727 0.97579085826873779297 0.83089870214462280273 0.28134441375732421875 0.66407948732376098633 0.89830660820007324219 0.95305323600769042969 0.95462983846664428711 0.84382963180541992188 0.51547682285308837891 0.80328452587127685547 1.144150853157043457 1.2626112699508666992 1.1717801094055175781 1.2191563844680786133 1.1503998041152954102 1.0833624601364135742 1.0394698381423950195 0.83026415109634399414 0.99570441246032714844 1.1573314666748046875 1.1419355869293212891 1.1558426618576049805 1.1882712841033935547 1.217268824577331543 1.2523363828659057617 1.2420612573623657227 1.1138446331024169922 0.98152619600296020508 0.81104254722595214844 1.094823002815246582 1.2612221240997314453 1.0991138219833374023 1.0046292543411254883 0.59681618213653564453 0.8091538548469543457 0.85880368947982788086 0.98688578605651855469 0.87438809871673583984 1.0097455978393554688 1.0746549367904663086 0.90319597721099853516 1.0748984813690185547 1.0831588506698608398 0.9945761561393737793 1.2534680366516113281 1.2586843967437744141 0.99532961845397949219 1.0956162214279174805 0.85585129261016845703 0.88676238059997558594 0.80580133199691772461 0.74591857194900512695 0.60484641790390014648 0.60722714662551879883 0.46743535995483398438 0.54813992977142333984 0.66765564680099487305 0.79466348886489868164 0.70733487606048583984 0.66697061061859130859 0.50819265842437744141 0.49374374747276306152 0.72924715280532836914 0.62382817268371582031 0.94269382953643798828 1.0410557985305786133 0.99204242229461669922 1.0916669368743896484 1.0713683366775512695 0.70815598964691162109 0.73986661434173583984 1.0490703582763671875 1.1286743879318237305 1.1376634836196899414 0.86336213350296020508 0.90480512380599975586 0.82797312736511230469 0.57675576210021972656 0.47221976518630981445 0.62603795528411865234 0.71825867891311645508 0.75848484039306640625 0.85889911651611328125 0.95721966028213500977 0.89179956912994384766 0.84801632165908813477 1.0844523906707763672 1.1759257316589355469 1.0154650211334228516 1.0437787771224975586 1.079274296760559082 1.1032663583755493164 1.1837291717529296875 1.1668065786361694336 1.1837878227233886719 1.2270045280456542969 0.97370988130569458008 0.95170611143112182617 1.0207158327102661133 0.99366128444671630859 0.7587426304817199707 0.60628229379653930664 0.67530232667922973633 0.99910390377044677734 1.1299653053283691406 1.0776441097259521484 0.97491896152496337891 1.0791029930114746094 1.1247506141662597656 1.0235888957977294922 1.0223582983016967773 1.0182452201843261719 0.96878796815872192383 0.92661863565444946289 0.67703163623809814453 0.8413937687873840332 1.1683502197265625 1.1182535886764526367 1.1464083194732666016 1.0587482452392578125 1.0873496532440185547 0.82894861698150634766 0.56954306364059448242 0.45767802000045776367 0.58034956455230712891 0.62295943498611450195 0.62097746133804321289 0.77288722991943359375 0.82893973588943481445 0.97270017862319946289 1.0256406068801879883 0.95978647470474243164 0.68933582305908203125 0.50748383998870849609 0.49281358718872070312 0.40718039870262145996 0.24721816182136535645 0.3002122044563293457 0.53618252277374267578 0.75822556018829345703 1.1108920574188232422 1.2423299551010131836 1.193503260612487793 0.78674203157424926758 1.0051152706146240234 1.0484383106231689453 1.1700108051300048828 1.1830239295959472656 1.173320770263671875 1.1526944637298583984
1.2082414627075195312 1.1435346603393554688 1.0704934597015380859 0.9948933720588684082 1.0107886791229248047 1.1576044559478759766 1.1527032852172851562 1.1801533699035644531 1.245215296745300293 1.1463077068328857422 0.84070670604705810547 0.56876808404922485352 0.58306562900543212891 0.94080555438995361328 0.85826975107192993164 0.75843906402587890625 0.71513330936431884766 0.89803308248519897461 0.8233280181884765625 0.78461778163909912109 0.98071980476379394531 0.99417626857757568359 1.1015830039978027344 1.1012620925903320312 1.2150384187698364258 1.0969730615615844727 0.9843508601188659668 1.0231676101684570312 1.2141453027725219727 1.1378864049911499023 1.0936729907989501953 1.1602675914764404297 1.0988401174545288086 1.072260737419128418 1.1162604093551635742 1.1471055746078491211 1.1332813501358032227 1.2099500894546508789 0.95697432756423950195 0.94826114177703857422 1.2574638128280639648 1.0609674453735351562 0.91405045986175537109 0.60909658670425415039 0.89259177446365356445 0.92182493209838867188 0.97110015153884887695 0.92394036054611206055 0.98832607269287109375 1.0949262380599975586 1.1194753646850585938 1.0565220117568969727 1.07622528076171875 1.0056747198104858398 1.2490410804748535156 1.2047369480133056641 1.0668883323669433594 1.0107798576354980469 0.85501903295516967773 0.84342867136001586914 0.88833528757095336914 0.74662381410598754883 0.81496721506118774414 0.92150640487670898438 0.74071669578552246094 0.34649121761322021484 0.33175736665725708008 0.71394461393356323242 0.65068650245666503906 0.55201774835586547852 0.49347981810569763184 0.99501973390579223633 1.1056580543518066406 0.98133832216262817383 0.86940169334411621094 0.86671084165573120117 0.90204852819442749023 1.0639628171920776367 1.1679959297180175781 0.88220077753067016602 0.64948391914367675781 0.92048090696334838867 0.96738821268081665039 1.1933995485305786133 0.93024843931198120117 0.71312439441680908203 0.74084657430648803711 0.62151807546615600586 0.39556533098220825195 0.80007803440093994141 0.92431348562240600586 0.99877339601516723633 1.1140788793563842773 1.1795876026153564453 1.1533678770065307617 1.1256769895553588867 1.1511297225952148438 1.2576962709426879883 1.1133031845092773438 1.0854359865188598633 1.0801393985748291016 1.1566817760467529297 1.1924211978912353516 1.1733869314193725586 1.2466396093368530273 1.2778139114379882812 1.1288470029830932617 1.1385371685028076172 1.0982458591461181641 1.0017668008804321289 0.96929597854614257812 0.85728651285171508789 0.53126746416091918945 0.95723122358322143555 1.1407680511474609375 1.0640621185302734375 0.74844324588775634766 0.94395834207534790039 0.92674475908279418945 0.92138338088989257812 0.98713922500610351562 0.93637758493423461914 0.95177888870239257812 0.93417465686798095703 0.73122304677963256836 0.87334710359573364258 1.1766813993453979492 1.2329077720642089844 1.2834184169769287109 1.15816497802734375 1.168339848518371582 1.2988997697830200195 0.9345353245735168457 0.34410306811332702637 0.91658914089202880859 1.0089938640594482422 0.98131650686264038086 0.94918668270111083984 1.0229109525680541992 1.0116630792617797852 1.0183373689651489258 1.045370936393737793 0.99394357204437255859 0.87789684534072875977 0.80633902549743652344 0.62672853469848632812 0.46787676215171813965 0.78000146150588989258 0.71275049448013305664 0.69642007350921630859 0.9120572209358215332 1.2133980989456176758 1.0988632440567016602 0.73131823539733886719 0.93793314695358276367 1.0242688655853271484 1.0466518402099609375 1.2428406476974487305 1.1887525320053100586 1.171375274658203125
1.2168054580688476562 1.1391047239303588867 1.0288519859313964844 1.050166010856628418 1.0875672101974487305 1.101104736328125 1.1547327041625976562 1.1598582267761230469 1.1695775985717773438 1.008935093879699707 0.90904855728149414062 0.37214890122413635254 0.91656589508056640625 1.1930034160614013672 1.1753507852554321289 0.9081522822380065918 0.71077233552932739258 0.94820171594619750977 0.95729291439056396484 0.80848830938339233398 0.63682752847671508789 0.42589983344078063965 0.59269964694976806641 0.75373560190200805664 1.0928816795349121094 1.2582812309265136719 1.1255820989608764648 1.1591147184371948242 1.1970999240875244141 1.0582355260848999023 1.0219634771347045898 1.2200413942337036133 1.171342015266418457 0.9813098907470703125 0.99977779388427734375 1.0686297416687011719 1.0348731279373168945 1.1981058120727539062 1.2284007072448730469 0.93898320198059082031 1.2150795459747314453 1.1894205808639526367 1.025076746940612793 0.59888350963592529297 0.84493106603622436523 1.0013563632965087891 1.0421769618988037109 1.1058505773544311523 1.1302791833877563477 1.2022418975830078125 1.1862024068832397461 1.0561989545822143555 1.0203204154968261719 0.97137242555618286133 1.2361600399017333984 1.2268307209014892578 1.0654995441436767578 0.98309022188186645508 0.87140250205993652344 0.91210836172103881836 0.85947525501251220703 0.79536330699920654297 0.8596286773681640625 0.93057990074157714844 0.79842478036880493164 0.59725278615951538086 0.73628264665603637695 1.133153080940246582 1.1667357683181762695 0.95589262247085571289 0.56866908073425292969 0.70060735940933227539 1.100741267204284668 1.158093571662902832 1.1257181167602539062 1.0895528793334960938 1.0872675180435180664 1.0270960330963134766 1.1541634798049926758 0.87762665748596191406 0.75866293907165527344 0.95652878284454345703 0.95495343208312988281 1.1292682886123657227 1.0313109159469604492 0.74488222599029541016 0.68674170970916748047 0.81278538703918457031 0.71713203191757202148 0.83514833450317382812 1.0325474739074707031 1.0950908660888671875 1.1314591169357299805 1.1639411449432373047 1.1728498935699462891 1.0827078819274902344 1.0088891983032226562 1.2354509830474853516 1.1834772825241088867 1.2063943147659301758 1.1349668502807617188 1.1552479267120361328 1.2108707427978515625 1.1981365680694580078 1.2163589000701904297 1.1630355119705200195 1.1222467422485351562 1.1263456344604492188 1.0347040891647338867 1.0634180307388305664 1.071804046630859375 1.0151872634887695312 0.83514052629470825195 0.57533699274063110352 0.98372811079025268555 1.1013723611831665039 0.82902014255523681641 1.0601174831390380859 1.0409765243530273438 0.97223252058029174805 1.0078872442245483398 0.97198331356048583984 0.95844507217407226562 0.93333780765533447266 0.74953544139862060547 0.74961638450622558594 0.9170042872428894043 0.88356393575668334961 1.0088148117065429688 1.1790935993194580078 1.1692281961441040039 1.2764812707901000977 1.2877882719039916992 0.99855077266693115234 1.0889049768447875977 1.1022988557815551758 1.0598598718643188477 0.96300154924392700195 1.0289425849914550781 1.0194199085235595703 0.94966197013854980469 0.90870910882949829102 0.911067962646484375 0.87597543001174926758 0.78956615924835205078 0.60673153400421142578 0.73725831508636474609 0.78227835893630981445 0.58931511640548706055 0.7451839447021484375 0.92701709270477294922 1.2165869474411010742 1.0669825077056884766 0.82717990875244140625 1.0559902191162109375 1.1600627899169921875 1.0959340333938598633 1.1570376157760620117 1.1277685165405273438 1.1062396764755249023
1.18077850341796875 1.2042772769927978516 1.1882050037384033203 1.1337440013885498047 1.0221714973449707031 1.1024309396743774414 1.2314486503601074219 1.2103302478790283203 0.92205262184143066406 0.90680265426635742188 0.73513317108154296875 0.31290790438652038574 1.1028727293014526367 1.1733853816986083984 1.1617343425750732422 1.2149673700332641602 1.1379700899124145508 1.199557185173034668 1.1867470741271972656 1.1288257837295532227 1.1288133859634399414 0.75920927524566650391 0.68246036767959594727 1.0418564081192016602 1.2343162298202514648 1.2858284711837768555 1.2646846771240234375 1.1826680898666381836 1.1458489894866943359 1.0188084840774536133 0.95186877250671386719 1.1705063581466674805 1.2241878509521484375 1.0311018228530883789 0.89265882968902587891 1.0177620649337768555 0.97496801614761352539 1.0612288713455200195 1.2279883623123168945 1.1842232942581176758 1.1045231819152832031 1.1824206113815307617 0.98051810264587402344 0.4932530522346496582 0.8300991058349609375 0.90338093042373657227 0.99003356695175170898 1.0824795961380004883 1.177464604377746582 1.2292096614837646484 1.1837482452392578125 1.0875198841094970703 1.1251285076141357422 1.0727941989898681641 1.1492619514465332031 1.2162983417510986328 1.1232475042343139648 0.99983161687850952148 0.87275660037994384766 0.90807074308395385742 0.90046334266662597656 0.85020267963409423828 0.79653286933898925781 0.93623185157775878906 0.82591325044631958008 0.6650492548942565918 0.58075159788131713867 1.1051076650619506836 1.1745553016662597656 1.1619284152984619141 0.91240859031677246094 0.75760513544082641602 0.80639469623565673828 1.1458965539932250977 1.1955382823944091797 1.2462407350540161133 1.211223602294921875 1.1157572269439697266 1.1706508398056030273 1.1918082237243652344 0.94497603178024291992 0.99136704206466674805 0.93611288070678710938 0.99348348379135131836 1.1109451055526733398 0.97261089086532592773 0.62701451778411865234 1.0250421762466430664 1.0012239217758178711 0.56813913583755493164 0.86267578601837158203 1.0086516141891479492 1.1172239780426025391 1.111452937126159668 0.92797017097473144531 0.95310306549072265625 1.0077127218246459961 1.1580958366394042969 1.1717993021011352539 1.1362320184707641602 1.1008188724517822266 1.0538274049758911133 1.1939637660980224609 1.1948615312576293945 1.1676616668701171875 1.1238963603973388672 1.1137622594833374023 1.1172661781311035156 1.1231933832168579102 1.1196388006210327148 0.95570695400238037109 1.0367043018341064453 1.0300958156585693359 0.78533178567886352539 0.84880006313323974609 0.76590824127197265625 0.59504181146621704102 0.75778919458389282227 0.45743322372436523438 0.6390317082405090332 0.70826935768127441406 0.69600820541381835938 0.82408803701400756836 0.79742121696472167969 0.73785632848739624023 0.72220361232757568359 0.59121841192245483398 0.59776127338409423828 0.8423659205436706543 1.0698648691177368164 1.144733428955078125 1.2753345966339111328 1.1957617998123168945 1.113648533821105957 1.0826040506362915039 1.127689361572265625 1.09279632568359375 1.0315747261047363281 1.0698349475860595703 1.0687303543090820312 0.97163742780685424805 0.93866866827011108398 0.8967202305793762207 0.82926279306411743164 0.66082167625427246094 0.76030534505844116211 0.92445093393325805664 0.77769297361373901367 0.67715251445770263672 0.67541605234146118164 0.9013983607292175293 1.0915933847427368164 0.97895169258117675781 0.82347315549850463867 0.91916936635971069336 1.2569941282272338867 1.2883979082107543945 1.1325714588165283203 1.1253107786178588867 1.030672907829284668
1.2195464372634887695 1.2109646797180175781 1.1589531898498535156 1.0701780319213867188 1.0418601036071777344 1.1811347007751464844 1.2138074636459350586 1.1732016801834106445 1.1024312973022460938 1.0029301643371582031 0.88040459156036376953 0.34313488006591796875 1.0606405735015869141 1.2038987874984741211 1.1021912097930908203 1.1144704818725585938 1.1404423713684082031 1.070876002311706543 1.1209208965301513672 1.2136689424514770508 1.1593439579010009766 1.1603059768676757812 0.65461516380310058594 0.86947643756866455078 0.94980627298355102539 0.92891359329223632812 1.0648113489151000977 0.98451352119445800781 1.1789929866790771484 1.1081010103225708008 1.0787959098815917969 0.95122689008712768555 1.0063712596893310547 0.91326200962066650391 0.85921657085418701172 0.9979114532470703125 1.0181090831756591797 1.0840325355529785156 1.0658088922500610352 1.2197823524475097656 1.2317063808441162109 1.1623172760009765625 0.7949199676513671875 0.42380931973457336426 0.73553329706192016602 0.92835354804992675781 0.99330461025238037109 1.0424443483352661133 1.0486478805541992188 1.1745014190673828125 1.2342778444290161133 1.0092780590057373047 1.0496801137924194336 1.0778180360794067383 1.075722813606262207 1.1762895584106445312 1.0452456474304199219 1.0031599998474121094 0.98677331209182739258 0.92229032516479492188 0.72182041406631469727 0.56975525617599487305 0.88176822662353515625 0.85853213071823120117 0.74632757902145385742 0.96059805154800415039 0.88919425010681152344 0.99768924713134765625 1.1228045225143432617 1.1801295280456542969 1.0800584554672241211 1.1797515153884887695 0.87777382135391235352 0.74679577350616455078 0.96926677227020263672 1.1391789913177490234 1.2147921323776245117 1.2130503654479980469 1.1525299549102783203 1.2322875261306762695 1.0545657873153686523 0.9353472590446472168 0.91123926639556884766 1.1016075611114501953 1.1762416362762451172 0.93478286266326904297 0.44036439061164855957 0.80102771520614624023 1.0072154998779296875 0.51846754550933837891 0.7725117802619934082 0.97391802072525024414 1.0370231866836547852 1.0320315361022949219 1.0186588764190673828 1.0010312795639038086 1.1294893026351928711 1.2205255031585693359 1.123766779899597168 1.151038050651550293 1.1013038158416748047 1.0948390960693359375 1.1904166936874389648 1.1857455968856811523 1.1306313276290893555 1.0970522165298461914 1.0939770936965942383 1.1106169223785400391 1.0430498123168945312 0.99964118003845214844 1.0111708641052246094 0.9411303400993347168 0.80852121114730834961 0.66449105739593505859 0.62652534246444702148 0.5033537745475769043 0.56340926885604858398 0.6328423619270324707 0.68349832296371459961 0.94384551048278808594 0.96073335409164428711 0.48193407058715820312 0.60992479324340820312 0.68038100004196166992 0.71537989377975463867 0.53897178173065185547 0.3620821535587310791 0.41186028718948364258 0.77511751651763916016 0.71354770660400390625 0.48426494002342224121 0.74203324317932128906 0.97518885135650634766 1.1061475276947021484 1.0967239141464233398 1.1122854948043823242 1.1108977794647216797 1.0773167610168457031 1.0557695627212524414 1.0237014293670654297 0.98313874006271362305 0.87032991647720336914 0.80236977338790893555 0.94464391469955444336 0.90830141305923461914 0.99323308467864990234 0.98044687509536743164 0.90512645244598388672 0.80920302867889404297 0.52971541881561279297 0.78480750322341918945 0.99765563011169433594 0.96683746576309204102 0.92810159921646118164 0.99039483070373535156 1.1807780265808105469 1.3183280229568481445 0.94796186685562133789 0.97017705440521240234 1.1066101789474487305
1.2077164649963378906 1.0773612260818481445 1.0056407451629638672 0.91755712032318115234 1.0316344499588012695 1.2053723335266113281 1.0809855461120605469 1.0824213027954101562 1.0739216804504394531 0.94618958234786987305 0.64461123943328857422 0.49009525775909423828 0.78069210052490234375 1.23163604736328125 1.2192457914352416992 1.2033305168151855469 1.2408732175827026367 1.1942551136016845703 1.0685936212539672852 1.11313629150390625 1.1339263916015625 1.0119321346282958984 0.96546322107315063477 0.90225911140441894531 0.60874855518341064453 0.62868791818618774414 0.91544383764266967773 0.75827133655548095703 0.92904102802276611328 1.1414499282836914062 1.2093989849090576172 1.1602699756622314453 1.1260080337524414062 1.0100216865539550781 0.98343324661254882812 1.0713646411895751953 1.0921190977096557617 1.2007824182510375977 1.1631239652633666992 1.1608918905258178711 1.2365125417709350586 1.1594520807266235352 0.8767363429069519043 0.63205426931381225586 0.66273635625839233398 0.97408753633499145508 0.99000871181488037109 1.0775634050369262695 0.94927990436553955078 1.0951839685440063477 1.2278821468353271484 1.0475561618804931641 0.98129749298095703125 1.1237508058547973633 1.0769431591033935547 1.1332755088806152344 1.0701107978820800781 0.93986839056015014648 0.93078047037124633789 0.89386999607086181641 0.6399402618408203125 0.77889621257781982422 0.99742519855499267578 0.77386397123336791992 0.90862929821014404297 1.2104921340942382812 0.94722026586532592773 1.0528954267501831055 1.0989589691162109375 1.0113554000854492188 0.9636256098747253418 1.201904296875 1.2082469463348388672 1.0493025779724121094 0.98230457305908203125 0.9661820530891418457 0.92227560281753540039 1.1262836456298828125 1.305233001708984375 1.2725919485092163086 1.1295232772827148438 1.0115571022033691406 0.73563158512115478516 1.1948931217193603516 1.0990505218505859375 0.66240477561950683594 0.69298797845840454102 0.99010485410690307617 1.0772072076797485352 0.55422341823577880859 0.7073180079460144043 0.93395590782165527344 0.96099352836608886719 1.0302760601043701172 1.1166576147079467773 1.1211642026901245117 1.1060154438018798828 1.1146892309188842773 1.1060912609100341797 1.1407240629196166992 1.1649476289749145508 1.1068444252014160156 1.2070264816284179688 1.1727054119110107422 1.1378668546676635742 1.1152991056442260742 1.0845657587051391602 1.029919743537902832 0.91279864311218261719 0.83347499370574951172 0.78583669662475585938 0.83297288417816162109 0.86931777000427246094 0.743030548095703125 0.7602627873420715332 0.80872976779937744141 0.91457778215408325195 1.00348663330078125 0.9223048090934753418 1.1304287910461425781 0.88461440801620483398 0.78054779767990112305 0.98975241184234619141 1.0842713117599487305 1.0105161666870117188 0.95869916677474975586 0.84751880168914794922 0.32216194272041320801 0.29853174090385437012 0.53779619932174682617 0.77009856700897216797 1.0257842540740966797 1.139165043830871582 1.1473424434661865234 1.1263637542724609375 1.1193813085556030273 1.1025999784469604492 1.0921983718872070312 1.0705749988555908203 1.0400271415710449219 1.0845817327499389648 0.9775002598762512207 1.0526601076126098633 1.0473521947860717773 0.88717520236968994141 0.97984206676483154297 0.99099427461624145508 1.0262701511383056641 0.96558427810668945312 0.9300606846809387207 0.88940769433975219727 1.017420649528503418 1.0599666833877563477 0.99445295333862304688 1.0594719648361206055 1.1160781383514404297 1.1585934162139892578 0.93836301565170288086 1.083124995231628418 1.1327337026596069336
1.2513338327407836914 1.2288967370986938477 1.1173573732376098633 1.1064695119857788086 1.1929001808166503906 1.1341648101806640625 1.1627039909362792969 1.1241244077682495117 1.0645563602447509766 0.8776213526725769043 0.80909025669097900391 1.1079772710800170898 0.8079611659049987793 0.80024266242980957031 0.74003183841705322266 0.95296061038970947266 1.1779743432998657227 1.2001923322677612305 1.0518085956573486328 1.1321889162063598633 1.2906241416931152344 1.226179957389831543 1.0960144996643066406 1.219956517219543457 1.2774599790573120117 1.2634278535842895508 1.2798444032669067383 1.2526417970657348633 1.046339869499206543 1.2154588699340820312 1.1868212223052978516 1.1378282308578491211 1.1133813858032226562 1.0865609645843505859 1.1343843936920166016 1.1235446929931640625 1.1446654796600341797 1.193903803825378418 1.1943535804748535156 1.2053159475326538086 1.216298222541809082 1.1776430606842041016 1.1716848611831665039 1.2042024135589599609 1.1145719289779663086 1.0583691596984863281 1.1503454446792602539 1.2155364751815795898 1.199779510498046875 1.2264719009399414062 1.2214608192443847656 1.2241029739379882812 1.1781179904937744141 1.1673491001129150391 1.1838059425354003906 1.2185193300247192383 1.2205109596252441406 1.187350153923034668 1.1833330392837524414 1.0841451883316040039 1.000046849250793457 1.2283855676651000977 1.2541300058364868164 1.2007650136947631836 1.2817424535751342773 1.2758588790893554688 0.95197641849517822266 1.0879886150360107422 1.2797732353210449219 1.1330736875534057617 1.0084670782089233398 1.2410917282104492188 1.2152578830718994141 1.1853460073471069336 1.121035456657409668 1.2965797185897827148 1.2668855190277099609 1.0311875343322753906 1.0471789836883544922 1.2700555324554443359 1.2787147760391235352 1.3022936582565307617 1.3054747581481933594 1.3068208694458007812 1.3158689737319946289 1.1704238653182983398 1.2868196964263916016 1.2721915245056152344 1.2403534650802612305 0.8540427088737487793 0.76271033287048339844 0.93909949064254760742 0.92647820711135864258 0.91509169340133666992 0.99586838483810424805 1.0514860153198242188 1.10523223876953125 1.1432063579559326172 1.1389104127883911133 1.1851600408554077148 1.2637397050857543945 1.1898554563522338867 1.2248882055282592773 1.2126733064651489258 1.2277524471282958984 1.2246073484420776367 1.1808369159698486328 1.0711733102798461914 1.0956676006317138672 1.1308895349502563477 1.1063977479934692383 1.1117647886276245117 1.0926756858825683594 1.120000004768371582 1.251990199089050293 1.2355047464370727539 1.3446887731552124023 1.3034293651580810547 1.3151583671569824219 1.3367328643798828125 1.325435638427734375 1.3377679586410522461 1.3341878652572631836 1.3104989528656005859 1.3030356168746948242 1.2310255765914916992 1.0755139589309692383 0.75297427177429199219 0.82521837949752807617 0.91495597362518310547 1.0017118453979492188 1.2200592756271362305 1.2086808681488037109 1.195153355598449707 1.15374755859375 1.1592798233032226562 1.1429244279861450195 1.1261180639266967773 1.1034348011016845703 1.0608266592025756836 1.0995575189590454102 1.214019775390625 1.2986538410186767578 1.3432463407516479492 1.3564903736114501953 1.341510772705078125 1.3216775655746459961 1.321360468864440918 1.30995941162109375 1.340667724609375 1.3397017717361450195 1.3207418918609619141 1.3152291774749755859 1.2825530767440795898 1.3174723386764526367 1.3087854385375976562 1.2311360836029052734 1.2853490114212036133 1.31369781494140625 1.2888361215591430664
