ncols        57
nrows        56
xllcorner    624580.348754761741
yllcorner    5173899.999877895229
cellsize     500.000000000000
NODATA_value -9999
0.79874825477600097656 1.1275421380996704102 1.2546621561050415039 1.1362898349761962891 0.98311990499496459961 1.2652761936187744141 1.1339341402053833008 0.75301241874694824219 1.0495184659957885742 0.98888802528381347656 1.2712823152542114258 1.1296346187591552734 1.0076102018356323242 1.0942095518112182617 1.0956659317016601562 1.1718676090240478516 1.1569969654083251953 1.0573174953460693359 1.1218887567520141602 1.2144622802734375 1.2445930242538452148 1.1777198314666748047 0.84793579578399658203 1.1073204278945922852 0.9765618443489074707 0.99106162786483764648 1.1784201860427856445 1.2673376798629760742 1.1686067581176757812 0.73451405763626098633 0.84474074840545654297 1.064181208610534668 1.1348373889923095703 1.1918390989303588867 1.1849139928817749023 1.0752642154693603516 1.1527364253997802734 1.1849080324172973633 1.1828262805938720703 1.0341821908950805664 0.91344803571701049805 0.78861767053604125977 1.1076548099517822266 1.2825667858123779297 1.0299049615859985352 0.99112439155578613281 1.1786081790924072266 1.2585283517837524414 1.2527990341186523438 0.99424022436141967773 0.97791361808776855469 1.0390141010284423828 1.1139451265335083008 1.1112387180328369141 1.0844092369079589844 1.0760377645492553711 1.10268402099609375 
0.81670808792114257812 1.1473771333694458008 1.2578556537628173828 1.1598583459854125977 0.76572197675704956055 0.86923545598983764648 0.78862822055816650391 1.0128837823867797852 1.3091790676116943359 1.2400594949722290039 1.2291818857192993164 1.0005004405975341797 0.99190843105316162109 1.0576215982437133789 1.0848335027694702148 1.1746009588241577148 1.1685570478439331055 1.0204551219940185547 0.98410195112228393555 0.94172805547714233398 0.98741072416305541992 0.96820753812789916992 0.75461757183074951172 1.2497985363006591797 1.1714705228805541992 1.1277031898498535156 1.2561006546020507812 1.2314151525497436523 0.98308074474334716797 1.1087080240249633789 1.1589156389236450195 1.0931441783905029297 1.2044913768768310547 1.1948648691177368164 1.0877499580383300781 0.95834404230117797852 1.0363663434982299805 1.1933317184448242188 1.1951124668121337891 1.0775518417358398438 1.062537074089050293 0.93958097696304321289 0.96671456098556518555 1.0504380464553833008 0.93407970666885375977 1.196934819221496582 1.2686713933944702148 1.2695089578628540039 1.1050648689270019531 0.94891607761383056641 0.83971238136291503906 1.0418326854705810547 1.1138824224472045898 1.0645325183868408203 1.0963608026504516602 1.1166262626647949219 1.1021680831909179688 
0.81514650583267211914 1.1501449346542358398 1.2571902275085449219 1.213189244270324707 1.0977611541748046875 1.1063601970672607422 1.1266437768936157227 0.89483302831649780273 1.1765180826187133789 1.208861231803894043 1.0855417251586914062 0.96409577131271362305 0.93125301599502563477 1.053605198860168457 1.0936417579650878906 1.1757760047912597656 1.1496267318725585938 1.0710103511810302734 1.1160981655120849609 0.99859386682510375977 1.1539072990417480469 0.91671890020370483398 0.86067688465118408203 1.2972307205200195312 1.2550574541091918945 1.2500386238098144531 1.2558220624923706055 0.8783652186393737793 0.79825592041015625 1.0189286470413208008 1.1158511638641357422 1.0941320657730102539 1.1982166767120361328 1.1253330707550048828 1.0482062101364135742 0.9413674473762512207 1.0163456201553344727 1.1012609004974365234 1.2013983726501464844 1.2169690132141113281 1.1582739353179931641 1.2246756553649902344 1.0614461898803710938 1.0417773723602294922 1.1953794956207275391 1.249608159065246582 1.2314435243606567383 1.033405303955078125 0.88926422595977783203 0.83125448226928710938 0.66476559638977050781 0.96577721834182739258 1.0415641069412231445 1.0614837408065795898 1.0467263460159301758 1.0928480625152587891 1.0842419862747192383 
0.9803664088249206543 1.0682846307754516602 1.236560821533203125 1.2643533945083618164 1.2100336551666259766 1.2313230037689208984 1.171031951904296875 0.91964566707611083984 1.0527092218399047852 0.83898931741714477539 0.92930454015731811523 1.2722599506378173828 1.1788225173950195312 1.0950309038162231445 1.1170331239700317383 1.1755999326705932617 1.1452709436416625977 1.1058555841445922852 1.1773788928985595703 1.1602389812469482422 1.1067228317260742188 0.93611937761306762695 1.0489716529846191406 1.0052576065063476562 1.1094391345977783203 1.2191878557205200195 1.1700441837310791016 1.0837602615356445312 1.1113934516906738281 1.0607731342315673828 1.1087933778762817383 1.2085452079772949219 1.2096999883651733398 1.1074393987655639648 1.04416656494140625 1.0727236270904541016 1.0641008615493774414 1.1200804710388183594 1.2256549596786499023 1.2224811315536499023 1.1072098016738891602 0.85158872604370117188 0.98100668191909790039 0.88580989837646484375 1.2808051109313964844 1.2930015325546264648 1.2357621192932128906 0.6797034144401550293 0.69229590892791748047 1.1118794679641723633 1.0862694978713989258 0.87820136547088623047 1.1270611286163330078 1.1180130243301391602 0.99401426315307617188 0.96277976036071777344 0.98229461908340454102 
1.2079066038131713867 1.1062250137329101562 1.0715001821517944336 1.2735592126846313477 1.2836444377899169922 1.1072154045104980469 0.78473085165023803711 0.91174495220184326172 1.2585893869400024414 1.1538156270980834961 1.042072296142578125 0.97830492258071899414 1.0147954225540161133 1.1074371337890625 1.1028430461883544922 1.1525970697402954102 1.1511412858963012695 1.1163154840469360352 1.0506240129470825195 0.89365077018737792969 0.81371426582336425781 1.163748621940612793 1.3132109642028808594 1.0215191841125488281 1.0347887277603149414 0.9805209040641784668 1.0217293500900268555 1.0911520719528198242 1.1961297988891601562 1.1304647922515869141 1.1777189970016479492 1.2070282697677612305 1.1602548360824584961 1.0620123147964477539 1.053643345832824707 0.76710230112075805664 1.0643876791000366211 1.2630637884140014648 1.203959345817565918 1.2518534660339355469 1.1845960617065429688 1.0599033832550048828 1.2965478897094726562 1.1027323007583618164 1.0670220851898193359 1.1121653318405151367 0.93743038177490234375 0.85741859674453735352 0.97080427408218383789 1.1090519428253173828 1.1304857730865478516 1.0966895818710327148 1.1552139520645141602 1.140696406364440918 1.0412846803665161133 1.0787959098815917969 1.1461735963821411133 
1.2627047300338745117 1.1444339752197265625 0.82772082090377807617 1.0585789680480957031 1.3030333518981933594 0.89453345537185668945 0.93064731359481811523 1.1126945018768310547 1.1765004396438598633 1.1739614009857177734 1.1536999940872192383 0.95689892768859863281 0.93508034944534301758 1.0634599924087524414 1.0901203155517578125 1.1476266384124755859 1.1763471364974975586 1.0987305641174316406 1.0906610488891601562 1.0980405807495117188 1.1960163116455078125 1.2402285337448120117 1.0453190803527832031 0.64013713598251342773 1.236713409423828125 1.298512578010559082 1.0169578790664672852 0.96428203582763671875 1.0904071331024169922 1.1518207788467407227 1.206816554069519043 1.2028366327285766602 1.1740708351135253906 1.1051062345504760742 0.90373319387435913086 0.79746276140213012695 0.87484842538833618164 0.90088725090026855469 0.75716722011566162109 1.0588437318801879883 1.2719318866729736328 1.2257789373397827148 1.2051088809967041016 1.0921906232833862305 0.97059392929077148438 0.99808686971664428711 0.96440464258193969727 1.1043908596038818359 1.1116688251495361328 0.95087349414825439453 1.0747939348220825195 1.1171097755432128906 1.0980660915374755859 1.1118787527084350586 1.1375898122787475586 1.1430184841156005859 1.1546037197113037109 
0.94677102565765380859 1.025347590446472168 0.89622610807418823242 0.76661449670791625977 1.1907905340194702148 0.95120078325271606445 1.1409652233123779297 1.2748110294342041016 1.1819273233413696289 1.0853706598281860352 1.1629106998443603516 1.1908453702926635742 1.2310355901718139648 1.1447454690933227539 1.1322424411773681641 1.1712898015975952148 1.1797312498092651367 1.063845515251159668 1.0557067394256591797 1.2712959051132202148 1.2717529535293579102 1.3063095808029174805 1.2541271448135375977 0.78263992071151733398 0.96738493442535400391 1.1964714527130126953 1.171624302864074707 1.167236328125 1.1146026849746704102 1.2183864116668701172 1.2212445735931396484 1.0661406517028808594 0.9881445765495300293 0.8991705775260925293 0.75514906644821166992 1.1473791599273681641 1.2458472251892089844 1.179111480712890625 1.1000450849533081055 1.2322742938995361328 1.2973159551620483398 0.92527461051940917969 0.97114861011505126953 0.75793856382369995117 0.70982140302658081055 1.0485681295394897461 1.2455735206604003906 1.1733723878860473633 1.2635537385940551758 1.0186920166015625 1.0239869356155395508 1.0753836631774902344 1.0908436775207519531 1.1564594507217407227 1.148386836051940918 1.097016453742980957 1.0393161773681640625 
0.69572657346725463867 0.86040586233139038086 0.98240745067596435547 1.2595956325531005859 0.92763704061508178711 0.96858155727386474609 0.75835263729095458984 1.0510810613632202148 1.0727736949920654297 1.2055894136428833008 1.247107386589050293 1.246852874755859375 1.1668847799301147461 1.0264239311218261719 1.0925188064575195312 1.1713011264801025391 1.1568981409072875977 0.98099488019943237305 0.75386613607406616211 1.0364313125610351562 1.1575669050216674805 0.95367157459259033203 0.86285960674285888672 1.0899319648742675781 1.3206429481506347656 1.2563424110412597656 1.1544579267501831055 1.0714309215545654297 1.1791334152221679688 1.2141629457473754883 1.158514857292175293 1.0884615182876586914 0.74631345272064208984 0.61785531044006347656 1.1589025259017944336 1.1806952953338623047 1.2188417911529541016 1.2373777627944946289 1.2442663908004760742 1.2035918235778808594 1.2252657413482666016 0.55378603935241699219 0.860836029052734375 0.92331206798553466797 1.1506346464157104492 1.2354297637939453125 1.1543740034103393555 1.0731806755065917969 1.1163636445999145508 1.1297768354415893555 1.117153167724609375 1.0918340682983398438 1.1652054786682128906 1.1487008333206176758 1.1176915168762207031 1.0276530981063842773 0.947948455810546875 
1.0043445825576782227 1.2743246555328369141 1.2467015981674194336 1.1605800390243530273 0.83660292625427246094 1.2476618289947509766 1.1397594213485717773 1.1320962905883789062 1.17316436767578125 1.2579311132431030273 1.1995433568954467773 0.9646663665771484375 0.82510149478912353516 1.0507711172103881836 1.1186101436614990234 1.1718709468841552734 1.1285747289657592773 1.0640136003494262695 0.95016664266586303711 0.96500962972640991211 1.2480475902557373047 0.98377412557601928711 0.65282011032104492188 0.83176982402801513672 1.0754750967025756836 1.1600704193115234375 1.1110138893127441406 1.0103299617767333984 1.2066282033920288086 1.2238596677780151367 1.0927301645278930664 1.115063786506652832 1.1429451704025268555 0.70534366369247436523 1.0257635116577148438 1.1513214111328125 1.2868479490280151367 1.2260860204696655273 1.2422051429748535156 1.2508707046508789062 1.2537078857421875 1.1843706369400024414 1.14487457275390625 0.8261063694953918457 1.1350815296173095703 1.1867862939834594727 1.1627612113952636719 1.0830887556076049805 1.0940276384353637695 0.92695957422256469727 1.0123788118362426758 1.1338256597518920898 1.1520304679870605469 1.1311506032943725586 1.0210077762603759766 0.99876266717910766602 0.94955450296401977539 
1.2450931072235107422 1.2569420337677001953 1.2855660915374755859 1.0869309902191162109 0.9943186640739440918 1.2335731983184814453 1.1522771120071411133 1.2339648008346557617 1.2696019411087036133 1.1834871768951416016 0.84095209836959838867 0.78705143928527832031 0.90836089849472045898 1.1118558645248413086 1.1449825763702392578 1.1722542047500610352 1.1221780776977539062 1.0572988986968994141 1.1561267375946044922 1.2984262704849243164 1.282403111457824707 0.88135236501693725586 0.93019694089889526367 0.94171857833862304688 1.171347498893737793 0.94627058506011962891 1.1282589435577392578 1.2046873569488525391 1.2376344203948974609 1.2436410188674926758 1.0044759511947631836 0.95441567897796630859 0.91613489389419555664 0.90597099065780639648 0.73560726642608642578 1.1752445697784423828 1.1937203407287597656 1.1976777315139770508 0.98887336254119873047 1.2284424304962158203 1.1991666555404663086 1.2394396066665649414 0.95079696178436279297 1.0631849765777587891 1.1106936931610107422 0.93251454830169677734 1.1955997943878173828 1.2124704122543334961 1.1348718404769897461 1.1118787527084350586 1.0263214111328125 1.1494972705841064453 1.1625833511352539062 1.1121664047241210938 0.99066776037216186523 0.86978006362915039062 0.55243736505508422852 
0.97819077968597412109 0.79136931896209716797 1.1265051364898681641 0.89782196283340454102 0.94570380449295043945 1.2512149810791015625 1.2717483043670654297 1.2803714275360107422 1.2194476127624511719 0.85301572084426879883 0.74738460779190063477 1.1896560192108154297 1.149573206901550293 1.0517101287841796875 1.0959857702255249023 1.1743222475051879883 1.1683393716812133789 0.90586513280868530273 0.76004552841186523438 1.0136827230453491211 0.6580829620361328125 0.74747729301452636719 1.3192685842514038086 1.1012514829635620117 1.2258738279342651367 1.1172444820404052734 1.2741464376449584961 1.1734826564788818359 1.2493922710418701172 1.220994114875793457 0.89932858943939208984 0.69732505083084106445 0.90007317066192626953 1.274323582649230957 0.91878038644790649414 1.1826651096343994141 1.2471402883529663086 1.2006471157073974609 0.85623127222061157227 1.2446019649505615234 1.1984535455703735352 1.1425768136978149414 0.83226835727691650391 1.1785432100296020508 1.2084330320358276367 0.90222585201263427734 1.0180680751800537109 1.101043701171875 1.1157960891723632812 1.1480147838592529297 1.1668100357055664062 1.1649526357650756836 1.1255339384078979492 1.1234743595123291016 1.0442143678665161133 1.1311224699020385742 0.634075164794921875 
1.1142841577529907227 0.77595907449722290039 0.71405208110809326172 1.0231411457061767578 1.1078221797943115234 1.1146887540817260742 1.2224180698394775391 1.2578223943710327148 0.95576959848403930664 1.1215783357620239258 1.2586556673049926758 1.1262705326080322266 0.93337368965148925781 0.99621367454528808594 1.0703941583633422852 1.1815478801727294922 1.1702833175659179688 0.96135795116424560547 1.0152472257614135742 1.1850109100341796875 0.89115190505981445312 0.66742378473281860352 1.2549630403518676758 1.195504307746887207 1.2204915285110473633 1.273736119270324707 1.2777740955352783203 0.9817339777946472168 1.2062754631042480469 1.19507598876953125 1.1303155422210693359 1.2383702993392944336 1.2613662481307983398 1.312823176383972168 1.2926845550537109375 1.1897557973861694336 0.84441047906875610352 1.0568128824234008789 1.0986375808715820312 1.2241768836975097656 1.1906806230545043945 1.0910155773162841797 1.1797498464584350586 1.2770814895629882812 1.2282875776290893555 1.1206589937210083008 1.019618988037109375 1.0972801446914672852 1.1320830583572387695 1.1747890710830688477 1.1255782842636108398 1.1667253971099853516 1.1430900096893310547 1.0957207679748535156 1.0140682458877563477 0.83432734012603759766 0.74947667121887207031 
1.1199795007705688477 0.78486591577529907227 0.96509283781051635742 1.3053448200225830078 1.2298521995544433594 0.80466681718826293945 1.0341422557830810547 0.90785729885101318359 0.84851205348968505859 0.95991629362106323242 1.0843448638916015625 1.2379946708679199219 1.1908111572265625 1.148892521858215332 1.1683095693588256836 1.1903091669082641602 1.1170705556869506836 1.0121183395385742188 1.2109549045562744141 1.0499217510223388672 0.83095306158065795898 0.98251157999038696289 1.1858663558959960938 1.2382006645202636719 1.2550231218338012695 1.2910094261169433594 1.1292557716369628906 1.0693088769912719727 1.2332941293716430664 1.2671096324920654297 1.3078650236129760742 1.2283329963684082031 1.2620282173156738281 1.2788931131362915039 1.2442851066589355469 1.3059279918670654297 0.88895130157470703125 1.2137409448623657227 1.2094939947128295898 1.2128100395202636719 1.220446467399597168 1.0021421909332275391 1.1318399906158447266 1.2498433589935302734 1.2176321744918823242 1.2423113584518432617 1.2034037113189697266 1.113006591796875 1.1833128929138183594 1.1716561317443847656 1.0810946226119995117 1.1548835039138793945 1.1428227424621582031 1.0415352582931518555 1.0743300914764404297 0.65404736995697021484 1.0694003105163574219 
1.2356989383697509766 1.239622950553894043 1.2049403190612792969 1.3014078140258789062 1.0855870246887207031 0.71075570583343505859 1.1664841175079345703 1.1087198257446289062 1.0269055366516113281 1.1815242767333984375 0.88496583700180053711 1.1074336767196655273 1.12334442138671875 1.1190932989120483398 1.1827149391174316406 1.1933268308639526367 1.1514393091201782227 1.0548654794692993164 1.1198202371597290039 1.1693515777587890625 1.3115807771682739258 1.0964360237121582031 1.2880666255950927734 1.2880293130874633789 1.3076956272125244141 1.1025131940841674805 0.79288429021835327148 1.2711198329925537109 1.3152126073837280273 1.2243151664733886719 1.2919341325759887695 1.0353024005889892578 0.91807192564010620117 1.1202657222747802734 1.2406051158905029297 1.1481409072875976562 0.84417885541915893555 1.1516677141189575195 1.2310230731964111328 1.2324379682540893555 1.1831680536270141602 0.85476928949356079102 1.2335171699523925781 1.2824648618698120117 0.9930527806282043457 0.97581285238265991211 1.0239346027374267578 1.1131824254989624023 1.1748218536376953125 1.1650562286376953125 1.0260784626007080078 1.1228860616683959961 1.143565058708190918 1.2027405500411987305 1.0219289064407348633 0.93606507778167724609 1.2049611806869506836 
1.217127680778503418 1.2456718683242797852 0.98392188549041748047 0.91356390714645385742 0.65685611963272094727 0.8781871795654296875 1.2824493646621704102 1.2776890993118286133 1.1932550668716430664 1.2982484102249145508 1.0408703088760375977 0.9662335515022277832 1.0540621280670166016 1.0224324464797973633 1.0544661283493041992 1.1987519264221191406 1.1269350051879882812 1.0577363967895507812 1.1084498167037963867 1.1035991907119750977 0.84199231863021850586 0.79826623201370239258 1.2469590902328491211 1.1438696384429931641 1.2391258478164672852 1.3006554841995239258 1.1855581998825073242 1.2060937881469726562 1.0303789377212524414 0.76210939884185791016 0.85950601100921630859 0.84015798568725585938 1.0398696660995483398 1.1746138334274291992 1.1030441522598266602 0.87886697053909301758 0.75925260782241821289 1.1540894508361816406 1.1386617422103881836 1.0897829532623291016 0.87158411741256713867 0.7167911529541015625 0.92290902137756347656 0.75225949287414550781 0.82558900117874145508 0.97872155904769897461 1.0648658275604248047 1.1926698684692382812 1.1828840970993041992 1.1326043605804443359 0.95730322599411010742 0.91612982749938964844 1.0816948413848876953 1.0653138160705566406 0.78138983249664306641 0.82878613471984863281 1.1611397266387939453 
1.2464897632598876953 1.1945959329605102539 0.88583034276962280273 0.8525848388671875 0.79452413320541381836 1.118516087532043457 1.0151324272155761719 1.1621553897857666016 1.2110465764999389648 1.21887969970703125 1.2483431100845336914 1.1966146230697631836 1.2212088108062744141 1.199063420295715332 1.1190482378005981445 1.2004284858703613281 1.0964095592498779297 0.88051235675811767578 0.78963834047317504883 0.74739700555801391602 0.9273726344108581543 0.95383799076080322266 1.1788181066513061523 0.82611012458801269531 1.0313251018524169922 0.99119699001312255859 0.8575420379638671875 0.90322387218475341797 1.0549160242080688477 1.1042883396148681641 1.1195720434188842773 0.94584965705871582031 0.77398467063903808594 0.95369285345077514648 0.67127501964569091797 0.53730928897857666016 1.0861898660659790039 1.2634776830673217773 0.91251277923583984375 1.2520732879638671875 0.98152315616607666016 1.1123558282852172852 1.2218252420425415039 1.1718100309371948242 1.1229367256164550781 1.0485457181930541992 1.165272831916809082 1.1859787702560424805 1.1636387109756469727 1.0302338600158691406 1.1621296405792236328 1.1419776678085327148 0.86580359935760498047 0.58629810810089111328 0.62538701295852661133 1.1380270719528198242 1.2311768531799316406 
1.2496551275253295898 1.2506669759750366211 1.1337734460830688477 1.1320220232009887695 0.9443340301513671875 1.26403045654296875 1.2426538467407226562 0.91463935375213623047 0.72518676519393920898 0.91860884428024291992 1.1176674365997314453 1.161703944206237793 1.216892242431640625 1.1465052366256713867 1.1108964681625366211 1.2158675193786621094 1.2173469066619873047 1.0314565896987915039 1.0405126810073852539 0.94045239686965942383 1.197582244873046875 1.1072759628295898438 1.344136357307434082 1.2622519731521606445 0.68007141351699829102 1.0966836214065551758 1.2411179542541503906 1.1816009283065795898 1.2288554906845092773 1.2213823795318603516 1.1370338201522827148 1.2045816183090209961 1.0442583560943603516 1.3635888099670410156 1.0706602334976196289 0.92288410663604736328 0.77497279644012451172 1.1831156015396118164 1.0856103897094726562 1.1756590604782104492 1.1155484914779663086 1.0369216203689575195 1.1302773952484130859 1.1554834842681884766 1.0877442359924316406 1.1743171215057373047 1.1889549493789672852 1.1509634256362915039 1.1518301963806152344 0.95040953159332275391 1.0482060909271240234 1.3007862567901611328 1.3142415285110473633 0.98486185073852539062 1.0898255109786987305 1.1285585165023803711 1.0812524557113647461 
1.1610912084579467773 1.2641115188598632812 1.1083757877349853516 1.0162994861602783203 0.99178904294967651367 1.1946691274642944336 1.1924899816513061523 1.2695199251174926758 1.1610962152481079102 1.1156160831451416016 1.1069049835205078125 1.1759839057922363281 1.237233281135559082 0.94894117116928100586 0.97768932580947875977 1.1280936002731323242 1.2211880683898925781 1.1410839557647705078 1.1940207481384277344 1.2217574119567871094 1.250217437744140625 1.1715799570083618164 1.1973456144332885742 0.86083054542541503906 0.61242747306823730469 1.0353978872299194336 1.2368663549423217773 1.2161700725555419922 1.203528285026550293 1.2333258390426635742 1.2043265104293823242 1.1385751962661743164 0.80995029211044311523 1.1905373334884643555 1.3609482049942016602 1.3421652317047119141 0.99712061882019042969 1.0676132440567016602 1.3021738529205322266 1.0067608356475830078 1.1101607084274291992 1.1366485357284545898 1.1866255998611450195 1.1362681388854980469 1.1719962358474731445 1.1896138191223144531 1.1477514505386352539 1.0793542861938476562 1.1008602380752563477 1.0850613117218017578 0.9953765869140625 1.15718841552734375 0.99844777584075927734 0.79214119911193847656 1.1261882781982421875 1.1989580392837524414 1.1095793247222900391 
1.1268301010131835938 1.2667783498764038086 1.0681070089340209961 1.1452051401138305664 0.95225000381469726562 1.0312006473541259766 1.2428514957427978516 1.2671420574188232422 1.2928160429000854492 1.2841053009033203125 1.2436876296997070312 1.1785993576049804688 1.2387223243713378906 0.91713374853134155273 1.0616133213043212891 1.0956732034683227539 1.2189669609069824219 1.2305862903594970703 1.248537898063659668 1.2351109981536865234 1.2824171781539916992 1.1545548439025878906 0.88334178924560546875 0.72484606504440307617 1.1524183750152587891 1.161839604377746582 1.1685096025466918945 1.1913317441940307617 1.1976711750030517578 1.2049512863159179688 1.1994204521179199219 1.1500343084335327148 0.82063937187194824219 0.82406497001647949219 1.233155369758605957 1.279124140739440918 1.0481990575790405273 1.1473829746246337891 1.2874724864959716797 0.88693290948867797852 1.1251199245452880859 1.1285116672515869141 1.1570503711700439453 1.1337095499038696289 1.1941777467727661133 1.1905853748321533203 1.0365207195281982422 0.94397073984146118164 0.82981431484222412109 0.87880879640579223633 1.0004642009735107422 0.97907006740570068359 0.68670028448104858398 1.0494011640548706055 1.0854790210723876953 1.101879119873046875 1.0801832675933837891 
1.229880213737487793 1.2779204845428466797 1.0655171871185302734 0.84960407018661499023 1.1159496307373046875 0.95251435041427612305 0.8900775909423828125 1.0464179515838623047 1.0675498247146606445 1.0176256895065307617 1.1166384220123291016 1.2190568447113037109 1.2342783212661743164 1.0028238296508789062 1.0293816328048706055 1.1215976476669311523 1.1770367622375488281 1.2310285568237304688 1.0694761276245117188 1.0403274297714233398 1.2201759815216064453 1.3091931343078613281 0.99238598346710205078 1.069266200065612793 1.1450442075729370117 1.2457202672958374023 1.2821904420852661133 1.2671970129013061523 1.2456746101379394531 1.1778138875961303711 1.1041811704635620117 1.0667153596878051758 0.78694069385528564453 1.0769346952438354492 1.178409576416015625 1.2590025663375854492 1.1711075305938720703 1.0249593257904052734 1.2230342626571655273 1.0269253253936767578 1.1030660867691040039 1.1063108444213867188 1.1597263813018798828 1.1923257112503051758 1.1506824493408203125 1.1395639181137084961 0.98538553714752197266 0.88247811794281005859 0.77138155698776245117 1.052632451057434082 1.0627783536911010742 0.70212095975875854492 0.86964058876037597656 1.0111589431762695312 1.2167166471481323242 1.1478245258331298828 1.1034157276153564453 
1.0890790224075317383 1.0083208084106445312 0.82156360149383544922 0.95138216018676757812 1.1896216869354248047 1.1885148286819458008 1.1678330898284912109 0.98913550376892089844 0.91883546113967895508 1.1081014871597290039 1.1934534311294555664 1.1308027505874633789 1.1971328258514404297 1.1044509410858154297 1.1976741552352905273 1.2052608728408813477 1.26410675048828125 1.1861917972564697266 0.82482945919036865234 1.0833696126937866211 1.1204568147659301758 1.2819386720657348633 1.1452360153198242188 1.2609400749206542969 1.0525143146514892578 1.27544403076171875 1.2411227226257324219 1.2167308330535888672 1.2812579870223999023 1.2261643409729003906 1.1470980644226074219 1.0200266838073730469 0.82710057497024536133 1.1539272069931030273 1.0012240409851074219 1.0358941555023193359 1.1720843315124511719 1.0799462795257568359 1.11711883544921875 1.020007014274597168 1.0034923553466796875 1.0350985527038574219 1.1731504201889038086 1.2002580165863037109 1.0358891487121582031 1.0883412361145019531 1.2047121524810791016 1.2947626113891601562 1.3124979734420776367 1.1509277820587158203 1.0530518293380737305 0.87866628170013427734 1.2256441116333007812 1.2804713249206542969 1.1759164333343505859 1.109267115592956543 1.1471115350723266602 
1.1959244012832641602 1.152833104133605957 1.0169537067413330078 1.1625719070434570312 1.1850517988204956055 1.1575390100479125977 1.2324266433715820312 1.3033913373947143555 1.1597398519515991211 0.89198231697082519531 1.0935198068618774414 1.1589668989181518555 1.2255394458770751953 1.1071220636367797852 1.2419737577438354492 1.1748963594436645508 1.2126022577285766602 1.1735012531280517578 1.0821561813354492188 1.136591792106628418 1.1946978569030761719 1.2853349447250366211 1.3001009225845336914 1.133166193962097168 0.72615873813629150391 1.1283051967620849609 0.857913970947265625 0.96763426065444946289 1.2504991292953491211 1.273357391357421875 1.1239936351776123047 0.83055424690246582031 0.80044025182723999023 1.1728278398513793945 1.1695449352264404297 1.1056565046310424805 1.1733745336532592773 1.1755166053771972656 1.1689478158950805664 1.1992026567459106445 1.1686798334121704102 1.1612533330917358398 1.1954240798950195312 1.1436345577239990234 1.0228421688079833984 0.93823093175888061523 0.884521484375 0.97788596153259277344 1.2875032424926757812 1.3131074905395507812 1.2622828483581542969 0.86413425207138061523 0.89867132902145385742 1.062456965446472168 1.1436501741409301758 1.1134511232376098633 1.1833802461624145508 
1.218281865119934082 1.1113067865371704102 0.95692139863967895508 1.1302481889724731445 1.1768285036087036133 1.2193348407745361328 1.2814100980758666992 1.1346987485885620117 0.94161999225616455078 0.95604163408279418945 1.2550030946731567383 1.256632685661315918 1.2751724720001220703 1.1068964004516601562 1.0243792533874511719 0.97513526678085327148 1.0913889408111572266 1.0984549522399902344 1.139308929443359375 1.1776692867279052734 1.2459563016891479492 1.2431004047393798828 0.99894767999649047852 0.84727847576141357422 0.9416319727897644043 1.2870342731475830078 1.2661637067794799805 0.93589878082275390625 1.1079374551773071289 1.2732142210006713867 1.2402549982070922852 1.0348867177963256836 0.84133875370025634766 1.0521144866943359375 1.1759397983551025391 1.1745039224624633789 1.195621490478515625 1.216336369514465332 1.2133971452713012695 1.2120038270950317383 1.2117851972579956055 1.1917299032211303711 1.1914876699447631836 1.1302297115325927734 1.0656018257141113281 0.97372686862945556641 0.95405715703964233398 0.88631749153137207031 0.9134063720703125 1.1990406513214111328 1.2425773143768310547 0.91834187507629394531 0.94961977005004882812 1.062129974365234375 1.1158435344696044922 1.217673182487487793 1.2197192907333374023 
1.1588222980499267578 1.1263636350631713867 0.96210175752639770508 1.0697109699249267578 1.2193229198455810547 1.2314374446868896484 1.0155566930770874023 0.94810074567794799805 0.94408595561981201172 0.92964494228363037109 1.236638188362121582 1.2720164060592651367 1.1342552900314331055 1.0001871585845947266 0.89764618873596191406 1.1786750555038452148 1.1884764432907104492 1.1888710260391235352 1.1897236108779907227 1.2083051204681396484 1.294063568115234375 1.0036108493804931641 0.91261118650436401367 1.0743910074234008789 1.0404512882232666016 1.1350384950637817383 1.3080335855484008789 1.2142584323883056641 1.1965835094451904297 1.2363952398300170898 1.2872234582901000977 1.2546541690826416016 1.0249416828155517578 1.0978059768676757812 1.1565732955932617188 1.2364599704742431641 1.2231240272521972656 1.1429922580718994141 1.1024401187896728516 1.1218652725219726562 1.0633988380432128906 0.98084259033203125 1.1869719028472900391 1.2154610157012939453 1.1276004314422607422 1.1648623943328857422 1.0789959430694580078 1.1343638896942138672 0.71971851587295532227 0.48436129093170166016 0.88067066669464111328 0.71984684467315673828 1.0258541107177734375 1.1570951938629150391 1.1337813138961791992 1.2240108251571655273 1.1728103160858154297 
1.0890201330184936523 1.1517913341522216797 0.93708670139312744141 1.0178220272064208984 1.1995313167572021484 1.1822826862335205078 1.1556161642074584961 1.1923341751098632812 0.96601474285125732422 1.0895851850509643555 0.90866971015930175781 0.91362386941909790039 0.64083230495452880859 0.8286164402961730957 1.1757961511611938477 1.2004511356353759766 1.2053819894790649414 1.2269427776336669922 1.1907230615615844727 1.1866056919097900391 1.2229439020156860352 0.79425483942031860352 1.1019405126571655273 1.2166086435317993164 1.1127922534942626953 0.99691927433013916016 1.2307099103927612305 1.2807472944259643555 1.2413927316665649414 1.1214975118637084961 1.1394431591033935547 1.2646334171295166016 1.1881618499755859375 0.98351615667343139648 1.0925115346908569336 1.22894287109375 1.0815395116806030273 1.0931491851806640625 1.0554440021514892578 0.99565929174423217773 0.87245452404022216797 1.0058890581130981445 1.2250669002532958984 1.2283031940460205078 0.99198549985885620117 1.13037109375 1.2714133262634277344 1.2637717723846435547 1.0283838510513305664 0.9089114069938659668 0.89507049322128295898 1.0756092071533203125 1.1432007551193237305 1.1299475431442260742 1.1625152826309204102 1.2290732860565185547 1.1947154998779296875 
1.0905394554138183594 1.1386712789535522461 1.0866162776947021484 1.131795048713684082 1.1854445934295654297 1.0766918659210205078 0.95779883861541748047 0.72570717334747314453 1.031088709831237793 1.3156453371047973633 1.0515210628509521484 1.0426820516586303711 0.68460863828659057617 0.90968054533004760742 1.1927727460861206055 1.1939438581466674805 1.214984893798828125 1.1867997646331787109 1.2111175060272216797 1.1946177482604980469 1.2163031101226806641 1.1749434471130371094 1.2005842924118041992 1.2227449417114257812 1.2270859479904174805 1.0658391714096069336 1.1218312978744506836 1.1458922624588012695 1.1713166236877441406 0.95104277133941650391 1.0939161777496337891 1.1294687986373901367 1.2321044206619262695 1.1431803703308105469 1.2330852746963500977 1.253536224365234375 0.97866594791412353516 1.1646547317504882812 0.96766018867492675781 0.85432898998260498047 1.0639588832855224609 1.0971702337265014648 1.2261310815811157227 1.2332847118377685547 0.98779767751693725586 0.88522827625274658203 0.92129063606262207031 1.3263885974884033203 1.3387393951416015625 1.2012883424758911133 0.83937215805053710938 1.1176726818084716797 1.1637513637542724609 1.1511340141296386719 1.2429119348526000977 1.2397413253784179688 1.1283396482467651367 
1.1856714487075805664 1.191944122314453125 1.1841340065002441406 1.1713950634002685547 1.1499998569488525391 1.0324701070785522461 0.9912840723991394043 0.72155672311782836914 1.1975411176681518555 1.3021143674850463867 1.1360727548599243164 0.99121260643005371094 1.154636383056640625 0.71933525800704956055 0.96627062559127807617 1.0902423858642578125 1.1370387077331542969 1.1705334186553955078 1.176970362663269043 1.1852183341979980469 1.1929624080657958984 1.1363093852996826172 1.0490930080413818359 1.2461217641830444336 1.2469727993011474609 1.1949769258499145508 1.2033419609069824219 1.0301175117492675781 0.76267540454864501953 0.86785745620727539062 0.97994583845138549805 1.0490828752517700195 1.1859830617904663086 1.2324626445770263672 1.1926506757736206055 1.0377303361892700195 0.96749919652938842773 1.1876929998397827148 0.62801963090896606445 0.82967406511306762695 1.0838901996612548828 1.1223284006118774414 1.2243713140487670898 1.1696362495422363281 0.94686549901962280273 0.85723000764846801758 0.76881587505340576172 0.87110215425491333008 1.2063275575637817383 1.2131848335266113281 1.0081957578659057617 1.1390947103500366211 1.1320763826370239258 1.2387708425521850586 1.2433269023895263672 1.1555469036102294922 1.0633740425109863281 
1.1759626865386962891 1.1553021669387817383 1.1513874530792236328 1.1954541206359863281 1.1966900825500488281 1.1451761722564697266 1.0073577165603637695 1.0231471061706542969 1.2446761131286621094 1.131348729133605957 0.80983465909957885742 0.86066323518753051758 1.3073285818099975586 0.8800742030143737793 0.83884710073471069336 1.0593911409378051758 1.1312345266342163086 1.1735665798187255859 1.1964918375015258789 1.1781289577484130859 1.1717590093612670898 1.1123869419097900391 0.95573252439498901367 1.0606257915496826172 1.0273070335388183594 1.1202142238616943359 1.2127299308776855469 1.3110746145248413086 1.0606141090393066406 0.9649283289909362793 1.0083199739456176758 1.0556142330169677734 1.2473455667495727539 1.2490484714508056641 1.0272713899612426758 0.78103286027908325195 1.0477852821350097656 1.1447322368621826172 0.56643217802047729492 1.035796046257019043 1.1248292922973632812 1.1930235624313354492 1.2288789749145507812 1.1831486225128173828 1.2734602689743041992 1.20247650146484375 1.0655552148818969727 1.0406049489974975586 1.0219210386276245117 0.65081423521041870117 0.88604521751403808594 1.1251876354217529297 1.1250071525573730469 1.2512907981872558594 1.1787167787551879883 0.97532790899276733398 0.96186906099319458008 
1.0561968088150024414 1.0515099763870239258 1.0493291616439819336 1.0482790470123291016 1.171458125114440918 1.201272130012512207 1.1478668451309204102 1.1101166009902954102 1.0606971979141235352 0.85543489456176757812 0.91965562105178833008 1.044615626335144043 1.187241673469543457 1.0034089088439941406 0.89143043756484985352 0.92423379421234130859 1.1996728181838989258 1.218609929084777832 1.1858894824981689453 1.0410714149475097656 1.0238257646560668945 0.90337073802947998047 0.93885719776153564453 1.0250722169876098633 1.0424214601516723633 1.0121461153030395508 1.00614166259765625 1.1824015378952026367 1.1498541831970214844 1.0555677413940429688 1.1257991790771484375 1.2542233467102050781 1.2465647459030151367 1.2043578624725341797 1.0558788776397705078 0.71330916881561279297 1.0394639968872070312 0.91012668609619140625 0.69445723295211791992 1.1353782415390014648 1.1592533588409423828 1.2379505634307861328 1.2473255395889282227 0.9741852879524230957 1.1152205467224121094 1.2636315822601318359 1.2316497564315795898 1.2829787731170654297 1.3420684337615966797 1.0137935876846313477 1.1074094772338867188 1.2009572982788085938 1.244864344596862793 1.254433751106262207 1.2512509822845458984 1.0685174465179443359 0.94827711582183837891 
1.1013252735137939453 1.0395756959915161133 1.1412944793701171875 1.0840871334075927734 1.087855219841003418 1.1671553850173950195 1.2072262763977050781 1.2154983282089233398 1.1125608682632446289 1.1411589384078979492 1.1403024196624755859 1.2536008358001708984 1.2818678617477416992 1.2450516223907470703 1.3074332475662231445 1.1858501434326171875 1.0822862386703491211 1.1420996189117431641 1.0740789175033569336 0.9266605377197265625 0.9080708622932434082 1.0375896692276000977 1.2177711725234985352 1.2095563411712646484 1.1706049442291259766 1.1867641210556030273 1.2809691429138183594 1.2657580375671386719 1.2608836889266967773 1.260046839714050293 1.2538110017776489258 1.2567026615142822266 1.1399456262588500977 1.1825183629989624023 1.1329749822616577148 0.84344637393951416016 1.025256037712097168 1.0757796764373779297 1.1293263435363769531 1.125002741813659668 1.2213305234909057617 1.2381885051727294922 1.1204303503036499023 0.88301813602447509766 0.90389031171798706055 1.2692379951477050781 1.1648130416870117188 0.88291317224502563477 0.72190231084823608398 0.87868452072143554688 1.1916193962097167969 1.262699127197265625 1.2746510505676269531 1.0259697437286376953 1.1174297332763671875 1.2670813798904418945 1.1356320381164550781 
0.98142611980438232422 0.98021405935287475586 1.2230538129806518555 1.0474320650100708008 1.0869855880737304688 1.0799912214279174805 1.1212750673294067383 1.2018265724182128906 1.2193719148635864258 1.2337239980697631836 1.2512851953506469727 1.2653065919876098633 1.2140039205551147461 1.1915665864944458008 1.2970454692840576172 1.3096665143966674805 1.2275357246398925781 0.9454275965690612793 0.91694635152816772461 0.77764946222305297852 1.1248009204864501953 1.2010778188705444336 1.1605128049850463867 1.1136114597320556641 1.2353188991546630859 1.2735664844512939453 1.2775298357009887695 1.1600224971771240234 1.0927108526229858398 1.1095558404922485352 1.2254767417907714844 1.1205006837844848633 1.1107780933380126953 1.1402461528778076172 1.189843297004699707 1.0190186500549316406 0.8667481541633605957 1.188349604606628418 1.2149055004119873047 1.1731244325637817383 1.2488764524459838867 1.243847966194152832 1.0271986722946166992 0.78875970840454101562 1.070309758186340332 1.3286255598068237305 1.2785863876342773438 1.2767324447631835938 0.92438769340515136719 0.8177325129508972168 1.154143214225769043 1.2993484735488891602 1.2810593843460083008 1.0765962600708007812 0.84720700979232788086 1.2744908332824707031 1.2806806564331054688 
0.92618674039840698242 1.1023468971252441406 1.2741779088973999023 1.0445544719696044922 1.1480884552001953125 1.1187841892242431641 1.1067857742309570312 1.1114548444747924805 1.1977822780609130859 1.1475163698196411133 1.1692953109741210938 1.0788576602935791016 1.1563683748245239258 1.09943389892578125 1.1946908235549926758 1.2666962146759033203 1.3187108039855957031 1.1316534280776977539 0.86117345094680786133 1.0968812704086303711 1.1228992938995361328 1.1433597803115844727 1.1967136859893798828 1.2859312295913696289 1.2824991941452026367 1.2166919708251953125 1.0543075799942016602 0.91109472513198852539 0.89949762821197509766 1.1775720119476318359 1.1950364112854003906 1.074675440788269043 1.1471779346466064453 1.2182782888412475586 1.0132230520248413086 0.93485015630722045898 0.76992088556289672852 0.86951225996017456055 0.98147797584533691406 1.1214985847473144531 1.2486698627471923828 1.1866848468780517578 1.0568273067474365234 0.73411840200424194336 0.70523154735565185547 1.2209298610687255859 1.2508307695388793945 1.3041517734527587891 1.2980400323867797852 1.0313819646835327148 1.0735518932342529297 1.2255203723907470703 1.2692016363143920898 1.2376178503036499023 0.8478921055793762207 1.1260710954666137695 1.2728991508483886719 
0.63013535737991333008 0.9062334895133972168 1.2858752012252807617 1.1141344308853149414 0.96738082170486450195 1.2083563804626464844 1.1705036163330078125 1.1218825578689575195 1.226422429084777832 1.1164808273315429688 1.1557708978652954102 1.0626854896545410156 1.2355964183807373047 1.1698231697082519531 1.1597307920455932617 1.206051945686340332 1.2726596593856811523 1.014824986457824707 1.3155698776245117188 1.2957004308700561523 1.2592668533325195312 1.2340990304946899414 1.2845215797424316406 1.2941296100616455078 1.185419917106628418 1.0641582012176513672 0.92284119129180908203 0.97599887847900390625 1.2038120031356811523 1.2849898338317871094 1.1596933603286743164 1.108531951904296875 1.1042957305908203125 1.1853593587875366211 1.0013942718505859375 0.95760560035705566406 1.2046788930892944336 1.1319581270217895508 1.0437679290771484375 1.1922349929809570312 1.2536605596542358398 0.95497173070907592773 0.70352029800415039062 0.6561501622200012207 0.78420925140380859375 0.86874246597290039062 0.77103149890899658203 1.160180211067199707 1.1915432214736938477 0.88769286870956420898 1.0418057441711425781 1.2419898509979248047 1.2302114963531494141 1.2063592672348022461 0.94350463151931762695 1.0106563568115234375 1.2783471345901489258 
1.0871185064315795898 0.94301903247833251953 1.3064192533493041992 1.1539162397384643555 0.82710474729537963867 1.2150247097015380859 1.1572335958480834961 1.1067413091659545898 1.2844372987747192383 1.1334440708160400391 1.1192961931228637695 1.0833235979080200195 1.3379622697830200195 1.0925838947296142578 1.0050271749496459961 1.2392513751983642578 1.2680242061614990234 0.73572844266891479492 1.0460717678070068359 1.0297319889068603516 1.1777759790420532227 1.2695254087448120117 1.2565749883651733398 1.2023526430130004883 1.0838354825973510742 0.89132148027420043945 1.0104467868804931641 1.1485613584518432617 1.2914680242538452148 1.2185106277465820312 1.0724102258682250977 1.1518043279647827148 1.1678060293197631836 0.9161942601203918457 0.79860252141952514648 1.1774988174438476562 1.1689206361770629883 1.1084659099578857422 1.1155072450637817383 1.2638707160949707031 1.2064507007598876953 0.95908808708190917969 0.94324034452438354492 1.167618870735168457 1.2483305931091308594 1.1209923028945922852 1.0205132961273193359 0.74408376216888427734 0.92033427953720092773 0.6972522735595703125 0.95349049568176269531 1.2147692441940307617 1.266671299934387207 1.2211700677871704102 1.1588597297668457031 0.82289236783981323242 1.2981622219085693359 
0.93635118007659912109 0.88342404365539550781 1.013385772705078125 0.93311315774917602539 0.72307127714157104492 0.90686392784118652344 1.1043694019317626953 1.1328930854797363281 1.3052731752395629883 1.1724964380264282227 0.89498549699783325195 0.98315894603729248047 1.1651290655136108398 0.86790430545806884766 0.97983109951019287109 1.2386373281478881836 1.0165140628814697266 0.76901698112487792969 1.1066445112228393555 1.2243803739547729492 1.2818685770034790039 1.2696592807769775391 1.18392181396484375 1.0179553031921386719 0.85398507118225097656 1.0310652256011962891 1.1391112804412841797 1.2106647491455078125 1.28568267822265625 1.1538519859313964844 1.1094352006912231445 1.0897420644760131836 1.0185114145278930664 0.84372025728225708008 1.0403478145599365234 1.1869920492172241211 1.2173655033111572266 1.2730809450149536133 1.2265872955322265625 1.2556122541427612305 1.2627701759338378906 1.2733032703399658203 1.2816805839538574219 1.2886388301849365234 1.2874190807342529297 1.3040790557861328125 1.1130861043930053711 1.1695966720581054688 1.2597395181655883789 1.0396040678024291992 0.92935937643051147461 1.1803888082504272461 1.2976459264755249023 1.1718093156814575195 1.2114897966384887695 0.96418642997741699219 0.99510979652404785156 
1.238381505012512207 1.0540486574172973633 0.80964618921279907227 0.96555334329605102539 1.2311112880706787109 1.2699942588806152344 0.81765276193618774414 1.0700449943542480469 1.3386031389236450195 0.98408323526382446289 0.5510209202766418457 1.0161074399948120117 1.0504286289215087891 0.86195158958435058594 0.62665897607803344727 1.173037409782409668 1.2687186002731323242 1.2286095619201660156 1.1753047704696655273 1.1513381004333496094 1.2513216733932495117 1.2949289083480834961 1.0690306425094604492 0.78662031888961791992 0.95896965265274047852 1.167531132698059082 1.1119562387466430664 1.2545046806335449219 1.2492355108261108398 1.1799904108047485352 1.1191253662109375 1.2096780538558959961 1.105808258056640625 0.91841417551040649414 1.1407017707824707031 1.2142567634582519531 1.2968550920486450195 1.2126948833465576172 0.95465451478958129883 1.234905242919921875 1.2435358762741088867 1.076424717903137207 0.95066654682159423828 0.87777566909790039062 1.1449309587478637695 1.2964842319488525391 1.2154122591018676758 1.1133208274841308594 1.0416978597640991211 0.93870782852172851562 0.81640183925628662109 1.0909987688064575195 1.3101378679275512695 1.2102800607681274414 1.197268366813659668 1.2103227376937866211 1.0038313865661621094 
1.2521780729293823242 0.98564088344573974609 0.76044934988021850586 1.1859598159790039062 1.3036463260650634766 1.3177175521850585938 1.0930643081665039062 0.88728553056716918945 0.7509968876838684082 0.81148791313171386719 1.0403552055358886719 1.3492380380630493164 1.169468998908996582 0.96048361063003540039 0.71902662515640258789 1.2147703170776367188 1.2845852375030517578 1.2666025161743164062 1.2985837459564208984 1.3048745393753051758 1.3109778165817260742 1.0580654144287109375 0.84142547845840454102 0.89345586299896240234 1.0903013944625854492 1.0944671630859375 1.1986958980560302734 1.2796539068222045898 1.223171234130859375 1.1686631441116333008 1.1001865863800048828 1.1947013139724731445 0.85155266523361206055 1.161008000373840332 1.2298266887664794922 1.3080958127975463867 1.2741870880126953125 0.88616383075714111328 1.2140710353851318359 1.2909362316131591797 1.1480765342712402344 1.2310197353363037109 1.1232167482376098633 0.76144880056381225586 1.1436760425567626953 1.2721736431121826172 1.2680165767669677734 1.2348350286483764648 1.2201029062271118164 1.2303987741470336914 1.1702733039855957031 0.98166990280151367188 1.3325279951095581055 1.2006738185882568359 1.1748259067535400391 1.1840234994888305664 1.1913155317306518555 
1.2941087484359741211 1.1443496942520141602 0.84592211246490478516 1.1822096109390258789 1.2921967506408691406 1.0645329952239990234 1.0015079975128173828 1.0536725521087646484 1.0139368772506713867 1.2192875146865844727 1.194611668586730957 1.2964490652084350586 1.3206992149353027344 0.81387412548065185547 0.8756796717643737793 1.0420687198638916016 1.0491282939910888672 1.0816973447799682617 1.1455762386322021484 1.0798075199127197266 0.89712607860565185547 0.84152960777282714844 1.1571382284164428711 1.1259840726852416992 1.1221547126770019531 1.206368565559387207 1.271854400634765625 1.2212066650390625 1.2044727802276611328 1.0053963661193847656 1.0689510107040405273 1.1953809261322021484 0.81072103977203369141 0.98255628347396850586 1.1426411867141723633 1.3129967451095581055 1.0703061819076538086 1.0784708261489868164 1.3038083314895629883 1.1775429248809814453 1.0094127655029296875 0.84257143735885620117 0.89557790756225585938 1.162125706672668457 1.2750924825668334961 1.2989037036895751953 1.1741546392440795898 1.2178711891174316406 1.2165127992630004883 1.1644681692123413086 0.99340993165969848633 0.96233534812927246094 1.2999651432037353516 1.2416454553604125977 1.173211216926574707 1.0009115934371948242 1.1913107633590698242 
1.2153295278549194336 0.91621005535125732422 0.92206358909606933594 1.232485651969909668 1.2961583137512207031 0.83172392845153808594 0.49420246481895446777 0.68939155340194702148 1.1470824480056762695 1.3106276988983154297 1.2255460023880004883 1.2073140144348144531 1.2853811979293823242 1.111767888069152832 1.1245150566101074219 1.144030451774597168 1.2809255123138427734 1.1814190149307250977 0.9938157200813293457 0.83698183298110961914 1.0324411392211914062 1.1448874473571777344 1.2205569744110107422 1.2833151817321777344 1.1454116106033325195 1.2564687728881835938 1.2300490140914916992 1.2168418169021606445 1.1948225498199462891 0.92277640104293823242 0.85350847244262695312 0.97693163156509399414 1.1811581850051879883 1.2408326864242553711 1.225902557373046875 1.3239408731460571289 0.83911138772964477539 1.2276353836059570312 1.3171598911285400391 1.156116485595703125 1.0273420810699462891 0.79022389650344848633 0.83751624822616577148 1.0661169290542602539 1.2016985416412353516 1.3155480623245239258 1.2127730846405029297 1.1319941282272338867 1.0955190658569335938 1.110886693000793457 1.1176677942276000977 0.93503087759017944336 1.0827727317810058594 1.2854038476943969727 1.2430751323699951172 1.1805015802383422852 1.103267669677734375 
0.79035532474517822266 1.2122457027435302734 1.1756942272186279297 1.2808232307434082031 1.2602055072784423828 0.94740688800811767578 0.89304530620574951172 1.0724216699600219727 1.1077901124954223633 1.2819446325302124023 1.2914879322052001953 1.1923177242279052734 1.1818149089813232422 1.020289301872253418 0.9583409428596496582 1.1412416696548461914 1.2745645046234130859 1.3241515159606933594 1.3124263286590576172 1.2625346183776855469 1.0404816865921020508 1.1512279510498046875 1.1779820919036865234 1.2928200960159301758 1.1951169967651367188 1.1363098621368408203 1.1363894939422607422 1.14813232421875 1.0366822481155395508 0.92056858539581298828 0.69441163539886474609 1.1417332887649536133 0.97061181068420410156 1.0836735963821411133 1.3152203559875488281 1.2518556118011474609 0.9673938751220703125 1.2274471521377563477 1.2511942386627197266 1.1857047080993652344 1.1887203454971313477 1.219411015510559082 1.2224427461624145508 0.91996645927429199219 0.95325261354446411133 1.1741560697555541992 1.0401747226715087891 0.80477023124694824219 0.98213571310043334961 1.0535519123077392578 1.0641400814056396484 0.97473055124282836914 1.0121762752532958984 1.2837421894073486328 1.2077805995941162109 1.206677556037902832 1.1053963899612426758 
0.88415384292602539062 1.0451741218566894531 1.1392471790313720703 1.2725683450698852539 1.0992330312728881836 0.79251438379287719727 0.82843017578125 1.2816001176834106445 1.117571711540222168 1.2796089649200439453 1.2209173440933227539 0.87386292219161987305 0.78010380268096923828 0.91902410984039306641 1.140735626220703125 0.76637852191925048828 1.1284542083740234375 1.103404998779296875 1.0611325502395629883 1.2258342504501342773 1.1946052312850952148 1.0822223424911499023 1.2386343479156494141 1.2837070226669311523 0.70255506038665771484 0.81612128019332885742 1.1063927412033081055 0.98571604490280151367 0.72896188497543334961 0.68437933921813964844 1.0517530441284179688 1.3226330280303955078 1.2715903520584106445 1.0131450891494750977 1.177969813346862793 1.0909863710403442383 0.94860160350799560547 1.2097482681274414062 1.327505946159362793 1.1686110496520996094 1.1347271203994750977 1.1561964750289916992 0.71611714363098144531 0.76946204900741577148 1.0835115909576416016 0.78522646427154541016 1.0898256301879882812 1.0064313411712646484 1.2178332805633544922 1.0896483659744262695 0.67448407411575317383 0.87443625926971435547 0.64434021711349487305 0.97567754983901977539 0.91183304786682128906 1.135746002197265625 1.064208984375 
1.1230820417404174805 1.1147131919860839844 1.1631357669830322266 1.2744773626327514648 1.2047201395034790039 0.93571251630783081055 0.97409725189208984375 1.2988374233245849609 1.2314105033874511719 1.2558667659759521484 1.2712941169738769531 0.83190274238586425781 0.99695825576782226562 1.2902556657791137695 1.0943769216537475586 0.73955434560775756836 1.1604334115982055664 1.2227840423583984375 1.1974627971649169922 1.1713773012161254883 1.205172419548034668 0.85904371738433837891 1.1743656396865844727 1.2714776992797851562 0.76232886314392089844 0.63019472360610961914 0.85800641775131225586 1.0599614381790161133 1.1560099124908447266 0.8899371027946472168 1.0874344110488891602 1.2561823129653930664 1.2867907285690307617 1.310177922248840332 0.95553320646286010742 0.91203612089157104492 0.88304942846298217773 1.0085413455963134766 1.2968870401382446289 0.90612089633941650391 0.68853300809860229492 0.70467877388000488281 0.94446283578872680664 1.2525275945663452148 1.1981912851333618164 1.1732599735260009766 1.3190115690231323242 0.88782876729965209961 1.2558000087738037109 1.1824231147766113281 0.85499078035354614258 1.2776595354080200195 0.98702418804168701172 1.0142414569854736328 0.66513276100158691406 0.7962493896484375 0.94065845012664794922 
1.1790595054626464844 1.1703217029571533203 1.2542122602462768555 1.264881134033203125 0.91958504915237426758 0.75210654735565185547 0.83175861835479736328 0.94902741909027099609 1.0392739772796630859 1.1086341142654418945 1.2585136890411376953 1.1826875209808349609 1.1285183429718017578 1.2375487089157104492 0.82105988264083862305 1.033520817756652832 1.1511071920394897461 1.1079121828079223633 1.1271146535873413086 1.157885432243347168 1.2484190464019775391 0.93362867832183837891 1.2367914915084838867 1.2160919904708862305 0.88122904300689697266 0.87335795164108276367 1.0535173416137695312 1.2604362964630126953 1.3179428577423095703 1.1071825027465820312 0.75977754592895507812 1.1662509441375732422 1.2728017568588256836 1.2757316827774047852 0.9017321467399597168 0.7113800048828125 1.0074051618576049805 0.73768270015716552734 0.82579886913299560547 1.0572497844696044922 1.0062714815139770508 1.1593906879425048828 1.1645292043685913086 1.2107299566268920898 1.1492959260940551758 1.05831146240234375 1.2847694158554077148 0.98486560583114624023 1.1526037454605102539 1.1250433921813964844 0.91949486732482910156 1.2314324378967285156 0.878787994384765625 1.1245567798614501953 0.98574244976043701172 1.044559478759765625 1.3082603216171264648 
1.2475048303604125977 1.2466357946395874023 1.2334140539169311523 1.1695343255996704102 0.78511637449264526367 0.99290770292282104492 1.0155062675476074219 1.1473392248153686523 1.2114017009735107422 1.1634999513626098633 1.2580173015594482422 1.2587162256240844727 1.2037518024444580078 1.1128050088882446289 0.89239084720611572266 0.88901853561401367188 1.2284065485000610352 1.2842224836349487305 1.2496761083602905273 1.1926071643829345703 1.2361577749252319336 1.1327954530715942383 1.2198951244354248047 1.2135396003723144531 1.0942578315734863281 0.98073202371597290039 0.93273019790649414062 1.1488915681838989258 1.2407920360565185547 1.2331802845001220703 0.68549442291259765625 1.1110831499099731445 1.2688080072402954102 1.2534089088439941406 0.94718158245086669922 1.1903839111328125 1.2837314605712890625 0.80961996316909790039 0.97889173030853271484 1.0788894891738891602 0.93508058786392211914 1.3199760913848876953 1.2874863147735595703 1.2615878582000732422 1.1608177423477172852 0.98658919334411621094 1.1866688728332519531 1.0552616119384765625 1.1472961902618408203 1.1822663545608520508 1.1269392967224121094 1.1775258779525756836 1.0264643430709838867 1.128046870231628418 1.0976842641830444336 1.047764897346496582 1.1784017086029052734 
1.2359682321548461914 1.0242342948913574219 0.95841956138610839844 1.2316980361938476562 1.1592640876770019531 1.1536052227020263672 0.90117412805557250977 0.97281271219253540039 1.0580195188522338867 1.0444662570953369141 1.2113572359085083008 1.2532660961151123047 0.98680716753005981445 0.81848138570785522461 1.2051454782485961914 0.99181818962097167969 1.2682588100433349609 1.2680367231369018555 1.0704417228698730469 1.0900684595108032227 1.1461838483810424805 1.1256982088088989258 1.1830192804336547852 1.2030302286148071289 1.1796172857284545898 1.0604183673858642578 0.89012438058853149414 1.1171991825103759766 1.2721157073974609375 1.222126007080078125 0.70446008443832397461 1.122752070426940918 1.2484903335571289062 1.2329568862915039062 0.96809089183807373047 0.97145634889602661133 0.76736378669738769531 0.70113205909729003906 0.92497479915618896484 1.0156971216201782227 0.72534704208374023438 1.10901641845703125 1.2318068742752075195 1.2678772211074829102 1.2347707748413085938 1.2425729036331176758 1.2217346429824829102 1.2114279270172119141 1.2075029611587524414 1.2100679874420166016 1.2168145179748535156 1.2223263978958129883 1.2266600131988525391 1.2339487075805664062 1.2408130168914794922 1.2510511875152587891 1.2117054462432861328 
1.2364984750747680664 1.1139174699783325195 1.1564104557037353516 1.0429090261459350586 0.96016287803649902344 0.83248466253280639648 1.1656086444854736328 1.1650841236114501953 1.0303648710250854492 1.0499629974365234375 1.2396298646926879883 1.2532783746719360352 0.78451830148696899414 1.0142973661422729492 1.2128523588180541992 0.98081427812576293945 1.084796905517578125 1.0621913671493530273 1.1130443811416625977 1.2153470516204833984 1.1124389171600341797 1.0647666454315185547 1.16072845458984375 1.1926331520080566406 1.1829415559768676758 1.0855919122695922852 0.70922929048538208008 0.83588808774948120117 1.2529964447021484375 1.2455779314041137695 0.75004363059997558594 1.0023775100708007812 1.2298729419708251953 1.1795648336410522461 0.96852141618728637695 0.87632679939270019531 1.0134445428848266602 1.1677247285842895508 1.0564849376678466797 1.1128636598587036133 1.0808252096176147461 0.87478035688400268555 0.95676589012145996094 1.1087800264358520508 1.1537823677062988281 1.0460208654403686523 1.1344866752624511719 1.1996568441390991211 1.1624419689178466797 1.15596771240234375 1.0572265386581420898 1.2267593145370483398 1.2260811328887939453 1.1453217267990112305 1.2318396568298339844 1.2331137657165527344 1.2611315250396728516 
1.2011749744415283203 1.0380519628524780273 0.93826729059219360352 0.800388336181640625 0.8478412628173828125 1.0375674962997436523 1.1692051887512207031 1.2127857208251953125 1.1335545778274536133 1.0404719114303588867 1.1874843835830688477 1.2244334220886230469 0.93214666843414306641 1.1502599716186523438 1.294234156608581543 0.95782870054244995117 1.0012160539627075195 1.2521197795867919922 1.2737876176834106445 1.2732977867126464844 1.0485804080963134766 1.1010243892669677734 1.1620475053787231445 1.1996974945068359375 1.1927008628845214844 1.049471735954284668 0.77518939971923828125 0.78162312507629394531 1.2124474048614501953 1.2251056432723999023 0.92654705047607421875 1.0261059999465942383 1.2065602540969848633 1.1534771919250488281 0.8838437199592590332 1.180531620979309082 1.235973358154296875 1.0847793817520141602 1.0116263628005981445 1.1960729360580444336 1.2121139764785766602 0.86304950714111328125 1.024087071418762207 0.77008479833602905273 0.95626628398895263672 1.0133645534515380859 1.1947300434112548828 1.0571370124816894531 0.88564562797546386719 1.1792483329772949219 0.93575835227966308594 1.1370055675506591797 1.1483341455459594727 1.1333417892456054688 1.1027555465698242188 1.0943418741226196289 1.2364333868026733398 
1.0007253885269165039 0.87361687421798706055 0.69918054342269897461 1.0438542366027832031 1.1110377311706542969 1.1748623847961425781 1.1060994863510131836 1.1524500846862792969 1.1282744407653808594 1.0915296077728271484 1.2089116573333740234 1.2281577587127685547 1.1192337274551391602 0.96811878681182861328 1.0129201412200927734 0.80662930011749267578 0.95172286033630371094 1.204224705696105957 1.1884580850601196289 0.96091639995574951172 0.77411103248596191406 0.97722989320755004883 1.1371262073516845703 1.1479226350784301758 1.19431304931640625 1.1428172588348388672 0.89742821455001831055 0.72441399097442626953 1.052021026611328125 1.1497285366058349609 1.0559239387512207031 1.082209467887878418 1.1275398731231689453 1.0831719636917114258 1.1014370918273925781 1.2252205610275268555 1.0568338632583618164 0.85106068849563598633 0.92573910951614379883 1.2883962392807006836 1.1969655752182006836 1.082520604133605957 1.1465677022933959961 0.96975380182266235352 1.0611207485198974609 1.1907638311386108398 1.1866840124130249023 1.133854985237121582 0.90141391754150390625 1.1743775606155395508 0.91957682371139526367 1.1318843364715576172 1.148573756217956543 1.1981319189071655273 1.0738333463668823242 1.1014266014099121094 0.94217282533645629883 
1.0810067653656005859 1.0561497211456298828 0.81839424371719360352 1.0576633214950561523 1.1950975656509399414 1.0718500614166259766 1.0921618938446044922 1.1042772531509399414 1.1592485904693603516 1.2089120149612426758 1.2125773429870605469 1.2096469402313232422 1.1819378137588500977 1.253775477409362793 0.99877619743347167969 0.71895062923431396484 0.68349730968475341797 0.94571888446807861328 1.2069406509399414062 1.100337982177734375 1.0157983303070068359 1.0596824884414672852 1.0317302942276000977 1.0543351173400878906 1.18959808349609375 1.1869182586669921875 1.1633424758911132812 0.95316743850708007812 1.09281158447265625 1.1725481748580932617 1.1660504341125488281 1.1520538330078125 1.1561961174011230469 1.1512354612350463867 1.1295044422149658203 1.118767857551574707 1.0738260746002197266 0.94793224334716796875 0.7728570103645324707 0.96868526935577392578 1.2147806882858276367 1.2463785409927368164 1.2186101675033569336 1.2102800607681274414 1.185324549674987793 1.1705789566040039062 1.0765796899795532227 0.89730656147003173828 0.88146328926086425781 1.0787070989608764648 1.0211172103881835938 1.0484480857849121094 1.2132239341735839844 1.2315971851348876953 0.90900349617004394531 0.8328526616096496582 0.93983787298202514648 
0.96571463346481323242 0.78920549154281616211 0.93729048967361450195 1.1502858400344848633 1.1212143898010253906 1.0438095331192016602 1.0475884675979614258 1.115208745002746582 1.2045252323150634766 1.1790801286697387695 1.0818431377410888672 1.1498396396636962891 1.2081670761108398438 1.2579888105392456055 1.0834304094314575195 0.69766628742218017578 1.0212861299514770508 1.1200211048126220703 1.250857234001159668 1.2827391624450683594 1.1104127168655395508 1.1745035648345947266 1.1332497596740722656 1.1407349109649658203 1.0954552888870239258 1.1498547792434692383 1.1805623769760131836 1.145968317985534668 1.1699291467666625977 1.1634716987609863281 1.1581896543502807617 1.1557899713516235352 1.1514456272125244141 1.1427496671676635742 1.1061245203018188477 1.0571924448013305664 1.0272500514984130859 0.80942493677139282227 0.81226044893264770508 0.88142085075378417969 0.92826533317565917969 1.0349277257919311523 1.2265769243240356445 1.1710999011993408203 1.0917912721633911133 1.1677500009536743164 1.1358541250228881836 0.91374552249908447266 0.66698366403579711914 0.84368556737899780273 1.0022141933441162109 1.0026478767395019531 1.261810302734375 1.2151693105697631836 0.75205385684967041016 1.0986701250076293945 1.237913966178894043 
0.75993138551712036133 0.96658509969711303711 1.1824392080307006836 1.1242334842681884766 1.126665949821472168 1.159725189208984375 1.0773713588714599609 1.0215750932693481445 1.1942358016967773438 1.1360883712768554688 0.83512783050537109375 0.96036624908447265625 1.1701390743255615234 0.96881836652755737305 0.99967283010482788086 0.84589970111846923828 1.0690768957138061523 1.1054116487503051758 1.1395345926284790039 1.2774604558944702148 1.2609413862228393555 1.252833247184753418 1.2354353666305541992 1.2088683843612670898 1.0538970232009887695 1.0690076351165771484 1.1253154277801513672 1.1697075366973876953 1.1782956123352050781 1.1121172904968261719 1.0395576953887939453 1.0291390419006347656 1.0245310068130493164 1.1111541986465454102 1.147088170051574707 1.1120705604553222656 0.98730897903442382812 0.83933305740356445312 1.0555222034454345703 1.0979150533676147461 1.0595394372940063477 1.0279729366302490234 0.88182264566421508789 0.7130311131477355957 0.87747973203659057617 1.168163299560546875 1.1746246814727783203 0.99979078769683837891 0.87385946512222290039 0.85698419809341430664 0.70683842897415161133 0.86221575736999511719 1.1842925548553466797 1.1515353918075561523 0.9216791987419128418 1.1542301177978515625 1.0999902486801147461 
0.9172274470329284668 1.0449650287628173828 1.1266798973083496094 1.1419147253036499023 1.1188045740127563477 1.0852581262588500977 1.108569025993347168 1.1585406064987182617 1.1876521110534667969 1.0798653364181518555 0.82007986307144165039 0.78180295228958129883 0.88359391689300537109 0.82781761884689331055 0.70969563722610473633 0.85368162393569946289 1.2156569957733154297 1.0004585981369018555 1.2228125333786010742 1.2599828243255615234 1.1816976070404052734 1.1325854063034057617 1.0412324666976928711 1.0741579532623291016 1.0419048070907592773 1.108783721923828125 1.1029967069625854492 1.1294448375701904297 1.1107977628707885742 1.1023749113082885742 0.90292906761169433594 0.83088159561157226562 1.0011063814163208008 1.0402454137802124023 1.1420183181762695312 1.1403404474258422852 1.0408824682235717773 0.8488451838493347168 1.0754823684692382812 1.1204311847686767578 1.0582916736602783203 1.0793354511260986328 0.94384312629699707031 0.81572192907333374023 1.047823786735534668 1.1461622714996337891 1.1644856929779052734 1.141713261604309082 1.2164353132247924805 1.2521066665649414062 1.256552577018737793 0.89372289180755615234 0.76495945453643798828 0.88037073612213134766 0.78447395563125610352 1.0553280115127563477 1.1320300102233886719 
1.0938115119934082031 1.0649566650390625 1.0716825723648071289 1.1308611631393432617 1.1662921905517578125 1.1700940132141113281 1.1763002872467041016 1.1822431087493896484 1.1926022768020629883 1.2082604169845581055 1.2484763860702514648 1.2821347713470458984 1.2937265634536743164 1.0863572359085083008 0.69713264703750610352 1.1459538936614990234 1.3251579999923706055 1.0541127920150756836 0.76372730731964111328 0.83599817752838134766 0.92296886444091796875 0.8849404454231262207 0.8188813328742980957 0.89912521839141845703 1.1199890375137329102 1.1246184110641479492 1.1486486196517944336 1.1255402565002441406 1.1545009613037109375 1.172907710075378418 0.92923688888549804688 1.029650568962097168 1.0292228460311889648 1.0156462192535400391 1.1321418285369873047 1.1283262968063354492 1.1334834098815917969 1.0074679851531982422 1.1028017997741699219 1.1054404973983764648 1.0441527366638183594 1.0323216915130615234 0.9277274012565612793 0.84399080276489257812 0.97017133235931396484 1.137537837028503418 1.1006079912185668945 0.94190984964370727539 0.95054423809051513672 1.0180275440216064453 1.1168358325958251953 0.83515971899032592773 0.9396998286247253418 1.3073165416717529297 1.2704068422317504883 1.2242591381072998047 1.2818102836608886719 
1.1058430671691894531 1.0892060995101928711 1.0980101823806762695 1.1698899269104003906 1.1698042154312133789 1.1682742834091186523 1.1521157026290893555 1.0223058462142944336 1.1739727258682250977 0.95166486501693725586 0.76501888036727905273 1.0485645532608032227 1.1942372322082519531 1.0818656682968139648 1.0568810701370239258 1.0332556962966918945 1.2473987340927124023 1.1882269382476806641 0.71260887384414672852 0.82046723365783691406 1.13646697998046875 1.2100652456283569336 1.2873631715774536133 0.95323079824447631836 0.87497991323471069336 1.1791017055511474609 1.2554570436477661133 1.1573678255081176758 1.14070892333984375 0.84314978122711181641 0.69423127174377441406 0.84095746278762817383 1.0793011188507080078 1.1698567867279052734 1.1158390045166015625 1.1184208393096923828 1.1309676170349121094 1.1266969442367553711 1.122820734977722168 1.1201745271682739258 1.1238464117050170898 1.1152679920196533203 0.98792070150375366211 1.0004769563674926758 0.94402366876602172852 1.1283810138702392578 1.1154471635818481445 0.95279955863952636719 0.82287931442260742188 0.60754895210266113281 0.83231109380722045898 0.65631264448165893555 0.96882641315460205078 0.9115632176399230957 1.0674251317977905273 1.2696493864059448242 1.2803183794021606445 
1.0975859165191650391 1.0817553997039794922 1.1660016775131225586 1.1708878278732299805 1.0915689468383789062 1.01642608642578125 1.1198537349700927734 0.91582912206649780273 1.2087607383728027344 1.2422530651092529297 1.0625767707824707031 0.926685333251953125 0.94825142621994018555 0.88539218902587890625 1.2871555089950561523 1.2558106184005737305 1.224503636360168457 1.1496888399124145508 1.0629975795745849609 0.99066531658172607422 1.0628175735473632812 1.2585718631744384766 1.2024332284927368164 0.58268415927886962891 1.0426863431930541992 1.2884536981582641602 1.2567114830017089844 0.94802510738372802734 0.89796048402786254883 1.1004487276077270508 1.1629234552383422852 1.1334348917007446289 1.2029184103012084961 1.1912543773651123047 1.0276193618774414062 1.0632722377777099609 1.1097385883331298828 1.0633217096328735352 1.0781927108764648438 1.0254161357879638672 1.1127789020538330078 1.1073583364486694336 1.1121164560317993164 1.0827556848526000977 1.0563069581985473633 1.118371129035949707 1.0594875812530517578 0.80886811017990112305 0.7536983489990234375 1.0349317789077758789 1.2227808237075805664 0.95753568410873413086 0.74236345291137695312 0.94307565689086914062 0.99432665109634399414 1.2106697559356689453 1.0257754325866699219 
1.1034433841705322266 1.1422520875930786133 1.1585928201675415039 1.0752257108688354492 1.0051441192626953125 0.98014622926712036133 1.2178872823715209961 0.92091631889343261719 1.149660944938659668 1.2398343086242675781 1.2597386837005615234 1.1115279197692871094 0.79206812381744384766 0.79741364717483520508 1.2057962417602539062 1.2263284921646118164 1.2321513891220092773 1.2453351020812988281 1.2552173137664794922 1.0197218656539916992 1.0514060258865356445 1.2421634197235107422 1.0557562112808227539 0.67347538471221923828 0.85876184701919555664 0.84140235185623168945 0.85619562864303588867 0.70278686285018920898 1.0768896341323852539 1.1730265617370605469 1.0674526691436767578 1.2186987400054931641 1.2020609378814697266 1.0904068946838378906 0.86106544733047485352 1.0678999423980712891 1.1322373151779174805 1.0421487092971801758 0.96155542135238647461 1.0531829595565795898 1.0235322713851928711 1.0584545135498046875 1.084984898567199707 1.0945187807083129883 1.0982748270034790039 0.9767373204231262207 0.81568354368209838867 0.82598173618316650391 1.113930821418762207 1.213726043701171875 1.2138447761535644531 0.94543600082397460938 0.85275673866271972656 1.2035191059112548828 0.92637729644775390625 1.0369176864624023438 0.8495998382568359375 
