ncols        109
nrows        108
xllcorner    625080.348754761741
yllcorner    5174399.999877895229
cellsize     250.000000000000
NODATA_value -9999
1.1686000823974609375 1.1046888828277587891 1.2004215717315673828 1.2243882417678833008 1.1332337856292724609 1.1105300188064575195 0.80484712123870849609 0.94572168588638305664 1.1199065446853637695 1.050709843635559082 1.1215833425521850586 0.77059882879257202148 1.2439478635787963867 1.3132418394088745117 1.299767613410949707 1.1928330659866333008 1.1734271049499511719 1.1276078224182128906 1.0402654409408569336 1.1521100997924804688 1.2153074741363525391 0.87440216541290283203 1.142871856689453125 1.1558030843734741211 1.0752947330474853516 1.1040173768997192383 1.0847866535186767578 1.0682992935180664062 1.139510035514831543 1.1035829782485961914 1.1438120603561401367 1.0767431259155273438 1.089135289192199707 1.0404279232025146484 0.94667023420333862305 1.0185528993606567383 1.0410484075546264648 1.1378549337387084961 1.1757385730743408203 1.2295687198638916016 1.1844048500061035156 0.95359027385711669922 0.54073041677474975586 1.175753474235534668 1.3054503202438354492 1.2042486667633056641 1.1440924406051635742 1.1554238796234130859 0.94664347171783447266 1.1367408037185668945 1.1492745876312255859 1.2315015792846679688 1.1620177030563354492 1.1934834718704223633 1.0841096639633178711 0.96473813056945800781 1.1737524271011352539 1.1758476495742797852 1.1222908496856689453 1.1557607650756835938 1.0856235027313232422 1.0343914031982421875 1.0808995962142944336 1.1765465736389160156 1.1770462989807128906 1.1714032888412475586 1.0990706682205200195 1.0543979406356811523 1.0393288135528564453 1.0072423219680786133 1.0538486242294311523 1.0829639434814453125 1.1208032369613647461 1.1770789623260498047 1.1785836219787597656 1.1375761032104492188 1.0224888324737548828 1.0710921287536621094 1.0791422128677368164 1.1775873899459838867 0.9961592555046081543 0.71807277202606201172 1.1612153053283691406 1.3110944032669067383 1.165520787239074707 1.1664612293243408203 1.0819699764251708984 1.0050737857818603516 1.1878864765167236328 1.1177818775177001953 1.1701637506484985352 1.2498753070831298828 1.2473928928375244141 1.2231122255325317383 1.1892082691192626953 1.1048113107681274414 1.1892759799957275391 0.8694356083869934082 1.1788743734359741211 0.971408843994140625 0.89598304033279418945 1.0231037139892578125 1.1502405405044555664 1.0704298019409179688 1.0419158935546875 1.0773476362228393555 1.0854910612106323242 1.1067245006561279297 1.1259993314743041992 
1.1988974809646606445 1.1025804281234741211 1.1813966035842895508 1.244879603385925293 1.161786198616027832 1.0974726676940917969 0.89170193672180175781 0.83829081058502197266 0.91705876588821411133 0.88389062881469726562 0.95572513341903686523 0.59257787466049194336 0.86296045780181884766 0.96520555019378662109 1.2435187101364135742 1.2501587867736816406 1.2333080768585205078 1.2444767951965332031 1.1753641366958618164 1.2767721414566040039 1.0938022136688232422 0.66540223360061645508 0.92171704769134521484 1.0071319341659545898 1.0413429737091064453 1.0456901788711547852 1.0728332996368408203 1.0536396503448486328 1.1394665241241455078 1.1149084568023681641 1.1638669967651367188 1.1158580780029296875 1.0703197717666625977 1.0394153594970703125 1.1080691814422607422 1.0347683429718017578 0.88636046648025512695 0.81875181198120117188 0.79953444004058837891 0.91543507575988769531 0.7747637629508972168 1.0636796951293945312 0.52581542730331420898 0.95589989423751831055 1.2364103794097900391 1.1315751075744628906 1.1192474365234375 1.3117944002151489258 1.2102832794189453125 1.1777613162994384766 1.2273534536361694336 1.2197996377944946289 1.2234463691711425781 1.2055033445358276367 0.93163800239562988281 1.2121025323867797852 1.2221274375915527344 1.1452810764312744141 1.1403008699417114258 1.1550272703170776367 1.1113229990005493164 1.1034266948699951172 1.1375993490219116211 1.1813180446624755859 1.1658519506454467773 1.0590974092483520508 1.072018742561340332 1.0612715482711791992 1.0133793354034423828 1.0114487409591674805 1.0559296607971191406 1.0519276857376098633 1.0763735771179199219 1.1416949033737182617 1.1807537078857421875 1.1885461807250976562 1.0869398117065429688 1.1056982278823852539 1.1712261438369750977 1.1266698837280273438 1.1311167478561401367 0.93985390663146972656 0.86641293764114379883 0.78791534900665283203 1.0500490665435791016 1.0739938020706176758 0.76545101404190063477 1.0468971729278564453 1.132525324821472168 1.2235040664672851562 1.261559605598449707 1.2576681375503540039 1.2127885818481445312 1.1036940813064575195 1.1837717294692993164 0.96475422382354736328 1.2892574071884155273 1.005280613899230957 0.90005189180374145508 0.75200879573822021484 1.203890681266784668 1.2588753700256347656 1.0825172662734985352 1.0198934078216552734 1.0210373401641845703 1.0512751340866088867 1.0795751810073852539 1.0820097923278808594 1.0628167390823364258 
1.1168198585510253906 1.1082671880722045898 1.149501800537109375 1.2124297618865966797 1.1780518293380737305 1.1180466413497924805 1.0740240812301635742 1.0798959732055664062 1.0119621753692626953 1.0251260995864868164 1.1185017824172973633 0.99075841903686523438 0.97145354747772216797 0.638851165771484375 1.1624312400817871094 1.2258982658386230469 1.2398867607116699219 1.2139608860015869141 1.2546863555908203125 1.1465946435928344727 0.94736826419830322266 0.73850190639495849609 0.95057964324951171875 1.015086054801940918 1.0461182594299316406 1.0647082328796386719 1.0937604904174804688 1.076473236083984375 1.113782048225402832 1.1268627643585205078 1.1432164907455444336 1.0921626091003417969 1.0820043087005615234 1.0799967050552368164 1.1074855327606201172 1.1221094131469726562 1.0101264715194702148 0.93175685405731201172 1.1037995815277099609 1.2505382299423217773 1.1055663824081420898 1.1175723075866699219 0.67292690277099609375 1.282260894775390625 1.3229171037673950195 1.1779782772064208984 1.1285291910171508789 1.1336847543716430664 1.1864250898361206055 1.21089935302734375 1.1857036352157592773 1.1906827688217163086 1.2228372097015380859 0.84829461574554443359 1.1529334783554077148 1.1431909799575805664 1.1396725177764892578 1.1605358123779296875 1.1377043724060058594 1.1244602203369140625 1.0203925371170043945 1.0178432464599609375 1.1270692348480224609 1.1828187704086303711 1.0880534648895263672 1.0603259801864624023 1.0846921205520629883 1.0769171714782714844 1.0405070781707763672 0.80809414386749267578 1.0496435165405273438 1.072072148323059082 1.0575269460678100586 1.0808281898498535156 1.1850677728652954102 1.185820460319519043 1.1680705547332763672 1.1502978801727294922 1.111536860466003418 1.1174373626708984375 1.1693036556243896484 1.2910784482955932617 1.2568427324295043945 0.92267519235610961914 0.92420655488967895508 1.1453915834426879883 1.1226155757904052734 1.2166601419448852539 1.1993466615676879883 1.2749500274658203125 1.1770284175872802734 1.1052144765853881836 1.0938134193420410156 1.1318382024765014648 1.0961018800735473633 0.8519293665885925293 0.90342003107070922852 1.1759932041168212891 0.82332390546798706055 0.88591653108596801758 1.2905957698822021484 1.2244596481323242188 1.0112712383270263672 1.1142288446426391602 1.0475848913192749023 1.0632946491241455078 1.0392744541168212891 1.0687644481658935547 1.1024239063262939453 
1.1479970216751098633 1.1183587312698364258 1.1725754737854003906 1.206875920295715332 1.2137438058853149414 1.1417534351348876953 1.1430658102035522461 1.2105957269668579102 1.2107764482498168945 1.2655121088027954102 1.295956730842590332 1.2610548734664916992 1.1917737722396850586 0.7546647191047668457 1.2138093709945678711 1.1947386264801025391 1.1996254920959472656 1.1806962490081787109 1.0373580455780029297 0.83870291709899902344 1.2364923954010009766 1.034893035888671875 0.8984648585319519043 0.96975839138031005859 1.0619677305221557617 1.110407710075378418 1.0983070135116577148 1.0660244226455688477 1.0984060764312744141 1.1344643831253051758 1.1315605640411376953 1.0440371036529541016 1.036866307258605957 1.1095660924911499023 1.1296426057815551758 1.136248469352722168 0.93354952335357666016 1.2094560861587524414 1.2516694068908691406 1.2022726535797119141 0.91358089447021484375 0.71757644414901733398 0.61629694700241088867 1.229640960693359375 1.2609418630599975586 1.283617854118347168 1.2571480274200439453 1.2174555063247680664 1.168223261833190918 1.1522306203842163086 1.211485743522644043 1.2670103311538696289 1.0094144344329833984 0.68012452125549316406 1.0222135782241821289 0.68496400117874145508 0.85972994565963745117 1.0661382675170898438 1.1162028312683105469 1.0955499410629272461 1.0820927619934082031 1.0969262123107910156 1.1891685724258422852 1.1901417970657348633 1.0771034955978393555 1.10597991943359375 1.1052451133728027344 1.0139752626419067383 1.0934820175170898438 0.87808024883270263672 1.0737366676330566406 1.0488679409027099609 1.1231849193572998047 1.0866578817367553711 1.1329520940780639648 1.1895937919616699219 1.1949557065963745117 1.1507396697998046875 1.10346221923828125 1.1002833843231201172 1.2265076637268066406 1.261217951774597168 1.14090728759765625 0.99433153867721557617 1.1495481729507446289 1.2943764925003051758 1.1740878820419311523 1.2105298042297363281 1.1941285133361816406 1.0834106206893920898 1.1202634572982788086 1.2462908029556274414 1.034211277961730957 1.1806237697601318359 1.2129719257354736328 1.1672638654708862305 0.81851279735565185547 1.0654827356338500977 0.64565765857696533203 0.58098453283309936523 0.99771177768707275391 0.83197051286697387695 0.97092908620834350586 1.0927879810333251953 1.047429203987121582 1.0439871549606323242 1.010585784912109375 1.0453035831451416016 1.0870927572250366211 
1.2825995683670043945 1.1636751890182495117 1.2049582004547119141 1.2192871570587158203 1.2063279151916503906 1.1137245893478393555 1.1114181280136108398 1.2168211936950683594 1.2770609855651855469 1.0429337024688720703 1.1205483675003051758 1.3091864585876464844 1.0415135622024536133 0.59281802177429199219 1.0494741201400756836 1.0031058788299560547 0.83660292625427246094 0.68636876344680786133 0.8177585601806640625 1.1559289693832397461 1.2788040637969970703 1.195145726203918457 1.1443920135498046875 1.2106817960739135742 1.0526214838027954102 1.0462340116500854492 1.1119607686996459961 1.0771301984786987305 1.1133968830108642578 1.1327652931213378906 1.1280446052551269531 1.100333094596862793 1.065517425537109375 1.0790827274322509766 1.2195171117782592773 1.1525727510452270508 1.14575958251953125 1.2541091442108154297 1.2816632986068725586 1.0275727510452270508 0.80455404520034790039 0.97496849298477172852 1.0268869400024414062 0.88626551628112792969 1.0435166358947753906 1.2430402040481567383 1.2850061655044555664 1.2932078838348388672 1.2464455366134643555 1.2232785224914550781 1.2925974130630493164 1.089813232421875 0.91045939922332763672 1.1027601957321166992 1.13654327392578125 0.97376000881195068359 0.9705047607421875 1.1105130910873413086 1.1206706762313842773 1.0623742341995239258 1.1117860078811645508 1.173007965087890625 1.1880718469619750977 1.1281281709671020508 1.084902644157409668 1.1010833978652954102 1.0483870506286621094 0.96275866031646728516 1.1292166709899902344 1.0777245759963989258 1.1113740205764770508 1.0423712730407714844 1.0446676015853881836 1.0841190814971923828 1.0973200798034667969 1.1649686098098754883 1.1974788904190063477 1.2137074470520019531 1.1795415878295898438 1.1697312593460083008 1.1266803741455078125 0.9726759791374206543 0.81039780378341674805 1.0494939088821411133 0.69202941656112670898 1.0926474332809448242 1.203517913818359375 1.2279604673385620117 1.2091318368911743164 1.2069619894027709961 1.2374742031097412109 1.2844891548156738281 0.81110280752182006836 0.93744367361068725586 0.95349711179733276367 0.82274532318115234375 1.0361236333847045898 1.3119115829467773438 1.165265202522277832 0.69306260347366333008 0.60031819343566894531 0.89518731832504272461 1.1198053359985351562 1.1246073246002197266 1.1057313680648803711 1.0594896078109741211 1.0321531295776367188 0.97208774089813232422 1.0383465290069580078 
0.85700231790542602539 0.83784615993499755859 1.1537470817565917969 1.2521260976791381836 1.2334479093551635742 1.1770267486572265625 1.0909113883972167969 1.1127632856369018555 1.2052369117736816406 1.1686871051788330078 0.9903590083122253418 1.2686513662338256836 1.1405870914459228516 1.0160521268844604492 1.2774267196655273438 1.0530529022216796875 0.97836828231811523438 0.91796791553497314453 0.76633089780807495117 1.1401151418685913086 1.2773194313049316406 1.2293146848678588867 1.1879708766937255859 1.1428049802780151367 1.1044059991836547852 1.0970443487167358398 1.1042951345443725586 1.1011664867401123047 1.1154445409774780273 1.1291762590408325195 1.1286557912826538086 1.0562061071395874023 1.108275294303894043 1.0810507535934448242 1.1565009355545043945 1.0796414613723754883 1.1137795448303222656 1.1232057809829711914 1.1519112586975097656 0.94362223148345947266 1.1425060033798217773 1.2060546875 1.2312440872192382812 1.2601370811462402344 0.87966185808181762695 0.84025311470031738281 0.87425333261489868164 1.1608514785766601562 1.253358006477355957 1.2213387489318847656 1.0252832174301147461 1.151488184928894043 1.2150915861129760742 1.2145931720733642578 1.2747151851654052734 1.1559735536575317383 1.0764390230178833008 1.094864964485168457 1.1029542684555053711 1.0891931056976318359 1.161175847053527832 1.1896265745162963867 1.1608628034591674805 1.1025849580764770508 1.0898078680038452148 1.0917117595672607422 1.119958043098449707 0.98518228530883789062 1.0764199495315551758 0.93455845117568969727 0.87611043453216552734 1.1685643196105957031 1.1351714134216308594 1.076041102409362793 1.1416156291961669922 1.1953951120376586914 1.1974281072616577148 1.0927364826202392578 1.0580627918243408203 0.92041099071502685547 0.72990936040878295898 0.99134242534637451172 1.1836162805557250977 1.2493094205856323242 0.71465820074081420898 0.91856288909912109375 1.2906097173690795898 1.2819831371307373047 1.2820456027984619141 1.2154488563537597656 1.2053515911102294922 1.267773747444152832 0.67256742715835571289 0.66158819198608398438 0.57060706615447998047 1.0532107353210449219 1.0411995649337768555 1.2877928018569946289 1.2320847511291503906 1.0896122455596923828 1.0454877614974975586 1.0676370859146118164 1.1524837017059326172 1.1514577865600585938 1.1317818164825439453 1.1165750026702880859 1.0340602397918701172 0.92481464147567749023 0.98095023632049560547 
1.0561056137084960938 0.70560169219970703125 1.0271477699279785156 1.1421736478805541992 1.2415975332260131836 1.2597805261611938477 1.2253645658493041992 1.2051314115524291992 1.2289586067199707031 1.1791807413101196289 1.0924744606018066406 1.0248810052871704102 0.88761484622955322266 1.04441070556640625 1.2442284822463989258 1.1716290712356567383 1.1704307794570922852 1.0490307807922363281 1.0496013164520263672 1.0116689205169677734 1.1866097450256347656 1.1043087244033813477 1.1809811592102050781 1.0041922330856323242 1.0685614347457885742 1.1669517755508422852 1.0750002861022949219 1.0735889673233032227 1.0844575166702270508 1.1272065639495849609 1.1298707723617553711 1.0532709360122680664 1.1005408763885498047 1.0962201356887817383 1.1177430152893066406 1.1493184566497802734 1.1396644115447998047 1.2230737209320068359 1.0215361118316650391 0.74284708499908447266 1.2378363609313964844 1.2522329092025756836 1.1844055652618408203 1.3188297748565673828 1.2507113218307495117 0.76465398073196411133 0.81184089183807373047 0.79526579380035400391 0.75359386205673217773 0.70696866512298583984 1.1700512170791625977 1.3099130392074584961 1.2085360288619995117 1.1120626926422119141 1.2173639535903930664 1.1897796392440795898 1.1204911470413208008 1.1119176149368286133 1.0466300249099731445 1.0930613279342651367 1.1931791305541992188 1.1708565950393676758 1.1477550268173217773 1.1385023593902587891 1.0746465921401977539 1.1235599517822265625 1.1720815896987915039 1.1017873287200927734 0.92983740568161010742 0.758220672607421875 0.91820847988128662109 1.1792227029800415039 1.2109601497650146484 1.2386947870254516602 1.2403789758682250977 1.2261776924133300781 1.2289310693740844727 1.2339247465133666992 1.1390365362167358398 1.0407555103302001953 0.99878871440887451172 1.1472083330154418945 1.1978478431701660156 1.2988103628158569336 1.0127545595169067383 0.74313271045684814453 1.1713068485260009766 1.1836515665054321289 1.1775171756744384766 1.0957664251327514648 1.2921764850616455078 0.9673811793327331543 0.72514730691909790039 1.31545257568359375 0.95165073871612548828 1.1759080886840820312 1.2620209455490112305 1.1901897192001342773 1.1451653242111206055 1.1402158737182617188 1.1886091232299804688 1.0824894905090332031 1.1609282493591308594 1.1572264432907104492 1.0925798416137695312 1.1193149089813232422 1.0749305486679077148 1.0153750181198120117 1.0188933610916137695 
1.2782061100006103516 1.1453386545181274414 1.0835760831832885742 1.0712184906005859375 1.0943548679351806641 1.2661280632019042969 1.2338502407073974609 1.1907569169998168945 1.1950521469116210938 0.89502435922622680664 0.6540203094482421875 0.85778588056564331055 0.77427154779434204102 1.2823956012725830078 1.295531153678894043 1.1869636774063110352 1.0633018016815185547 1.2004147768020629883 1.2525248527526855469 0.91013509035110473633 0.77813333272933959961 0.91417306661605834961 1.0129222869873046875 1.0527071952819824219 1.116292119026184082 1.1044476032257080078 1.0922131538391113281 1.0625293254852294922 1.0857837200164794922 1.1217783689498901367 1.131251215934753418 1.0876768827438354492 1.0804190635681152344 1.1369289159774780273 1.0987716913223266602 1.0064837932586669922 0.86389935016632080078 0.79723560810089111328 0.8330147862434387207 1.0561543703079223633 1.1473177671432495117 1.1339833736419677734 1.2256777286529541016 1.3219772577285766602 1.0530945062637329102 1.2863391637802124023 1.3351789712905883789 1.3291438817977905273 1.2882523536682128906 1.1090240478515625 0.93124151229858398438 0.81219637393951416016 0.78347516059875488281 1.1524612903594970703 1.1613532304763793945 1.1239676475524902344 1.0703238248825073242 1.1631294488906860352 1.121287226676940918 1.1867108345031738281 1.1712224483489990234 1.1419340372085571289 1.1051054000854492188 1.0972087383270263672 1.1101517677307128906 1.1073691844940185547 1.1154607534408569336 1.0269992351531982422 0.81552386283874511719 0.4847253262996673584 0.9677645564079284668 1.223643183708190918 1.2606415748596191406 1.2418929338455200195 1.1170514822006225586 1.0693596601486206055 1.1729319095611572266 1.2494084835052490234 1.2536567449569702148 1.0733808279037475586 0.97872424125671386719 1.184981226921081543 1.2343232631683349609 1.2450829744338989258 1.2702033519744873047 1.0743468999862670898 0.94208920001983642578 1.0465160608291625977 1.1075338125228881836 1.2020539045333862305 1.1123067140579223633 0.7127564549446105957 0.90185111761093139648 1.1488333940505981445 1.0425847768783569336 0.73355162143707275391 1.0301398038864135742 1.0583907365798950195 1.1505919694900512695 1.0857746601104736328 1.0743218660354614258 1.0875725746154785156 1.1163628101348876953 1.1106017827987670898 1.106244206428527832 1.1452335119247436523 1.0647861957550048828 1.0009491443634033203 1.0514541864395141602 
1.0106068849563598633 1.2396291494369506836 0.83940374851226806641 0.83863592147827148438 1.0714527368545532227 1.2340537309646606445 1.1880887746810913086 1.2800951004028320312 1.0522074699401855469 0.86435997486114501953 0.79494112730026245117 1.3259047269821166992 0.93014448881149291992 0.88500106334686279297 1.1577461957931518555 1.2886052131652832031 1.2033928632736206055 1.0369095802307128906 1.1525138616561889648 1.1948540210723876953 1.0408917665481567383 1.0332577228546142578 1.0459512472152709961 1.0208517313003540039 1.0388739109039306641 1.1396174430847167969 1.1415289640426635742 1.0458770990371704102 1.0912928581237792969 1.1098425388336181641 1.1229813098907470703 1.1502615213394165039 1.0842206478118896484 1.1065973043441772461 1.006693720817565918 1.0027825832366943359 1.0792789459228515625 1.1058385372161865234 1.2247205972671508789 1.25611114501953125 1.1834203004837036133 1.2007559537887573242 1.1472932100296020508 0.86523085832595825195 0.61776977777481079102 1.2430670261383056641 1.3194777965545654297 1.2751595973968505859 1.2094103097915649414 1.21849822998046875 1.1183345317840576172 0.70722430944442749023 1.0368341207504272461 1.2410647869110107422 1.1036317348480224609 1.0906777381896972656 1.0797176361083984375 1.1024973392486572266 1.1661505699157714844 1.1952384710311889648 1.1462817192077636719 1.1218552589416503906 1.100912928581237793 1.1018586158752441406 1.117152094841003418 1.1312583684921264648 1.0680521726608276367 0.80894017219543457031 0.76094877719879150391 0.86598646640777587891 0.63032829761505126953 0.94147491455078125 1.1680506467819213867 0.99158895015716552734 0.99136364459991455078 0.95093798637390136719 1.0808010101318359375 1.0186924934387207031 1.2113889455795288086 1.1599164009094238281 1.1677337884902954102 1.2747627496719360352 1.2074457406997680664 1.2123867273330688477 1.2576650381088256836 1.1045708656311035156 0.98976224660873413086 1.1682850122451782227 1.1962047815322875977 1.0953730344772338867 0.79959410429000854492 1.0458662509918212891 1.1680392026901245117 1.2353783845901489258 1.1206401586532592773 0.94019818305969238281 1.172405242919921875 0.88446444272994995117 1.1716928482055664062 1.2031552791595458984 1.0813349485397338867 1.0662724971771240234 1.1044310331344604492 1.0867980718612670898 1.0706475973129272461 1.1173021793365478516 1.0245057344436645508 1.0364398956298828125 1.1387135982513427734 
1.0948640108108520508 1.259274601936340332 0.90175580978393554688 0.62899595499038696289 0.94764006137847900391 1.1766746044158935547 1.2180005311965942383 1.285757899284362793 0.89346355199813842773 0.61957639455795288086 1.092594146728515625 1.1918857097625732422 1.2074502706527709961 1.2570601701736450195 0.93401563167572021484 1.0789047479629516602 1.2298775911331176758 1.164572596549987793 1.1964380741119384766 1.1057795286178588867 1.1009705066680908203 1.0530604124069213867 1.0470038652420043945 1.0073220729827880859 1.0088957548141479492 1.1294215917587280273 1.0671263933181762695 1.0242893695831298828 1.1190389394760131836 1.0897855758666992188 1.1195595264434814453 1.1583456993103027344 1.0584871768951416016 1.0698341131210327148 1.1439107656478881836 1.2246288061141967773 1.1535968780517578125 1.1430894136428833008 1.1650564670562744141 1.1210434436798095703 1.1835192441940307617 1.2098020315170288086 1.1087342500686645508 1.0565987825393676758 0.63556921482086181641 0.56662201881408691406 1.0307850837707519531 1.3118289709091186523 1.2557266950607299805 1.2420629262924194336 1.2074369192123413086 0.93525147438049316406 0.7905762791633605957 1.0286566019058227539 1.1143563985824584961 1.0685799121856689453 1.0913316011428833008 1.1469902992248535156 1.1963495016098022461 1.1975933313369750977 1.1617618799209594727 1.1338888406753540039 1.1815756559371948242 1.2415307760238647461 1.1987518072128295898 1.1800917387008666992 1.193209528923034668 0.87789857387542724609 0.90858691930770874023 1.2817720174789428711 0.98493039608001708984 0.71458613872528076172 0.7192554473876953125 0.60628139972686767578 0.65664887428283691406 0.6997782588005065918 1.0020214319229125977 1.1175243854522705078 1.2622625827789306641 1.2227181196212768555 1.2413498163223266602 1.0749458074569702148 1.100297093391418457 1.1914699077606201172 1.157073974609375 0.97373616695404052734 1.0796004533767700195 1.27829742431640625 0.98035103082656860352 1.1945340633392333984 1.1836000680923461914 1.0164591073989868164 1.0195863246917724609 1.1086537837982177734 1.218503117561340332 1.001612544059753418 1.0567644834518432617 0.976314544677734375 1.0142613649368286133 1.1273124217987060547 1.1789357662200927734 1.1287881135940551758 1.0846273899078369141 1.0865242481231689453 1.0447697639465332031 1.0877315998077392578 1.0708904266357421875 1.1366709470748901367 1.1305954456329345703 
1.1296160221099853516 1.0993601083755493164 1.0942041873931884766 1.1263239383697509766 0.68567389249801635742 1.0810570716857910156 1.2929819822311401367 1.3074843883514404297 1.3145977258682250977 0.96364933252334594727 1.2841913700103759766 1.2947646379470825195 1.1804956197738647461 1.238511204719543457 1.2430423498153686523 0.89247697591781616211 0.91635745763778686523 1.1070588827133178711 1.1974623203277587891 1.087168574333190918 1.0711809396743774414 1.1098628044128417969 1.1537358760833740234 1.1298333406448364258 1.0814586877822875977 1.0538214445114135742 1.0487869977951049805 1.1103010177612304688 1.1540585756301879883 1.0723183155059814453 1.1356198787689208984 1.1505914926528930664 1.0586990118026733398 1.038000941276550293 1.0412579774856567383 1.2052179574966430664 1.213547825813293457 1.1315963268280029297 1.1678963899612426758 1.1957144737243652344 1.2555532455444335938 1.2196812629699707031 1.2898707389831542969 1.2256669998168945312 0.85765290260314941406 0.60930413007736206055 0.71597158908843994141 1.0545738935470581055 1.207543492317199707 1.2451697587966918945 1.2599420547485351562 1.1887651681900024414 1.1505316495895385742 1.1248867511749267578 1.1312650442123413086 1.0649499893188476562 1.1193448305130004883 1.2016048431396484375 1.1730606555938720703 1.1868129968643188477 1.0832383632659912109 1.0360268354415893555 1.093896031379699707 1.2463657855987548828 1.0797721147537231445 0.9763545989990234375 0.93670505285263061523 0.62118279933929443359 1.0488402843475341797 1.3271504640579223633 1.2771910429000854492 1.2596652507781982422 1.1720552444458007812 1.0961172580718994141 1.0634304285049438477 0.97438257932662963867 1.1878025531768798828 1.2412462234497070312 1.1757159233093261719 1.2432179450988769531 1.1464126110076904297 0.78610134124755859375 1.0854772329330444336 1.2286596298217773438 1.0747723579406738281 0.92224591970443725586 1.0706491470336914062 0.85877871513366699219 0.91979831457138061523 1.1198148727416992188 1.2204233407974243164 1.0847059488296508789 1.0052028894424438477 1.2605404853820800781 1.295891880989074707 1.1640197038650512695 0.97339671850204467773 0.99180871248245239258 1.0464557409286499023 1.092728734016418457 1.1044063568115234375 1.0906294584274291992 1.1055028438568115234 1.0440691709518432617 1.0638011693954467773 1.118962407112121582 1.1350104808807373047 1.1340847015380859375 1.1211794614791870117 
1.272194981575012207 1.1215465068817138672 0.97934383153915405273 0.97832691669464111328 0.74808424711227416992 0.92412245273590087891 1.0811533927917480469 1.1914010047912597656 1.025183558464050293 0.62141156196594238281 0.99818539619445800781 1.3106064796447753906 1.2709462642669677734 1.2234312295913696289 1.2431539297103881836 1.2086431980133056641 1.1290200948715209961 1.0679492950439453125 1.1276102066040039062 1.0981560945510864258 1.1478556394577026367 1.2291074991226196289 1.2224578857421875 1.2193505764007568359 1.2140599489212036133 1.1541092395782470703 1.0837776660919189453 1.1459145545959472656 1.1354482173919677734 1.0694780349731445312 1.1606203317642211914 1.1271892786026000977 1.0929800271987915039 1.0685395002365112305 0.86112105846405029297 1.1711455583572387695 1.2597986459732055664 1.2328619956970214844 1.1830286979675292969 1.2287067174911499023 1.225508570671081543 1.2393752336502075195 1.2341990470886230469 1.332699894905090332 0.74816733598709106445 1.190459132194519043 0.97007548809051513672 1.1413335800170898438 0.97610533237457275391 1.1338801383972167969 1.064593195915222168 1.0889705419540405273 1.2691704034805297852 1.2122222185134887695 1.0732758045196533203 1.0749962329864501953 1.1609606742858886719 1.2005910873413085938 1.1432548761367797852 1.1453909873962402344 1.023112177848815918 1.0681968927383422852 0.8319899439811706543 1.0305848121643066406 1.1239531040191650391 0.70662260055541992188 0.83701699972152709961 0.95455473661422729492 1.203719019889831543 1.1522433757781982422 1.1296908855438232422 1.1310207843780517578 1.1467976570129394531 1.1421198844909667969 1.2278883457183837891 1.1397711038589477539 1.2385053634643554688 1.1974276304244995117 1.2298967838287353516 1.295055389404296875 1.0400677919387817383 0.70933878421783447266 1.0722602605819702148 1.3206489086151123047 0.60206925868988037109 0.67589914798736572266 0.72152554988861083984 0.76700079441070556641 1.0852260589599609375 1.2197898626327514648 1.2584322690963745117 1.3027292490005493164 1.1507679224014282227 1.0272576808929443359 1.2255700826644897461 1.2680642604827880859 1.0769639015197753906 1.0705999135971069336 1.0103483200073242188 1.1178854703903198242 1.0581071376800537109 1.0435303449630737305 1.0637400150299072266 1.0786654949188232422 1.1144651174545288086 1.1342626810073852539 1.1076148748397827148 1.0908193588256835938 1.0284833908081054688 
0.90698760747909545898 0.82425647974014282227 0.80021685361862182617 0.9886538386344909668 1.2014179229736328125 1.2921018600463867188 0.98796707391738891602 0.72392189502716064453 1.0642782449722290039 1.0204027891159057617 0.62255156040191650391 0.69193780422210693359 1.0056852102279663086 1.1370837688446044922 1.1998002529144287109 1.2015875577926635742 1.1013764142990112305 1.1407425403594970703 1.1862440109252929688 1.2345422506332397461 1.2308681011199951172 1.2067189216613769531 1.1607331037521362305 1.1460826396942138672 1.1634908914566040039 1.0444527864456176758 1.0476529598236083984 1.1256525516510009766 1.1384677886962890625 1.0848516225814819336 1.1621063947677612305 1.1065359115600585938 1.0337778329849243164 1.0060838460922241211 0.83473497629165649414 0.96861273050308227539 1.1593993902206420898 1.2623059749603271484 1.2282935380935668945 1.2123706340789794922 1.1714010238647460938 1.1817746162414550781 1.0987337827682495117 1.175640106201171875 1.0330400466918945312 1.2825062274932861328 1.2550756931304931641 1.3169298171997070312 1.2266917228698730469 1.1429781913757324219 1.2478792667388916016 1.1912950277328491211 1.0354534387588500977 1.1380234956741333008 1.1194555759429931641 1.154036402702331543 1.2037321329116821289 1.1791390180587768555 1.1708711385726928711 1.0875431299209594727 1.1140139102935791016 1.1398404836654663086 0.9791615605354309082 0.57349032163619995117 0.81985294818878173828 1.0153536796569824219 1.2221677303314208984 1.2732257843017578125 1.1342995166778564453 1.0827662944793701172 1.1409286260604858398 1.2007265090942382812 1.1693948507308959961 1.211735844612121582 1.1930458545684814453 1.2536493539810180664 1.1535209417343139648 1.1295393705368041992 1.2597180604934692383 1.0279508829116821289 0.79707920551300048828 0.51873648166656494141 1.0175383090972900391 1.1963870525360107422 0.80653703212738037109 1.1707177162170410156 1.1165006160736083984 1.2064383029937744141 1.2600113153457641602 1.2965853214263916016 1.1906958818435668945 1.1444855928421020508 1.1974102258682250977 1.0920127630233764648 1.0975049734115600586 1.1661955118179321289 1.1182241439819335938 1.2148585319519042969 1.1552290916442871094 1.0830326080322265625 1.0719267129898071289 1.0702637434005737305 1.0438487529754638672 1.1000207662582397461 1.1372175216674804688 1.1281920671463012695 1.0867742300033569336 1.0696991682052612305 1.0979980230331420898 
1.0797041654586791992 1.1006157398223876953 1.1372361183166503906 1.1778539419174194336 1.2985805273056030273 1.2902921438217163086 0.95515954494476318359 1.0669307708740234375 1.2880436182022094727 1.1085513830184936523 1.0731183290481567383 0.85211384296417236328 1.2061583995819091797 0.97060537338256835938 0.88699078559875488281 0.98947125673294067383 1.1515448093414306641 1.2010991573333740234 1.2356858253479003906 1.2234553098678588867 1.1475960016250610352 1.1643911600112915039 1.1518146991729736328 1.0950554609298706055 0.998989105224609375 0.92928230762481689453 0.99320083856582641602 1.1045014858245849609 1.1485972404479980469 1.1095372438430786133 1.1448459625244140625 1.0736637115478515625 1.0851595401763916016 1.0500773191452026367 0.9035364985466003418 0.74135220050811767578 0.91884785890579223633 1.1305799484252929688 1.0813554525375366211 1.0573290586471557617 0.90221703052520751953 0.89926004409790039062 0.82784855365753173828 0.72590297460556030273 1.2866584062576293945 1.1734131574630737305 1.1594961881637573242 1.3155033588409423828 1.2014502286911010742 1.1326056718826293945 1.1128369569778442383 1.0856637954711914062 1.0572164058685302734 1.0931644439697265625 1.1017405986785888672 1.1755329370498657227 1.2033385038375854492 1.2079178094863891602 1.1149450540542602539 1.1410677433013916016 1.2167092561721801758 1.1505070924758911133 0.89244836568832397461 0.66433423757553100586 0.45373493432998657227 0.7764460444450378418 1.2321858406066894531 1.3068134784698486328 1.1642401218414306641 1.1024389266967773438 1.1390600204467773438 1.2096921205520629883 1.1808201074600219727 1.1733518838882446289 1.160708308219909668 1.1841024160385131836 1.1180402040481567383 1.1409113407135009766 1.2916578054428100586 1.1177110671997070312 0.72504270076751708984 0.65997296571731567383 1.041949152946472168 0.99283444881439208984 0.71672868728637695312 1.2434774637222290039 1.1544932126998901367 1.1563588380813598633 1.1798654794692993164 1.1691024303436279297 1.0638648271560668945 1.0777274370193481445 1.1245186328887939453 0.98021978139877319336 1.0646543502807617188 1.1400599479675292969 1.1062874794006347656 1.1495528221130371094 1.1503976583480834961 1.1246649026870727539 1.0933181047439575195 1.0782537460327148438 1.1074073314666748047 1.1409741640090942383 1.1373537778854370117 1.1203048229217529297 1.0835253000259399414 1.0747213363647460938 1.1066265106201171875 
1.1752032041549682617 1.2053935527801513672 1.2705318927764892578 1.2190231084823608398 1.2746560573577880859 1.235485076904296875 0.66342043876647949219 1.1656092405319213867 1.2700768709182739258 1.1533972024917602539 1.1452144384384155273 0.98292195796966552734 1.1449520587921142578 1.1630915403366088867 1.0631698369979858398 1.0612432956695556641 1.2453213930130004883 1.2432154417037963867 1.1748363971710205078 1.1837476491928100586 1.1285897493362426758 1.1286704540252685547 1.0034503936767578125 0.84004926681518554688 0.98426467180252075195 1.0508550405502319336 1.0722537040710449219 1.0985968112945556641 1.1515374183654785156 1.1315038204193115234 1.1160598993301391602 1.0481301546096801758 1.0812386274337768555 1.0035420656204223633 0.93089276552200317383 0.79656630754470825195 0.64034813642501831055 0.98503440618515014648 1.2078517675399780273 1.0666338205337524414 0.84011894464492797852 0.90622782707214355469 1.0193046331405639648 0.5120303034782409668 1.0487744808197021484 0.76927530765533447266 1.06938934326171875 1.3210681676864624023 1.307247161865234375 1.2838789224624633789 1.1923631429672241211 1.0999324321746826172 0.99956792593002319336 0.93939155340194702148 1.0640734434127807617 1.1916204690933227539 1.2059601545333862305 1.2156664133071899414 1.0097715854644775391 0.93147736787796020508 0.97433435916900634766 1.0251368284225463867 1.0126760005950927734 1.1254347562789916992 0.7919464111328125 0.59678721427917480469 1.2167413234710693359 1.2497134208679199219 1.0553543567657470703 1.2062220573425292969 1.3204669952392578125 1.2691084146499633789 1.2264038324356079102 1.2055985927581787109 1.2163361310958862305 1.219023585319519043 1.1689927577972412109 1.1373338699340820312 1.1520700454711914062 1.2597217559814453125 1.0916311740875244141 1.0108432769775390625 1.2052426338195800781 1.1220210790634155273 0.77530264854431152344 1.1795048713684082031 1.1861363649368286133 1.1299561262130737305 1.1651291847229003906 1.129050135612487793 1.0986583232879638672 1.1140590906143188477 1.1455473899841308594 1.1112644672393798828 1.1208357810974121094 1.132549285888671875 0.93356871604919433594 0.94925093650817871094 1.0183558464050292969 1.071997523307800293 1.1056166887283325195 1.098151087760925293 1.129595637321472168 1.1383737325668334961 1.1300662755966186523 1.0680752992630004883 1.0905803442001342773 1.050040125846862793 1.0849003791809082031 
1.2400491237640380859 1.2252142429351806641 1.1153533458709716797 1.000746607780456543 1.0413722991943359375 0.89212793111801147461 0.6018174290657043457 1.1259930133819580078 1.2391895055770874023 1.1809396743774414062 1.2034690380096435547 1.1453604698181152344 1.1678680181503295898 1.0903589725494384766 1.1436191797256469727 1.2388553619384765625 1.2466588020324707031 1.2120682001113891602 1.1458972692489624023 1.1434112787246704102 1.0429613590240478516 0.9739100337028503418 0.80005115270614624023 1.0785973072052001953 1.1700799465179443359 1.1427019834518432617 1.0946176052093505859 1.0855457782745361328 1.147131800651550293 1.1466287374496459961 1.1308865547180175781 1.0644243955612182617 1.1111441850662231445 1.1460038423538208008 1.1111971139907836914 1.0746159553527832031 1.0426522493362426758 1.2904345989227294922 1.2941117286682128906 1.2795836925506591797 1.2745196819305419922 1.1673215627670288086 0.96396112442016601562 0.46747711300849914551 1.0456138849258422852 1.1226766109466552734 0.70277029275894165039 1.0282469987869262695 1.2195173501968383789 0.92955440282821655273 1.0900032520294189453 1.2311465740203857422 1.1130548715591430664 1.0135662555694580078 1.1816838979721069336 1.1666562557220458984 1.2099769115447998047 1.1709015369415283203 1.146244049072265625 1.2118347883224487305 1.2327620983123779297 1.3058953285217285156 1.2690677642822265625 1.1507436037063598633 0.88988411426544189453 0.61071825027465820312 1.1776607036590576172 1.0930484533309936523 1.0106660127639770508 1.2373479604721069336 1.1895692348480224609 1.2327724695205688477 1.1291071176528930664 1.1475299596786499023 1.1965392827987670898 1.1924175024032592773 1.2819677591323852539 1.1857502460479736328 1.1654276847839355469 1.2221182584762573242 1.3027043342590332031 1.32230377197265625 1.2257834672927856445 1.1523597240447998047 0.52305442094802856445 0.92897135019302368164 1.1360688209533691406 1.1575504541397094727 1.2037740945816040039 1.2500928640365600586 1.2178007364273071289 1.1522531509399414062 1.0949666500091552734 1.0706796646118164062 1.151587367057800293 1.1461740732192993164 1.0903829336166381836 0.91669851541519165039 1.020646214485168457 1.0463290214538574219 1.0802799463272094727 1.1107549667358398438 1.144829869270324707 1.1428470611572265625 1.0726932287216186523 1.0306949615478515625 1.0379787683486938477 1.0358241796493530273 1.0342390537261962891 
1.245288848876953125 1.2540761232376098633 1.2648308277130126953 1.276317596435546875 1.2930489778518676758 1.1421304941177368164 0.96497207880020141602 1.2498999834060668945 1.2302768230438232422 1.1527684926986694336 1.1463487148284912109 1.1171385049819946289 1.178856968879699707 1.1756281852722167969 1.2558205127716064453 1.2538193464279174805 1.2581564188003540039 1.1939905881881713867 1.0910997390747070312 0.84018504619598388672 0.66785085201263427734 0.5874074101448059082 0.89676100015640258789 1.1659004688262939453 1.1531807184219360352 1.1750239133834838867 1.1433638334274291992 1.1397759914398193359 1.138615727424621582 1.1559180021286010742 1.10540771484375 1.0542294979095458984 1.1167471408843994141 1.1654038429260253906 1.1879271268844604492 1.1532665491104125977 1.1466746330261230469 1.2861142158508300781 1.2838108539581298828 1.251578211784362793 1.2204446792602539062 1.1088547706604003906 1.010092616081237793 0.73728781938552856445 0.84033751487731933594 1.2873351573944091797 1.2488026618957519531 0.92574548721313476562 0.75228130817413330078 0.78181606531143188477 1.0178835391998291016 1.1230809688568115234 1.0918996334075927734 1.1457266807556152344 1.210385441780090332 1.1628397703170776367 1.2185981273651123047 1.1378155946731567383 1.0507090091705322266 0.99310499429702758789 1.1125931739807128906 1.3002449274063110352 1.1878070831298828125 0.79090285301208496094 0.93811523914337158203 0.63635069131851196289 0.62075626850128173828 0.8972346186637878418 1.0857641696929931641 1.2374849319458007812 1.1362464427947998047 1.1186584234237670898 1.1129535436630249023 1.1632184982299804688 1.1845282316207885742 1.0540305376052856445 1.2927188873291015625 1.2477358579635620117 1.1594635248184204102 1.1521323919296264648 1.1952164173126220703 1.2909817695617675781 1.013907313346862793 1.0220923423767089844 0.85441327095031738281 1.2196552753448486328 1.1259214878082275391 0.85608088970184326172 1.051031947135925293 1.2241476774215698242 1.2020983695983886719 1.2046768665313720703 1.233107447624206543 1.0886604785919189453 1.1295070648193359375 1.1140893697738647461 1.1578893661499023438 1.0642119646072387695 0.96089524030685424805 1.0600715875625610352 1.0854605436325073242 1.097861170768737793 1.1437306404113769531 1.1338016986846923828 1.0592299699783325195 1.0949079990386962891 1.0487647056579589844 0.96447801589965820312 0.90342444181442260742 
1.1552324295043945312 1.0726761817932128906 1.2036488056182861328 1.2001008987426757812 1.1744182109832763672 0.91830152273178100586 0.88619261980056762695 1.2231177091598510742 1.1825392246246337891 1.1442437171936035156 1.0805684328079223633 1.0916041135787963867 1.0957653522491455078 1.2284574508666992188 1.2607291936874389648 1.2265789508819580078 1.1697760820388793945 0.84876781702041625977 0.73981970548629760742 1.1604359149932861328 1.2817013263702392578 1.0084089040756225586 0.80877149105072021484 0.91147685050964355469 1.0602196455001831055 1.0618679523468017578 1.0373150110244750977 1.0983684062957763672 1.1641447544097900391 1.1614252328872680664 1.1083377599716186523 1.0249111652374267578 1.0523182153701782227 1.1040246486663818359 1.1684349775314331055 1.2322702407836914062 1.2503647804260253906 1.2299408912658691406 1.2555668354034423828 1.2036089897155761719 0.8589267730712890625 0.73106336593627929688 1.2560830116271972656 1.1347137689590454102 0.71068727970123291016 1.1027636528015136719 1.2970682382583618164 1.2883745431900024414 1.1461144685745239258 1.1504733562469482422 1.1393208503723144531 1.2010796070098876953 1.2469998598098754883 1.2242168188095092773 1.079232335090637207 1.1869616508483886719 1.2168356180191040039 1.1706829071044921875 1.1479122638702392578 1.0571988821029663086 0.76312661170959472656 1.123849034309387207 0.93462508916854858398 1.0442339181900024414 1.2492774724960327148 1.1174359321594238281 0.63844752311706542969 1.0099751949310302734 1.2261962890625 1.2482789754867553711 1.1687653064727783203 1.1856615543365478516 1.1888453960418701172 1.2824610471725463867 0.94897109270095825195 0.8312918543815612793 1.0493963956832885742 1.2582162618637084961 1.1355128288269042969 1.1303273439407348633 1.2074754238128662109 1.205130457878112793 0.67410629987716674805 1.2061342000961303711 1.1829798221588134766 1.1973961591720581055 1.2523005008697509766 1.173123478889465332 0.69417589902877807617 0.91914069652557373047 1.0926052331924438477 1.2403122186660766602 1.2655508518218994141 1.1890382766723632812 1.1077928543090820312 1.1031553745269775391 1.1428493261337280273 1.1411340236663818359 1.0408341884613037109 1.0518361330032348633 1.059183955192565918 1.1343377828598022461 1.1499168872833251953 1.0541341304779052734 1.0805550813674926758 1.1359745264053344727 1.1327995061874389648 1.0133161544799804688 0.99077725410461425781 
0.97075647115707397461 0.96656489372253417969 1.2104865312576293945 1.2030805349349975586 1.2259638309478759766 0.72662448883056640625 0.90763866901397705078 1.2030423879623413086 1.1782990694046020508 1.2894880771636962891 1.1813685894012451172 1.2550177574157714844 1.2543467283248901367 1.2269012928009033203 1.2085720300674438477 1.1522504091262817383 1.0811855792999267578 0.93761867284774780273 0.78842717409133911133 1.135714411735534668 1.2798429727554321289 1.2176131010055541992 1.1346932649612426758 1.0908585786819458008 1.1337256431579589844 1.0563544034957885742 1.0742883682250976562 1.0914679765701293945 1.1663432121276855469 1.1635440587997436523 1.1359087228775024414 1.0944870710372924805 0.99307715892791748047 0.79922693967819213867 0.7400576472282409668 1.083262324333190918 1.255312800407409668 1.1768414974212646484 1.0811432600021362305 0.84317481517791748047 0.59672594070434570312 1.1690754890441894531 1.3279250860214233398 1.2860294580459594727 1.1066224575042724609 0.8936964869499206543 1.1982549428939819336 1.2173539400100708008 1.0721201896667480469 1.046439051628112793 1.1408417224884033203 1.2562456130981445312 1.2482472658157348633 1.0050162076950073242 1.0917662382125854492 1.2311396598815917969 1.2003660202026367188 1.1431434154510498047 1.017130732536315918 1.0127271413803100586 0.8205134272575378418 0.60809612274169921875 0.64266145229339599609 1.2498288154602050781 1.2221878767013549805 1.2797069549560546875 0.68476325273513793945 1.100161433219909668 1.1803129911422729492 1.2133498191833496094 1.1916656494140625 1.234093785285949707 1.2747021913528442383 1.2664179801940917969 0.72942459583282470703 1.0642695426940917969 1.2252933979034423828 1.2444434165954589844 1.140536189079284668 1.1646791696548461914 1.1959663629531860352 1.280243992805480957 0.92470991611480712891 1.2301632165908813477 1.2984524965286254883 1.1607062816619873047 1.2510027885437011719 1.1951379776000976562 1.0282573699951171875 0.9212061762809753418 1.0828782320022583008 1.0694551467895507812 1.0789586305618286133 1.0915442705154418945 1.1221126317977905273 1.0479282140731811523 1.1030910015106201172 1.1299482583999633789 1.0599346160888671875 1.0562981367111206055 1.0924320220947265625 1.1511998176574707031 1.1029219627380371094 1.0328669548034667969 1.1166182756423950195 1.1286292076110839844 1.0936815738677978516 1.0906664133071899414 1.1861259937286376953 
0.85117852687835693359 0.8164837956428527832 1.2721116542816162109 1.1628255844116210938 1.3003122806549072266 0.71804165840148925781 0.97558444738388061523 1.2706615924835205078 1.16945648193359375 1.2276723384857177734 1.1809260845184326172 1.2429585456848144531 1.2127138376235961914 1.1607443094253540039 1.1776319742202758789 1.2128903865814208984 0.9573853611946105957 0.6690552830696105957 0.76677668094635009766 0.81195557117462158203 1.0537788867950439453 1.2180634737014770508 1.211310267448425293 1.1673920154571533203 1.1183061599731445312 1.0305101871490478516 1.0642195940017700195 1.1036419868469238281 1.1689587831497192383 1.1649820804595947266 1.130160212516784668 1.1371276378631591797 1.0585818290710449219 1.0666066408157348633 0.94647920131683349609 0.7355658411979675293 0.98013389110565185547 0.92851048707962036133 0.81463313102722167969 0.45080572366714477539 1.0126049518585205078 1.3508681058883666992 1.231461644172668457 1.2431987524032592773 1.2780632972717285156 0.8950894474983215332 1.2387958765029907227 1.2361078262329101562 1.1106426715850830078 1.0842616558074951172 1.1550076007843017578 1.2548731565475463867 1.1808849573135375977 1.0067451000213623047 1.2168862819671630859 1.2389123439788818359 1.1829100847244262695 1.1371704339981079102 1.0261893272399902344 1.0312896966934204102 1.0374751091003417969 0.97146266698837280273 0.9526284337043762207 1.2451112270355224609 1.19048309326171875 1.3090337514877319336 0.9557806849479675293 0.75327664613723754883 1.1534796953201293945 1.2446639537811279297 1.2383906841278076172 1.2462935447692871094 1.3008263111114501953 1.0110961198806762695 0.759777069091796875 1.1184800863265991211 1.2836729288101196289 1.2319836616516113281 1.2093563079833984375 1.1592965126037597656 1.1797220706939697266 1.172463536262512207 0.62305998802185058594 0.86278331279754638672 1.1002080440521240234 1.0984975099563598633 1.1909972429275512695 1.1689623594284057617 1.1306995153427124023 0.96177476644515991211 1.1580152511596679688 1.0223714113235473633 1.0589852333068847656 1.1202986240386962891 1.1049876213073730469 1.1136690378189086914 1.0970249176025390625 1.08887481689453125 1.1499025821685791016 1.1541864871978759766 1.153395533561706543 1.1233848333358764648 1.0809566974639892578 1.0671610832214355469 1.1010602712631225586 1.1006466150283813477 1.0577582120895385742 1.0322443246841430664 1.1689472198486328125 
1.092945098876953125 0.83188360929489135742 0.8786856532096862793 1.0379450321197509766 0.88826084136962890625 0.84594184160232543945 1.0437247753143310547 0.86096018552780151367 0.92883634567260742188 1.2888761758804321289 1.2331743240356445312 1.123137354850769043 1.0902792215347290039 1.2308198213577270508 1.1152733564376831055 0.9090989232063293457 1.1279724836349487305 1.2762485742568969727 1.2542550563812255859 1.1821480989456176758 1.0341527462005615234 0.85789829492568969727 0.78175836801528930664 0.7736975550651550293 0.9530684351921081543 0.98899161815643310547 1.0158350467681884766 1.0695989131927490234 1.1721377372741699219 1.1519485712051391602 1.1543514728546142578 1.1305953264236450195 1.1207835674285888672 1.0938599109649658203 0.91872823238372802734 1.1499475240707397461 1.2867881059646606445 1.1852171421051025391 0.85038775205612182617 0.74217897653579711914 0.49467906355857849121 1.1342459917068481445 1.2941119670867919922 1.2000579833984375 1.2636934518814086914 1.0296398401260375977 1.1045541763305664062 1.20479583740234375 1.1301782131195068359 1.1834189891815185547 1.2626333236694335938 1.2615869045257568359 1.1306986808776855469 0.96362471580505371094 1.2354735136032104492 1.2521665096282958984 1.1427276134490966797 1.112734675407409668 1.0518953800201416016 1.0186479091644287109 1.2152858972549438477 1.2644468545913696289 1.1595615148544311523 1.216552734375 1.1945540904998779297 1.267075657844543457 1.3379448652267456055 1.2839400768280029297 1.23848724365234375 0.9211819767951965332 0.99139690399169921875 1.1664290428161621094 0.99683034420013427734 1.1366556882858276367 1.0928804874420166016 1.0117191076278686523 1.2447805404663085938 1.2227215766906738281 1.1474587917327880859 1.1555585861206054688 1.2077007293701171875 1.0972626209259033203 1.1217174530029296875 1.2477293014526367188 1.2022956609725952148 1.259263157844543457 1.1740770339965820312 1.1179831027984619141 1.1111710071563720703 1.0409574508666992188 0.97469794750213623047 1.0871691703796386719 1.1175276041030883789 1.1131000518798828125 1.108797907829284668 1.0949306488037109375 1.0739220380783081055 1.1624466180801391602 1.1568886041641235352 1.0482225418090820312 1.1115013360977172852 1.106568455696105957 1.1072951555252075195 1.098626255989074707 1.1234935522079467773 1.11109161376953125 0.97770649194717407227 0.90868210792541503906 1.0466763973236083984 
1.0013082027435302734 0.84763932228088378906 0.6020686030387878418 1.1029459238052368164 1.2093414068222045898 1.2783375978469848633 1.2793691158294677734 1.1908339262008666992 0.89312040805816650391 1.1886947154998779297 1.1432479619979858398 1.1124193668365478516 1.2491474151611328125 1.3087857961654663086 1.0168895721435546875 0.70769411325454711914 1.2762304544448852539 1.291495203971862793 1.2857937812805175781 1.288455963134765625 1.1227452754974365234 1.0414825677871704102 0.98442018032073974609 0.9931316375732421875 1.0820826292037963867 1.0205320119857788086 1.0321313142776489258 1.0822975635528564453 1.1467090845108032227 1.1734236478805541992 1.1624119281768798828 1.0844943523406982422 0.94194245338439941406 0.98518925905227661133 1.0807747840881347656 1.2620940208435058594 1.236201167106628418 1.14206695556640625 1.2490508556365966797 1.1837807893753051758 0.56246483325958251953 0.91895759105682373047 1.1939840316772460938 1.1774837970733642578 1.2546559572219848633 1.124553680419921875 1.236510157585144043 1.1846220493316650391 1.2209388017654418945 1.2664893865585327148 1.2239304780960083008 1.1938166618347167969 1.0303741693496704102 0.84313416481018066406 1.1373960971832275391 1.1502732038497924805 1.1305077075958251953 1.221936345100402832 1.2014009952545166016 1.1444631814956665039 1.182223200798034668 1.2150747776031494141 1.2024893760681152344 1.1897304058074951172 1.1963971853256225586 1.2358102798461914062 1.2218474149703979492 1.1846632957458496094 1.3067771196365356445 1.2386928796768188477 0.61807274818420410156 0.98077118396759033203 1.0737615823745727539 1.2425924539566040039 1.1666095256805419922 1.0942574739456176758 1.165579676628112793 1.1869893074035644531 1.146054387092590332 1.1688954830169677734 1.2235273122787475586 1.0345977544784545898 1.2610208988189697266 1.319022059440612793 1.2406702041625976562 1.2651908397674560547 1.2548984289169311523 1.1825248003005981445 1.2327661514282226562 1.1364847421646118164 0.98200404644012451172 1.1080137491226196289 1.0868196487426757812 1.1036560535430908203 1.1232988834381103516 1.0784341096878051758 1.1122783422470092773 1.1558258533477783203 0.98033660650253295898 1.0108485221862792969 1.126633763313293457 1.1079802513122558594 1.1539618968963623047 1.0940996408462524414 1.1079852581024169922 1.1425180435180664062 1.1892570257186889648 1.0834461450576782227 0.84248328208923339844 
0.79069960117340087891 0.74272572994232177734 0.76181244850158691406 1.1475692987442016602 1.2467683553695678711 1.2864971160888671875 1.2355049848556518555 1.1320302486419677734 1.0287457704544067383 0.80564808845520019531 1.2417906522750854492 1.3187353610992431641 1.2702283859252929688 1.1348600387573242188 1.082045435905456543 0.64261037111282348633 0.97049069404602050781 1.0050848722457885742 1.1243668794631958008 1.1743912696838378906 1.2468298673629760742 1.1451358795166015625 1.1181027889251708984 1.1614371538162231445 1.1809700727462768555 1.167403101921081543 1.1402547359466552734 1.1545301675796508789 1.1092740297317504883 1.1356388330459594727 1.0951597690582275391 1.000670313835144043 0.98414087295532226562 1.1093786954879760742 1.2084304094314575195 1.2020077705383300781 1.0895683765411376953 1.1032588481903076172 1.0072336196899414062 0.81385195255279541016 0.8361638188362121582 1.1929978132247924805 1.1436493396759033203 1.0233433246612548828 1.2819534540176391602 1.1986894607543945312 1.1128833293914794922 1.182295680046081543 1.2533416748046875 1.2437355518341064453 1.2158291339874267578 1.094702601432800293 0.84230881929397583008 0.94840157032012939453 1.1092356443405151367 1.1188873052597045898 1.1651368141174316406 1.1364310979843139648 1.1663007736206054688 1.206090092658996582 1.1572190523147583008 1.3099445104598999023 1.2785857915878295898 1.267841339111328125 1.3083815574645996094 1.2720534801483154297 1.0997402667999267578 1.1923209428787231445 1.270045161247253418 1.2971793413162231445 0.71514403820037841797 1.0467276573181152344 1.2406431436538696289 1.2357857227325439453 1.1660230159759521484 1.1021490097045898438 1.2027819156646728516 1.1801220178604125977 1.1705074310302734375 1.1805075407028198242 1.2595418691635131836 0.81429046392440795898 0.98086369037628173828 0.99157875776290893555 1.064928889274597168 1.1977217197418212891 1.1326410770416259766 1.1316695213317871094 1.1892815828323364258 1.2171163558959960938 1.1787703037261962891 1.1257758140563964844 1.0423206090927124023 1.0280051231384277344 1.0663144588470458984 1.1295874118804931641 1.1571067571640014648 1.1440110206604003906 0.97755664587020874023 1.0612630844116210938 1.1367645263671875 1.1190612316131591797 1.1758304834365844727 1.0803203582763671875 0.97070330381393432617 0.96507221460342407227 1.2019134759902954102 1.1770575046539306641 0.83005726337432861328 
0.94415849447250366211 0.98571562767028808594 1.0503184795379638672 1.1766026020050048828 1.2208135128021240234 1.2130964994430541992 1.2018947601318359375 1.095847010612487793 1.0569974184036254883 0.67975819110870361328 0.97637468576431274414 1.0166995525360107422 0.72666138410568237305 0.65233480930328369141 0.98105269670486450195 1.2608597278594970703 1.1195378303527832031 0.62455117702484130859 0.83283263444900512695 1.0371689796447753906 1.1546059846878051758 1.2105950117111206055 1.1707892417907714844 1.1816678047180175781 1.1149421930313110352 1.0724666118621826172 1.1033954620361328125 1.1246228218078613281 1.120522618293762207 1.1301283836364746094 1.1460850238800048828 1.0837928056716918945 1.0920076370239257812 1.1387265920639038086 1.2413933277130126953 1.2163180112838745117 1.0663838386535644531 0.89071190357208251953 0.87174218893051147461 0.83634793758392333984 0.86808496713638305664 1.2990813255310058594 1.278052210807800293 1.0966140031814575195 1.1966996192932128906 1.1596132516860961914 1.1771258115768432617 1.2365987300872802734 1.2107452154159545898 1.2176607847213745117 1.2494394779205322266 0.97819489240646362305 1.2391588687896728516 1.2928735017776489258 1.2759402990341186523 1.2291312217712402344 1.250754237174987793 1.2404620647430419922 1.2917846441268920898 1.3035748004913330078 1.0610407590866088867 1.0784392356872558594 1.1431772708892822266 1.2461924552917480469 1.2485045194625854492 1.1385816335678100586 1.1772563457489013672 1.2798811197280883789 1.2173773050308227539 1.3651633262634277344 0.95734643936157226562 0.95706331729888916016 1.3249225616455078125 1.1490705013275146484 1.2097681760787963867 1.1991453170776367188 1.2020074129104614258 1.1750063896179199219 1.1812613010406494141 1.2120360136032104492 1.1842985153198242188 0.71372193098068237305 1.1666101217269897461 1.3014205694198608398 1.1993935108184814453 1.2317200899124145508 1.0999282598495483398 1.2448003292083740234 1.194825291633605957 1.1745254993438720703 1.2094836235046386719 1.2332825660705566406 1.1556800603866577148 1.110416412353515625 1.1056207418441772461 1.1618491411209106445 1.1577178239822387695 1.101276397705078125 1.0686597824096679688 1.1220837831497192383 1.1285409927368164062 1.1028655767440795898 1.0915434360504150391 1.1632232666015625 1.0901494026184082031 1.0333189964294433594 1.1390757560729980469 0.93749094009399414062 0.54418051242828369141 
1.0462546348571777344 1.1703246831893920898 1.1587952375411987305 1.1211158037185668945 1.1927126646041870117 1.2928079366683959961 1.2548687458038330078 0.77535712718963623047 0.80681377649307250977 0.99805808067321777344 1.1966663599014282227 1.1393221616744995117 1.1281820535659790039 1.0290952920913696289 0.99104541540145874023 1.1992574930191040039 1.267567753791809082 1.1001751422882080078 0.84271508455276489258 1.2461971044540405273 1.2485296726226806641 1.2064373493194580078 1.1594289541244506836 1.1013772487640380859 1.0759323835372924805 1.0952889919281005859 1.1456938982009887695 1.1524536609649658203 1.15096282958984375 1.1601179838180541992 1.1399577856063842773 1.1166533231735229492 1.0755944252014160156 1.0512821674346923828 0.99756312370300292969 1.0328768491744995117 0.9281800389289855957 1.1286211013793945312 1.2254308462142944336 1.1350312232971191406 0.89192926883697509766 1.1393005847930908203 1.2586622238159179688 1.1747175455093383789 1.1531414985656738281 1.1801561117172241211 1.2505265474319458008 1.2678514719009399414 1.1377713680267333984 0.87743455171585083008 0.76952177286148071289 0.88190948963165283203 1.2828242778778076172 1.2754327058792114258 1.2709518671035766602 1.2456114292144775391 1.2017954587936401367 1.1604599952697753906 1.2726329565048217773 1.3073170185089111328 1.0902869701385498047 0.99924868345260620117 0.84522104263305664062 1.1505451202392578125 1.0997118949890136719 1.1127312183380126953 1.1752680540084838867 1.2969886064529418945 1.2082567214965820312 1.2638745307922363281 0.64078772068023681641 1.0067975521087646484 1.2441848516464233398 1.1477429866790771484 1.1938264369964599609 1.2302819490432739258 1.2124538421630859375 1.2058492898941040039 1.2081023454666137695 1.2745012044906616211 0.90119540691375732422 1.2545976638793945312 1.3326828479766845703 1.3181962966918945312 1.3068484067916870117 1.2888607978820800781 1.0624428987503051758 1.1765474081039428711 1.1960178613662719727 1.1436154842376708984 1.0802758932113647461 1.0511153936386108398 1.0702277421951293945 1.0929110050201416016 1.1236906051635742188 1.1603285074234008789 1.16515350341796875 1.1037846803665161133 1.0806635618209838867 1.096651911735534668 1.1597093343734741211 1.1084159612655639648 1.039214015007019043 1.1618269681930541992 1.2002696990966796875 1.2332513332366943359 1.1745042800903320312 1.0765116214752197266 0.94819217920303344727 
1.189456939697265625 1.2400079965591430664 1.1574839353561401367 1.1622384786605834961 1.2705037593841552734 1.2184075117111206055 1.3122580051422119141 1.0183453559875488281 0.74983572959899902344 1.0531070232391357422 1.3023517131805419922 1.2524626255035400391 1.2240979671478271484 1.1065672636032104492 0.97656613588333129883 1.041588902473449707 1.1449959278106689453 1.279476165771484375 0.76358014345169067383 0.76572895050048828125 1.016953587532043457 1.0614023208618164062 1.089665532112121582 1.1188180446624755859 1.1616616249084472656 1.1276439428329467773 1.1714359521865844727 1.1598850488662719727 1.1403943300247192383 1.1504470109939575195 1.1095926761627197266 1.1043921709060668945 1.0148264169692993164 1.0745199918746948242 1.1293396949768066406 1.1627767086029052734 1.1449420452117919922 1.3053797483444213867 1.3111728429794311523 1.3121030330657958984 1.0213640928268432617 0.92978489398956298828 1.1681826114654541016 1.3002885580062866211 1.2834718227386474609 1.2771829366683959961 1.2864035367965698242 1.2348152399063110352 1.1158316135406494141 0.97841346263885498047 0.75385534763336181641 0.71144896745681762695 1.227389216423034668 1.2263010740280151367 1.2398471832275390625 1.2483581304550170898 1.2279658317565917969 1.0670777559280395508 1.213448643684387207 1.259952545166015625 1.1625499725341796875 0.96480041742324829102 0.88302767276763916016 1.1486440896987915039 1.1744701862335205078 1.160651087760925293 1.3048541545867919922 1.1396222114562988281 0.97484660148620605469 1.2087874412536621094 0.81366676092147827148 1.0703345537185668945 1.2011321783065795898 1.1494057178497314453 1.2329801321029663086 1.1895060539245605469 1.1962130069732666016 1.2777872085571289062 1.2714029550552368164 1.2364660501480102539 0.52469068765640258789 1.0811237096786499023 1.2592672109603881836 1.1460901498794555664 1.2909921407699584961 1.2963134050369262695 1.2034116983413696289 0.69514393806457519531 0.86017429828643798828 0.96916168928146362305 0.98489034175872802734 1.0002963542938232422 1.029608607292175293 1.0851186513900756836 1.1665658950805664062 1.1413131952285766602 1.1298022270202636719 1.0437142848968505859 0.96854484081268310547 0.98799800872802734375 1.1538120508193969727 1.1092723608016967773 1.0923994779586791992 1.155068516731262207 1.0800468921661376953 1.2503358125686645508 1.0287342071533203125 0.86346876621246337891 0.98668587207794189453 
1.2315028905868530273 1.1321692466735839844 0.96700716018676757812 1.0971207618713378906 1.059174656867980957 1.2649642229080200195 1.3258708715438842773 0.53447723388671875 1.0791429281234741211 1.1588042974472045898 1.2823091745376586914 1.2090563774108886719 1.2523740530014038086 1.1373722553253173828 1.0914947986602783203 1.1088304519653320312 1.1162086725234985352 1.2736175060272216797 0.99850744009017944336 0.7755978703498840332 0.99904030561447143555 1.0395529270172119141 1.0608382225036621094 1.0487679243087768555 1.0160833597183227539 1.003192901611328125 1.0282639265060424805 0.99261033535003662109 1.1109521389007568359 1.148035883903503418 1.1339472532272338867 1.1029912233352661133 1.1093429327011108398 1.2608125209808349609 1.2195596694946289062 1.2269730567932128906 1.2680535316467285156 1.1205849647521972656 0.9981753230094909668 1.3351370096206665039 0.96059113740921020508 1.077746272087097168 1.3309805393218994141 1.2648829221725463867 1.2540317773818969727 1.0786854028701782227 1.0780041217803955078 1.2085503339767456055 1.2816228866577148438 1.3272852897644042969 1.3098579645156860352 1.110720515251159668 1.2061086893081665039 1.1674838066101074219 1.1395295858383178711 1.1697241067886352539 1.0828809738159179688 0.82179236412048339844 0.95333081483840942383 1.0513252019882202148 1.1243661642074584961 0.84275466203689575195 1.0973604917526245117 1.178286433219909668 1.2419576644897460938 1.2951154708862304688 1.3293576240539550781 1.1313956975936889648 0.98325061798095703125 1.0955562591552734375 0.9705225825309753418 0.96189093589782714844 1.2815914154052734375 1.2393976449966430664 1.1996748447418212891 1.1924394369125366211 1.119937896728515625 1.0854594707489013672 0.9364668726921081543 0.92798399925231933594 0.54500925540924072266 0.81810611486434936523 0.78303772211074829102 0.65544009208679199219 0.73851728439331054688 0.75317937135696411133 0.79479527473449707031 0.81123918294906616211 1.0537540912628173828 1.0498056411743164062 1.039442896842956543 1.1265411376953125 1.1520668268203735352 1.1581246852874755859 1.1650283336639404297 1.1474784612655639648 1.1447784900665283203 1.1437944173812866211 0.92862612009048461914 0.82549583911895751953 1.0068540573120117188 1.1945147514343261719 1.0991272926330566406 1.2307087182998657227 1.0511168241500854492 1.2191480398178100586 0.99896657466888427734 0.8055750727653503418 0.75283759832382202148 
1.2184836864471435547 1.097881317138671875 0.98249667882919311523 1.1101969480514526367 0.79752755165100097656 0.99973952770233154297 0.91665571928024291992 0.54296255111694335938 1.0281088352203369141 1.1206494569778442383 1.2645130157470703125 1.2881656885147094727 1.2658491134643554688 1.2222423553466796875 1.1338453292846679688 1.2060524225234985352 1.2850078344345092773 1.2772226333618164062 1.1963411569595336914 1.1014459133148193359 1.0847964286804199219 1.0812864303588867188 1.1390253305435180664 1.0548961162567138672 1.0291677713394165039 1.0478919744491577148 1.0729959011077880859 1.0451571941375732422 1.1887903213500976562 1.1894311904907226562 1.119427800178527832 1.0492186546325683594 0.97448205947875976562 1.1084345579147338867 1.0625346899032592773 1.1048080921173095703 1.307534337043762207 0.8480961918830871582 0.59035778045654296875 0.74311619997024536133 0.62524753808975219727 0.96742904186248779297 1.1757732629776000977 1.2091573476791381836 1.195359349250793457 1.0509177446365356445 1.2448424100875854492 1.2795865535736083984 1.2231128215789794922 1.2429094314575195312 1.0613610744476318359 1.2653446197509765625 1.2865775823593139648 1.1201452016830444336 0.97000676393508911133 0.70103031396865844727 0.63949054479598999023 0.76925557851791381836 0.99623852968215942383 0.78479444980621337891 0.71126163005828857422 1.035227656364440918 1.2167253494262695312 1.1507717370986938477 1.1380136013031005859 1.0837764739990234375 1.0057826042175292969 1.0256249904632568359 0.94835501909255981445 0.95935589075088500977 0.52520632743835449219 0.86679250001907348633 1.0714086294174194336 1.2328462600708007812 1.2169480323791503906 1.1802109479904174805 1.0452767610549926758 1.244597315788269043 1.2429659366607666016 0.60237401723861694336 1.0229318141937255859 1.2742828130722045898 1.3015900850296020508 1.1796761751174926758 0.78192549943923950195 1.0821537971496582031 1.1335117816925048828 1.0441325902938842773 1.1061857938766479492 1.0594627857208251953 1.0862660408020019531 1.0988296270370483398 1.0844625234603881836 1.1707864999771118164 1.1703245639801025391 1.121363520622253418 1.0353159904479980469 1.1384069919586181641 1.2412303686141967773 0.86121642589569091797 0.65132653713226318359 1.1035169363021850586 0.97635376453399658203 1.2470954656600952148 1.0545940399169921875 1.0502125024795532227 0.86151170730590820312 0.84609073400497436523 0.79326188564300537109 
1.2010580301284790039 1.1191072463989257812 1.1622946262359619141 1.091752171516418457 0.86448782682418823242 0.87225830554962158203 0.72083282470703125 1.1409586668014526367 1.2258411645889282227 1.0394852161407470703 0.88053417205810546875 0.88146209716796875 1.1746621131896972656 1.2822730541229248047 1.30089569091796875 1.2454469203948974609 1.2070575952529907227 1.2700780630111694336 1.1710934638977050781 1.0956543684005737305 1.1119722127914428711 1.0859801769256591797 1.1281552314758300781 1.1504585742950439453 1.1666398048400878906 1.1788388490676879883 1.0606415271759033203 1.0410358905792236328 1.1877254247665405273 1.1501837968826293945 1.1036190986633300781 1.0601447820663452148 0.94328570365905761719 0.88767266273498535156 0.83904826641082763672 0.72967833280563354492 0.97606551647186279297 0.80327534675598144531 1.1276173591613769531 0.77568495273590087891 1.1098480224609375 1.057894587516784668 1.2266608476638793945 0.90983068943023681641 0.59270453453063964844 0.88709372282028198242 1.1433368921279907227 1.206756591796875 1.2249988317489624023 0.94141840934753417969 0.78959256410598754883 0.87276744842529296875 1.0947333574295043945 1.0324141979217529297 0.98733246326446533203 1.0491288900375366211 1.1174656152725219727 1.0431336164474487305 1.1648484468460083008 1.1495983600616455078 0.68210941553115844727 0.99940049648284912109 0.98401409387588500977 0.76266467571258544922 1.2578608989715576172 1.174670100212097168 1.0808097124099731445 0.80741590261459350586 0.47470945119857788086 0.88499808311462402344 1.2508177757263183594 1.1769590377807617188 1.2599048614501953125 1.0952767133712768555 0.89376014471054077148 0.92117142677307128906 1.2149916887283325195 1.3441441059112548828 1.2274936437606811523 0.72042059898376464844 1.1616511344909667969 1.0807754993438720703 1.2185739278793334961 1.2293077707290649414 1.0085045099258422852 1.1723481416702270508 1.1627662181854248047 1.0804504156112670898 1.0681797266006469727 1.0405330657958984375 1.0482321977615356445 1.073698878288269043 1.1775543689727783203 1.1709586381912231445 1.1364488601684570312 1.0819327831268310547 1.0699068307876586914 1.00772857666015625 1.2026522159576416016 1.2659066915512084961 1.0290901660919189453 0.79967975616455078125 0.7101853489875793457 0.90368783473968505859 0.87549185752868652344 0.78285884857177734375 0.8188813328742980957 1.1164238452911376953 1.2325024604797363281 
1.197663426399230957 1.0347226858139038086 0.88966333866119384766 0.98493111133575439453 1.1851780414581298828 1.1692471504211425781 0.83774912357330322266 1.1821581125259399414 1.2037532329559326172 1.2339396476745605469 1.1856580972671508789 0.91730338335037231445 0.97363549470901489258 1.225245356559753418 1.3003739118576049805 1.0788704156875610352 0.98458743095397949219 1.2385622262954711914 1.2519661188125610352 1.2171562910079956055 1.2472802400588989258 1.1849677562713623047 1.1886639595031738281 1.2185674905776977539 1.2103257179260253906 1.1414245367050170898 1.0797140598297119141 1.1183165311813354492 1.190874934196472168 1.1692796945571899414 1.0984482765197753906 0.99251544475555419922 1.0535063743591308594 1.1686302423477172852 1.1091909408569335938 1.0274504423141479492 0.81683194637298583984 1.0311658382415771484 1.3220461606979370117 1.0677597522735595703 0.89724028110504150391 1.1951537132263183594 1.122498631477355957 1.3412263393402099609 0.9869276881217956543 0.78890997171401977539 1.0057516098022460938 1.2503479719161987305 1.128884434700012207 0.67024070024490356445 0.86840540170669555664 1.0083911418914794922 0.79502850770950317383 0.64514750242233276367 1.1516833305358886719 1.1840420961380004883 1.185982823371887207 1.1157171726226806641 1.1633766889572143555 1.0151227712631225586 0.99166125059127807617 1.1778705120086669922 0.80493342876434326172 0.62749850749969482422 0.89433425664901733398 1.0358281135559082031 0.72839331626892089844 0.42109477519989013672 0.57679229974746704102 0.93371170759201049805 1.166804194450378418 1.2774178981781005859 1.2786478996276855469 1.3070988655090332031 0.92581474781036376953 0.94709491729736328125 1.2503045797348022461 1.3301379680633544922 1.0341073274612426758 0.74322617053985595703 1.2657622098922729492 1.281176447868347168 1.1622040271759033203 1.1787856817245483398 1.2019393444061279297 1.1754118204116821289 1.1096785068511962891 1.1306982040405273438 1.0629347562789916992 1.0591531991958618164 1.0814402103424072266 1.1822203397750854492 1.1755157709121704102 1.1580451726913452148 1.1240025758743286133 1.1033651828765869141 1.1038494110107421875 1.0237522125244140625 1.0996043682098388672 1.1637358665466308594 1.2353851795196533203 1.2470462322235107422 1.071651458740234375 0.82613110542297363281 0.70611083507537841797 0.5088240504264831543 0.64184832572937011719 0.74922919273376464844 1.0228295326232910156 
1.2349351644515991211 1.0221899747848510742 1.0452158451080322266 1.2585598230361938477 1.1345410346984863281 1.0798170566558837891 0.67394936084747314453 1.209828495979309082 1.1850622892379760742 1.2568528652191162109 1.1852661371231079102 1.2393190860748291016 1.0173040628433227539 0.68043184280395507812 0.97357946634292602539 0.7950038909912109375 0.93095541000366210938 1.0108506679534912109 1.1544889211654663086 1.2208294868469238281 1.1580855846405029297 1.1396157741546630859 1.1457753181457519531 1.1985323429107666016 1.1434599161148071289 1.1280726194381713867 1.0809437036514282227 1.0840623378753662109 1.1747667789459228516 1.1709909439086914062 1.2051616907119750977 1.135228276252746582 1.0322172641754150391 1.1575653553009033203 1.1729099750518798828 1.1265240907669067383 0.96166086196899414062 1.1232318878173828125 1.2940907478332519531 1.1554257869720458984 0.78212910890579223633 1.2253537178039550781 1.1978592872619628906 1.2683447599411010742 1.3152744770050048828 1.0255991220474243164 0.68978255987167358398 1.0443625450134277344 1.0818184614181518555 1.2304475307464599609 1.2220141887664794922 1.1498932838439941406 1.0915108919143676758 1.1243094205856323242 1.2163931131362915039 1.130207061767578125 1.1602175235748291016 1.1578375101089477539 1.1856474876403808594 0.78775465488433837891 1.1288188695907592773 1.2259072065353393555 1.0301458835601806641 0.95511353015899658203 1.3780186176300048828 1.3122382164001464844 1.0545841455459594727 0.6856091618537902832 1.0656517744064331055 0.78142529726028442383 0.74818009138107299805 1.3025597333908081055 1.2682342529296875 1.2317562103271484375 1.1011934280395507812 0.86513608694076538086 1.1022225618362426758 1.2839860916137695312 1.125426173210144043 1.1225092411041259766 0.86636322736740112305 1.045810699462890625 1.106221318244934082 1.093056797981262207 1.1660914421081542969 1.0887639522552490234 1.0690447092056274414 1.1306334733963012695 1.0252916812896728516 1.0836542844772338867 1.1834845542907714844 1.1740349531173706055 1.0828620195388793945 1.0581661462783813477 1.1650756597518920898 1.0203472375869750977 1.0278421640396118164 0.84515172243118286133 0.99881541728973388672 1.1789809465408325195 1.2662893533706665039 1.2913287878036499023 1.2037774324417114258 1.2004275321960449219 1.0262125730514526367 0.53317427635192871094 0.94445747137069702148 1.06723785400390625 1.0924978256225585938 
1.2385332584381103516 1.1779500246047973633 1.1804010868072509766 1.2872836589813232422 1.2701894044876098633 1.2017228603363037109 0.74213045835494995117 1.2336899042129516602 1.2254283428192138672 1.2043604850769042969 1.1832857131958007812 1.290738224983215332 1.2691247463226318359 0.84608352184295654297 0.86528700590133666992 1.1575667858123779297 1.2600481510162353516 0.96014869213104248047 0.986766815185546875 1.0830979347229003906 1.0644638538360595703 1.076315760612487793 1.1122401952743530273 1.1638514995574951172 1.0947756767272949219 1.1314619779586791992 1.0700745582580566406 1.133108973503112793 1.1389042139053344727 1.1363885402679443359 1.1837760210037231445 1.1641845703125 1.0767668485641479492 1.0284312963485717773 1.1292678117752075195 1.1377580165863037109 0.98682224750518798828 1.0183999538421630859 1.2102180719375610352 1.1349474191665649414 0.95509511232376098633 1.2216422557830810547 1.2310243844985961914 1.2553294897079467773 1.3247083425521850586 1.0328612327575683594 0.54817998409271240234 0.73512709140777587891 1.1492371559143066406 1.3198562860488891602 1.2397058010101318359 1.1481113433837890625 1.147013545036315918 1.2160289287567138672 1.1915668249130249023 1.2059397697448730469 1.1345297098159790039 1.1595742702484130859 1.1677478551864624023 1.0864297151565551758 1.1655718088150024414 1.1668682098388671875 1.2171773910522460938 0.99121975898742675781 1.3739706277847290039 1.3668538331985473633 1.2245366573333740234 1.0932718515396118164 1.1843985319137573242 0.99619400501251220703 0.63783049583435058594 0.65962249040603637695 1.1334079504013061523 1.2317610979080200195 1.2646365165710449219 1.1481451988220214844 1.0991140604019165039 1.2774463891983032227 1.1037986278533935547 1.2261027097702026367 1.1844538450241088867 1.0758353471755981445 1.0839943885803222656 1.129721522331237793 1.1695053577423095703 1.133579254150390625 1.0654685497283935547 1.0412676334381103516 1.1166679859161376953 1.1853622198104858398 1.1761254072189331055 1.1843023300170898438 1.1051881313323974609 1.0371196269989013672 1.1649762392044067383 1.2033772468566894531 0.98851442337036132812 0.79579585790634155273 0.8765900731086730957 1.218629002571105957 1.0207866430282592773 1.2389408349990844727 1.2896277904510498047 1.3116303682327270508 1.265082240104675293 0.83646035194396972656 1.3350025415420532227 1.3214476108551025391 1.2369856834411621094 
1.2344906330108642578 1.1592639684677124023 1.0314886569976806641 0.92250943183898925781 0.92709910869598388672 0.86999338865280151367 0.77660542726516723633 1.1144996881484985352 1.2300194501876831055 1.1588182449340820312 1.1333224773406982422 1.1392873525619506836 1.2973710298538208008 1.2068592309951782227 1.0772169828414916992 0.96517419815063476562 1.107359766960144043 1.0423212051391601562 1.047770380973815918 1.1788015365600585938 1.1781282424926757812 1.1316262483596801758 1.2061614990234375 1.1902908086776733398 1.0253294706344604492 0.95055508613586425781 1.0107985734939575195 1.1024438142776489258 1.1186708211898803711 1.1349545717239379883 1.1871062517166137695 1.2107115983963012695 1.0530004501342773438 1.0191850662231445312 1.0725969076156616211 1.1239606142044067383 1.0661896467208862305 1.1484253406524658203 1.1901297569274902344 1.2207179069519042969 1.2704411745071411133 1.3005764484405517578 1.2524449825286865234 1.331994175910949707 1.3195503950119018555 0.82800614833831787109 0.66581624746322631836 0.97359877824783325195 1.0094046592712402344 1.2544690370559692383 1.2551648616790771484 1.170632481575012207 1.1755101680755615234 1.1920838356018066406 1.1804273128509521484 1.1816810369491577148 1.1902679204940795898 1.1906234025955200195 1.2045459747314453125 1.0946336984634399414 1.2004488706588745117 1.1354998350143432617 1.0052281618118286133 0.74598282575607299805 1.3247113227844238281 1.3335416316986083984 1.2479900121688842773 1.3498997688293457031 1.3015266656875610352 1.1932712793350219727 1.0340696573257446289 0.85978180170059204102 0.79287683963775634766 1.1924796104431152344 1.2146100997924804688 1.2610846757888793945 0.94625633955001831055 1.182297825813293457 1.143284916877746582 1.1384640932083129883 1.1596628427505493164 1.1570833921432495117 1.1803511381149291992 1.1879696846008300781 1.1462455987930297852 1.1121011972427368164 1.0972676277160644531 1.0878621339797973633 1.1814476251602172852 1.1761509180068969727 1.0959779024124145508 1.1093069314956665039 1.1196424961090087891 1.0670666694641113281 1.0526080131530761719 1.2692544460296630859 1.0857549905776977539 0.96609252691268920898 0.90581613779067993164 1.1630784273147583008 1.0734888315200805664 1.3134976625442504883 1.1657658815383911133 1.1334284543991088867 1.1577879190444946289 0.71279495954513549805 1.2114685773849487305 1.1928855180740356445 1.1712319850921630859 
1.183035731315612793 1.2550903558731079102 1.252873539924621582 1.1021798849105834961 1.1327633857727050781 1.1524686813354492188 1.2708640098571777344 0.91674226522445678711 1.2115448713302612305 1.1767746210098266602 1.1827638149261474609 1.0611436367034912109 1.221331477165222168 1.2764009237289428711 1.2366300821304321289 1.1938645839691162109 1.1281049251556396484 1.1358482837677001953 1.0724596977233886719 1.0356054306030273438 1.1410311460494995117 1.1175255775451660156 1.2190244197845458984 1.2222654819488525391 1.0049195289611816406 0.66275393962860107422 0.87960743904113769531 1.0573139190673828125 1.013985753059387207 1.1109293699264526367 1.1444005966186523438 1.2101635932922363281 1.1405041217803955078 1.1218925714492797852 1.1809810400009155273 1.2406551837921142578 1.230662226676940918 1.249408721923828125 1.2280830144882202148 1.1552623510360717773 1.0514385700225830078 1.0656468868255615234 1.086727142333984375 0.95855373144149780273 0.76912826299667358398 0.9309323430061340332 0.76039224863052368164 0.89052212238311767578 0.97449320554733276367 1.0652472972869873047 1.2412451505661010742 1.1993155479431152344 1.1841386556625366211 1.2102451324462890625 1.1697937250137329102 1.1503262519836425781 1.1972606182098388672 1.2282721996307373047 1.2113583087921142578 1.1511703729629516602 1.2581889629364013672 0.90691924095153808594 1.2428328990936279297 0.52027052640914916992 1.0503410100936889648 1.3300466537475585938 1.2955260276794433594 1.2822515964508056641 1.2009714841842651367 1.2833530902862548828 1.2560954093933105469 0.96873342990875244141 1.1430464982986450195 1.2002147436141967773 1.2657717466354370117 1.3153122663497924805 0.96093922853469848633 0.91491794586181640625 1.1663868427276611328 1.1105078458786010742 1.0798383951187133789 1.1131117343902587891 1.1244709491729736328 1.1562632322311401367 1.1044939756393432617 1.0791567564010620117 1.1417297124862670898 1.1490329504013061523 1.1768310070037841797 1.1499555110931396484 1.0329997539520263672 1.0773435831069946289 1.1038033962249755859 1.1149995326995849609 1.0388441085815429688 1.1644275188446044922 1.0964207649230957031 1.1833329200744628906 0.98898422718048095703 0.96853685379028320312 0.96791946887969970703 1.3311328887939453125 0.99048453569412231445 0.61810064315795898438 0.852085113525390625 0.76653933525085449219 0.93132072687149047852 1.2746899127960205078 1.2782634496688842773 
1.1980485916137695312 1.2656416893005371094 1.1353768110275268555 1.1222540140151977539 1.2841129302978515625 1.0458695888519287109 1.2388948202133178711 0.90018260478973388672 0.91134798526763916016 1.1592313051223754883 1.2133790254592895508 1.1862056255340576172 1.1055285930633544922 1.1833074092864990234 1.2100305557250976562 1.2763994932174682617 1.2442170381546020508 1.2681914567947387695 1.2639201879501342773 1.2594974040985107422 1.2405380010604858398 1.1097916364669799805 1.1555128097534179688 1.1857855319976806641 0.95254153013229370117 0.86439621448516845703 1.2411069869995117188 1.161295771598815918 1.0993598699569702148 1.1247746944427490234 1.1347774267196655273 1.2156007289886474609 1.186551213264465332 1.1965678930282592773 1.1860947608947753906 1.2166367769241333008 1.2146772146224975586 1.1966346502304077148 1.2642608880996704102 1.2017387151718139648 0.97136491537094116211 1.1661299467086791992 1.3357969522476196289 0.89112246036529541016 0.56238573789596557617 1.2373272180557250977 1.2325484752655029297 1.179827570915222168 1.0942194461822509766 1.0700805187225341797 1.1767255067825317383 1.2022289037704467773 1.1682268381118774414 1.2089035511016845703 1.2007592916488647461 1.1464669704437255859 1.1698291301727294922 1.1932264566421508789 1.1636549234390258789 1.1879792213439941406 1.2737483978271484375 1.1682813167572021484 1.3344855308532714844 0.60314542055130004883 0.81131213903427124023 1.1050227880477905273 1.1725341081619262695 1.3061392307281494141 1.1931543350219726562 1.246987462043762207 1.2992868423461914062 0.77217686176300048828 1.139393925666809082 1.1992400884628295898 1.3059160709381103516 1.216894984245300293 0.71788990497589111328 0.94976252317428588867 1.1204735040664672852 1.1694276332855224609 1.1179510354995727539 1.1436656713485717773 1.1383918523788452148 1.1196358203887939453 1.0822157859802246094 1.0299550294876098633 1.0526664257049560547 1.1690216064453125 1.1831979751586914062 1.0893158912658691406 1.1109697818756103516 1.0803619623184204102 1.1119914054870605469 1.0895355939865112305 1.090063929557800293 0.99191671609878540039 1.0420022010803222656 1.2539868354797363281 1.0490806102752685547 1.0346544981002807617 0.85294055938720703125 1.3463829755783081055 1.0356843471527099609 0.71857500076293945312 1.3170809745788574219 1.3271112442016601562 0.93644213676452636719 0.86138105392456054688 1.080273747444152832 
1.2701711654663085938 1.1346135139465332031 0.91689306497573852539 1.0421626567840576172 1.2405481338500976562 1.1952103376388549805 0.91552114486694335938 0.93054151535034179688 0.91044563055038452148 1.2911010980606079102 1.2165895700454711914 1.2742946147918701172 1.2308143377304077148 1.2078031301498413086 1.1727061271667480469 1.2804902791976928711 1.2669830322265625 1.2383086681365966797 1.1483038663864135742 1.1125277280807495117 1.0716211795806884766 1.0695705413818359375 1.1805765628814697266 1.2478264570236206055 0.97934734821319580078 0.78155851364135742188 1.1848745346069335938 1.1211168766021728516 1.12784576416015625 1.1030534505844116211 1.0933928489685058594 1.1793619394302368164 1.1984908580780029297 1.2199317216873168945 1.2092523574829101562 1.1920466423034667969 1.1175848245620727539 1.1133452653884887695 1.2542765140533447266 1.2758144140243530273 1.2407839298248291016 1.179860234260559082 0.97487699985504150391 0.75077986717224121094 1.0288031101226806641 0.89561086893081665039 1.2834916114807128906 1.2912395000457763672 1.1601761579513549805 1.1770101785659790039 1.1153762340545654297 1.1027852296829223633 1.0891714096069335938 1.1769672632217407227 1.2246813774108886719 1.1303253173828125 1.1674046516418457031 1.2163777351379394531 1.1800552606582641602 1.1948430538177490234 1.184065699577331543 1.1253192424774169922 0.96280258893966674805 0.97550666332244873047 0.77612805366516113281 1.1405675411224365234 1.1624969244003295898 1.1933854818344116211 1.1746096611022949219 1.2061034440994262695 1.2034975290298461914 0.89315629005432128906 1.0268180370330810547 1.2307888269424438477 1.294900059700012207 1.1257988214492797852 0.88764750957489013672 1.1246235370635986328 1.1846619844436645508 1.101932525634765625 1.0797699689865112305 1.131186366081237793 1.1358200311660766602 1.1193468570709228516 1.1007361412048339844 1.0879986286163330078 1.1813356876373291016 1.1827478408813476562 1.1628881692886352539 1.0752859115600585938 1.1062208414077758789 1.1163142919540405273 1.1142535209655761719 0.93090951442718505859 0.85237425565719604492 0.91851824522018432617 0.69652074575424194336 0.76466119289398193359 1.0533616542816162109 1.190420985221862793 1.0182265043258666992 1.1657292842864990234 0.85300159454345703125 0.73582327365875244141 1.2501074075698852539 1.1970018148422241211 1.2063416242599487305 1.1497068405151367188 1.1405799388885498047 
1.2348961830139160156 1.1639281511306762695 1.2080333232879638672 1.2366509437561035156 1.2132314443588256836 0.76358449459075927734 1.0298980474472045898 1.3138281106948852539 0.9343459010124206543 0.95531320571899414062 1.1539376974105834961 0.98634642362594604492 1.2976694107055664062 1.3020808696746826172 1.1837332248687744141 1.1857235431671142578 0.97033679485321044922 1.002592921257019043 1.0461304187774658203 1.0566409826278686523 1.1506388187408447266 1.2646236419677734375 1.2100117206573486328 1.2158298492431640625 1.0960583686828613281 0.59292650222778320312 0.9413363337516784668 0.83233928680419921875 1.0070821046829223633 1.0392084121704101562 1.0849205255508422852 1.1169261932373046875 1.2332321405410766602 1.1586478948593139648 1.0653808116912841797 1.1913104057312011719 0.97634994983673095703 0.98459893465042114258 1.2383238077163696289 1.2549366950988769531 1.2536213397979736328 1.2780094146728515625 0.94482111930847167969 0.80019080638885498047 1.2474740743637084961 0.84539371728897094727 0.98106074333190917969 1.1962066888809204102 1.1908441781997680664 1.1599076986312866211 1.2611154317855834961 1.2712798118591308594 1.2295349836349487305 1.1633360385894775391 1.1937555074691772461 1.0903565883636474609 1.2177059650421142578 1.1997519731521606445 1.0791046619415283203 1.168248295783996582 1.1266282796859741211 1.027430415153503418 0.79593890905380249023 1.3683377504348754883 1.1353154182434082031 1.1441277265548706055 1.0752277374267578125 1.1710007190704345703 1.2185312509536743164 1.1816469430923461914 1.187996983528137207 1.0739532709121704102 0.99283438920974731445 1.138283848762512207 1.2869850397109985352 1.2021210193634033203 0.99543052911758422852 1.1665678024291992188 1.1262202262878417969 1.1095457077026367188 1.1417254209518432617 1.1282072067260742188 1.0987485647201538086 1.1085089445114135742 1.1482695341110229492 1.1797471046447753906 1.1752506494522094727 1.0928568840026855469 1.1301178932189941406 0.98540061712265014648 0.91254448890686035156 0.9166812896728515625 0.89932531118392944336 0.76171183586120605469 0.56548404693603515625 0.58233851194381713867 0.84086072444915771484 1.1289385557174682617 0.90810984373092651367 0.96875971555709838867 0.80524158477783203125 0.69695603847503662109 0.74043685197830200195 0.75508856773376464844 0.89199316501617431641 1.0307021141052246094 1.1574015617370605469 1.2583478689193725586 1.2293602228164672852 
1.277516484260559082 1.2123849391937255859 1.1836905479431152344 0.94007450342178344727 0.6877835392951965332 1.1282217502593994141 1.1802308559417724609 1.2884563207626342773 1.1217230558395385742 0.76267564296722412109 0.90279400348663330078 0.97699046134948730469 0.82029038667678833008 0.96472066640853881836 1.1355921030044555664 0.97384291887283325195 0.99855476617813110352 1.1593838930130004883 1.0997360944747924805 1.1481292247772216797 1.2295374870300292969 1.1656033992767333984 1.0751981735229492188 1.1917579174041748047 1.2841180562973022461 0.77772939205169677734 1.2540620565414428711 1.2072281837463378906 1.2137460708618164062 1.2359268665313720703 1.130324244499206543 1.1505975723266601562 1.2086402177810668945 1.1370561122894287109 1.0537343025207519531 1.0792989730834960938 1.029839634895324707 1.212374567985534668 1.1765582561492919922 1.0764575004577636719 1.1536242961883544922 1.3050788640975952148 1.0972975492477416992 1.1052234172821044922 1.2944852113723754883 1.1808983087539672852 0.88955396413803100586 1.2529047727584838867 1.2232049703598022461 1.2114607095718383789 1.2663109302520751953 1.2242096662521362305 1.2205458879470825195 1.2857592105865478516 1.2572276592254638672 1.2278257608413696289 1.1067674160003662109 1.1516611576080322266 0.99058872461318969727 1.2830882072448730469 1.2227640151977539062 1.0673592090606689453 0.5225130915641784668 1.1004451513290405273 1.2961775064468383789 1.1040103435516357422 1.2364875078201293945 1.2289445400238037109 1.2518794536590576172 1.2703489065170288086 1.2082450389862060547 1.1785380840301513672 1.005023956298828125 1.0571786165237426758 1.195034027099609375 1.1937930583953857422 1.0562062263488769531 1.0890533924102783203 1.0903446674346923828 1.145819544792175293 1.0799003839492797852 1.0967005491256713867 1.0784671306610107422 1.1636295318603515625 1.1812545061111450195 1.1809357404708862305 1.0624153614044189453 1.0100141763687133789 1.2255510091781616211 1.173125147819519043 1.1576025485992431641 1.1213079690933227539 1.0250248908996582031 1.018637537956237793 1.0373260974884033203 1.142841339111328125 1.2636295557022094727 1.2425770759582519531 1.1263118982315063477 1.2248182296752929688 0.88592523336410522461 0.68770563602447509766 1.3246136903762817383 1.2701853513717651367 1.061290740966796875 0.98996698856353759766 1.1446295976638793945 1.2720581293106079102 1.1611784696578979492 
1.2568796873092651367 1.1773871183395385742 0.96373271942138671875 1.0594668388366699219 0.79988718032836914062 1.0716657638549804688 1.2115151882171630859 1.3029004335403442383 1.2268538475036621094 1.2303119897842407227 1.0886174440383911133 1.1888825893402099609 0.76085305213928222656 0.98278462886810302734 0.6973921656608581543 1.0093704462051391602 1.2899199724197387695 1.2756825685501098633 1.1933085918426513672 1.2835948467254638672 1.2116358280181884766 1.0754358768463134766 1.0416810512542724609 1.2243247032165527344 1.2181084156036376953 0.68288701772689819336 1.1903625726699829102 1.2652021646499633789 1.1926363706588745117 1.1258798837661743164 1.1159960031509399414 1.2399744987487792969 1.1472617387771606445 1.1224156618118286133 0.73522657155990600586 0.84860116243362426758 1.1050325632095336914 1.0694220066070556641 1.0046600103378295898 1.0944243669509887695 1.1583876609802246094 1.3071215152740478516 0.95942085981369018555 1.1009335517883300781 1.2505452632904052734 1.2182160615921020508 0.90848207473754882812 1.2676079273223876953 1.2499631643295288086 1.1798228025436401367 1.1667284965515136719 1.1519559621810913086 1.1723138093948364258 1.148867487907409668 1.1745833158493041992 1.2789394855499267578 1.263753056526184082 1.1080381870269775391 1.1356426477432250977 1.2426507472991943359 1.1639657020568847656 0.94412523508071899414 0.69225543737411499023 1.1837968826293945312 1.2544385194778442383 1.0732866525650024414 1.1482900381088256836 1.0497498512268066406 0.97892898321151733398 1.181700587272644043 1.1985569000244140625 1.2156851291656494141 1.042652130126953125 1.0559281110763549805 1.0346813201904296875 1.1668676137924194336 1.0627610683441162109 1.0615695714950561523 1.0312147140502929688 1.0673849582672119141 1.0161064863204956055 1.0720974206924438477 1.0503764152526855469 1.1166415214538574219 1.1810144186019897461 1.1247037649154663086 1.0462505817413330078 0.93480741977691650391 1.1700930595397949219 1.1493335962295532227 1.1990026235580444336 1.2673584222793579102 1.2760632038116455078 1.2249507904052734375 1.21195220947265625 1.2694952487945556641 1.1802526712417602539 1.1839164495468139648 1.0457806587219238281 0.96282863616943359375 0.92796498537063598633 0.83792537450790405273 1.3303439617156982422 1.313628077507019043 1.3253937959671020508 1.2985886335372924805 1.1365711688995361328 1.0788114070892333984 1.0957376956939697266 
0.81999087333679199219 0.85756391286849975586 0.73848736286163330078 0.98744654655456542969 1.2248450517654418945 1.1107816696166992188 0.84345811605453491211 1.1866031885147094727 1.1242473125457763672 1.0832703113555908203 1.243741154670715332 1.2758326530456542969 1.0725983381271362305 1.3097230195999145508 0.98569405078887939453 1.1270803213119506836 1.0509364604949951172 1.0798586606979370117 1.0606842041015625 1.239844202995300293 1.1140711307525634766 1.0306676626205444336 1.1181685924530029297 1.2365922927856445312 1.2571066617965698242 0.90257251262664794922 1.1943260431289672852 1.1115949153900146484 1.1234892606735229492 1.1614606380462646484 1.1742467880249023438 1.2716310024261474609 1.2058869600296020508 1.1074522733688354492 0.79123204946517944336 1.1195234060287475586 1.1666964292526245117 1.165858149528503418 1.173831939697265625 1.1617769002914428711 1.159930109977722168 1.3114023208618164062 1.0033951997756958008 1.1728388071060180664 1.3130251169204711914 1.1330454349517822266 1.0061587095260620117 1.093245387077331543 1.2756600379943847656 1.3242244720458984375 1.3358466625213623047 1.2704842090606689453 1.1936026811599731445 1.2423707246780395508 1.1231664419174194336 1.2231245040893554688 1.2834196090698242188 1.0863239765167236328 1.1150786876678466797 1.2218438386917114258 1.25057220458984375 1.014096379280090332 0.71386331319808959961 1.2439785003662109375 1.2397810220718383789 1.1333134174346923828 1.1192255020141601562 0.89813011884689331055 1.0304383039474487305 1.0427367687225341797 1.0760811567306518555 1.1765413284301757812 1.0826822519302368164 1.1362982988357543945 1.1031032800674438477 1.1460555791854858398 1.0785202980041503906 1.0595176219940185547 1.028313755989074707 1.0686815977096557617 1.0245152711868286133 1.0710897445678710938 1.0916700363159179688 1.1832518577575683594 1.1846094131469726562 1.1055637598037719727 1.0831255912780761719 1.056306004524230957 1.1233248710632324219 0.98363041877746582031 1.0030440092086791992 1.2421581745147705078 1.237857818603515625 1.2471483945846557617 1.2157087326049804688 1.1608709096908569336 1.1174463033676147461 0.7897930145263671875 1.071408390998840332 1.2214533090591430664 1.0965937376022338867 0.69713002443313598633 1.1551272869110107422 1.2413675785064697266 1.2543140649795532227 1.1537765264511108398 1.1663520336151123047 1.1463428735733032227 1.1462829113006591797 
1.0468757152557373047 1.1456391811370849609 1.0079687833786010742 1.0883597135543823242 1.134099125862121582 1.2386593818664550781 1.0959476232528686523 1.206808924674987793 1.2446807622909545898 1.0027638673782348633 1.189398646354675293 1.2466720342636108398 1.2189890146255493164 1.29691314697265625 1.1466133594512939453 1.3128883838653564453 0.8266919255256652832 0.71900665760040283203 1.1021665334701538086 1.0871063470840454102 1.0311857461929321289 1.1874735355377197266 1.2100673913955688477 1.1840502023696899414 1.2115801572799682617 0.91937333345413208008 1.2560284137725830078 1.2087761163711547852 1.2289888858795166016 1.1850461959838867188 1.1094990968704223633 1.2605166435241699219 1.2500759363174438477 1.1878495216369628906 1.0789772272109985352 1.1194509267807006836 1.1349793672561645508 1.1484824419021606445 1.2052817344665527344 1.1900373697280883789 1.1773656606674194336 1.2592611312866210938 1.1792696714401245117 1.2313822507858276367 1.3430576324462890625 1.048358917236328125 0.82653009891510009766 0.98212820291519165039 1.0616762638092041016 0.83944267034530639648 0.96835345029830932617 1.0166097879409790039 0.89740699529647827148 1.2004745006561279297 1.1895287036895751953 1.2210705280303955078 1.2564564943313598633 1.172156214714050293 1.1697498559951782227 1.1240144968032836914 1.1339390277862548828 0.84058219194412231445 0.78259789943695068359 1.2516818046569824219 1.2279554605484008789 1.2351255416870117188 1.2485115528106689453 1.125452876091003418 1.0466915369033813477 1.1263756752014160156 1.1507407426834106445 1.160851597785949707 1.1564944982528686523 1.1318489313125610352 1.1155600547790527344 1.1044625043869018555 1.1209022998809814453 1.1313021183013916016 1.1077553033828735352 1.0548042058944702148 1.0569833517074584961 1.0774596929550170898 1.1693037748336791992 1.181515812873840332 1.1758590936660766602 1.0735888481140136719 1.0868315696716308594 1.0377092361450195312 1.0498855113983154297 0.94689190387725830078 0.88043028116226196289 1.0193836688995361328 1.1404919624328613281 1.2108757495880126953 1.2969739437103271484 1.2437866926193237305 1.2760820388793945312 1.2060731649398803711 1.2483377456665039062 1.3312017917633056641 1.1686643362045288086 0.74592244625091552734 1.0223075151443481445 0.97146177291870117188 0.95137929916381835938 1.1582164764404296875 1.257704615592956543 1.1583397388458251953 1.1455371379852294922 
1.1849589347839355469 1.1750851869583129883 0.90738630294799804688 1.1889120340347290039 1.1537238359451293945 1.1906912326812744141 1.1577954292297363281 1.1998612880706787109 1.1565269231796264648 1.0605570077896118164 1.1171786785125732422 1.1819899082183837891 1.2005647420883178711 1.2761201858520507812 1.143441319465637207 1.0737273693084716797 0.98659020662307739258 1.2247205972671508789 1.1790755987167358398 1.1052459478378295898 1.1897156238555908203 1.2029573917388916016 1.1630367040634155273 1.1720139980316162109 1.1950341463088989258 0.88965135812759399414 1.2833726406097412109 1.2593327760696411133 1.1655378341674804688 1.1416399478912353516 1.0451436042785644531 1.300307154655456543 1.117722630500793457 0.97343689203262329102 1.0715718269348144531 1.0986725091934204102 1.1074738502502441406 1.1088709831237792969 1.1162960529327392578 1.1449282169342041016 1.2506165504455566406 1.2626862525939941406 1.2685996294021606445 1.3261686563491821289 1.3237578868865966797 0.77131789922714233398 0.67565143108367919922 1.1261682510375976562 1.3600803613662719727 1.3016369342803955078 0.89337325096130371094 0.60421884059906005859 0.8746312260627746582 1.2242720127105712891 1.213650822639465332 1.2182172536849975586 1.22949981689453125 1.1901857852935791016 1.1638008356094360352 1.1555472612380981445 1.0107697248458862305 0.92941057682037353516 0.72626608610153198242 1.1579058170318603516 1.1639381647109985352 1.0805554389953613281 1.1601585149765014648 1.2432911396026611328 1.1023888587951660156 1.1423878669738769531 1.1663558483123779297 1.1386150121688842773 1.1254706382751464844 1.1338814496994018555 1.1318976879119873047 1.1005498170852661133 1.1535615921020507812 1.1910353899002075195 1.1879464387893676758 1.144545435905456543 1.1510168313980102539 1.1639090776443481445 1.1840379238128662109 1.0782916545867919922 1.1130564212799072266 1.0400851964950561523 1.0818591117858886719 1.1104782819747924805 1.0691285133361816406 0.94435024261474609375 1.0225346088409423828 0.81700235605239868164 0.7194226384162902832 0.95540225505828857422 1.1676594018936157227 1.3159080743789672852 1.3158832788467407227 1.2439748048782348633 1.2129077911376953125 1.2844989299774169922 0.88993889093399047852 0.78782439231872558594 1.0815206766128540039 1.1384099721908569336 1.1070501804351806641 1.0741276741027832031 1.1507171392440795898 1.0358923673629760742 1.0672484636306762695 
1.0019108057022094727 1.024418950080871582 0.93714481592178344727 1.0508500337600708008 1.1740739345550537109 0.91130143404006958008 1.0765032768249511719 1.1989712715148925781 1.1826055049896240234 1.0938986539840698242 1.1685612201690673828 1.273983001708984375 1.141095280647277832 1.0579756498336791992 1.1518831253051757812 0.64456218481063842773 0.83915698528289794922 1.1412009000778198242 1.1583628654479980469 1.2329692840576171875 1.1916965246200561523 1.1793984174728393555 1.1968429088592529297 1.1780694723129272461 1.1104933023452758789 0.97709602117538452148 1.2854255437850952148 1.128294825553894043 0.96358484029769897461 1.0011270046234130859 1.0524311065673828125 1.154051661491394043 1.0643082857131958008 1.0621323585510253906 1.1121526956558227539 1.1117686033248901367 1.1406214237213134766 1.1631743907928466797 1.1683459281921386719 1.2176489830017089844 1.265839695930480957 0.97778332233428955078 1.003180384635925293 1.1646763086318969727 1.0487142801284790039 0.59305369853973388672 0.77624267339706420898 1.1562825441360473633 1.2121194601058959961 1.322559356689453125 1.3404062986373901367 1.2681593894958496094 0.78179115056991577148 0.80187338590621948242 1.1151794195175170898 1.1414188146591186523 1.225467681884765625 1.2609540224075317383 1.1512323617935180664 1.2200347185134887695 1.1153241395950317383 1.0373489856719970703 0.78250509500503540039 0.97356814146041870117 1.0849066972732543945 1.0542417764663696289 1.0819593667984008789 1.1647433042526245117 1.1638946533203125 1.1053282022476196289 1.1068862676620483398 1.0743305683135986328 1.1380016803741455078 1.1878800392150878906 1.2013521194458007812 1.1993355751037597656 1.1978325843811035156 1.1961005926132202148 1.1763966083526611328 1.1935342550277709961 1.1916351318359375 1.1842540502548217773 1.1026467084884643555 1.1740049123764038086 1.0670624971389770508 1.0840581655502319336 1.120074152946472168 1.1039037704467773438 1.0645706653594970703 0.99751824140548706055 1.0133939981460571289 1.0317606925964355469 0.67935830354690551758 0.62926733493804931641 0.74661278724670410156 1.1609283685684204102 1.280035853385925293 1.1897548437118530273 1.2019677162170410156 1.2646595239639282227 1.2149540185928344727 0.99940741062164306641 0.75873428583145141602 1.1090946197509765625 1.0432294607162475586 1.0555890798568725586 1.12842559814453125 1.1085463762283325195 1.1014343500137329102 
1.1475059986114501953 1.0746941566467285156 0.9442195892333984375 0.9474951624870300293 1.2747226953506469727 1.1532828807830810547 1.1063786745071411133 1.1710076332092285156 1.153815150260925293 1.1687662601470947266 1.2630283832550048828 1.2530511617660522461 1.1407530307769775391 1.1943268775939941406 1.1216447353363037109 1.0229300260543823242 0.85568970441818237305 1.2358510494232177734 1.2329230308532714844 1.2000057697296142578 1.1838573217391967773 1.228215336799621582 1.2426538467407226562 1.2461113929748535156 1.3054153919219970703 1.0692027807235717773 0.99242693185806274414 1.0312082767486572266 1.1200290918350219727 1.126870274543762207 1.1405942440032958984 1.1193661689758300781 1.0967128276824951172 1.1101943254470825195 1.1393913030624389648 1.1482203006744384766 1.1695680618286132812 1.1763880252838134766 1.1810468435287475586 1.2150588035583496094 1.2134385108947753906 1.3293453454971313477 1.1094757318496704102 0.79714053869247436523 1.1102614402770996094 0.99679082632064819336 1.0407197475433349609 1.2582182884216308594 1.1888064146041870117 1.1949822902679443359 1.205937504768371582 1.2614264488220214844 1.1618137359619140625 1.0112410783767700195 1.055912017822265625 1.128394007682800293 1.1279457807540893555 1.2636454105377197266 1.1813536882400512695 1.1636852025985717773 1.1503988504409790039 1.1844077110290527344 0.99612385034561157227 1.0579797029495239258 1.1359871625900268555 1.1030280590057373047 1.1849560737609863281 1.181429743766784668 1.1540514230728149414 1.1123833656311035156 1.1012961864471435547 1.1785380840301513672 1.2041110992431640625 1.2034183740615844727 1.1703293323516845703 1.1847864389419555664 1.1822577714920043945 1.1605634689331054688 1.1293123960494995117 1.1461762189865112305 1.1544945240020751953 1.0758948326110839844 1.0372786521911621094 1.1945961713790893555 1.1258620023727416992 1.0726468563079833984 1.086674809455871582 1.0248829126358032227 0.97612452507019042969 0.96431946754455566406 0.99548637866973876953 1.1181043386459350586 1.1939311027526855469 1.2196372747421264648 1.0790411233901977539 0.72929024696350097656 1.2001360654830932617 1.2715195417404174805 1.2722980976104736328 1.285248875617980957 1.115703582763671875 0.87933319807052612305 1.1725594997406005859 1.1967298984527587891 1.0704436302185058594 1.0654677152633666992 1.1000111103057861328 1.1517637968063354492 1.1633759737014770508 
1.066964268684387207 0.96791356801986694336 1.0685460567474365234 0.84879958629608154297 1.1691280603408813477 1.1669267416000366211 1.1263678073883056641 1.1966308355331420898 1.221497654914855957 1.2114127874374389648 1.212801814079284668 1.1269500255584716797 0.89178305864334106445 0.9864832758903503418 1.2979440689086914062 0.63004648685455322266 0.83969634771347045898 1.3292573690414428711 1.2473760843276977539 1.2317482233047485352 1.2230449914932250977 1.2600729465484619141 1.1621274948120117188 1.2454738616943359375 1.2870268821716308594 1.1120705604553222656 0.78378814458847045898 1.1493233442306518555 1.2038292884826660156 1.2004703283309936523 1.1831614971160888672 1.137186884880065918 1.1427903175354003906 1.1505286693572998047 1.1466867923736572266 1.1715676784515380859 1.2016426324844360352 1.1938066482543945312 1.184473872184753418 1.2924902439117431641 1.2754695415496826172 1.2412021160125732422 0.87651354074478149414 1.0646145343780517578 1.097460627555847168 1.0224626064300537109 1.0203872919082641602 1.2808171510696411133 1.2292307615280151367 1.1331678628921508789 1.2561852931976318359 1.2285181283950805664 1.1232057809829711914 1.1063102483749389648 1.0785194635391235352 1.1579610109329223633 1.1721355915069580078 1.2320107221603393555 1.2755986452102661133 1.2256677150726318359 1.1448578834533691406 1.1642405986785888672 1.136464238166809082 0.96096390485763549805 1.1384069919586181641 1.1617921590805053711 1.1675554513931274414 1.132098078727722168 1.1281470060348510742 1.1716735363006591797 1.1945003271102905273 1.2068556547164916992 1.1703615188598632812 1.1051986217498779297 1.0481283664703369141 1.1231675148010253906 1.1045645475387573242 1.0830467939376831055 1.0614426136016845703 1.1101524829864501953 1.1200413703918457031 0.95100897550582885742 1.0439245700836181641 1.1988401412963867188 1.1788946390151977539 1.0869553089141845703 1.1592042446136474609 1.196635127067565918 1.1130961179733276367 1.0102345943450927734 0.97724235057830810547 1.1098526716232299805 1.2630201578140258789 1.1415735483169555664 1.0504567623138427734 0.75714796781539916992 0.79070448875427246094 1.2548112869262695312 1.3210834264755249023 1.1868647336959838867 0.62302982807159423828 0.75597620010375976562 1.2324544191360473633 1.276569366455078125 1.2271201610565185547 1.2374318838119506836 1.1276521682739257812 1.1415578126907348633 1.0923646688461303711 
1.2199101448059082031 1.0736430883407592773 1.1586630344390869141 0.87934660911560058594 0.95364606380462646484 1.104839324951171875 1.0759674310684204102 1.2421579360961914062 1.2435367107391357422 1.0030119419097900391 0.85890930891036987305 0.89600962400436401367 1.1875311136245727539 0.90826791524887084961 1.1743639707565307617 0.81342589855194091797 0.71237349510192871094 0.97813320159912109375 1.0260107517242431641 1.2578492164611816406 1.2551517486572265625 1.2172794342041015625 1.0988445281982421875 1.2596029043197631836 1.1401842832565307617 0.96028095483779907227 0.90948909521102905273 1.1839324235916137695 1.2126712799072265625 1.1847454309463500977 1.1915482282638549805 1.1744798421859741211 1.1735494136810302734 1.1780914068222045898 1.1688591241836547852 1.1524721384048461914 1.1639174222946166992 1.1580393314361572266 1.2480205297470092773 1.2848829030990600586 0.85011488199234008789 0.65219449996948242188 1.134293675422668457 1.1901880502700805664 1.1773267984390258789 1.1625313758850097656 1.0308579206466674805 0.79997843503952026367 0.93548953533172607422 1.220137476921081543 1.263768315315246582 1.3008902072906494141 1.2718294858932495117 1.1754021644592285156 1.1845152378082275391 1.2411032915115356445 1.2115170955657958984 1.1236248016357421875 1.1695066690444946289 1.2723088264465332031 1.2553597688674926758 1.1597969532012939453 1.1683511734008789062 0.92063409090042114258 1.0691901445388793945 1.140696406364440918 1.125399470329284668 1.1270229816436767578 1.1140451431274414062 1.2147399187088012695 1.2111194133758544922 1.1410442590713500977 1.1068245172500610352 0.98032289743423461914 1.0316927433013916016 1.1252282857894897461 1.1306765079498291016 1.0916658639907836914 1.0843794345855712891 1.0842535495758056641 0.98650366067886352539 0.96240371465682983398 1.0977038145065307617 1.2015700340270996094 1.2038934230804443359 1.1304364204406738281 1.0189588069915771484 1.0616855621337890625 1.2228258848190307617 1.2127565145492553711 1.0936999320983886719 1.0700752735137939453 1.1222991943359375 1.1592105627059936523 0.87285429239273071289 0.76760059595108032227 0.48627457022666931152 0.59148293733596801758 0.73923397064208984375 1.0068024396896362305 0.8138758540153503418 1.1320364475250244141 0.86566585302352905273 0.99556469917297363281 1.113259434700012207 1.1036458015441894531 1.091513514518737793 1.1411703824996948242 1.0549068450927734375 
1.2146812677383422852 1.1099086999893188477 1.0669748783111572266 0.92636471986770629883 1.0463737249374389648 1.0166810750961303711 1.0615787506103515625 1.2360798120498657227 1.2413272857666015625 0.9641819000244140625 1.0395298004150390625 1.2191739082336425781 1.2897684574127197266 1.2425631284713745117 1.3093422651290893555 0.96275109052658081055 1.1254549026489257812 1.3314749002456665039 0.87425965070724487305 1.0346773862838745117 1.2034940719604492188 1.0262076854705810547 0.69829344749450683594 0.94195467233657836914 0.90125662088394165039 0.88250702619552612305 1.1198564767837524414 1.2376713752746582031 1.1655514240264892578 1.1636817455291748047 1.1777569055557250977 1.2160356044769287109 1.2089028358459472656 1.1818045377731323242 1.1799603700637817383 1.156432032585144043 1.1856459379196166992 1.1279710531234741211 1.2674094438552856445 1.2027515172958374023 1.0244866609573364258 0.8204676508903503418 1.2534848451614379883 1.1697185039520263672 1.1629021167755126953 1.2039947509765625 1.2224895954132080078 0.9167575836181640625 0.83514791727066040039 1.0509319305419921875 1.064273834228515625 1.2459100484848022461 1.2337489128112792969 1.2543228864669799805 1.2614134550094604492 1.2133774757385253906 1.1488667726516723633 1.0757597684860229492 1.1049102544784545898 1.1518347263336181641 1.2512696981430053711 1.2631441354751586914 1.2121940851211547852 0.9865506291389465332 1.0007216930389404297 1.0981138944625854492 1.0644805431365966797 1.0275815725326538086 1.1089934110641479492 1.2122161388397216797 1.1186350584030151367 0.99042010307312011719 1.2121524810791015625 1.0000435113906860352 1.1226212978363037109 1.1750377416610717773 1.1542574167251586914 1.0815333127975463867 1.0404514074325561523 0.90261125564575195312 1.0043283700942993164 1.0406398773193359375 1.1215360164642333984 1.2047834396362304688 1.1739803552627563477 1.1314970254898071289 0.98376893997192382812 0.90907818078994750977 1.152796626091003418 1.2769064903259277344 1.266909480094909668 1.274041295051574707 1.2010425329208374023 1.1661732196807861328 1.0420815944671630859 0.82874512672424316406 0.7990004420280456543 0.9528369903564453125 0.76818615198135375977 1.2804313898086547852 0.93972504138946533203 1.2471508979797363281 1.0737296342849731445 1.1487817764282226562 1.1583755016326904297 1.1110289096832275391 1.0947099924087524414 1.0987558364868164062 1.1508704423904418945 
1.1609432697296142578 1.0399779081344604492 1.0198454856872558594 0.96107065677642822266 1.1629664897918701172 1.0321812629699707031 1.0303049087524414062 1.2309652566909790039 1.1843106746673583984 1.0930269956588745117 1.2446404695510864258 1.2667758464813232422 1.2621787786483764648 1.1727499961853027344 1.1214295625686645508 0.70648837089538574219 0.99238181114196777344 1.3243318796157836914 1.0211144685745239258 0.63458395004272460938 0.8036562800407409668 1.0383683443069458008 0.6500479578971862793 0.53484439849853515625 1.0222747325897216797 1.1970230340957641602 1.2545264959335327148 1.2062641382217407227 1.1126775741577148438 1.1257063150405883789 1.1633760929107666016 1.143563389778137207 1.1873717308044433594 1.2263857126235961914 1.1708831787109375 1.1536610126495361328 1.1602518558502197266 1.1467603445053100586 1.322512507438659668 0.95890015363693237305 0.85420143604278564453 0.79729151725769042969 1.255643010139465332 1.1570314168930053711 1.1644555330276489258 1.1904722452163696289 1.2319161891937255859 1.1765130758285522461 0.88504040241241455078 1.266520380973815918 1.1860418319702148438 1.1943532228469848633 1.2024993896484375 1.1687299013137817383 1.1572922468185424805 1.1217619180679321289 1.1360526084899902344 1.1009144783020019531 1.1140666007995605469 1.0929378271102905273 1.0894082784652709961 1.1967611312866210938 1.2561495304107666016 1.116545557975769043 0.9184252619743347168 0.99524283409118652344 1.0066390037536621094 1.1144410371780395508 1.2150516510009765625 1.2245686054229736328 1.022503972053527832 0.96594053506851196289 1.270402073860168457 1.0165395736694335938 1.0464121103286743164 1.1358586549758911133 1.0434798002243041992 0.89945268630981445312 0.81775838136672973633 0.88748443126678466797 1.0845612287521362305 1.1044167280197143555 1.1349081993103027344 1.184769749641418457 1.2083938121795654297 1.1292780637741088867 1.0516815185546875 0.95762199163436889648 1.0146557092666625977 1.1937212944030761719 1.1893672943115234375 1.2439378499984741211 1.2562489509582519531 1.1623845100402832031 1.2551342248916625977 1.1789560317993164062 1.2469414472579956055 1.2791591882705688477 0.98859494924545288086 1.1175901889801025391 1.0778867006301879883 1.2557265758514404297 1.1823469400405883789 1.1029618978500366211 1.1764775514602661133 1.1188071966171264648 1.110642552375793457 1.1779395341873168945 1.2177679538726806641 
1.1244809627532958984 1.1190346479415893555 1.0532377958297729492 1.0399935245513916016 1.2249321937561035156 1.0631345510482788086 1.0823318958282470703 1.223070979118347168 1.0649286508560180664 1.1176851987838745117 1.0946768522262573242 0.94210451841354370117 0.90281730890274047852 0.71845746040344238281 0.95964086055755615234 1.0207639932632446289 1.2193179130554199219 1.312440037727355957 0.93621820211410522461 1.1011407375335693359 1.2318608760833740234 1.2745072841644287109 0.84246772527694702148 0.68297737836837768555 0.99210643768310546875 1.0909868478775024414 1.2571600675582885742 1.291507720947265625 1.1795421838760375977 1.2542922496795654297 1.2390372753143310547 1.2106022834777832031 1.2182296514511108398 1.1894065141677856445 1.1822071075439453125 1.2340890169143676758 1.1993864774703979492 1.1715612411499023438 1.1970428228378295898 1.1957452297210693359 1.2482398748397827148 1.2349382638931274414 1.2163064479827880859 1.1854702234268188477 1.1679290533065795898 1.1554441452026367188 1.1643326282501220703 1.2209838628768920898 0.95354264974594116211 1.1663972139358520508 1.2533429861068725586 1.224895477294921875 1.2204955816268920898 1.2024078369140625 1.2236100435256958008 1.2298561334609985352 1.1623438596725463867 0.93767297267913818359 1.1532440185546875 1.1594132184982299805 1.1176848411560058594 1.0933703184127807617 1.2349581718444824219 1.248157501220703125 0.97019785642623901367 0.98655682802200317383 1.1444717645645141602 1.218226313591003418 1.2227520942687988281 1.1748125553131103516 1.0250456333160400391 0.96853166818618774414 1.2180155515670776367 1.1128748655319213867 0.75727367401123046875 1.1395120620727539062 0.81004494428634643555 0.99456691741943359375 1.0804306268692016602 1.0552353858947753906 1.0781205892562866211 1.1132138967514038086 1.1305267810821533203 1.1943696737289428711 1.209537506103515625 1.1023172140121459961 1.1255061626434326172 1.0148379802703857422 1.0121790170669555664 0.92739045619964599609 0.94513869285583496094 1.1766108274459838867 1.3096420764923095703 1.3009479045867919922 1.246992945671081543 1.2332235574722290039 1.249865412712097168 0.90025973320007324219 0.57568538188934326172 1.1184368133544921875 1.0753453969955444336 1.2567267417907714844 1.2152271270751953125 1.0775086879730224609 1.155341029167175293 1.0850945711135864258 1.1443756818771362305 1.2254480123519897461 1.2083718776702880859 
1.0810983180999755859 1.123012542724609375 1.0912147760391235352 1.0816435813903808594 1.1598275899887084961 1.0381714105606079102 1.1640481948852539062 1.1972001791000366211 1.1279953718185424805 0.96572881937026977539 1.0080351829528808594 1.1281296014785766602 0.81371933221817016602 0.65711283683776855469 1.3049758672714233398 1.2637054920196533203 1.2939219474792480469 1.3028141260147094727 1.0587915182113647461 1.1435048580169677734 1.0815726518630981445 0.94066023826599121094 0.74007177352905273438 0.65353214740753173828 0.85021990537643432617 1.0109112262725830078 1.0878366231918334961 1.1033565998077392578 1.0786175727844238281 1.1822009086608886719 1.1937634944915771484 1.1744008064270019531 1.1245685815811157227 1.1360771656036376953 1.190886378288269043 1.2098295688629150391 1.1372966766357421875 1.1949613094329833984 1.1896287202835083008 1.1999641656875610352 1.2037047147750854492 1.1684381961822509766 1.1265017986297607422 1.1889657974243164062 1.2160247564315795898 1.1962375640869140625 1.2100859880447387695 1.2231044769287109375 1.219263911247253418 0.94538438320159912109 0.98108643293380737305 1.0029481649398803711 1.1302497386932373047 1.1717286109924316406 1.1014999151229858398 1.264184117317199707 0.94965088367462158203 0.80595320463180541992 1.1371990442276000977 1.1478886604309082031 1.122927546501159668 1.1203620433807373047 1.0753556489944458008 1.2245079278945922852 1.2099756002426147461 1.1093008518218994141 1.218516230583190918 1.223589777946472168 1.1715520620346069336 1.1491898298263549805 1.0257356166839599609 1.0348383188247680664 1.2176389694213867188 1.304101109504699707 0.84980690479278564453 1.2232779264450073242 0.75159853696823120117 1.0124013423919677734 1.1009931564331054688 1.0566245317459106445 1.0579526424407958984 1.1423099040985107422 1.1446458101272583008 1.2064641714096069336 1.2133721113204956055 1.0894893407821655273 1.1111780405044555664 1.0389339923858642578 1.0029226541519165039 0.91135734319686889648 0.74582362174987792969 0.95599788427352905273 1.2847015857696533203 1.3193393945693969727 1.243031620979309082 1.2536730766296386719 1.2828824520111083984 1.1884114742279052734 0.82709455490112304688 1.0189510583877563477 0.98126208782196044922 1.2217662334442138672 1.1790081262588500977 1.0786529779434204102 1.1250231266021728516 1.0915790796279907227 1.2330107688903808594 1.1410083770751953125 1.2265127897262573242 
1.139748692512512207 1.1332257986068725586 1.1546089649200439453 1.1294863224029541016 1.119360804557800293 1.0784887075424194336 1.1148891448974609375 1.0431647300720214844 1.0654512643814086914 1.062678217887878418 1.1433598995208740234 1.1057856082916259766 0.78867173194885253906 0.6976191401481628418 1.1568443775177001953 1.2092417478561401367 1.2859653234481811523 1.2229874134063720703 1.0260591506958007812 1.1436601877212524414 0.77135223150253295898 1.3200501203536987305 1.2713118791580200195 0.94176840782165527344 0.71915918588638305664 0.92146795988082885742 1.0101321935653686523 1.0604838132858276367 1.0748467445373535156 1.1541854143142700195 1.1661728620529174805 1.1606314182281494141 1.1469922065734863281 1.1844731569290161133 1.1957317590713500977 1.1264597177505493164 1.1284852027893066406 1.2067923545837402344 1.1685557365417480469 1.1960066556930541992 1.1119843721389770508 1.0634539127349853516 1.0773171186447143555 1.0620434284210205078 1.2101360559463500977 1.2369902133941650391 1.1946197748184204102 1.1897882223129272461 1.1968353986740112305 1.2188559770584106445 1.2698755264282226562 1.0326781272888183594 0.76345956325531005859 0.90241080522537231445 0.73380607366561889648 1.0576624870300292969 0.85914975404739379883 1.081878662109375 1.1366846561431884766 0.98099917173385620117 1.0517255067825317383 1.1563919782638549805 1.1354986429214477539 1.0840342044830322266 1.2239626646041870117 1.2181572914123535156 1.2109115123748779297 1.1698906421661376953 1.1170450448989868164 1.1332939863204956055 1.1148079633712768555 1.0331063270568847656 1.1724257469177246094 1.2980620861053466797 0.78090459108352661133 0.72881925106048583984 0.95150262117385864258 0.89587283134460449219 1.0565124750137329102 1.1490434408187866211 1.0798965692520141602 1.1340087652206420898 1.1415230035781860352 1.210038304328918457 1.177643895149230957 1.0753552913665771484 1.0671485662460327148 1.0324633121490478516 0.9909293055534362793 1.131731867790222168 1.1486351490020751953 1.0184861421585083008 1.2070484161376953125 1.1244720220565795898 1.2561377286911010742 1.1861753463745117188 1.1591098308563232422 1.2728886604309082031 1.1601920127868652344 1.0378093719482421875 1.0882264375686645508 1.2571234703063964844 1.1661713123321533203 1.1512960195541381836 1.1212229728698730469 1.2093065977096557617 1.2268931865692138672 0.98590928316116333008 1.1978796720504760742 
1.1413406133651733398 1.1457579135894775391 1.1324486732482910156 1.0867125988006591797 1.0923192501068115234 1.1657228469848632812 1.1523878574371337891 1.1152529716491699219 1.0891665220260620117 1.1105779409408569336 1.1020762920379638672 1.0397652387619018555 0.83668303489685058594 0.89512681961059570312 1.1153901815414428711 1.1698541641235351562 1.2509576082229614258 1.1390976905822753906 1.1851500272750854492 1.2943539619445800781 0.91244083642959594727 1.2636777162551879883 1.3385890722274780273 1.0725663900375366211 0.6341724395751953125 0.79264599084854125977 1.0574405193328857422 1.1222761869430541992 1.1233059167861938477 1.1633737087249755859 1.1549135446548461914 1.1848717927932739258 1.1866418123245239258 1.1887251138687133789 1.1933854818344116211 1.1635786294937133789 1.1701110601425170898 1.2188001871109008789 1.1616969108581542969 1.2030458450317382812 1.148114323616027832 1.1272529363632202148 1.1442282199859619141 0.93159657716751098633 1.2041163444519042969 1.2780357599258422852 1.2252122163772583008 1.2026081085205078125 1.17307281494140625 1.1377376317977905273 1.1558184623718261719 1.318318486213684082 1.2699943780899047852 1.2434937953948974609 0.79045826196670532227 0.80556577444076538086 0.90341734886169433594 1.1120600700378417969 1.0505692958831787109 1.0054756402969360352 1.0435596704483032227 1.0784158706665039062 1.1481016874313354492 1.1324964761734008789 1.2226853370666503906 1.2049285173416137695 1.0910691022872924805 1.0254799127578735352 1.1086916923522949219 1.0683052539825439453 1.0500105619430541992 1.1498245000839233398 1.2013838291168212891 1.1597527265548706055 0.64653837680816650391 0.44292062520980834961 1.0386027097702026367 0.882991790771484375 1.027474522590637207 1.1417886018753051758 1.0424983501434326172 1.1366672515869140625 1.1995112895965576172 1.2115659713745117188 1.1043535470962524414 1.0545538663864135742 1.0840799808502197266 1.0135588645935058594 0.92046898603439331055 1.0189408063888549805 0.80839592218399047852 0.76088219881057739258 0.73333412408828735352 0.80807083845138549805 1.2324335575103759766 1.3069643974304199219 1.3102599382400512695 1.3348348140716552734 0.93780946731567382812 1.2037590742111206055 1.1464865207672119141 1.1083627939224243164 1.0985267162322998047 1.0918149948120117188 1.0792212486267089844 1.2340307235717773438 1.2298040390014648438 1.0364834070205688477 1.1569989919662475586 
1.1677746772766113281 1.1464588642120361328 1.1441588401794433594 1.1831612586975097656 1.1793929338455200195 1.1733239889144897461 1.1625585556030273438 1.0931429862976074219 1.0868737697601318359 1.1109321117401123047 1.0918463468551635742 1.1056125164031982422 1.0251224040985107422 1.0974892377853393555 1.1867365837097167969 1.2130949497222900391 1.2559859752655029297 1.2192000150680541992 1.2422751188278198242 1.0892145633697509766 0.75367563962936401367 1.0203075408935546875 1.3287643194198608398 1.3272298574447631836 0.94807273149490356445 0.68549579381942749023 1.0899490118026733398 1.169958949089050293 1.1118011474609375 1.1397020816802978516 1.1505872011184692383 1.1578651666641235352 1.1674506664276123047 1.1732494831085205078 1.1849391460418701172 1.1794759035110473633 1.2047895193099975586 1.2034112215042114258 1.1497387886047363281 1.2614940404891967773 1.1770719289779663086 1.1582571268081665039 1.1533946990966796875 0.879749298095703125 1.225046992301940918 1.2256581783294677734 1.2256023883819580078 1.2112264633178710938 1.1816933155059814453 1.2029949426651000977 1.2142319679260253906 1.295142054557800293 1.2484588623046875 1.3052346706390380859 1.0485559701919555664 1.022716522216796875 0.98887199163436889648 0.93641823530197143555 0.96602809429168701172 1.0651543140411376953 1.0634533166885375977 1.0452094078063964844 1.0892053842544555664 1.1846123933792114258 1.2244898080825805664 1.1570725440979003906 1.066183924674987793 0.96836566925048828125 1.03160858154296875 0.85572147369384765625 1.1722409725189208984 1.2011535167694091797 1.1425610780715942383 1.0372482538223266602 0.553379058837890625 0.40322709083557128906 1.079581141471862793 1.1230739355087280273 1.1063483953475952148 1.0946241617202758789 1.0490326881408691406 1.1543501615524291992 1.2137839794158935547 1.1590085029602050781 1.1666597127914428711 1.2408390045166015625 1.2423776388168334961 1.1366293430328369141 1.0944731235504150391 1.007716059684753418 0.93368375301361083984 0.9243023991584777832 0.95074939727783203125 0.72081708908081054688 0.84183400869369506836 0.9963054656982421875 0.84468001127243041992 0.86458659172058105469 0.73636901378631591797 1.0754472017288208008 1.0713524818420410156 1.1774306297302246094 1.1093239784240722656 1.1010298728942871094 1.1309000253677368164 1.2307127714157104492 1.1829591989517211914 1.0941023826599121094 1.0329316854476928711 
1.07430267333984375 1.0615111589431762695 1.0676312446594238281 1.0548713207244873047 1.1307661533355712891 1.1444537639617919922 1.1825869083404541016 1.1861871480941772461 1.1258095502853393555 1.1217014789581298828 1.082665562629699707 1.0719263553619384766 1.1088738441467285156 1.1677680015563964844 1.1961133480072021484 1.2447844743728637695 1.1523113250732421875 0.92147165536880493164 0.89042824506759643555 0.77347713708877563477 1.0979093313217163086 1.2091798782348632812 1.1967511177062988281 1.2900302410125732422 1.3088167905807495117 0.78606492280960083008 0.80693393945693969727 1.1358797550201416016 1.0919833183288574219 1.1760807037353515625 1.1747953891754150391 1.1341545581817626953 1.1531565189361572266 1.1811431646347045898 1.1780679225921630859 1.1794619560241699219 1.2497216463088989258 1.0766332149505615234 1.2072153091430664062 1.2279554605484008789 1.0547937154769897461 1.145900726318359375 1.1166259050369262695 0.84752905368804931641 1.0276268720626831055 1.0328098535537719727 1.0027074813842773438 0.83543246984481811523 1.0873074531555175781 1.220208287239074707 1.1812772750854492188 1.0943756103515625 1.1955230236053466797 1.2895936965942382812 1.1506999731063842773 1.0814939737319946289 1.068386077880859375 1.0868669748306274414 1.0214602947235107422 1.0930138826370239258 1.050525665283203125 1.0807244777679443359 1.1429536342620849609 1.2269660234451293945 1.2246013879776000977 1.1479136943817138672 1.1388422250747680664 1.0349225997924804688 0.91919147968292236328 0.81566160917282104492 1.229465484619140625 1.1286147832870483398 1.1599864959716796875 1.1387226581573486328 0.92367559671401977539 0.58682864904403686523 1.0422353744506835938 1.1494889259338378906 1.1694097518920898438 1.1183331012725830078 1.1254049539566040039 1.1869361400604248047 1.2148504257202148438 1.1360750198364257812 1.0058127641677856445 1.1018377542495727539 1.2592520713806152344 1.2660478353500366211 1.219954371452331543 1.261191248893737793 1.2193480730056762695 1.1873263120651245117 1.2928361892700195312 1.3379648923873901367 1.3233526945114135742 1.0499463081359863281 0.67953443527221679688 0.55703246593475341797 1.1944574117660522461 1.2193688154220581055 1.0938237905502319336 1.1805642843246459961 1.1596293449401855469 1.0788451433181762695 1.1034293174743652344 1.2311404943466186523 1.119459986686706543 1.0759212970733642578 1.0449761152267456055 
1.0460797548294067383 1.1171565055847167969 1.0925735235214233398 1.0028927326202392578 1.0411989688873291016 1.0114151239395141602 1.0906145572662353516 1.1803854703903198242 1.187985539436340332 1.0671581029891967773 1.0206973552703857422 1.0433613061904907227 1.038575291633605957 1.1121367216110229492 1.1829264163970947266 1.1796468496322631836 0.95814192295074462891 0.99000984430313110352 1.1294054985046386719 1.135992884635925293 1.061260223388671875 1.0676690340042114258 1.1193916797637939453 1.1823767423629760742 1.2894243001937866211 0.86596375703811645508 0.71317726373672485352 1.0322344303131103516 0.94816344976425170898 1.150165557861328125 1.2342051267623901367 1.2467826604843139648 1.1961764097213745117 1.1975096464157104492 1.2124867439270019531 1.223296046257019043 1.2328889369964599609 1.1166511774063110352 1.2407789230346679688 1.0961651802062988281 1.1007674932479858398 1.1308358907699584961 0.89351052045822143555 1.1991162300109863281 1.2356413602828979492 1.131522059440612793 1.1410967111587524414 1.0068068504333496094 1.0396980047225952148 0.91391915082931518555 0.92376661300659179688 1.0448669195175170898 1.1284059286117553711 1.2142493724822998047 1.1602001190185546875 1.0371361970901489258 1.0543694496154785156 1.1145162582397460938 1.0621409416198730469 1.1142430305480957031 1.1544060707092285156 1.1755707263946533203 1.2313354015350341797 1.2332645654678344727 1.1239598989486694336 1.093166351318359375 1.1697961091995239258 1.043071746826171875 0.78686213493347167969 0.76073056459426879883 1.1579588651657104492 1.165089726448059082 1.1275129318237304688 0.8402544856071472168 0.75020706653594970703 0.88501274585723876953 1.1632207632064819336 1.1489923000335693359 1.1249036788940429688 1.1347718238830566406 1.13751220703125 1.2021406888961791992 1.2202901840209960938 1.1910526752471923828 1.0516008138656616211 0.95157772302627563477 1.2347612380981445312 1.2130606174468994141 1.2113333940505981445 1.2192894220352172852 1.2036497592926025391 1.1691633462905883789 1.2453331947326660156 1.2589110136032104492 1.2600901126861572266 1.346211552619934082 1.3021144866943359375 0.9199988245964050293 1.2350624799728393555 1.1031299829483032227 1.1491446495056152344 1.2182791233062744141 1.112804412841796875 1.1248143911361694336 1.2416347265243530273 1.2356295585632324219 1.2002413272857666016 1.1105637550354003906 1.0134909152984619141 
1.0484796762466430664 1.0802447795867919922 1.0583266019821166992 1.0670102834701538086 1.0794055461883544922 1.0434814691543579102 1.0759198665618896484 1.1227602958679199219 1.1881072521209716797 1.1890633106231689453 1.1674335002899169922 1.1529424190521240234 1.1166249513626098633 1.1001572608947753906 1.0400564670562744141 0.97140657901763916016 1.0135095119476318359 1.115268707275390625 1.0615906715393066406 1.152596592903137207 1.0794036388397216797 1.1992841958999633789 1.1278896331787109375 1.1164935827255249023 1.1732573509216308594 1.068966984748840332 1.1393779516220092773 1.3113654851913452148 0.93807494640350341797 0.98116272687911987305 1.1834268569946289062 1.2120822668075561523 1.209809422492980957 1.1519639492034912109 1.2558910846710205078 1.1236292123794555664 0.98638337850570678711 1.166468501091003418 1.1020729541778564453 1.0710768699645996094 1.081029057502746582 0.77983194589614868164 1.1277700662612915039 1.1639704704284667969 1.0226708650588989258 1.0134837627410888672 1.2259395122528076172 1.1399706602096557617 1.2015979290008544922 1.1626071929931640625 1.0872936248779296875 1.0642199516296386719 1.0687307119369506836 1.1666746139526367188 1.1691668033599853516 1.0781776905059814453 1.0513571500778198242 1.0610709190368652344 1.0821652412414550781 1.1507153511047363281 1.1921554803848266602 1.2332602739334106445 1.2352102994918823242 1.1645828485488891602 1.2115070819854736328 1.1246747970581054688 1.0948977470397949219 1.057736515998840332 0.83315616846084594727 0.73846393823623657227 1.222443699836730957 1.2149473428726196289 1.0462718009948730469 0.58850294351577758789 0.66468954086303710938 0.99636864662170410156 1.1182262897491455078 1.1424086093902587891 1.1202753782272338867 1.1206789016723632812 1.1862611770629882812 1.2190225124359130859 1.1467039585113525391 1.1222494840621948242 1.1799750328063964844 0.91418164968490600586 1.0920184850692749023 1.1255419254302978516 1.1431728601455688477 1.2233868837356567383 1.1449701786041259766 1.1741265058517456055 1.2112566232681274414 1.2824842929840087891 1.2918999195098876953 1.3225660324096679688 1.2131808996200561523 0.82014662027359008789 1.1813750267028808594 1.1131224632263183594 1.1427735090255737305 1.2097276449203491211 1.0919851064682006836 1.250113368034362793 1.2124848365783691406 1.1569960117340087891 1.2287776470184326172 1.2503541707992553711 1.1473602056503295898 
1.0234242677688598633 1.0990419387817382812 1.1070495843887329102 1.1318184137344360352 1.1031225919723510742 1.0744431018829345703 1.0857954025268554688 1.0773013830184936523 1.1061283349990844727 1.1726745367050170898 1.1919573545455932617 1.1943802833557128906 1.1619112491607666016 1.1704381704330444336 1.1084588766098022461 1.0721204280853271484 1.144791722297668457 1.1549344062805175781 1.0616576671600341797 1.1394149065017700195 1.1051267385482788086 1.2316874265670776367 1.2142008543014526367 1.271319270133972168 1.2036960124969482422 1.1050223112106323242 1.1666849851608276367 1.3010966777801513672 1.2474584579467773438 0.88235914707183837891 1.1848430633544921875 1.1626833677291870117 1.258646845817565918 1.1285568475723266602 1.2416641712188720703 1.0657633543014526367 1.104394078254699707 1.1110721826553344727 1.0876872539520263672 0.99900126457214355469 0.85504436492919921875 0.76613587141036987305 1.0901792049407958984 1.2166354656219482422 1.2075215578079223633 1.1916617155075073242 1.192105412483215332 1.1571234464645385742 1.1587324142456054688 1.0939276218414306641 1.1281868219375610352 1.1753336191177368164 1.2145835161209106445 1.2160997390747070312 1.2328562736511230469 1.2178258895874023438 1.158831477165222168 1.1328554153442382812 1.1319441795349121094 1.1923234462738037109 1.2366242408752441406 1.1919057369232177734 1.1444826126098632812 1.0824090242385864258 1.2006108760833740234 1.2436901330947875977 1.0752892494201660156 1.1099849939346313477 1.1261568069458007812 0.69441556930541992188 0.89943253993988037109 0.93901479244232177734 0.75120389461517333984 0.81585294008255004883 1.0239684581756591797 1.0023038387298583984 1.1156733036041259766 1.1410295963287353516 1.1090482473373413086 1.1452881097793579102 1.2240864038467407227 1.2260411977767944336 1.1109158992767333984 1.0669974088668823242 1.1930568218231201172 0.99425137042999267578 0.91068166494369506836 1.094329833984375 1.146945953369140625 1.2712749242782592773 1.1015162467956542969 0.98032110929489135742 0.80626291036605834961 0.74571335315704345703 0.90666180849075317383 1.3063563108444213867 0.91456639766693115234 0.96736222505569458008 1.2756408452987670898 1.1402926445007324219 1.141636967658996582 1.2078596353530883789 1.2586417198181152344 1.1885061264038085938 1.0672297477722167969 0.98070603609085083008 1.0794193744659423828 1.2518285512924194336 1.2533655166625976562 
1.020905613899230957 1.0607042312622070312 1.1430910825729370117 1.1537796258926391602 1.1356130838394165039 1.0588207244873046875 1.0991520881652832031 1.0832028388977050781 1.0875830650329589844 1.0780789852142333984 1.1077691316604614258 1.1763652563095092773 1.197661280632019043 1.1650508642196655273 1.051609039306640625 1.0481038093566894531 1.0815979242324829102 1.1212726831436157227 1.1038779020309448242 1.0886175632476806641 1.106709599494934082 1.2546411752700805664 1.2243894338607788086 1.1640945672988891602 1.2238756418228149414 1.2464069128036499023 1.2603955268859863281 1.2886587381362915039 1.2706658840179443359 1.1394052505493164062 1.0825371742248535156 1.1675478219985961914 1.273287653923034668 1.1136996746063232422 1.2475761175155639648 1.0167955160140991211 1.1357579231262207031 0.91750204563140869141 0.78477615118026733398 1.234722137451171875 1.3631029129028320312 1.28057098388671875 1.2787897586822509766 1.2822396755218505859 1.2478859424591064453 1.2100013494491577148 1.1334843635559082031 1.134265899658203125 1.1205016374588012695 1.1715854406356811523 1.2363889217376708984 1.2556750774383544922 1.2525053024291992188 1.2521644830703735352 1.2499271631240844727 1.2478964328765869141 1.2452858686447143555 1.2428146600723266602 1.239613652229309082 1.2397710084915161133 1.18755340576171875 1.1296530961990356445 1.086129307746887207 1.0619014501571655273 1.0768327713012695312 1.1714620590209960938 1.1407568454742431641 1.1011906862258911133 0.90067893266677856445 0.57583278417587280273 1.2219146490097045898 1.352606654167175293 1.2726953029632568359 1.2089357376098632812 1.2449539899826049805 1.1735529899597167969 1.0513339042663574219 1.1053529977798461914 1.1518291234970092773 1.1907271146774291992 1.2244288921356201172 1.1613074541091918945 1.1121813058853149414 0.97883266210556030273 1.0062882900238037109 0.83614444732666015625 1.0967767238616943359 1.0826343297958374023 1.2085977792739868164 1.3039168119430541992 1.1694453954696655273 1.1976352930068969727 1.1831554174423217773 1.0169389247894287109 0.75167727470397949219 0.48607948422431945801 0.98099803924560546875 1.2379651069641113281 1.2142770290374755859 1.1563185453414916992 1.1717649698257446289 1.2583156824111938477 1.261104583740234375 1.0637116432189941406 1.0679566860198974609 1.013159632682800293 0.8177674412727355957 1.1452476978302001953 1.2527436017990112305 
0.92476743459701538086 0.99328649044036865234 1.1597102880477905273 1.1926145553588867188 1.1360392570495605469 0.9501317143440246582 1.1313672065734863281 1.0652613639831542969 1.052115321159362793 1.1111351251602172852 1.0912470817565917969 1.1141645908355712891 1.1243213415145874023 1.2032340764999389648 1.2063060998916625977 1.2118725776672363281 1.218480229377746582 1.2258294820785522461 1.2343051433563232422 1.2417227029800415039 1.2450234889984130859 1.2522896528244018555 1.2493412494659423828 1.1602891683578491211 1.1498544216156005859 1.1400741338729858398 1.1567896604537963867 1.2530907392501831055 1.2391195297241210938 1.2323708534240722656 1.2029610872268676758 1.0487123727798461914 1.1713324785232543945 1.1186293363571166992 1.263857722282409668 1.028491973876953125 1.0729568004608154297 0.94778162240982055664 1.1928150653839111328 1.1995111703872680664 1.1641535758972167969 1.2110657691955566406 1.2169386148452758789 1.112740635871887207 1.0350159406661987305 1.061992645263671875 1.1095236539840698242 1.1576706171035766602 1.2071422338485717773 1.2616933584213256836 1.256369471549987793 1.2598299980163574219 1.1426955461502075195 1.1322150230407714844 1.1272852420806884766 1.1395242214202880859 1.1306056976318359375 1.122509002685546875 1.1925982236862182617 1.1404184103012084961 1.1283249855041503906 1.1214928627014160156 1.1090655326843261719 1.1001312732696533203 1.1602094173431396484 1.1534154415130615234 1.1332029104232788086 1.2367346286773681641 1.2251265048980712891 0.6818631291389465332 0.92787700891494750977 1.2526402473449707031 1.345000147819519043 1.2823162078857421875 1.2192784547805786133 1.2399702072143554688 1.203152775764465332 1.0966788530349731445 1.1345136165618896484 1.231108546257019043 1.2319189310073852539 1.1042196750640869141 1.0718312263488769531 1.0453860759735107422 0.95805859565734863281 0.64537465572357177734 1.0356861352920532227 1.0449357032775878906 1.1574226617813110352 1.3016513586044311523 1.1791288852691650391 1.2041628360748291016 1.2580888271331787109 1.1860131025314331055 1.025529026985168457 0.42508742213249206543 0.88358187675476074219 1.2361854314804077148 1.2265858650207519531 1.1636104583740234375 1.1747736930847167969 1.2736810445785522461 1.2653335332870483398 1.1745592355728149414 1.0659008026123046875 0.99594509601593017578 0.77773803472518920898 1.1128566265106201172 1.2418055534362792969 
0.94963467121124267578 1.0190570354461669922 1.1778844594955444336 1.2280752658843994141 1.0496882200241088867 0.86321920156478881836 1.1698861122131347656 1.1163336038589477539 1.0756856203079223633 1.0964676141738891602 1.0592594146728515625 1.1195625066757202148 1.1043303012847900391 1.1015137434005737305 1.2050689458847045898 1.1758100986480712891 1.1469681262969970703 1.1403346061706542969 1.0782669782638549805 1.1538686752319335938 1.1598715782165527344 1.053936004638671875 1.1246857643127441406 1.1086966991424560547 1.0899041891098022461 1.2194286584854125977 1.2600634098052978516 1.2430193424224853516 1.2161283493041992188 1.2330935001373291016 1.3104475736618041992 1.1876016855239868164 0.99549198150634765625 0.96356785297393798828 1.2558993101119995117 0.9699007868766784668 0.76456451416015625 1.014243006706237793 1.239949345588684082 1.2117737531661987305 1.1376302242279052734 1.118377685546875 1.1105781793594360352 1.1337867975234985352 1.096116185188293457 1.1402553319931030273 1.1635012626647949219 1.2213917970657348633 1.260653376579284668 1.2612426280975341797 1.1797958612442016602 1.0957317352294921875 1.103549957275390625 1.106431126594543457 1.0587285757064819336 1.0745406150817871094 0.96645945310592651367 1.0009977817535400391 1.2525217533111572266 1.1163870096206665039 1.0775420665740966797 1.1251368522644042969 1.1641337871551513672 1.1384284496307373047 1.0930353403091430664 1.1577761173248291016 1.1968209743499755859 1.1748850345611572266 1.3148670196533203125 0.80817472934722900391 0.50039041042327880859 1.1280890703201293945 1.0264374017715454102 1.0670455694198608398 1.1613843441009521484 1.2047152519226074219 1.1238247156143188477 1.1597263813018798828 1.1983574628829956055 1.2297015190124511719 1.1840535402297973633 1.1173572540283203125 0.99956023693084716797 1.0346355438232421875 0.85674494504928588867 0.72645652294158935547 1.2955647706985473633 1.2958257198333740234 1.2846626043319702148 1.3059979677200317383 1.213518977165222168 1.1662579774856567383 1.1944648027420043945 1.2160414457321166992 1.2425620555877685547 0.95495957136154174805 0.54501259326934814453 0.93706214427947998047 1.1470247507095336914 1.0986918210983276367 1.1963251829147338867 1.2796329259872436523 1.1402193307876586914 1.2712281942367553711 1.1756458282470703125 1.0195728540420532227 0.72671741247177124023 0.98940378427505493164 1.1823828220367431641 
1.2413775920867919922 1.198811650276184082 1.1982092857360839844 1.2584831714630126953 1.1483665704727172852 0.68463337421417236328 1.1527070999145507812 1.2195693254470825195 1.1127773523330688477 1.1213498115539550781 1.0530047416687011719 1.0926966667175292969 1.1071928739547729492 1.0728746652603149414 1.1538766622543334961 1.1980652809143066406 1.101498723030090332 1.1417632102966308594 1.1690876483917236328 1.1673108339309692383 1.1676148176193237305 1.0510306358337402344 1.1153626441955566406 1.1766809225082397461 1.1539720296859741211 1.0106704235076904297 1.1170294284820556641 1.1697814464569091797 1.1713978052139282227 1.2140122652053833008 1.2511638402938842773 1.3234899044036865234 1.2959039211273193359 0.70748704671859741211 0.95254093408584594727 0.8045685887336730957 1.0254474878311157227 1.0285254716873168945 1.0481133460998535156 1.2210547924041748047 1.2203940153121948242 1.2155416011810302734 1.1236910820007324219 1.1176379919052124023 1.1409608125686645508 1.2343970537185668945 1.2713379859924316406 1.2665488719940185547 1.2589371204376220703 1.1261512041091918945 1.0789408683776855469 1.1163146495819091797 1.1221233606338500977 1.0516992807388305664 0.91931360960006713867 0.94271653890609741211 0.93999040126800537109 1.15444183349609375 1.2669222354888916016 1.0624966621398925781 1.1009554862976074219 1.0751575231552124023 1.1357979774475097656 1.1440116167068481445 1.137921452522277832 1.1710050106048583984 0.96370798349380493164 0.96005332469940185547 1.3410160541534423828 0.87096613645553588867 0.60788899660110473633 0.8609479069709777832 0.84008461236953735352 1.0412267446517944336 1.0565273761749267578 1.0506180524826049805 1.0440535545349121094 1.1544899940490722656 1.2402096986770629883 1.2355175018310546875 1.1682401895523071289 1.1988369226455688477 1.122296452522277832 1.0290534496307373047 0.85662937164306640625 0.72920823097229003906 1.039355158805847168 1.0289605855941772461 1.1984974145889282227 1.2297561168670654297 1.2744971513748168945 1.2452840805053710938 1.2145659923553466797 1.2607742547988891602 1.283568263053894043 1.2989717721939086914 1.1443161964416503906 0.82697784900665283203 1.050824284553527832 1.1564769744873046875 1.1431317329406738281 1.2380552291870117188 1.1267470121383666992 1.2701650857925415039 1.2297186851501464844 1.066929936408996582 0.8482513427734375 0.86135244369506835938 1.1163276433944702148 
1.022381901741027832 1.0668594837188720703 1.2108559608459472656 1.263104557991027832 1.1070586442947387695 0.66630005836486816406 1.2190672159194946289 1.2349659204483032227 1.0486381053924560547 1.1431391239166259766 1.0865094661712646484 1.1545964479446411133 1.0919913053512573242 1.0816758871078491211 1.1070367097854614258 1.1659532785415649414 1.0412744283676147461 1.1355985403060913086 1.1812356710433959961 1.0957813262939453125 1.017375946044921875 1.087397456169128418 1.1385905742645263672 1.1675456762313842773 1.2067434787750244141 0.95869415998458862305 1.1917781829833984375 1.2018243074417114258 1.1852823495864868164 1.2330389022827148438 1.0899269580841064453 1.2610019445419311523 1.3405088186264038086 1.2169698476791381836 0.84181797504425048828 1.183703303337097168 1.2660378217697143555 1.3432996273040771484 1.0304238796234130859 1.0010570287704467773 1.0285270214080810547 1.1232317686080932617 1.167022705078125 1.2421691417694091797 1.2505420446395874023 1.243941187858581543 1.2325417995452880859 1.2019125223159790039 1.1399309635162353516 1.1031997203826904297 1.1158516407012939453 1.1000586748123168945 1.0033047199249267578 0.86676925420761108398 1.0303324460983276367 1.0890499353408813477 1.2044329643249511719 1.2683390378952026367 1.2172765731811523438 1.0529737472534179688 1.0736109018325805664 1.0945149660110473633 1.1371772289276123047 1.1729675531387329102 1.2224944829940795898 1.2463067770004272461 1.1411341428756713867 0.8256861567497253418 1.1293076276779174805 0.97536617517471313477 1.0713236331939697266 1.1101727485656738281 0.97489428520202636719 0.96029943227767944336 1.0312590599060058594 1.0545451641082763672 1.0635094642639160156 1.1010806560516357422 1.2376830577850341797 1.1786915063858032227 1.0981431007385253906 1.1191171407699584961 1.2483576536178588867 1.2348520755767822266 1.0256994962692260742 0.65073263645172119141 0.50212001800537109375 0.82767629623413085938 1.2405989170074462891 1.2831722497940063477 1.096608281135559082 1.2838491201400756836 1.2088731527328491211 1.2354350090026855469 1.2277883291244506836 1.1812332868576049805 1.163489222526550293 1.0278900861740112305 0.95933508872985839844 1.2081420421600341797 1.0789036750793457031 1.241740107536315918 1.1527740955352783203 1.1728396415710449219 1.2698341608047485352 1.2077078819274902344 0.9231014251708984375 0.75719797611236572266 1.112109065055847168 
0.92362576723098754883 1.1439133882522583008 1.2712053060531616211 1.2683141231536865234 1.1306760311126708984 0.60326147079467773438 1.0729547739028930664 1.1477276086807250977 1.0407326221466064453 1.2373062372207641602 1.1125648021697998047 1.1918597221374511719 1.0928630828857421875 1.1435610055923461914 1.1359670162200927734 1.2336862087249755859 1.1046091318130493164 1.0943659543991088867 1.1969692707061767578 1.1451255083084106445 1.0229696035385131836 1.2143273353576660156 1.1516219377517700195 1.1516453027725219727 1.2554826736450195312 1.0275664329528808594 1.2466691732406616211 1.2281732559204101562 1.1815241575241088867 1.227330327033996582 1.1439534425735473633 1.2923638820648193359 1.0214346647262573242 1.1292583942413330078 1.3023717403411865234 1.3401465415954589844 1.2768555879592895508 1.2690883874893188477 1.2932858467102050781 1.2323491573333740234 1.1209430694580078125 1.1193795204162597656 1.2248004674911499023 1.235381007194519043 1.192547917366027832 1.2424379587173461914 1.1957042217254638672 1.1210198402404785156 1.1379944086074829102 1.1027985811233520508 1.0971304178237915039 0.94019746780395507812 0.84872460365295410156 0.96976894140243530273 1.1081749200820922852 1.1932141780853271484 1.2728852033615112305 1.2707747220993041992 1.1470116376876831055 1.1681727170944213867 1.1181188821792602539 1.0303299427032470703 1.0914435386657714844 1.2063411474227905273 1.2715433835983276367 1.2333112955093383789 1.2143498659133911133 0.81738197803497314453 0.73105758428573608398 1.1355714797973632812 1.1536544561386108398 1.2010627985000610352 1.2111599445343017578 1.1153340339660644531 1.0528513193130493164 1.0903713703155517578 1.1278367042541503906 1.1359076499938964844 1.2375475168228149414 1.2129361629486083984 1.0829794406890869141 1.0597449541091918945 0.87137603759765625 0.9648303985595703125 0.87064081430435180664 0.6520977020263671875 0.80866104364395141602 0.7432734370231628418 0.815120697021484375 1.0196893215179443359 0.80616164207458496094 1.1272132396697998047 1.262314915657043457 1.1992435455322265625 1.0982823371887207031 1.0795531272888183594 1.0454390048980712891 0.93444818258285522461 1.1281762123107910156 1.1744261980056762695 1.1469413042068481445 1.2983484268188476562 1.1991475820541381836 1.1045061349868774414 1.1418476104736328125 1.1711922883987426758 1.0604642629623413086 0.71046966314315795898 1.1132141351699829102 
0.71741110086441040039 1.0020459890365600586 1.2492794990539550781 1.2756863832473754883 1.2539553642272949219 0.80493301153182983398 0.76831072568893432617 0.92199730873107910156 1.2562128305435180664 1.272528529167175293 1.0627012252807617188 1.2203137874603271484 1.0627684593200683594 1.1055411100387573242 1.1643781661987304688 1.2166129350662231445 1.187415003776550293 0.95142948627471923828 1.195340275764465332 1.2044191360473632812 0.81485223770141601562 1.1248563528060913086 1.1466943025588989258 1.2070876359939575195 1.3213183879852294922 0.85554552078247070312 1.1711678504943847656 1.1336601972579956055 1.1659560203552246094 1.1367795467376708984 1.1446892023086547852 1.3475236892700195312 0.68798553943634033203 0.98514688014984130859 1.3003525733947753906 1.2760999202728271484 1.2397160530090332031 1.2255854606628417969 1.2096732854843139648 1.211962580680847168 1.2390028238296508789 1.2704122066497802734 1.2018676996231079102 1.1830273866653442383 1.2315555810928344727 1.2114921808242797852 1.0838005542755126953 1.1384776830673217773 1.1942526102066040039 1.1208226680755615234 0.99296396970748901367 1.000773310661315918 1.1522696018218994141 1.1245216131210327148 1.1470617055892944336 1.2376687526702880859 1.273138880729675293 1.176613926887512207 1.1040738821029663086 1.1159319877624511719 1.1357444524765014648 1.165185093879699707 1.0849747657775878906 0.91189080476760864258 1.1348184347152709961 1.1919026374816894531 1.2392089366912841797 1.007704615592956543 1.0188164710998535156 1.2805223464965820312 1.2431176900863647461 1.2448239326477050781 1.1661593914031982422 1.1305052042007446289 1.0583692789077758789 1.1038031578063964844 1.1225333213806152344 1.1833484172821044922 1.2382247447967529297 1.2042446136474609375 1.0868227481842041016 1.0223141908645629883 0.95790946483612060547 0.91877442598342895508 0.98235946893692016602 1.009797215461730957 1.1596845388412475586 1.1150587797164916992 1.0932948589324951172 0.88588118553161621094 0.74152952432632446289 0.83404058218002319336 1.0487204790115356445 1.3497512340545654297 1.2914153337478637695 1.1593528985977172852 1.0028313398361206055 0.6646416783332824707 1.1588833332061767578 1.1676132678985595703 1.1648463010787963867 1.2412766218185424805 1.2399227619171142578 1.1173292398452758789 1.1384363174438476562 1.2109050750732421875 1.0201125144958496094 0.7968947291374206543 0.81818485260009765625 
0.61860907077789306641 1.1644792556762695312 1.2784733772277832031 1.2858300209045410156 1.2756656408309936523 0.9625046849250793457 0.67748039960861206055 1.0169311761856079102 1.272261500358581543 1.20189666748046875 0.97698354721069335938 1.2731633186340332031 1.0629056692123413086 1.0492233037948608398 1.2489579916000366211 1.1721738576889038086 1.1350963115692138672 0.86855703592300415039 1.1674026250839233398 1.1771228313446044922 0.81935352087020874023 1.1905710697174072266 1.2506371736526489258 1.3250168561935424805 1.3073951005935668945 0.72727388143539428711 1.0963579416275024414 1.0441281795501708984 1.1894766092300415039 1.2160087823867797852 1.2591900825500488281 1.3067243099212646484 0.69211775064468383789 1.1978781223297119141 1.2848904132843017578 1.134188532829284668 1.0176624059677124023 0.97935694456100463867 1.0746008157730102539 1.1945893764495849609 1.2597117424011230469 1.1676993370056152344 1.1797604560852050781 1.2468657493591308594 1.2025294303894042969 1.1850218772888183594 1.2177666425704956055 1.1606645584106445312 0.99729818105697631836 0.90385031700134277344 1.0476214885711669922 0.98534423112869262695 1.1239725351333618164 1.1582899093627929688 1.2203667163848876953 1.2746787071228027344 1.2047467231750488281 1.1532042026519775391 1.0745286941528320312 1.1032402515411376953 1.1619687080383300781 1.2201941013336181641 1.2359148263931274414 1.1167334318161010742 0.95120012760162353516 0.68769925832748413086 0.7768408656120300293 1.194075465202331543 1.1489394903182983398 1.1716307401657104492 1.1582089662551879883 1.1571228504180908203 1.0659292936325073242 1.0867661237716674805 1.0843261480331420898 1.0929726362228393555 1.0884592533111572266 1.2450820207595825195 1.1855022907257080078 1.0801856517791748047 0.98874014616012573242 1.0171433687210083008 0.97663980722427368164 0.96769422292709350586 1.0205401182174682617 1.0897333621978759766 1.1714742183685302734 1.1229131221771240234 1.1257922649383544922 1.1588038206100463867 1.2298408746719360352 1.1578464508056640625 0.70045268535614013672 0.87098824977874755859 1.2478771209716796875 1.1301554441452026367 0.86777710914611816406 0.67128145694732666016 1.026007533073425293 1.0576323270797729492 1.0635303258895874023 1.1697854995727539062 1.2574771642684936523 1.1397558450698852539 1.1855387687683105469 1.2302210330963134766 1.0893559455871582031 0.91144591569900512695 0.54513406753540039062 
0.77778136730194091797 1.2144553661346435547 1.2306473255157470703 1.2595070600509643555 1.2155517339706420898 0.98091083765029907227 0.69488102197647094727 0.97420126199722290039 1.2772696018218994141 1.1785268783569335938 1.0880235433578491211 1.2137809991836547852 1.0650472640991210938 1.1011217832565307617 1.2762535810470581055 1.2531232833862304688 1.134288787841796875 1.1725614070892333984 1.0638633966445922852 1.1093465089797973633 0.91173005104064941406 1.2183004617691040039 1.2083228826522827148 1.2699393033981323242 1.186959385871887207 0.66671109199523925781 1.2645845413208007812 1.1297445297241210938 1.1930594444274902344 1.264651179313659668 1.3008966445922851562 1.1643455028533935547 0.49142551422119140625 0.92320990562438964844 1.108189702033996582 0.88919740915298461914 1.1265213489532470703 1.0201416015625 1.0747592449188232422 1.2461582422256469727 1.1984896659851074219 1.1554272174835205078 1.23024749755859375 1.1497290134429931641 1.1795892715454101562 1.1174105405807495117 1.1562005281448364258 1.1367498636245727539 0.91700851917266845703 1.0288244485855102539 1.1250674724578857422 1.0853710174560546875 1.102232813835144043 1.1565027236938476562 1.2179480791091918945 1.2712318897247314453 1.1599538326263427734 1.1491839885711669922 1.1640659570693969727 1.0731558799743652344 1.1338514089584350586 1.2213205099105834961 1.1865611076354980469 1.2318209409713745117 1.2541387081146240234 1.0103298425674438477 0.61723959445953369141 1.165932774543762207 1.2296410799026489258 1.1745907068252563477 1.1104676723480224609 1.1506390571594238281 1.1094832420349121094 1.1433922052383422852 1.143338322639465332 1.1320819854736328125 1.1494345664978027344 1.242244720458984375 1.1380831003189086914 1.0659246444702148438 1.0224006175994873047 1.0694669485092163086 1.0492253303527832031 1.0929117202758789062 1.2086468935012817383 1.2322477102279663086 1.1995199918746948242 1.1744163036346435547 1.1435472965240478516 1.125153660774230957 1.0806853771209716797 1.2160342931747436523 1.0667657852172851562 0.73969483375549316406 0.74472308158874511719 0.96057158708572387695 0.99328780174255371094 0.43865090608596801758 0.9786529541015625 1.3108301162719726562 1.1698009967803955078 1.2507507801055908203 1.2746921777725219727 1.1400361061096191406 1.1746113300323486328 1.1670815944671630859 1.2850196361541748047 1.0800534486770629883 0.67923319339752197266 
1.1706029176712036133 0.86498308181762695312 1.1161162853240966797 1.2535756826400756836 1.2291268110275268555 0.86364901065826416016 0.51591211557388305664 0.7568060755729675293 1.0825923681259155273 0.85840743780136108398 1.1872582435607910156 1.310273289680480957 1.0157512426376342773 1.1224712133407592773 1.2468564510345458984 1.2230762243270874023 1.0840864181518554688 1.1441119909286499023 1.0164331197738647461 0.95464998483657836914 0.97726333141326904297 1.2548509836196899414 1.1822385787963867188 1.1729650497436523438 0.94816452264785766602 0.64849078655242919922 1.3184990882873535156 0.9808451533317565918 1.1967352628707885742 1.3297809362411499023 1.2763048410415649414 0.80148494243621826172 0.60028678178787231445 0.96673679351806640625 1.2299522161483764648 1.2305848598480224609 1.3144552707672119141 1.251269221305847168 1.1739780902862548828 1.2753506898880004883 1.1627514362335205078 1.2244184017181396484 1.1779303550720214844 1.1471762657165527344 1.1759808063507080078 0.97751402854919433594 1.0486501455307006836 0.92699950933456420898 1.0512950420379638672 1.1537595987319946289 1.1229040622711181641 1.0739024877548217773 1.1509783267974853516 1.2158460617065429688 1.2493326663970947266 1.2117577791213989258 1.1211669445037841797 1.0766831636428833008 1.1313216686248779297 1.1708962917327880859 1.0677412748336791992 1.0042929649353027344 1.1000893115997314453 1.2136098146438598633 1.1261330842971801758 0.89916497468948364258 1.0361572504043579102 1.1746309995651245117 1.2025907039642333984 1.2213358879089355469 1.1602828502655029297 1.176144719123840332 1.1794604063034057617 1.1822211742401123047 1.206326603889465332 1.2102797031402587891 1.1562330722808837891 1.2453212738037109375 1.2118279933929443359 1.2271469831466674805 1.2567586898803710938 1.2602627277374267578 1.2657670974731445312 1.2669101953506469727 1.2694582939147949219 1.2693408727645874023 1.2727464437484741211 1.2810770273208618164 1.2092112302780151367 1.1688511371612548828 1.0980011224746704102 1.1722098588943481445 1.2507190704345703125 1.2721418142318725586 1.3007099628448486328 1.2581055164337158203 1.078860163688659668 0.63530302047729492188 0.705791473388671875 1.2939187288284301758 1.1187337636947631836 1.2479870319366455078 1.2847995758056640625 1.1515623331069946289 1.1564078330993652344 1.0958609580993652344 1.2287291288375854492 1.2248692512512207031 0.99758559465408325195 
1.0357973575592041016 0.75791692733764648438 0.8283748626708984375 1.2172466516494750977 1.0926898717880249023 0.90381538867950439453 0.93035644292831420898 0.93041902780532836914 1.0410814285278320312 0.52872246503829956055 1.0887473821640014648 1.1147407293319702148 1.0349996089935302734 1.1871073246002197266 1.2989530563354492188 1.3003448247909545898 1.1704130172729492188 0.93691164255142211914 0.9881756901741027832 0.79848998785018920898 0.99891483783721923828 1.0338863134384155273 1.0053786039352416992 1.0674204826354980469 0.67031598091125488281 1.1520556211471557617 1.2015205621719360352 0.85365605354309082031 1.2424582242965698242 1.246186375617980957 0.8621196746826171875 0.91987389326095581055 1.0074526071548461914 0.94641411304473876953 0.96018636226654052734 1.1576788425445556641 1.1816009283065795898 1.2340139150619506836 1.2829571962356567383 1.234004974365234375 1.1638175249099731445 1.2522313594818115234 1.1543571949005126953 1.100830078125 1.1186329126358032227 1.1376712322235107422 0.91741263866424560547 0.86448818445205688477 0.99924331903457641602 1.1500524282455444336 1.1874201297760009766 1.0950856208801269531 1.1213141679763793945 1.2214514017105102539 1.2198837995529174805 1.1777486801147460938 1.1732625961303710938 1.123537898063659668 1.1273692846298217773 1.1840763092041015625 1.221842646598815918 1.1644858121871948242 0.97880798578262329102 0.96501117944717407227 0.81840103864669799805 0.97993624210357666016 1.2371160984039306641 1.1498814821243286133 1.1178253889083862305 1.1156058311462402344 1.1833518743515014648 1.1609070301055908203 1.1884663105010986328 1.2651487588882446289 1.2731091976165771484 1.1473081111907958984 1.0713845491409301758 1.2512049674987792969 1.1680237054824829102 1.1461803913116455078 1.1527615785598754883 1.253665924072265625 1.2595022916793823242 1.2120565176010131836 1.1414433717727661133 1.1525093317031860352 1.2627393007278442383 1.2766004800796508789 1.2791452407836914062 1.2478352785110473633 1.1235355138778686523 1.1453882455825805664 1.1876444816589355469 1.2340048551559448242 1.2675811052322387695 1.2740044593811035156 1.2798986434936523438 1.1985447406768798828 0.83378893136978149414 1.1421649456024169922 0.9898446202278137207 1.1538202762603759766 1.3143314123153686523 1.1620839834213256836 1.1518803834915161133 1.1546753644943237305 1.1222795248031616211 1.1388927698135375977 1.1594251394271850586 
1.1764754056930541992 1.1093519926071166992 1.0563400983810424805 0.80107152462005615234 0.7030665278434753418 1.2380337715148925781 1.0661352872848510742 1.1928715705871582031 1.316132664680480957 0.81618988513946533203 1.0154050588607788086 0.74389934539794921875 1.0851742029190063477 1.2946907281875610352 1.313521265983581543 1.3068541288375854492 1.1617149114608764648 0.94548588991165161133 0.86015188694000244141 0.73111313581466674805 0.90432786941528320312 1.1370618343353271484 0.96939826011657714844 0.69764441251754760742 0.63146555423736572266 0.8772093653678894043 0.41939297318458557129 0.93459606170654296875 1.2035027742385864258 1.0599678754806518555 1.1774581670761108398 1.29761505126953125 1.1693056821823120117 1.095414280891418457 1.0886099338531494141 0.98139852285385131836 1.0306171178817749023 1.0353034734725952148 1.2136783599853515625 1.1647852659225463867 1.1744598150253295898 1.2437911033630371094 1.2356457710266113281 1.0001200437545776367 1.0527760982513427734 1.0307126045227050781 0.87738722562789916992 1.2335699796676635742 1.1065802574157714844 1.0753645896911621094 1.0694621801376342773 1.0357921123504638672 1.149935603141784668 1.2375108003616333008 1.2149590253829956055 1.1483527421951293945 1.2174991369247436523 1.1653351783752441406 1.1282347440719604492 1.0868265628814697266 1.18688201904296875 1.2087855339050292969 1.2119042873382568359 1.200699925422668457 0.78629487752914428711 0.94527387619018554688 1.0945250988006591797 1.2056571245193481445 1.1945537328720092773 1.136767268180847168 1.199953913688659668 1.2305810451507568359 1.2788187265396118164 1.258525848388671875 1.1371632814407348633 0.86461246013641357422 0.96864753961563110352 1.2573627233505249023 1.2010874748229980469 1.1143567562103271484 0.99342328310012817383 1.0759855508804321289 1.1365962028503417969 1.1837745904922485352 1.1479411125183105469 1.0078418254852294922 1.1501163244247436523 1.176594853401184082 1.2815599441528320312 1.2855944633483886719 1.201130986213684082 1.0962201356887817383 1.1793047189712524414 1.1934622526168823242 1.2159824371337890625 1.1958758831024169922 1.1458189487457275391 0.95790851116180419922 0.66510766744613647461 0.70479881763458251953 1.1625026464462280273 1.2515186071395874023 1.3187631368637084961 1.1838740110397338867 1.1617424488067626953 1.1987450122833251953 1.1429951190948486328 1.1690506935119628906 1.1807510852813720703 
1.1388604640960693359 1.1342850923538208008 1.0118573904037475586 0.78156930208206176758 0.97586649656295776367 1.2758404016494750977 1.1239300966262817383 1.2238306999206542969 1.3053989410400390625 1.1463080644607543945 0.87452501058578491211 0.66105300188064575195 0.92532515525817871094 1.2622282505035400391 1.2593084573745727539 1.2252199649810791016 1.2219954729080200195 0.67792397737503051758 0.47820413112640380859 0.85474067926406860352 1.0679516792297363281 1.2253999710083007812 1.2717292308807373047 1.0840904712677001953 0.9253438115119934082 1.1543537378311157227 0.32451131939888000488 0.97939014434814453125 1.2795683145523071289 1.2549721002578735352 1.2304707765579223633 1.2715399265289306641 1.2444454431533813477 1.204657435417175293 1.2433164119720458984 1.2614791393280029297 1.1826698780059814453 1.2188553810119628906 1.1950608491897583008 1.1694318056106567383 1.2397682666778564453 1.2557398080825805664 1.2263557910919189453 0.82592678070068359375 0.72054946422576904297 0.78393912315368652344 0.82846987247467041016 1.2053768634796142578 1.1612050533294677734 1.1683324575424194336 1.160338282585144043 1.0943177938461303711 1.2148467302322387695 1.2288229465484619141 1.2216143608093261719 1.1659418344497680664 1.146082758903503418 1.1331925392150878906 1.1936722993850708008 1.1263576745986938477 1.1797852516174316406 1.2698844671249389648 1.1332100629806518555 1.1567492485046386719 0.86982899904251098633 1.2195856571197509766 1.1460016965866088867 1.0889967679977416992 1.1294085979461669922 1.2077851295471191406 1.2665181159973144531 1.2823476791381835938 1.2343213558197021484 1.0150359869003295898 0.85576021671295166016 0.94402652978897094727 1.1636003255844116211 1.2602437734603881836 1.2280914783477783203 1.2132307291030883789 1.1286497116088867188 0.98437154293060302734 0.80200356245040893555 0.81720888614654541016 1.0379924774169921875 0.93974053859710693359 1.083844304084777832 1.0816386938095092773 1.2180804014205932617 1.2641273736953735352 1.244727015495300293 1.1158014535903930664 1.0870842933654785156 1.119140625 1.0688650608062744141 0.90385979413986206055 0.8748938441276550293 0.99579697847366333008 1.2150689363479614258 0.83164030313491821289 0.81464433670043945312 1.1688911914825439453 1.2770328521728515625 1.2023862600326538086 1.1631096601486206055 1.2039110660552978516 1.1851520538330078125 1.1450796127319335938 1.1514596939086914062 
0.88727480173110961914 0.99594277143478393555 1.0182975530624389648 0.78949135541915893555 1.1782251596450805664 1.2323842048645019531 1.1902409791946411133 1.2355786561965942383 1.2977929115295410156 1.0718177556991577148 0.89749836921691894531 1.0256476402282714844 0.86159908771514892578 0.82179230451583862305 0.95988190174102783203 1.0840157270431518555 0.96265864372253417969 0.55469799041748046875 0.71848797798156738281 1.2913948297500610352 1.3445289134979248047 1.2001743316650390625 1.0651326179504394531 0.90768480300903320312 0.91662794351577758789 1.0500873327255249023 0.46166777610778808594 0.81522715091705322266 1.2363762855529785156 1.1508644819259643555 1.2630671262741088867 1.2440627813339233398 1.2074011564254760742 1.1811165809631347656 1.2312252521514892578 1.2381516695022583008 1.2023227214813232422 1.1936868429183959961 1.2040145397186279297 1.2846152782440185547 1.2961913347244262695 1.2002393007278442383 1.2023562192916870117 0.74774414300918579102 1.0468511581420898438 1.1091765165328979492 1.1359450817108154297 1.1391729116439819336 1.1062653064727783203 1.0865278244018554688 1.0593122243881225586 1.1876425743103027344 1.2601121664047241211 1.2094793319702148438 1.2196652889251708984 1.1003969907760620117 1.1286199092864990234 1.2195265293121337891 1.1478011608123779297 1.1526567935943603516 1.1500957012176513672 1.3100851774215698242 0.80181038379669189453 0.98143339157104492188 1.2898925542831420898 1.2488497495651245117 1.2346178293228149414 1.2187361717224121094 1.1737992763519287109 1.2462819814682006836 1.2862609624862670898 1.2407075166702270508 0.98194360733032226562 0.83985233306884765625 1.0685625076293945312 1.2551544904708862305 1.2709163427352905273 1.2551615238189697266 1.1737897396087646484 1.1242154836654663086 1.2630176544189453125 1.2405999898910522461 1.1811376810073852539 0.99141710996627807617 0.72412675619125366211 0.69626516103744506836 1.0746642351150512695 1.1517827510833740234 1.234871983528137207 1.1848371028900146484 1.260706782341003418 1.1963180303573608398 1.1701465845108032227 1.2016160488128662109 1.2325569391250610352 1.214348912239074707 1.2641785144805908203 1.2616962194442749023 1.2351691722869873047 1.1325620412826538086 0.73802113533020019531 1.0423682928085327148 1.315110325813293457 1.2185022830963134766 1.1384743452072143555 1.1990704536437988281 1.2174841165542602539 1.206057429313659668 1.1936620473861694336 
1.0145019292831420898 1.2171137332916259766 0.88841068744659423828 0.59272074699401855469 1.2273916006088256836 1.1652959585189819336 1.2011505365371704102 1.2840658426284790039 1.285143733024597168 1.2451952695846557617 1.2413774728775024414 1.3079057931900024414 1.2431900501251220703 0.73770368099212646484 0.73422831296920776367 0.70526832342147827148 0.85248982906341552734 1.309627532958984375 1.0167919397354125977 1.2354149818420410156 1.3307224512100219727 1.3309746980667114258 1.1162450313568115234 1.0660688877105712891 0.97748678922653198242 0.90941905975341796875 0.86965298652648925781 0.87277948856353759766 1.3393419981002807617 1.0857698917388916016 1.2206407785415649414 1.2662538290023803711 1.1987386941909790039 1.2079927921295166016 1.2045806646347045898 1.2281141281127929688 1.2389200925827026367 1.2792593240737915039 1.2999939918518066406 1.2865775823593139648 1.1235015392303466797 0.79696291685104370117 0.98829227685928344727 0.80582261085510253906 0.99685430526733398438 0.90571308135986328125 1.1024584770202636719 1.0769788026809692383 1.0091068744659423828 1.0674235820770263672 1.1636348962783813477 1.2694298028945922852 1.1867580413818359375 1.1954838037490844727 1.1943383216857910156 1.1772387027740478516 1.2194738388061523438 1.1633117198944091797 1.151099085807800293 1.1422444581985473633 1.1692821979522705078 1.2896732091903686523 0.81148284673690795898 0.86599427461624145508 1.1777988672256469727 1.1842715740203857422 1.2131177186965942383 1.1238396167755126953 1.1772300004959106445 1.2714152336120605469 1.2924230098724365234 1.0828367471694946289 0.71297931671142578125 1.0624879598617553711 1.2235435247421264648 1.2814916372299194336 1.2523018121719360352 1.1377602815628051758 1.142355799674987793 0.94721066951751708984 1.2591828107833862305 1.2718237638473510742 1.2664231061935424805 1.2151890993118286133 0.98585140705108642578 1.0423063039779663086 1.164717555046081543 1.239142298698425293 1.233340144157409668 1.1427848339080810547 1.1825933456420898438 1.2767734527587890625 1.1948473453521728516 1.1986711025238037109 1.2166101932525634766 1.2370241880416870117 1.1986873149871826172 1.1355649232864379883 1.1486049890518188477 1.1560137271881103516 0.88763386011123657227 1.1187162399291992188 1.3311040401458740234 1.251500248908996582 1.1484615802764892578 1.1420931816101074219 1.1293195486068725586 1.0891337394714355469 1.0946427583694458008 
1.2563793659210205078 1.3036495447158813477 0.87878477573394775391 0.81181120872497558594 1.2402646541595458984 1.124979853630065918 1.2818424701690673828 1.282872319221496582 1.1078990697860717773 1.0192047357559204102 1.1767615079879760742 1.3378926515579223633 1.3278201818466186523 1.1828217506408691406 1.0576688051223754883 0.98341649770736694336 1.0843963623046875 1.3101764917373657227 1.2605053186416625977 0.96048945188522338867 1.1982413530349731445 1.3187017440795898438 1.3293350934982299805 1.2989590167999267578 0.9130064845085144043 0.92116153240203857422 0.97023344039916992188 0.95111805200576782227 1.2967464923858642578 1.1933472156524658203 1.1234802007675170898 1.1931122541427612305 1.2169873714447021484 1.2828961610794067383 1.2448955774307250977 1.2613576650619506836 1.2515046596527099609 1.2291476726531982422 1.1745420694351196289 1.0529884099960327148 0.73622930049896240234 1.0031142234802246094 1.1041756868362426758 1.0137842893600463867 1.1522027254104614258 0.80761480331420898438 1.1819949150085449219 1.166656494140625 1.1086574792861938477 1.1680653095245361328 1.2481237649917602539 1.2235033512115478516 1.1500694751739501953 1.2058005332946777344 1.1550208330154418945 1.2301931381225585938 1.1113799810409545898 1.0821714401245117188 1.1324440240859985352 1.1491998434066772461 1.2012387514114379883 1.2674450874328613281 1.0917360782623291016 0.57284879684448242188 0.88503289222717285156 1.2707740068435668945 1.207509160041809082 1.1654163599014282227 1.2211098670959472656 1.2947021722793579102 1.2564536333084106445 1.0235272645950317383 0.84974515438079833984 1.1917650699615478516 1.2386592626571655273 1.2866965532302856445 1.1670476198196411133 0.98570787906646728516 0.87432497739791870117 0.71161073446273803711 0.89034926891326904297 1.1600120067596435547 1.2274280786514282227 0.93836712837219238281 0.94496190547943115234 1.2845793962478637695 1.2617340087890625 1.2085028886795043945 1.2571836709976196289 1.1714402437210083008 1.0999513864517211914 1.1963801383972167969 1.2489500045776367188 1.2556779384613037109 1.2058231830596923828 1.2074191570281982422 1.2362000942230224609 1.195574641227722168 1.2168527841567993164 1.1580604314804077148 0.92162930965423583984 1.2808409929275512695 1.2330639362335205078 1.2784290313720703125 1.1889008283615112305 1.1651108264923095703 1.1953423023223876953 1.1267781257629394531 0.74567145109176635742 
1.0104007720947265625 1.1453516483306884766 0.99492734670639038086 0.89643961191177368164 1.1285339593887329102 1.1286569833755493164 1.2772258520126342773 1.2616251707077026367 0.98930609226226806641 0.89898222684860229492 0.96784454584121704102 1.1100212335586547852 1.0947446823120117188 1.0883433818817138672 1.0650483369827270508 1.2554662227630615234 1.1449728012084960938 1.1488589048385620117 1.2199337482452392578 1.1245328187942504883 1.0751405954360961914 1.2710070610046386719 1.3032621145248413086 1.0053770542144775391 0.62816327810287475586 1.026686549186706543 1.1532229185104370117 0.86499601602554321289 0.78761297464370727539 1.1229447126388549805 1.0116217136383056641 0.96680283546447753906 0.95603692531585693359 0.96021682024002075195 1.0731739997863769531 1.1294974088668823242 1.0684984922409057617 0.90275633335113525391 0.86169022321701049805 0.74043506383895874023 1.0141710042953491211 1.1643452644348144531 1.250429987907409668 1.2456442117691040039 1.289736628532409668 0.87581777572631835938 1.0547368526458740234 1.1911845207214355469 1.1961188316345214844 1.2617934942245483398 1.2152553796768188477 1.2035281658172607422 1.1774399280548095703 1.1584763526916503906 1.1937350034713745117 1.1573231220245361328 0.90244191884994506836 1.1480088233947753906 1.1234036684036254883 1.1705362796783447266 1.2241361141204833984 1.2207055091857910156 0.81154024600982666016 0.7876790165901184082 0.93658816814422607422 0.98977071046829223633 1.0216411352157592773 1.1064574718475341797 1.2501529455184936523 1.3036669492721557617 1.1297074556350708008 0.81236475706100463867 1.0752773284912109375 1.3052489757537841797 1.1935150623321533203 1.2635715007781982422 1.1149551868438720703 1.21881866455078125 1.327752232551574707 1.29400634765625 0.96356576681137084961 0.46801486611366271973 0.91211491823196411133 0.84258592128753662109 1.1804007291793823242 1.2778428792953491211 1.1807112693786621094 1.1932069063186645508 1.2902352809906005859 1.2373738288879394531 1.1504886150360107422 1.0883229970932006836 1.1449507474899291992 1.1538796424865722656 1.1830970048904418945 1.2292128801345825195 1.2407265901565551758 0.96431481838226318359 0.89538061618804931641 0.75140112638473510742 0.56070619821548461914 1.2457852363586425781 1.2182645797729492188 1.2392829656600952148 1.2446203231811523438 1.1727913618087768555 1.1682680845260620117 1.2431492805480957031 1.2350802421569824219 
0.88578200340270996094 0.68919163942337036133 0.67439383268356323242 1.0748251676559448242 1.1562837362289428711 1.1866306066513061523 1.2738423347473144531 1.2082567214965820312 1.2118022441864013672 1.1153671741485595703 0.86192435026168823242 0.8937892913818359375 1.0077915191650390625 0.97485810518264770508 1.1307190656661987305 1.256701350212097168 1.294133305549621582 1.2415025234222412109 1.1742476224899291992 1.1348894834518432617 1.1239044666290283203 1.2318551540374755859 1.3178212642669677734 1.2323392629623413086 0.92582428455352783203 1.0292055606842041016 1.0717757940292358398 1.0833795070648193359 0.95888936519622802734 1.2847759723663330078 1.2874037027359008789 1.2287203073501586914 1.1587480306625366211 1.0009503364562988281 1.0273226499557495117 0.80851060152053833008 0.71754240989685058594 0.97475636005401611328 1.2242441177368164062 1.0645440816879272461 1.1207283735275268555 1.1373993158340454102 1.2147618532180786133 1.2136566638946533203 1.2901651859283447266 1.0370926856994628906 0.93581211566925048828 1.1344740390777587891 1.1601731777191162109 1.2366023063659667969 1.1666321754455566406 1.1944601535797119141 1.1393496990203857422 1.1144081354141235352 1.2057311534881591797 1.116424560546875 0.83037811517715454102 1.1391201019287109375 1.1359038352966308594 1.1754231452941894531 1.2334343194961547852 1.0850574970245361328 1.0426652431488037109 1.3066304922103881836 1.240970611572265625 1.1780757904052734375 1.110333561897277832 1.1286988258361816406 1.3081895112991333008 1.2055248022079467773 0.88505262136459350586 0.76903814077377319336 1.1648937463760375977 1.304126739501953125 1.2121938467025756836 1.2831159830093383789 1.1419520378112792969 1.0103591680526733398 1.0767560005187988281 0.91491800546646118164 0.8854586482048034668 0.4484253227710723877 0.54356116056442260742 0.59779828786849975586 1.015087127685546875 1.1659759283065795898 1.1455501317977905273 1.1929010152816772461 1.2564848661422729492 1.238247990608215332 1.1872307062149047852 1.1169692277908325195 1.0895073413848876953 1.0986078977584838867 1.0389919281005859375 1.0507551431655883789 1.1696757078170776367 1.1436501741409301758 1.1607779264450073242 1.1594763994216918945 0.93108993768692016602 0.85549741983413696289 1.1922305822372436523 1.1496394872665405273 1.2656806707382202148 1.2029528617858886719 1.1808456182479858398 1.2120667695999145508 1.2150425910949707031 
1.0049375295639038086 1.1094738245010375977 0.97882914543151855469 1.1229841709136962891 1.075087428092956543 1.2327225208282470703 1.275414586067199707 1.1575942039489746094 1.0023293495178222656 0.70888257026672363281 0.5379047393798828125 0.85083055496215820312 0.7455380558967590332 0.83133721351623535156 1.1025176048278808594 1.1526323556900024414 1.2353799343109130859 1.2391618490219116211 1.2641240358352661133 1.1370949745178222656 1.1187510490417480469 1.1695619821548461914 1.1995581388473510742 1.2062243223190307617 1.2660328149795532227 1.2614232301712036133 1.1511797904968261719 1.1413481235504150391 1.0057300329208374023 1.2837082147598266602 1.2665104866027832031 1.2466912269592285156 1.3172495365142822266 1.1696150302886962891 1.2572482824325561523 1.0332320928573608398 0.99440991878509521484 1.0323243141174316406 1.0504918098449707031 1.1836550235748291016 1.2034238576889038086 1.1435501575469970703 1.079738616943359375 1.1533112525939941406 1.2904648780822753906 1.2453771829605102539 1.1043180227279663086 1.2133858203887939453 1.2049877643585205078 1.2077069282531738281 1.1726349592208862305 1.1664476394653320312 1.1914933919906616211 1.2482928037643432617 1.2564376592636108398 1.2700649499893188477 0.91845095157623291016 1.0302616357803344727 0.99991667270660400391 0.7016315460205078125 0.96657109260559082031 0.92973107099533081055 1.2785180807113647461 1.306836247444152832 1.272341609001159668 1.2507897615432739258 1.1762841939926147461 1.2395769357681274414 1.3089424371719360352 1.2799834012985229492 1.0092120170593261719 0.68469297885894775391 1.1981713771820068359 1.2917370796203613281 1.2055475711822509766 1.260367274284362793 1.1655564308166503906 1.0698779821395874023 1.1346061229705810547 1.1008576154708862305 0.8884684443473815918 0.99106258153915405273 1.1700992584228515625 0.95150172710418701172 0.70366072654724121094 0.9558474421501159668 1.0964391231536865234 1.1791415214538574219 1.2977404594421386719 1.2154084444046020508 1.2066159248352050781 1.2337899208068847656 1.2308138608932495117 1.1850183010101318359 1.1288970708847045898 1.0928072929382324219 1.1047693490982055664 1.0935537815093994141 1.1009366512298583984 1.0867078304290771484 1.0842261314392089844 0.89568388462066650391 0.75798660516738891602 1.1648395061492919922 1.2552028894424438477 1.2159595489501953125 1.2135382890701293945 1.1776106357574462891 1.177992701530456543 
1.2904453277587890625 1.2628936767578125 1.1501282453536987305 1.1389902830123901367 1.1797356605529785156 1.2680222988128662109 1.2399865388870239258 1.0850710868835449219 1.0434262752532958984 0.85737258195877075195 0.73527771234512329102 1.0730266571044921875 1.2132283449172973633 0.92460739612579345703 1.2603394985198974609 1.1253843307495117188 1.1648238897323608398 1.1879186630249023438 1.2487998008728027344 1.1759880781173706055 1.1643975973129272461 1.2114845514297485352 1.1770938634872436523 1.1773685216903686523 1.2080209255218505859 1.3095260858535766602 1.3346124887466430664 1.1376909017562866211 1.144585728645324707 1.2462030649185180664 1.221249699592590332 1.1773821115493774414 1.2690567970275878906 1.2850383520126342773 1.2881555557250976562 1.2413762807846069336 1.1331455707550048828 1.0440683364868164062 0.95893752574920654297 1.0315368175506591797 1.1641772985458374023 1.1362352371215820312 1.0793436765670776367 1.0418943166732788086 1.2798647880554199219 1.125599980354309082 1.0722403526306152344 1.2542819976806640625 1.2905857563018798828 1.1702125072479248047 1.160328984260559082 1.1418330669403076172 1.2833122014999389648 1.0804238319396972656 1.1276892423629760742 1.3180202245712280273 1.1555386781692504883 0.93770843744277954102 0.66626852750778198242 0.85617679357528686523 1.2280263900756835938 0.93049412965774536133 0.92485088109970092773 0.98682558536529541016 1.1002770662307739258 1.2450728416442871094 1.2562543153762817383 1.3057492971420288086 1.2173781394958496094 1.1793018579483032227 1.1925678253173828125 0.95679992437362670898 1.2153284549713134766 1.2962059974670410156 1.110992431640625 1.1605315208435058594 1.1101191043853759766 1.1019915342330932617 1.1175342798233032227 1.1214442253112792969 1.0806411504745483398 1.0760605335235595703 1.0745445489883422852 1.1005173921585083008 0.99953407049179077148 0.91980785131454467773 1.1072667837142944336 1.1084923744201660156 1.3019204139709472656 1.2350958585739135742 1.1809021234512329102 1.0787630081176757812 1.0261331796646118164 1.2437697649002075195 1.2830126285552978516 1.1993124485015869141 1.128107905387878418 1.0748680830001831055 1.0862616300582885742 1.0651831626892089844 1.0583422183990478516 0.98402124643325805664 0.84096795320510864258 1.3199921846389770508 1.2730058431625366211 1.1693931818008422852 1.2333636283874511719 1.2156606912612915039 1.218012690544128418 
1.1617699861526489258 1.2441705465316772461 1.1775473356246948242 1.0987414121627807617 1.2026307582855224609 1.2654795646667480469 1.2150946855545043945 1.20702362060546875 1.1565958261489868164 1.2946785688400268555 1.1255736351013183594 1.1864348649978637695 1.3137755393981933594 0.8874371647834777832 0.97905749082565307617 1.154364466667175293 1.1526920795440673828 1.2732374668121337891 1.2705439329147338867 1.2658238410949707031 1.1635230779647827148 1.147345423698425293 1.269677281379699707 1.2825114727020263672 0.95158374309539794922 0.97957974672317504883 0.97312122583389282227 0.62638711929321289062 1.0898544788360595703 1.2814912796020507812 1.2291612625122070312 1.1842062473297119141 1.2091599702835083008 1.2564052343368530273 1.2772492170333862305 1.2917506694793701172 1.2910702228546142578 1.2403558492660522461 0.97646808624267578125 0.93901997804641723633 1.2003266811370849609 1.1363048553466796875 1.1822936534881591797 1.1288546323776245117 1.2710280418395996094 1.1696860790252685547 1.2501491308212280273 1.222464442253112793 1.1740484237670898438 1.076934814453125 1.1106580495834350586 1.1787534952163696289 1.3319346904754638672 0.81831872463226318359 1.0374462604522705078 1.1020350456237792969 1.1041471958160400391 1.0598713159561157227 0.70872932672500610352 1.188489079475402832 1.3507913351058959961 1.2561613321304321289 0.93192327022552490234 0.78568762540817260742 0.84661996364593505859 1.1156944036483764648 1.2389611005783081055 1.2585523128509521484 1.1745773553848266602 1.071469426155090332 1.1116272211074829102 0.84195536375045776367 1.0510822534561157227 1.3269050121307373047 1.2047640085220336914 1.2037594318389892578 1.2019028663635253906 1.1463259458541870117 1.1519881486892700195 1.1781200170516967773 1.1522401571273803711 1.1680413484573364258 1.1822633743286132812 1.23142242431640625 1.0031044483184814453 0.68795597553253173828 0.97546416521072387695 0.85412895679473876953 1.3322505950927734375 1.1021535396575927734 1.1672827005386352539 0.97420805692672729492 0.74108308553695678711 0.55046874284744262695 0.78584420680999755859 1.0553221702575683594 0.99136501550674438477 0.9994602203369140625 1.0697245597839355469 1.1157522201538085938 1.0967360734939575195 0.95059251785278320312 0.82497072219848632812 1.2712689638137817383 1.2915855646133422852 1.1962077617645263672 1.0854603052139282227 1.2570825815200805664 1.2251327037811279297 
1.0031222105026245117 1.0998244285583496094 1.2261224985122680664 1.0953062772750854492 1.2560564279556274414 1.2632972002029418945 1.115095973014831543 0.98848909139633178711 1.0781302452087402344 1.1550515890121459961 1.1724359989166259766 1.0962795019149780273 1.3317611217498779297 1.2875080108642578125 1.0676304101943969727 0.99055963754653930664 1.1890827417373657227 1.2628996372222900391 1.2177687883377075195 1.0817072391510009766 1.1972850561141967773 1.1408762931823730469 1.0958313941955566406 0.98502510786056518555 0.84999072551727294922 1.078385472297668457 1.1280574798583984375 1.1783056259155273438 0.99046927690505981445 1.1432526111602783203 1.1621506214141845703 1.1124380826950073242 1.1666234731674194336 1.1041740179061889648 1.0610157251358032227 1.20540618896484375 1.2535077333450317383 1.2791550159454345703 1.2793639898300170898 0.92845213413238525391 1.201678156852722168 1.2159906625747680664 1.17713165283203125 1.1661040782928466797 1.2661782503128051758 1.1468011140823364258 0.83743637800216674805 0.95918381214141845703 0.9167779088020324707 1.1406800746917724609 1.1582918167114257812 1.2154097557067871094 1.2732944488525390625 0.85777932405471801758 0.7685985565185546875 0.65950161218643188477 0.74770069122314453125 0.7844498753547668457 0.76053327322006225586 1.1324265003204345703 1.2723671197891235352 1.2458181381225585938 1.2526009082794189453 1.1727231740951538086 0.86696916818618774414 0.78861713409423828125 1.2114440202713012695 1.2503247261047363281 1.2518649101257324219 0.95172941684722900391 1.1303650140762329102 1.0196268558502197266 1.1124283075332641602 1.3211085796356201172 1.1847399473190307617 1.2516984939575195312 1.2062544822692871094 1.0714429616928100586 1.2998088598251342773 1.349783778190612793 1.2743803262710571289 1.1406089067459106445 0.93516570329666137695 0.69129860401153564453 0.49828207492828369141 0.94256103038787841797 1.2916237115859985352 0.55598932504653930664 0.56196290254592895508 0.78979319334030151367 0.88273519277572631836 0.83102935552597045898 1.007956385612487793 0.89153498411178588867 1.1070156097412109375 1.3416483402252197266 1.0721262693405151367 0.83173698186874389648 0.79767686128616333008 0.95870453119277954102 1.0716471672058105469 0.81669878959655761719 0.49562168121337890625 0.90961539745330810547 1.2682008743286132812 1.2275185585021972656 1.1146835088729858398 1.1750547885894775391 1.2801915407180786133 
1.0837656259536743164 0.86369556188583374023 1.1068269014358520508 1.0764949321746826172 1.2594866752624511719 1.2638380527496337891 1.1374677419662475586 0.84745872020721435547 0.76928472518920898438 0.51189661026000976562 0.59402853250503540039 0.90423601865768432617 1.1831308603286743164 1.2292463779449462891 1.1930047273635864258 1.0707905292510986328 1.1622793674468994141 1.2562803030014038086 1.2604080438613891602 0.92524194717407226562 0.90622800588607788086 0.91369658708572387695 0.79578095674514770508 1.0171846151351928711 1.1571094989776611328 1.1891672611236572266 1.3391479253768920898 1.2556569576263427734 0.5091120600700378418 0.77509361505508422852 1.1291208267211914062 1.1609241962432861328 1.0808660984039306641 0.98881173133850097656 0.97019374370574951172 0.89147073030471801758 0.943309783935546875 1.1470293998718261719 1.2695230245590209961 1.0148847103118896484 0.80070728063583374023 1.1609679460525512695 1.1341993808746337891 1.2197775840759277344 1.2602720260620117188 1.1904393434524536133 0.76343232393264770508 0.50616228580474853516 0.99344146251678466797 1.2559771537780761719 1.2197661399841308594 1.2439882755279541016 1.2010849714279174805 0.88906633853912353516 0.7636966705322265625 0.93854552507400512695 0.67906403541564941406 0.83066827058792114258 1.2702413797378540039 1.3182984590530395508 1.2999120950698852539 1.2047755718231201172 1.2555967569351196289 1.3097776174545288086 1.2062226533889770508 0.91710972785949707031 1.1273522377014160156 1.2547013759613037109 1.1893090009689331055 0.8400478363037109375 0.94829082489013671875 1.0084853172302246094 1.0416190624237060547 1.3189363479614257812 1.2182306051254272461 1.2933661937713623047 1.2336347103118896484 1.1185191869735717773 0.89887070655822753906 1.3129004240036010742 1.338700413703918457 1.0903438329696655273 0.75409322977066040039 0.61257630586624145508 0.90124070644378662109 1.2636468410491943359 1.3572607040405273438 1.1153682470321655273 0.72442364692687988281 1.2284500598907470703 1.2887451648712158203 1.2958521842956542969 1.2495924234390258789 1.0560729503631591797 1.1257826089859008789 1.3210844993591308594 1.2462064027786254883 1.0421559810638427734 0.68017524480819702148 0.69180238246917724609 1.2521567344665527344 0.96726751327514648438 0.90851861238479614258 0.62197649478912353516 0.95750629901885986328 1.0034624338150024414 0.87369322776794433594 1.0038088560104370117 1.26451873779296875 
1.147796630859375 1.0815323591232299805 1.1165987253189086914 1.070586085319519043 1.2589740753173828125 1.2163497209548950195 1.1287522315979003906 1.1925840377807617188 1.1608306169509887695 0.70490038394927978516 1.0698150396347045898 1.0363783836364746094 1.2767364978790283203 1.2742493152618408203 1.2962422370910644531 1.208459019660949707 1.1206023693084716797 1.2569679021835327148 1.2564318180084228516 1.1305336952209472656 0.87353318929672241211 0.78003078699111938477 1.0901836156845092773 1.0991880893707275391 1.2462055683135986328 1.2579445838928222656 1.2847479581832885742 0.95268464088439941406 0.62441647052764892578 0.78923273086547851562 1.1978213787078857422 1.3264265060424804688 1.2789038419723510742 1.182188868522644043 1.2654535770416259766 1.1959083080291748047 1.0900434255599975586 1.0857793092727661133 1.2569043636322021484 1.1488045454025268555 0.68689006567001342773 1.0588850975036621094 1.063344120979309082 1.1035113334655761719 1.2551325559616088867 1.2006055116653442383 0.93207257986068725586 0.65539216995239257812 0.74013483524322509766 1.0514965057373046875 1.1023327112197875977 0.99846786260604858398 1.0391653776168823242 0.9709847569465637207 0.98032611608505249023 1.2249796390533447266 0.97803586721420288086 0.74543029069900512695 1.1540187597274780273 1.267180323600769043 1.1347948312759399414 1.0922791957855224609 1.0957583189010620117 1.2136907577514648438 1.2802389860153198242 1.1703038215637207031 0.86198735237121582031 0.9951731562614440918 1.1568775177001953125 1.1556060314178466797 1.1302269697189331055 0.99904340505599975586 0.93383526802062988281 1.2948653697967529297 1.2948286533355712891 1.2339684963226318359 1.107483983039855957 0.8605181574821472168 0.54133152961730957031 0.82732874155044555664 1.1008679866790771484 0.98202753067016601562 0.87159305810928344727 1.3337732553482055664 1.0312757492065429688 1.2493739128112792969 1.3436619043350219727 0.93637371063232421875 1.0283781290054321289 1.2659990787506103516 1.2337551116943359375 1.2173526287078857422 0.9170672297477722168 0.64288318157196044922 1.0982433557510375977 1.3057578802108764648 1.2371888160705566406 1.0476478338241577148 0.75651723146438598633 1.159267425537109375 1.2949622869491577148 1.1625533103942871094 1.179326176643371582 0.77953088283538818359 1.1640462875366210938 0.93468499183654785156 0.51349264383316040039 0.99196904897689819336 0.67217403650283813477 
1.1249701976776123047 1.1329199075698852539 1.1277555227279663086 1.1589766740798950195 1.2556574344635009766 1.1280704736709594727 1.1714707612991333008 1.2751562595367431641 1.2243263721466064453 0.77062571048736572266 1.1196492910385131836 1.2887694835662841797 1.3086450099945068359 1.1945097446441650391 1.181962132453918457 1.1636193990707397461 1.1273000240325927734 1.1703579425811767578 1.2489658594131469727 1.251626133918762207 1.0718637704849243164 0.85323584079742431641 1.1758743524551391602 1.257866978645324707 1.1702501773834228516 1.2586923837661743164 1.2267429828643798828 0.68568623065948486328 1.1044477224349975586 1.0301009416580200195 1.0409020185470581055 1.0628701448440551758 1.2075062990188598633 1.2066873311996459961 1.2019977569580078125 1.209875941276550293 1.173357844352722168 1.1981225013732910156 1.1844382286071777344 1.2121937274932861328 0.82597255706787109375 1.1236219406127929688 1.1786655187606811523 1.114107966423034668 1.2181059122085571289 1.24344635009765625 0.9669240117073059082 0.82823759317398071289 0.71697854995727539062 0.61211824417114257812 0.83862143754959106445 0.87928038835525512695 1.1920192241668701172 1.2602925300598144531 1.1407376527786254883 0.97820872068405151367 1.0508240461349487305 0.635623931884765625 0.81834280490875244141 1.2152042388916015625 1.2589106559753417969 1.2471889257431030273 1.2234303951263427734 1.2178652286529541016 1.2854236364364624023 1.2709864377975463867 1.1639151573181152344 0.87536585330963134766 0.94103610515594482422 0.94144004583358764648 0.96282911300659179688 0.917232513427734375 0.84684365987777709961 1.2227382659912109375 1.3563915491104125977 1.3149361610412597656 0.84210515022277832031 0.96513402462005615234 1.0042433738708496094 0.97127491235733032227 0.76956230401992797852 0.61591386795043945312 0.9165903925895690918 1.3222800493240356445 1.1498063802719116211 1.291987299919128418 1.2956596612930297852 0.76065516471862792969 1.1625485420227050781 1.2419748306274414062 1.2171952724456787109 1.2831254005432128906 1.0749135017395019531 0.73617720603942871094 1.1765713691711425781 1.2906777858734130859 1.227219700813293457 1.0566886663436889648 0.77450400590896606445 1.2243911027908325195 1.2745370864868164062 1.309955596923828125 1.1335396766662597656 0.87908196449279785156 1.3314793109893798828 1.1154047250747680664 0.77736562490463256836 1.2934293746948242188 0.74200665950775146484 
1.0985295772552490234 1.0817011594772338867 1.1139943599700927734 1.2452437877655029297 1.2537300586700439453 1.2178006172180175781 1.0451313257217407227 1.2810540199279785156 1.1616836786270141602 0.50745368003845214844 0.8086331486701965332 1.241518855094909668 1.1398756504058837891 1.0297909975051879883 1.0795626640319824219 1.0100424289703369141 1.0566675662994384766 1.1137071847915649414 1.2334067821502685547 1.2486404180526733398 1.158488154411315918 1.0432372093200683594 1.1305708885192871094 1.2389786243438720703 1.1609255075454711914 1.3012713193893432617 1.0545461177825927734 0.61528092622756958008 1.3116486072540283203 1.2892792224884033203 1.2600971460342407227 1.0517129898071289062 1.0481429100036621094 1.1390591859817504883 1.1393880844116210938 1.1259734630584716797 1.0339232683181762695 1.1506557464599609375 1.2399488687515258789 1.180174708366394043 0.71881276369094848633 1.1007922887802124023 1.2266124486923217773 1.1376411914825439453 1.1518130302429199219 1.2132488489151000977 0.95353299379348754883 0.7904376983642578125 0.90862166881561279297 0.88117903470993041992 1.1762419939041137695 1.1134237051010131836 1.2077280282974243164 1.3008882999420166016 1.3105756044387817383 1.1057702302932739258 1.1477425098419189453 0.72998529672622680664 0.80433917045593261719 1.1352646350860595703 1.2232909202575683594 1.2213382720947265625 1.2037677764892578125 1.1840643882751464844 1.2370675802230834961 1.2080833911895751953 1.1398334503173828125 0.96290385723114013672 0.67835330963134765625 0.68549013137817382812 0.84913420677185058594 0.71945345401763916016 0.71851003170013427734 0.44830164313316345215 0.81005334854125976562 1.1946060657501220703 1.1453825235366821289 1.0865737199783325195 1.0550936460494995117 0.99644488096237182617 1.0613601207733154297 1.0784375667572021484 0.94966048002243041992 1.150881648063659668 1.1318421363830566406 1.244416356086730957 1.1413037776947021484 1.0703681707382202148 1.0368037223815917969 1.1975798606872558594 1.2034507989883422852 1.2782918214797973633 1.2034171819686889648 0.80395615100860595703 1.0607286691665649414 1.2773883342742919922 1.1879193782806396484 1.0841934680938720703 0.90350568294525146484 1.1536846160888671875 1.288676142692565918 1.2619909048080444336 1.0422034263610839844 0.92692553997039794922 1.3125749826431274414 1.1546474695205688477 0.85842186212539672852 1.2332119941711425781 0.97686308622360229492 
1.0957150459289550781 1.1168171167373657227 1.2373758554458618164 1.2428940534591674805 1.2121071815490722656 1.1538832187652587891 0.82543158531188964844 0.77900832891464233398 0.96190458536148071289 0.84840613603591918945 0.9026139378547668457 0.8389492034912109375 0.78190618753433227539 0.88716208934783935547 1.0365272760391235352 1.151227116584777832 1.0784044265747070312 1.0879545211791992188 1.1246392726898193359 1.2409807443618774414 1.1855897903442382812 1.0959161520004272461 1.0933705568313598633 1.1708506345748901367 1.139506220817565918 1.2479866743087768555 0.97475916147232055664 0.74542725086212158203 0.89244848489761352539 1.2158794403076171875 1.206509709358215332 1.1498353481292724609 1.0377951860427856445 1.1291643381118774414 1.0691121816635131836 1.0664224624633789062 1.041849970817565918 1.1581517457962036133 1.2298508882522583008 1.1470316648483276367 0.91135883331298828125 1.0287563800811767578 1.1923758983612060547 1.203932642936706543 1.1137301921844482422 1.1838399171829223633 0.92810773849487304688 0.94413655996322631836 1.1188443899154663086 0.77702564001083374023 1.0165101289749145508 1.1398065090179443359 1.1571935415267944336 1.2052366733551025391 1.1854152679443359375 1.2779092788696289062 1.2748911380767822266 0.99040180444717407227 0.75124335289001464844 0.79261124134063720703 1.0671213865280151367 1.1306464672088623047 1.1632785797119140625 1.2159188985824584961 1.2293130159378051758 1.148815155029296875 0.97710382938385009766 0.84531491994857788086 0.82217037677764892578 1.0679622888565063477 1.2978826761245727539 1.180506587028503418 1.1187376976013183594 0.57602179050445556641 0.55500978231430053711 1.0921764373779296875 1.1223412752151489258 1.0599290132522583008 0.89136683940887451172 1.2186381816864013672 1.3561758995056152344 1.2264804840087890625 1.2261654138565063477 1.2067863941192626953 1.1225281953811645508 1.1388354301452636719 1.2039060592651367188 1.2753769159317016602 0.92157250642776489258 1.1358050107955932617 1.2061333656311035156 1.2629806995391845703 1.1332447528839111328 0.96888488531112670898 1.0275114774703979492 1.2308498620986938477 1.1177388429641723633 1.130213618278503418 1.0591236352920532227 0.99650484323501586914 1.2328535318374633789 1.1273936033248901367 0.94126886129379272461 0.96132093667984008789 1.2533844709396362305 1.1484016180038452148 1.1273567676544189453 1.1810647249221801758 1.1037222146987915039 
1.2322125434875488281 1.2323969602584838867 1.24045562744140625 1.1285758018493652344 1.1258931159973144531 1.1088230609893798828 0.91415238380432128906 0.7580083012580871582 1.1609570980072021484 0.92144560813903808594 1.1143486499786376953 0.96918457746505737305 1.2681791782379150391 1.0905708074569702148 1.2041326761245727539 1.185826420783996582 1.1543499231338500977 1.1811165809631347656 1.0722994804382324219 1.2383313179016113281 1.2436223030090332031 1.0076698064804077148 1.0932143926620483398 1.2673637866973876953 1.2568591833114624023 0.94121873378753662109 0.83753597736358642578 0.98858505487442016602 0.87108999490737915039 0.9036896824836730957 1.1204235553741455078 1.2223064899444580078 1.1556043624877929688 1.2320934534072875977 1.2215230464935302734 1.2047772407531738281 1.1882303953170776367 1.1390020847320556641 1.2272164821624755859 1.2114256620407104492 1.087205052375793457 1.0333259105682373047 1.1850646734237670898 1.2084040641784667969 1.1208897829055786133 1.1455184221267700195 0.9686641693115234375 1.093265533447265625 1.1352152824401855469 0.74259769916534423828 0.96423065662384033203 1.0243804454803466797 1.2163664102554321289 1.2351449728012084961 1.0803246498107910156 1.262713313102722168 1.2896580696105957031 1.0247608423233032227 0.75490629673004150391 0.83945292234420776367 1.0781030654907226562 1.1221649646759033203 1.1587673425674438477 1.1927796602249145508 1.2103496789932250977 1.1566977500915527344 1.0586310625076293945 0.90020912885665893555 1.1185170412063598633 1.2602285146713256836 1.3303300142288208008 1.2761155366897583008 1.1787121295928955078 0.79437285661697387695 1.1303927898406982422 1.1787270307540893555 1.1039422750473022461 1.0743302106857299805 0.89201384782791137695 1.2826504707336425781 1.344118952751159668 1.3267534971237182617 1.2159473896026611328 1.2850033044815063477 1.1683790683746337891 1.1708992719650268555 1.2038719654083251953 1.0980639457702636719 0.82487523555755615234 1.0527312755584716797 1.154906153678894043 1.2506258487701416016 0.98255890607833862305 1.0833975076675415039 1.0423830747604370117 1.1634385585784912109 1.1221194267272949219 1.1352305412292480469 1.1004441976547241211 1.0411741733551025391 1.1723749637603759766 1.2133728265762329102 1.0152935981750488281 1.0371382236480712891 1.2032667398452758789 1.0441200733184814453 1.1578727960586547852 1.118574976921081543 1.0284793376922607422 
1.1546722650527954102 1.1155035495758056641 1.1230157613754272461 1.1301912069320678711 1.2167197465896606445 1.1546833515167236328 0.95019519329071044922 0.8214848637580871582 1.2799645662307739258 0.96750414371490478516 1.2142318487167358398 0.87950807809829711914 1.2814052104949951172 1.1852582693099975586 1.2271082401275634766 1.2720291614532470703 1.1961672306060791016 1.1595945358276367188 1.085373997688293457 1.2374798059463500977 1.236491084098815918 1.0937427282333374023 1.1750257015228271484 1.2425098419189453125 1.2927469015121459961 0.97781825065612792969 1.1766301393508911133 1.1014620065689086914 0.99601328372955322266 0.95569407939910888672 1.2473888397216796875 1.2847170829772949219 1.2384504079818725586 1.2232385873794555664 1.2234922647476196289 1.220583796501159668 1.1310896873474121094 1.1376770734786987305 1.1342663764953613281 1.2114106416702270508 1.2181097269058227539 1.0341888666152954102 1.0657786130905151367 1.191925048828125 1.153715968132019043 1.1816551685333251953 1.0972048044204711914 1.1841831207275390625 1.0141413211822509766 0.88992941379547119141 0.92071169614791870117 1.0209728479385375977 1.0536084175109863281 1.072594761848449707 1.1176025867462158203 1.1512113809585571289 1.2552710771560668945 1.0086766481399536133 0.70484918355941772461 0.97919958829879760742 1.1458672285079956055 1.1652524471282958984 1.2419180870056152344 1.1787950992584228516 1.2105575799942016602 1.2126294374465942383 1.019008636474609375 0.9551474452018737793 1.2680822610855102539 1.3034613132476806641 1.3242565393447875977 1.0749028921127319336 0.74727576971054077148 0.82292795181274414062 1.1914657354354858398 1.2390199899673461914 1.0514514446258544922 1.0956434011459350586 0.66669768095016479492 0.94673627614974975586 1.1950595378875732422 1.2113828659057617188 1.1716151237487792969 1.2061264514923095703 1.2587677240371704102 1.173876643180847168 1.1966103315353393555 1.0922448635101318359 1.0354820489883422852 1.0432730913162231445 1.0867835283279418945 1.1324430704116821289 0.98623031377792358398 1.123133540153503418 1.1247951984405517578 1.1582057476043701172 1.116443634033203125 1.1759903430938720703 1.1523416042327880859 1.1093437671661376953 1.1245820522308349609 1.1144939661026000977 1.10372161865234375 1.1061007976531982422 1.1545090675354003906 1.0924844741821289062 1.1735770702362060547 1.09787750244140625 1.0373662710189819336 
1.1444063186645507812 0.99845391511917114258 1.1031861305236816406 1.1744220256805419922 1.2696305513381958008 1.2200028896331787109 1.1237659454345703125 1.0819640159606933594 1.2177127599716186523 1.0950424671173095703 1.0532572269439697266 0.61799782514572143555 1.0150382518768310547 1.1163552999496459961 1.1049809455871582031 1.0872479677200317383 1.0039423704147338867 1.0003429651260375977 1.0532381534576416016 1.2154891490936279297 1.2346901893615722656 1.160273432731628418 1.187609553337097168 1.0652568340301513672 1.0612645149230957031 0.90738111734390258789 1.2132580280303955078 1.3299580812454223633 0.95035493373870849609 0.78907173871994018555 1.1265829801559448242 1.2186919450759887695 1.2804727554321289062 1.2328814268112182617 1.1466718912124633789 1.1283420324325561523 0.94862228631973266602 1.1280846595764160156 1.1373189687728881836 1.1468930244445800781 1.1497515439987182617 1.1961240768432617188 1.1773915290832519531 1.1517540216445922852 1.1487727165222167969 1.1615307331085205078 1.1561273336410522461 1.1400797367095947266 0.97897565364837646484 1.0275485515594482422 1.0774289369583129883 0.90866011381149291992 1.2923504114151000977 1.1601889133453369141 1.1519261598587036133 1.2100876569747924805 1.2349178791046142578 0.93998581171035766602 0.68008846044540405273 0.84956693649291992188 1.1317629814147949219 1.1354048252105712891 1.2452028989791870117 1.1680886745452880859 1.2095084190368652344 1.1882748603820800781 0.98758077621459960938 1.0266844034194946289 1.188746333122253418 1.2858811616897583008 1.0855032205581665039 0.76285916566848754883 0.77970069646835327148 0.82056534290313720703 0.9315929412841796875 1.1865851879119873047 0.9974842071533203125 1.0772097110748291016 0.73842215538024902344 0.81926441192626953125 1.1564909219741821289 1.0746256113052368164 1.1311167478561401367 1.2710971832275390625 1.2380073070526123047 1.1823201179504394531 1.1576619148254394531 1.2423415184020996094 1.240090489387512207 1.230434417724609375 1.2025572061538696289 1.1767250299453735352 1.1158605813980102539 1.1216329336166381836 1.1502805948257446289 1.1467519998550415039 1.1105698347091674805 1.1655000448226928711 1.1907105445861816406 1.1517693996429443359 1.1172527074813842773 1.1995303630828857422 1.1934607028961181641 1.1345319747924804688 1.1377624273300170898 1.1713917255401611328 1.1751645803451538086 1.1649534702301025391 1.1294217109680175781 
1.1193249225616455078 0.77364933490753173828 0.75837522745132446289 0.98324358463287353516 1.114985346794128418 1.2576402425765991211 1.1302247047424316406 1.2458189725875854492 1.2800339460372924805 1.0441718101501464844 1.0315207242965698242 0.91685986518859863281 1.0368859767913818359 1.0091065168380737305 0.91844075918197631836 1.1880034208297729492 1.1439220905303955078 1.1227530241012573242 1.0856206417083740234 1.2028616666793823242 1.2326735258102416992 1.1935437917709350586 1.0304729938507080078 0.85201722383499145508 0.72169166803359985352 1.125594019889831543 1.1694062948226928711 1.3251172304153442383 1.0518865585327148438 0.93466007709503173828 1.3165389299392700195 1.2527257204055786133 1.2315049171447753906 1.1695806980133056641 1.0254122018814086914 0.96424007415771484375 1.084921717643737793 1.1674903631210327148 1.0918443202972412109 1.119892120361328125 1.0484106540679931641 1.0463696718215942383 1.0682021379470825195 1.1356279850006103516 1.132168889045715332 1.0961498022079467773 1.146282196044921875 1.1231262683868408203 1.0066478252410888672 1.0976521968841552734 1.0105825662612915039 0.57014191150665283203 1.1000505685806274414 1.2007569074630737305 1.1871738433837890625 1.2058204412460327148 1.2453435659408569336 1.0799769163131713867 0.80102944374084472656 0.80647855997085571289 1.1434001922607421875 1.1257833242416381836 1.1940749883651733398 1.1797287464141845703 1.1861196756362915039 1.1627210378646850586 1.1113426685333251953 1.0769741535186767578 1.0297703742980957031 0.79690957069396972656 0.88333326578140258789 0.86997616291046142578 1.1598027944564819336 1.0562247037887573242 1.0245566368103027344 1.1753915548324584961 1.0396935939788818359 1.1503000259399414062 0.96554875373840332031 0.58981019258499145508 1.1722273826599121094 1.2782297134399414062 1.2541961669921875 1.1800515651702880859 1.174368739128112793 1.2077385187149047852 1.1127760410308837891 1.0992215871810913086 1.1290850639343261719 1.1718012094497680664 1.1949788331985473633 1.200997471809387207 1.1909732818603515625 1.1762473583221435547 1.1632703542709350586 1.192740321159362793 1.1947981119155883789 1.1988959312438964844 1.2032822370529174805 1.1985585689544677734 1.1437090635299682617 1.1704348325729370117 1.1798796653747558594 1.1777224540710449219 1.2157816886901855469 1.2098231315612792969 1.176224827766418457 1.2246133089065551758 1.229407191276550293 
0.86254256963729858398 1.0743763446807861328 1.2030341625213623047 1.1636607646942138672 1.148066401481628418 1.2875503301620483398 1.2773702144622802734 1.2466433048248291016 1.067302703857421875 1.0019642114639282227 1.3226853609085083008 0.99661558866500854492 1.1134701967239379883 1.2030144929885864258 0.91718763113021850586 0.88260918855667114258 1.0111165046691894531 1.0924128293991088867 1.1159646511077880859 1.2101559638977050781 1.2307037115097045898 1.1056913137435913086 1.0082533359527587891 0.80551218986511230469 0.95904392004013061523 1.260449528694152832 1.1413266658782958984 1.1316472291946411133 0.96567195653915405273 1.0679312944412231445 1.2913783788681030273 1.193719029426574707 1.0682811737060546875 0.96677410602569580078 0.95631235837936401367 1.1560823917388916016 1.1610186100006103516 1.1453593969345092773 1.0275957584381103516 1.0735510587692260742 1.0084151029586791992 1.0624495744705200195 1.1386711597442626953 1.1359019279479980469 1.1368709802627563477 1.1260011196136474609 1.177868962287902832 1.1251794099807739258 1.118998408317565918 1.1119837760925292969 0.94608592987060546875 0.61341267824172973633 0.81867742538452148438 1.1190752983093261719 1.2153184413909912109 1.2377154827117919922 1.2287352085113525391 1.0482852458953857422 0.81052595376968383789 0.73032718896865844727 1.0454231500625610352 1.0799294710159301758 1.1988499164581298828 1.2030036449432373047 1.1337088346481323242 1.033486485481262207 1.1179224252700805664 1.07579803466796875 0.92187607288360595703 1.0007011890411376953 1.0956569910049438477 1.0710477828979492188 1.2282339334487915039 1.1103595495223999023 0.99289441108703613281 1.185465693473815918 1.1290487051010131836 1.155385136604309082 1.2657134532928466797 1.002338409423828125 0.63426858186721801758 1.053555607795715332 1.1018824577331542969 0.98510634899139404297 1.1436470746994018555 1.2715747356414794922 1.2440298795700073242 1.2249436378479003906 1.2130315303802490234 1.1185683012008666992 0.98501276969909667969 1.0272004604339599609 1.182883143424987793 1.1836633682250976562 1.1924479007720947266 1.1129152774810791016 1.1694356203079223633 1.1233074665069580078 1.0097873210906982422 1.1586614847183227539 1.2117109298706054688 1.2052913904190063477 1.1914238929748535156 1.1686617136001586914 1.1506890058517456055 1.1798807382583618164 1.2230678796768188477 1.2236280441284179688 1.2093241214752197266 
1.2378753423690795898 1.2676532268524169922 1.2733333110809326172 1.2179677486419677734 0.93475222587585449219 1.0193885564804077148 1.0113745927810668945 0.7429682612419128418 0.60335755348205566406 0.96777170896530151367 1.3071721792221069336 1.1855540275573730469 1.1665645837783813477 1.1630073785781860352 1.1764665842056274414 0.98769384622573852539 1.072333216667175293 1.130406498908996582 1.1149809360504150391 1.227015376091003418 1.1862877607345581055 1.1722180843353271484 1.0763536691665649414 0.72111630439758300781 1.1190907955169677734 1.2756443023681640625 1.2651636600494384766 0.9815235137939453125 1.2842471599578857422 0.84162288904190063477 1.0084055662155151367 1.0128465890884399414 1.1121708154678344727 1.1010706424713134766 1.154744267463684082 1.2120001316070556641 1.2428494691848754883 1.1747782230377197266 1.1779941320419311523 1.1742069721221923828 1.1137218475341796875 1.0986523628234863281 1.1051894426345825195 1.1367765665054321289 1.1328313350677490234 1.1256575584411621094 1.126477360725402832 1.1234331130981445312 1.135451197624206543 0.99045526981353759766 0.88247394561767578125 0.67359447479248046875 0.74984312057495117188 1.0501067638397216797 1.1169234514236450195 1.2284201383590698242 1.2255343198776245117 1.0827023983001708984 0.83607071638107299805 0.86934810876846313477 0.91755443811416625977 1.0251783132553100586 1.1638867855072021484 1.2098946571350097656 1.1869090795516967773 1.1325982809066772461 1.1384122371673583984 0.95678746700286865234 0.96808260679244995117 1.1162127256393432617 1.0839196443557739258 1.1548544168472290039 1.2924721240997314453 1.2414352893829345703 0.95750778913497924805 1.2114379405975341797 1.1951133012771606445 1.1120297908782958984 1.1671985387802124023 1.2794144153594970703 0.83663332462310791016 1.14452362060546875 1.2201606035232543945 0.70972967147827148438 1.0509870052337646484 1.1752827167510986328 1.135594487190246582 1.0826805830001831055 0.99141198396682739258 0.94166547060012817383 1.0236550569534301758 1.191623687744140625 1.1852176189422607422 1.0937900543212890625 1.1696321964263916016 0.99254274368286132812 1.0466086864471435547 1.1413493156433105469 0.91986578702926635742 1.0206153392791748047 1.1085668802261352539 1.1349228620529174805 1.2177561521530151367 1.1667603254318237305 1.0317256450653076172 0.94906014204025268555 1.1116508245468139648 1.1454244852066040039 1.0633046627044677734 
1.0894804000854492188 1.1449538469314575195 1.1785495281219482422 1.1705478429794311523 0.92146658897399902344 0.63460302352905273438 0.61616092920303344727 1.1426535844802856445 1.036782383918762207 0.758708953857421875 1.1588134765625 1.223427891731262207 1.2318129539489746094 1.1787178516387939453 1.1590650081634521484 1.1333665847778320312 1.0685058832168579102 1.0887078046798706055 1.0817507505416870117 1.2239651679992675781 1.1766353845596313477 1.11449432373046875 1.0133237838745117188 0.93116843700408935547 1.1611876487731933594 1.2694338560104370117 1.1624016761779785156 1.200726628303527832 1.0419130325317382812 0.70142883062362670898 0.78377336263656616211 1.2083966732025146484 1.2181262969970703125 1.1437801122665405273 1.1764204502105712891 1.1614955663681030273 1.2643523216247558594 1.2128591537475585938 1.0932133197784423828 1.0264799594879150391 1.0659344196319580078 1.0758199691772460938 1.1303893327713012695 1.1474633216857910156 1.1460679769515991211 1.1212534904479980469 1.1596817970275878906 1.1117357015609741211 1.1295667886734008789 1.048363804817199707 0.9350178837776184082 0.80210041999816894531 0.74753397703170776367 1.1537659168243408203 1.1602674722671508789 1.1872049570083618164 1.2127648591995239258 1.1203520298004150391 0.81733155250549316406 1.1005893945693969727 1.0376207828521728516 1.026734471321105957 1.1507980823516845703 1.186150670051574707 1.1830283403396606445 1.102780461311340332 0.98779290914535522461 0.91707187891006469727 1.1226482391357421875 1.1961370706558227539 1.1029974222183227539 1.2543709278106689453 1.2834302186965942383 1.1173561811447143555 0.99275267124176025391 1.2265498638153076172 1.1887351274490356445 1.1073110103607177734 1.1463763713836669922 1.2767217159271240234 1.0948659181594848633 0.7948760986328125 1.2529087066650390625 1.1477024555206298828 0.74714779853820800781 0.92084175348281860352 0.88748556375503540039 0.97730797529220581055 0.98160856962203979492 0.96960663795471191406 1.1091796159744262695 1.1792914867401123047 1.0813457965850830078 0.94444924592971801758 1.0615086555480957031 1.0019390583038330078 1.1858888864517211914 1.2235751152038574219 0.94439411163330078125 1.0374854803085327148 1.1271393299102783203 1.1690114736557006836 1.1141862869262695312 1.119103550910949707 1.2089793682098388672 1.0024858713150024414 1.1335391998291015625 1.1438187360763549805 1.0548603534698486328 
1.0549236536026000977 1.0398231744766235352 0.87915503978729248047 0.82789999246597290039 0.86474072933197021484 1.1433397531509399414 0.86066704988479614258 1.170963287353515625 1.3100970983505249023 1.1125845909118652344 1.0360188484191894531 1.1926239728927612305 1.16522979736328125 1.1228263378143310547 1.1317133903503417969 1.0923544168472290039 1.087294459342956543 1.0305547714233398438 1.0395151376724243164 1.2100706100463867188 1.2183710336685180664 1.0837490558624267578 1.0974653959274291992 1.0687680244445800781 1.0556184053421020508 1.1855323314666748047 1.2832355499267578125 1.2791153192520141602 1.2658450603485107422 0.93415170907974243164 1.0658980607986450195 1.2829750776290893555 1.2945607900619506836 1.1776376962661743164 1.2082388401031494141 1.2415342330932617188 1.2721701860427856445 1.1173906326293945312 0.79664009809494018555 1.1185094118118286133 1.1950113773345947266 1.1445699930191040039 1.0871299505233764648 1.1394544839859008789 1.1680878400802612305 1.1132862567901611328 1.1779010295867919922 1.1228452920913696289 1.0846810340881347656 1.074555516242980957 0.96486681699752807617 0.85888683795928955078 0.68199181556701660156 1.0409846305847167969 1.0989822149276733398 1.1743867397308349609 1.2040158510208129883 1.1222776174545288086 0.87651067972183227539 1.1335117816925048828 1.1077992916107177734 0.97693908214569091797 1.136916041374206543 1.1906962394714355469 1.1656681299209594727 1.0767409801483154297 0.87972909212112426758 1.0255405902862548828 1.1970502138137817383 1.2058558464050292969 1.1762012243270874023 1.2369914054870605469 1.0571182966232299805 0.98779433965682983398 0.94323801994323730469 1.2308428287506103516 1.203318476676940918 1.1754730939865112305 1.2261128425598144531 1.1914724111557006836 1.0596967935562133789 0.78525072336196899414 1.1727750301361083984 1.2265918254852294922 0.81303262710571289062 1.0933892726898193359 1.1267836093902587891 1.0682824850082397461 1.0845612287521362305 1.0893872976303100586 1.1508299112319946289 1.1767213344573974609 1.0552697181701660156 0.9030444025993347168 0.75269401073455810547 1.0050977468490600586 1.2322998046875 1.1750866174697875977 0.848583221435546875 0.95063638687133789062 1.1229060888290405273 1.1599258184432983398 1.0795998573303222656 1.0849545001983642578 1.2509484291076660156 1.0905096530914306641 1.1187177896499633789 1.1180194616317749023 1.1078372001647949219 
1.0664491653442382812 0.97654575109481811523 0.90176081657409667969 0.78541296720504760742 0.952289581298828125 1.2612972259521484375 1.0339187383651733398 0.96370083093643188477 1.2064913511276245117 1.2110402584075927734 1.0773261785507202148 1.0890864133834838867 1.1848556995391845703 1.1419385671615600586 1.1091040372848510742 1.11235809326171875 1.1132427453994750977 0.97432678937911987305 0.98969256877899169922 1.2035201787948608398 1.2104811668395996094 1.1764394044876098633 1.1524969339370727539 1.1323375701904296875 1.1005784273147583008 1.1623511314392089844 1.2049442529678344727 1.0638825893402099609 0.77322274446487426758 0.73478096723556518555 1.1964602470397949219 1.2239452600479125977 1.2973265647888183594 1.1770205497741699219 1.2037035226821899414 1.2476928234100341797 1.2135301828384399414 1.0568330287933349609 0.66907685995101928711 0.91373836994171142578 1.0084122419357299805 1.0228068828582763672 1.0837168693542480469 1.1588991880416870117 1.0866292715072631836 1.1187753677368164062 1.1672437191009521484 1.1138746738433837891 1.0760442018508911133 1.111392974853515625 0.98411595821380615234 0.86428242921829223633 0.68709558248519897461 1.0145947933197021484 1.0422236919403076172 1.1156469583511352539 1.1977404356002807617 1.0593868494033813477 0.99068844318389892578 1.0915329456329345703 1.1385748386383056641 0.96628659963607788086 1.0323089361190795898 1.1619696617126464844 1.0855822563171386719 0.98496711254119873047 0.98918884992599487305 1.0883421897888183594 1.2125699520111083984 1.2237045764923095703 1.1667708158493041992 0.93739461898803710938 0.87675684690475463867 0.96231377124786376953 0.83917725086212158203 1.1877088546752929688 1.2770831584930419922 1.2526643276214599609 1.1491291522979736328 1.0547891855239868164 1.1428076028823852539 0.93793052434921264648 1.1615915298461914062 1.1475974321365356445 0.9457461237907409668 1.0435951948165893555 1.0619024038314819336 1.0830101966857910156 1.0910063982009887695 1.1053017377853393555 1.1713570356369018555 1.1794807910919189453 1.1663539409637451172 0.96320831775665283203 0.65366834402084350586 1.1366727352142333984 1.2438750267028808594 1.158824920654296875 0.97376096248626708984 0.68716508150100708008 1.1332932710647583008 1.2025687694549560547 1.1286667585372924805 1.0743600130081176758 1.2108786106109619141 1.1309068202972412109 1.0444697141647338867 1.1409962177276611328 1.0787445306777954102 
1.0038592815399169922 0.91571837663650512695 0.72450721263885498047 0.68818300962448120117 1.0217226743698120117 1.2592040300369262695 1.239199519157409668 0.95922702550888061523 1.1744034290313720703 1.1644887924194335938 1.1130754947662353516 1.0883243083953857422 1.1451959609985351562 1.1340749263763427734 1.0927572250366210938 1.1363861560821533203 1.1416853666305541992 1.0846101045608520508 1.1403406858444213867 1.2020936012268066406 1.1915063858032226562 1.1966646909713745117 1.1219816207885742188 1.1118113994598388672 1.1332083940505981445 0.78146165609359741211 1.0012851953506469727 1.2177222967147827148 1.0788292884826660156 1.0098633766174316406 0.92246061563491821289 1.0784878730773925781 1.1674401760101318359 1.1484633684158325195 1.160542607307434082 1.0826580524444580078 0.82593876123428344727 0.74133104085922241211 0.90927201509475708008 0.97483742237091064453 0.84623372554779052734 1.0537686347961425781 1.149440765380859375 1.1705369949340820312 1.0425908565521240234 1.1302367448806762695 1.1759858131408691406 1.1503013372421264648 1.0926779508590698242 1.1417621374130249023 1.0592759847640991211 0.93040382862091064453 0.82262843847274780273 0.9445273280143737793 1.0094857215881347656 1.0169047117233276367 1.1343657970428466797 1.0632632970809936523 1.04193115234375 1.0600140094757080078 1.0834019184112548828 1.0989211797714233398 1.0658921003341674805 1.0865166187286376953 1.0701192617416381836 1.0514509677886962891 1.0584461688995361328 1.1940848827362060547 1.2027463912963867188 1.0693329572677612305 0.97490370273590087891 1.0565716028213500977 1.0642136335372924805 0.88200259208679199219 0.79010665416717529297 1.1493381261825561523 1.2771281003952026367 1.2714229822158813477 1.1560308933258056641 1.1151670217514038086 1.1577923297882080078 1.0783098936080932617 1.1310635805130004883 1.1431174278259277344 1.0760236978530883789 1.0475528240203857422 1.0191156864166259766 1.1112531423568725586 1.1056904792785644531 1.1709166765213012695 1.1703101396560668945 1.1367589235305786133 1.1196727752685546875 1.1997045278549194336 0.77254915237426757812 1.1601117849349975586 1.173506617546081543 0.9761130213737487793 1.1369444131851196289 0.82240253686904907227 1.0910285711288452148 1.2325308322906494141 1.1270195245742797852 1.0724827051162719727 1.2368692159652709961 1.146105647087097168 0.87765073776245117188 1.1686469316482543945 1.1743977069854736328 
1.0882756710052490234 1.0665308237075805664 0.84650617837905883789 0.98787873983383178711 1.0453596115112304688 0.99503105878829956055 1.2347577810287475586 1.0430494546890258789 0.88271009922027587891 1.1792516708374023438 1.1449184417724609375 1.0207986831665039062 1.1024931669235229492 1.0726605653762817383 1.1125546693801879883 1.1169320344924926758 1.1474611759185791016 1.1808398962020874023 1.1969628334045410156 1.2019708156585693359 1.1644866466522216797 1.2284722328186035156 1.1489379405975341797 1.0356807708740234375 1.2065818309783935547 1.0595254898071289062 0.9498748779296875 0.98330229520797729492 1.1418803930282592773 0.60242611169815063477 0.5999915003776550293 0.95810133218765258789 1.0402381420135498047 0.95296704769134521484 1.1002063751220703125 1.1605792045593261719 1.0811520814895629883 0.9856160283088684082 1.0619099140167236328 1.2014306783676147461 1.0612816810607910156 1.0151625871658325195 1.086956024169921875 1.1187883615493774414 1.0661624670028686523 1.0624964237213134766 1.1471058130264282227 1.1793385744094848633 1.1521501541137695312 1.1140985488891601562 1.1390460729598999023 1.1001137495040893555 0.90854460000991821289 0.974475860595703125 1.0722218751907348633 1.057688593864440918 1.1223089694976806641 1.1313822269439697266 1.1373751163482666016 1.1288666725158691406 1.0758678913116455078 1.1316033601760864258 1.1413930654525756836 1.1300103664398193359 1.1399664878845214844 1.1289888620376586914 1.1467201709747314453 1.1237213611602783203 1.04352569580078125 1.0815422534942626953 1.080191493034362793 1.1130908727645874023 1.1230016946792602539 0.96389889717102050781 1.0687471628189086914 1.1324454545974731445 1.1650431156158447266 1.1468634605407714844 1.2411317825317382812 1.2399584054946899414 1.2169798612594604492 1.2081702947616577148 1.2143074274063110352 1.1625883579254150391 1.0911817550659179688 1.077714085578918457 1.0511243343353271484 1.0776319503784179688 1.1226857900619506836 1.1608076095581054688 1.0713906288146972656 1.0082118511199951172 1.1098394393920898438 1.1973569393157958984 0.98951733112335205078 1.0817017555236816406 1.2115762233734130859 0.96143358945846557617 1.1264711618423461914 0.9758237004280090332 0.84215915203094482422 1.2479507923126220703 1.1324416399002075195 1.1097697019577026367 1.2898389101028442383 1.0932261943817138672 0.85382401943206787109 1.0081197023391723633 1.2325567007064819336 
1.2194869518280029297 1.2031966447830200195 0.71600520610809326172 0.93228232860565185547 1.1483894586563110352 0.99857372045516967773 1.257513880729675293 1.2418775558471679688 0.93310707807540893555 1.103489995002746582 1.1801546812057495117 1.0547962188720703125 1.1176288127899169922 1.0942634344100952148 1.0961017608642578125 1.1162827014923095703 1.173165440559387207 1.1946560144424438477 1.1568269729614257812 1.1992657184600830078 1.0418828725814819336 1.1162980794906616211 1.0987762212753295898 1.2311918735504150391 1.2786915302276611328 1.2980735301971435547 1.1570373773574829102 0.99928963184356689453 0.88951033353805541992 0.8146991729736328125 0.95662981271743774414 0.65599203109741210938 0.98898881673812866211 1.1535573005676269531 1.257849574089050293 1.294300079345703125 1.2290843725204467773 1.1084364652633666992 0.93119889497756958008 1.1455051898956298828 1.1271548271179199219 1.0885697603225708008 0.9787972569465637207 1.0057089328765869141 0.9911391139030456543 1.0506228208541870117 1.107104182243347168 1.1228547096252441406 1.1752407550811767578 1.1734282970428466797 1.1098356246948242188 1.1140867471694946289 0.96382951736450195312 1.0349532365798950195 1.0957150459289550781 1.0938705205917358398 1.1273707151412963867 1.1432740688323974609 1.1115812063217163086 1.1079599857330322266 1.1022410392761230469 1.0888707637786865234 1.0769705772399902344 1.0827847719192504883 1.1015485525131225586 1.0907057523727416992 1.0796215534210205078 1.0488666296005249023 1.1046509742736816406 1.1195036172866821289 1.1164785623550415039 1.1147594451904296875 1.1070984601974487305 0.83600437641143798828 0.74163538217544555664 0.69104903936386108398 0.67618578672409057617 1.0283068418502807617 1.1689980030059814453 1.1674289703369140625 1.1580963134765625 1.1960656642913818359 1.205805659294128418 1.1960539817810058594 1.1905882358551025391 1.1864695549011230469 1.1801462173461914062 1.156243443489074707 1.1566857099533081055 1.1567025184631347656 1.0215123891830444336 0.98293787240982055664 0.86711776256561279297 0.8937918543815612793 0.91707408428192138672 0.97207915782928466797 1.1833306550979614258 1.0289967060089111328 1.0957061052322387695 1.0198990106582641602 0.72317159175872802734 1.2371393442153930664 1.2157126665115356445 1.1247900724411010742 1.3014230728149414062 1.0107342004776000977 0.89067858457565307617 0.88993251323699951172 1.0394120216369628906 
0.89742439985275268555 0.77552020549774169922 0.79394829273223876953 1.0308367013931274414 1.2449654340744018555 1.1707907915115356445 0.97772926092147827148 1.1932778358459472656 1.1581293344497680664 0.87218594551086425781 1.1538751125335693359 1.0856920480728149414 1.1757547855377197266 1.1389669179916381836 1.1136516332626342773 1.138558506965637207 1.1909309625625610352 1.0645946264266967773 1.112097620964050293 1.176987767219543457 1.0343815088272094727 1.133643031120300293 1.190756678581237793 1.0667710304260253906 1.239734649658203125 1.2991244792938232422 1.0913747549057006836 0.8745320439338684082 0.44260227680206298828 1.0470205545425415039 1.0122973918914794922 1.0405611991882324219 1.1473028659820556641 1.0462725162506103516 1.1856536865234375 1.2422544956207275391 1.2487123012542724609 1.2027606964111328125 0.93444502353668212891 1.0619264841079711914 1.1307802200317382812 1.1126714944839477539 1.0581426620483398438 1.0859526395797729492 1.1033135652542114258 1.1056368350982666016 1.0643970966339111328 1.1024219989776611328 1.1341953277587890625 1.1697124242782592773 1.1690448522567749023 1.1702212095260620117 1.0769312381744384766 1.0149496793746948242 1.1313751935958862305 1.1439735889434814453 1.1268179416656494141 1.105881810188293457 1.1174364089965820312 1.1301631927490234375 1.1314189434051513672 1.1206449270248413086 1.0951235294342041016 1.0694421529769897461 1.0589034557342529297 1.0767507553100585938 1.0681583881378173828 1.0354329347610473633 1.0773891210556030273 1.1207312345504760742 1.1022456884384155273 1.0957744121551513672 1.0149353742599487305 0.81439381837844848633 0.79815942049026489258 0.90062355995178222656 0.94856393337249755859 0.81887710094451904297 0.81828504800796508789 1.0549734830856323242 1.1234699487686157227 1.1212898492813110352 1.2104773521423339844 1.2004103660583496094 1.195641636848449707 1.1657179594039916992 1.1594077348709106445 1.1506474018096923828 1.1566183567047119141 1.1562409400939941406 1.0901547670364379883 1.0688627958297729492 0.96225756406784057617 0.87946397066116333008 0.70003068447113037109 0.85335433483123779297 0.96550858020782470703 1.152434229850769043 1.0448884963989257812 1.1989762783050537109 0.76028037071228027344 1.2579168081283569336 1.1936054229736328125 1.1657100915908813477 1.2689752578735351562 0.98917508125305175781 0.72420006990432739258 0.66253250837326049805 0.69159668684005737305 
0.80105984210968017578 0.93579566478729248047 1.1024262905120849609 1.1378380060195922852 1.0340769290924072266 1.1423823833465576172 1.0866123437881469727 1.0807025432586669922 1.1394256353378295898 0.97399908304214477539 1.0643186569213867188 0.98807364702224731445 1.1021682024002075195 1.1051561832427978516 1.0826638936996459961 1.1891366243362426758 1.1953060626983642578 0.99446582794189453125 0.98906594514846801758 1.1253187656402587891 1.0586947202682495117 1.2504547834396362305 1.2521584033966064453 1.0539679527282714844 1.0225863456726074219 1.3018245697021484375 1.2007406949996948242 1.1110486984252929688 0.44760084152221679688 1.0269696712493896484 1.0962681770324707031 1.0507656335830688477 1.1117293834686279297 1.1417102813720703125 1.1968706846237182617 1.2533209323883056641 1.2480649948120117188 1.2178969383239746094 1.1047509908676147461 1.1177524328231811523 1.1489477157592773438 1.1724021434783935547 1.1364705562591552734 1.1278026103973388672 1.1823302507400512695 1.1351208686828613281 1.0466561317443847656 1.0635091066360473633 1.0523029565811157227 1.033436894416809082 1.1068089008331298828 1.1689145565032958984 1.1655935049057006836 1.1029353141784667969 1.1160122156143188477 1.1469434499740600586 1.1377140283584594727 1.1579663753509521484 1.1089527606964111328 1.1083480119705200195 1.093645930290222168 1.1204895973205566406 1.1502557992935180664 1.1495217084884643555 1.131396174430847168 1.1135315895080566406 1.1265114545822143555 1.0625821352005004883 1.0145947933197021484 1.0531032085418701172 1.1344623565673828125 0.97635084390640258789 0.87989217042922973633 0.83014291524887084961 1.057370305061340332 0.99955594539642333984 1.0190241336822509766 1.0443941354751586914 0.98142379522323608398 0.92956560850143432617 0.89724999666213989258 0.93153041601181030273 1.1221510171890258789 1.1273036003112792969 1.1163687705993652344 1.0645736455917358398 1.0030264854431152344 0.975627899169921875 1.0186885595321655273 1.1501024961471557617 1.1356214284896850586 1.0460989475250244141 1.1499257087707519531 1.0617754459381103516 0.92616593837738037109 0.67671477794647216797 0.79744678735733032227 0.92696821689605712891 0.92596733570098876953 1.2312020063400268555 0.8223171234130859375 1.138964533805847168 1.141013026237487793 1.2730058431625366211 1.2762094736099243164 1.095187067985534668 0.45886376500129699707 1.0921858549118041992 1.2566685676574707031 
0.92913711071014404297 1.0601140260696411133 1.1521005630493164062 1.2179392576217651367 1.1247588396072387695 1.0730786323547363281 1.1291841268539428711 1.1438475847244262695 1.1667925119400024414 1.1295415163040161133 1.1106617450714111328 1.0618301630020141602 0.95642232894897460938 1.0562845468521118164 1.1176258325576782227 1.18383026123046875 1.1321520805358886719 0.98215615749359130859 0.88094878196716308594 0.95439326763153076172 1.0798850059509277344 1.2154207229614257812 1.2705969810485839844 1.241576075553894043 1.0634372234344482422 1.1231223344802856445 1.199830174446105957 1.2421040534973144531 1.0586725473403930664 0.89408463239669799805 1.2159774303436279297 1.1270722150802612305 1.1054935455322265625 0.92558246850967407227 0.9100182652473449707 1.016569972038269043 1.2360674142837524414 1.2377017736434936523 1.1888605356216430664 1.1919492483139038086 1.2397503852844238281 1.2351735830307006836 1.2326437234878540039 1.2304980754852294922 1.1789492368698120117 1.1460639238357543945 1.1221622228622436523 1.0807722806930541992 1.1021038293838500977 1.0715709924697875977 1.0777329206466674805 1.1204571723937988281 1.1321393251419067383 1.1030007600784301758 1.1329605579376220703 1.1062035560607910156 1.1188758611679077148 1.0370342731475830078 0.99416971206665039062 1.0081223249435424805 1.0464404821395874023 1.0507609844207763672 1.0416188240051269531 1.0290063619613647461 1.0436958074569702148 1.1359324455261230469 1.1381446123123168945 1.0794985294342041016 1.0236947536468505859 1.1103758811950683594 1.0672184228897094727 0.97268140316009521484 1.0035626888275146484 0.86214536428451538086 1.147518157958984375 1.0572009086608886719 1.0522481203079223633 1.1185050010681152344 1.0234940052032470703 1.0214648246765136719 1.0371739864349365234 1.0650483369827270508 0.97309851646423339844 0.97572952508926391602 0.93786835670471191406 0.86144727468490600586 0.88951259851455688477 0.95737320184707641602 1.0187942981719970703 1.1476112604141235352 1.1364308595657348633 1.1299505233764648438 1.1562279462814331055 1.1873500347137451172 1.0502763986587524414 0.87728846073150634766 0.92389279603958129883 0.7904536128044128418 0.59692978858947753906 1.016226649284362793 0.8476359248161315918 1.1535991430282592773 1.2695863246917724609 1.1709979772567749023 1.2367864847183227539 1.1839498281478881836 0.66973406076431274414 1.337985992431640625 1.2806818485260009766 
1.0656919479370117188 1.1551421880722045898 1.126582026481628418 1.1985983848571777344 1.1205935478210449219 1.0865572690963745117 1.0550495386123657227 1.1175096035003662109 1.1890516281127929688 1.1273723840713500977 1.0993143320083618164 1.1380387544631958008 0.95561361312866210938 1.0461851358413696289 1.1807800531387329102 1.1537622213363647461 1.1474291086196899414 1.1694775819778442383 1.1041718721389770508 0.84282886981964111328 0.8370240330696105957 1.0802547931671142578 1.1905367374420166016 1.0517715215682983398 0.99205458164215087891 0.85290497541427612305 0.89329999685287475586 1.1138334274291992188 0.97137695550918579102 0.69790744781494140625 1.1245380640029907227 0.97601330280303955078 1.1104730367660522461 1.3092930316925048828 1.220923304557800293 1.1792004108428955078 1.2398532629013061523 1.2122378349304199219 1.2381423711776733398 1.248017430305480957 1.184848785400390625 1.1272341012954711914 1.1261484622955322266 1.1222984790802001953 1.1643586158752441406 1.2252126932144165039 1.0264823436737060547 0.99161946773529052734 1.0738531351089477539 1.0871926546096801758 1.0431120395660400391 1.1215105056762695312 1.1288088560104370117 1.0910700559616088867 1.13761138916015625 1.1287748813629150391 1.0983762741088867188 1.0491327047348022461 1.0839999914169311523 1.1042712926864624023 1.089411616325378418 1.0338586568832397461 1.0427445173263549805 1.0209829807281494141 1.0201038122177124023 1.0974061489105224609 1.1346523761749267578 1.1241499185562133789 1.0824849605560302734 1.1074616909027099609 1.0623928308486938477 1.0597101449966430664 0.95531314611434936523 0.86644577980041503906 1.1490553617477416992 1.0838410854339599609 1.0885627269744873047 1.0401693582534790039 1.0870680809020996094 1.0952194929122924805 1.0743356943130493164 1.0367985963821411133 0.87352359294891357422 0.82861155271530151367 0.71129453182220458984 0.80335652828216552734 1.0210667848587036133 1.0204216241836547852 1.0533159971237182617 1.1410955190658569336 1.116929173469543457 1.0692876577377319336 0.98951303958892822266 0.86767899990081787109 0.93096393346786499023 1.0635373592376708984 1.109665989875793457 0.94531100988388061523 0.74334847927093505859 0.78903371095657348633 0.74973732233047485352 1.1171472072601318359 1.1702032089233398438 1.1892468929290771484 1.3195836544036865234 1.1100220680236816406 0.66461008787155151367 1.2817685604095458984 1.0123116970062255859 
0.98263108730316162109 1.1183094978332519531 1.114627838134765625 1.1379758119583129883 1.1185363531112670898 1.1274192333221435547 1.0770927667617797852 1.0778650045394897461 1.0758478641510009766 1.0792624950408935547 1.0803830623626708984 1.1059170961380004883 1.0380076169967651367 1.1117514371871948242 1.1721962690353393555 1.1720100641250610352 1.1172311305999755859 1.0413339138031005859 0.93912386894226074219 0.76261270046234130859 0.70155030488967895508 0.77283614873886108398 1.0612423419952392578 1.0524005889892578125 1.3070926666259765625 1.0713353157043457031 0.95341736078262329102 0.88823121786117553711 0.61014330387115478516 0.96736764907836914062 1.0492219924926757812 0.92065489292144775391 0.70999640226364135742 1.0884953737258911133 1.2295914888381958008 1.2618709802627563477 1.2640668153762817383 1.2293279170989990234 1.1589194536209106445 1.1469043493270874023 1.1977506875991821289 1.1236696243286132812 1.1049760580062866211 1.1122361421585083008 1.0852308273315429688 1.1564557552337646484 0.99904751777648925781 1.0614548921585083008 1.0883557796478271484 1.0892050266265869141 1.0646996498107910156 1.0762286186218261719 1.114461064338684082 1.108668208122253418 1.128107905387878418 1.097874760627746582 1.1182307004928588867 1.0935704708099365234 1.0675532817840576172 1.0000706911087036133 0.87179940938949584961 0.88660329580307006836 0.96368360519409179688 1.0301868915557861328 1.0124531984329223633 1.0639199018478393555 1.1324065923690795898 1.1232933998107910156 1.091441035270690918 1.0988670587539672852 1.0788938999176025391 1.0842266082763671875 0.94289988279342651367 0.97250998020172119141 1.1075760126113891602 1.1134487390518188477 1.1339150667190551758 1.0789229869842529297 1.0537214279174804688 1.1183670759201049805 1.135184168815612793 1.0526925325393676758 0.98958504199981689453 0.89887404441833496094 0.73607969284057617188 0.95617574453353881836 0.99624496698379516602 0.98599094152450561523 1.150529026985168457 1.1313725709915161133 1.1423885822296142578 0.99906021356582641602 1.0082131624221801758 1.0906989574432373047 1.1648045778274536133 1.2074989080429077148 1.1387742757797241211 0.99235183000564575195 1.052889704704284668 1.1822856664657592773 0.86859142780303955078 0.82556450366973876953 1.0220293998718261719 1.2038989067077636719 1.1316823959350585938 0.61168706417083740234 0.55323904752731323242 0.65141350030899047852 0.94314676523208618164 
1.0227836370468139648 1.0839055776596069336 1.0966566801071166992 1.100275874137878418 1.1414151191711425781 1.0997208356857299805 1.1223450899124145508 1.1012661457061767578 1.0399422645568847656 1.0436267852783203125 1.0842156410217285156 1.0853552818298339844 1.1018693447113037109 1.1684849262237548828 1.1656335592269897461 1.1100803613662719727 1.0209498405456542969 0.92175006866455078125 0.93168145418167114258 0.95779132843017578125 0.96366637945175170898 0.99456542730331420898 1.0367569923400878906 0.83321857452392578125 0.78592342138290405273 0.8865172266960144043 0.62821918725967407227 0.99507582187652587891 0.98959553241729736328 1.2646455764770507812 1.3182673454284667969 1.3146090507507324219 1.0225032567977905273 0.76451432704925537109 1.1766741275787353516 1.2070802450180053711 1.1836037635803222656 1.1446619033813476562 1.1115792989730834961 1.1424084901809692383 1.1841095685958862305 1.0667816400527954102 1.088732600212097168 1.0484529733657836914 1.1384316682815551758 1.0846213102340698242 1.01552581787109375 1.1429684162139892578 1.1505000591278076172 1.1271953582763671875 1.1160438060760498047 1.1127612590789794922 1.1122698783874511719 1.1068743467330932617 1.0528367757797241211 1.0359699726104736328 1.1231021881103515625 0.99882012605667114258 0.85012722015380859375 0.78247159719467163086 0.77112299203872680664 0.9201679229736328125 1.0087608098983764648 1.1186852455139160156 1.0334279537200927734 1.0212354660034179688 1.0898265838623046875 1.1159912347793579102 1.0947340726852416992 1.0783613920211791992 1.0637438297271728516 1.0515264272689819336 0.95323252677917480469 1.0154169797897338867 1.0541582107543945312 1.1051560640335083008 1.1231507062911987305 1.066252589225769043 1.0507674217224121094 1.0601493120193481445 1.1093840599060058594 1.0815404653549194336 1.0723798274993896484 0.90296697616577148438 0.80743539333343505859 0.98839074373245239258 1.1225244998931884766 1.1404676437377929688 1.1354882717132568359 1.1279389858245849609 1.1131722927093505859 1.1537001132965087891 1.1828513145446777344 1.2023494243621826172 1.2182497978210449219 1.2323135137557983398 1.2481153011322021484 1.2636401653289794922 1.2805677652359008789 1.2757940292358398438 1.2254909276962280273 0.76374340057373046875 0.64009362459182739258 0.86531710624694824219 1.0250482559204101562 1.0630723237991333008 1.1607058048248291016 0.90929847955703735352 1.0420675277709960938 
1.0535999536514282227 1.0376451015472412109 1.1255140304565429688 1.065399169921875 1.0610647201538085938 1.1387493610382080078 1.121701359748840332 1.1095614433288574219 1.0923744440078735352 1.0711282491683959961 1.0899671316146850586 1.1291153430938720703 1.1660733222961425781 1.1570798158645629883 1.1458095312118530273 1.1553363800048828125 1.207297205924987793 1.2243561744689941406 1.242907404899597168 1.2564339637756347656 1.2583240270614624023 1.2370651960372924805 1.2198957204818725586 0.98275780677795410156 1.0510028600692749023 1.013909459114074707 0.49787664413452148438 0.92727899551391601562 1.2267366647720336914 0.96796953678131103516 1.1840664148330688477 1.3183442354202270508 1.2266067266464233398 0.61600804328918457031 1.0600481033325195312 1.0537970066070556641 1.1399097442626953125 1.1565212011337280273 1.1089121103286743164 1.0981165170669555664 0.91271585226058959961 0.81520926952362060547 0.78716063499450683594 0.84902578592300415039 0.95667606592178344727 0.91362005472183227539 1.1188908815383911133 1.2226566076278686523 1.1413278579711914062 1.0924429893493652344 1.105433344841003418 1.0704796314239501953 1.0438048839569091797 1.1160622835159301758 1.0898412466049194336 1.0948151350021362305 1.1681032180786132812 1.1607983112335205078 1.047557830810546875 0.71768498420715332031 1.0167177915573120117 1.0541071891784667969 1.1326572895050048828 1.1031005382537841797 1.0334262847900390625 1.0639244318008422852 1.062523961067199707 1.1099140644073486328 1.0772364139556884766 1.0874885320663452148 1.085417628288269043 1.0591790676116943359 0.94258731603622436523 0.99635916948318481445 1.0354464054107666016 1.1005799770355224609 1.0932160615921020508 1.0596550703048706055 1.041823267936706543 1.0599517822265625 1.0916233062744140625 1.0813512802124023438 1.0010812282562255859 0.97470045089721679688 0.8868452906608581543 0.82358759641647338867 1.0339763164520263672 1.0687172412872314453 1.1333700418472290039 1.1238563060760498047 1.0412536859512329102 0.99759298563003540039 1.0225701332092285156 1.1202418804168701172 1.1134639978408813477 1.1753637790679931641 1.2039149999618530273 1.1851940155029296875 1.2578141689300537109 0.91026294231414794922 1.0398058891296386719 0.79831767082214355469 0.6031322479248046875 1.2263711690902709961 1.3356850147247314453 1.3239651918411254883 1.3215454816818237305 1.2499048709869384766 1.2340329885482788086 
1.1114497184753417969 1.0156496763229370117 1.0610328912734985352 1.0705003738403320312 1.0734237432479858398 1.1112912893295288086 1.0913358926773071289 1.1156252622604370117 1.1451025009155273438 1.1494390964508056641 1.1635204553604125977 1.1673252582550048828 1.1290926933288574219 1.1293141841888427734 1.1456782817840576172 1.0602142810821533203 1.1331846714019775391 1.1965703964233398438 1.1690653562545776367 1.1896920204162597656 1.2671743631362915039 1.27104949951171875 1.2862184047698974609 1.2674907445907592773 1.2875162363052368164 1.1359012126922607422 0.74489587545394897461 0.94972765445709228516 1.265154719352722168 1.2518576383590698242 1.2151318788528442383 1.293127894401550293 1.2142418622970581055 0.9077727198600769043 0.70789396762847900391 0.81116461753845214844 0.83554410934448242188 0.90084969997406005859 0.96363317966461181641 1.0950464010238647461 0.95599013566970825195 1.1419655084609985352 0.96648174524307250977 0.73024201393127441406 1.0856926441192626953 0.78389215469360351562 1.2030742168426513672 1.1693325042724609375 1.045560002326965332 1.1024997234344482422 1.1864944696426391602 1.1216597557067871094 1.1056739091873168945 1.1571881771087646484 1.1206964254379272461 1.1865837574005126953 1.1458948850631713867 1.1770317554473876953 1.1924531459808349609 0.75790739059448242188 1.17621612548828125 1.1787368059158325195 1.0117899179458618164 0.93156152963638305664 0.98298686742782592773 0.99911266565322875977 1.0394921302795410156 1.1308232545852661133 1.1200469732284545898 1.0851585865020751953 1.1068596839904785156 1.1204209327697753906 1.043633580207824707 0.99341905117034912109 1.0595227479934692383 1.0957001447677612305 1.0647929906845092773 1.0732150077819824219 1.0450407266616821289 1.0572386980056762695 1.0831230878829956055 1.0417256355285644531 1.0209720134735107422 0.96071428060531616211 0.91690707206726074219 0.93187236785888671875 0.79259157180786132812 0.98054128885269165039 1.0989986658096313477 1.1194193363189697266 1.0953184366226196289 1.0158216953277587891 0.94056451320648193359 0.85029572248458862305 0.80020612478256225586 0.88648581504821777344 1.0365526676177978516 0.902599334716796875 1.2712960243225097656 1.1329221725463867188 1.0887744426727294922 0.8587436676025390625 1.1278836727142333984 1.337566375732421875 1.2157622575759887695 1.1535341739654541016 1.1648912429809570312 1.221294403076171875 1.1726887226104736328 
1.1408786773681640625 1.0497906208038330078 1.0575155019760131836 1.0657047033309936523 1.0958573818206787109 1.1248555183410644531 1.10971832275390625 1.1573233604431152344 1.1534949541091918945 1.1357886791229248047 1.1256347894668579102 1.1012243032455444336 1.0452163219451904297 0.98819583654403686523 1.1623585224151611328 1.0984688997268676758 0.90031731128692626953 0.9745190739631652832 0.91210776567459106445 0.89521861076354980469 1.1514133214950561523 1.2053771018981933594 1.1006528139114379883 1.2141641378402709961 1.3139767646789550781 1.1949378252029418945 0.92538166046142578125 1.3118412494659423828 0.87027060985565185547 1.0115993022918701172 1.1843930482864379883 1.2487415075302124023 1.1938710212707519531 1.2062059640884399414 0.80180352926254272461 0.69099527597427368164 0.89484500885009765625 0.97937756776809692383 1.2193691730499267578 1.0896569490432739258 0.99776929616928100586 1.2184580564498901367 1.2775735855102539062 1.1404284238815307617 1.1544015407562255859 0.73641264438629150391 1.1473305225372314453 0.99756002426147460938 1.0110665559768676758 1.1840550899505615234 1.2047498226165771484 1.1593767404556274414 1.1842026710510253906 1.107957005500793457 1.1717509031295776367 1.2462571859359741211 1.0122071504592895508 1.0099891424179077148 0.96472090482711791992 0.6021410822868347168 0.75556939840316772461 0.95535355806350708008 1.0807996988296508789 1.0421661138534545898 1.0802242755889892578 1.1165503263473510742 1.1530542373657226562 1.0852371454238891602 1.0799946784973144531 1.1110161542892456055 1.1172565221786499023 1.1163629293441772461 1.1171594858169555664 1.1181234121322631836 1.1158819198608398438 1.1121830940246582031 1.0778681039810180664 1.070288538932800293 1.0542862415313720703 1.0258965492248535156 1.0533092021942138672 1.0787961483001708984 1.0511726140975952148 0.97869932651519775391 1.0095245838165283203 1.0331146717071533203 0.86894130706787109375 0.96637731790542602539 1.0362056493759155273 1.1136840581893920898 1.0825722217559814453 1.0793738365173339844 1.1806795597076416016 1.2202382087707519531 1.1046783924102783203 0.90946424007415771484 0.84741371870040893555 0.71265178918838500977 1.0084002017974853516 0.96074080467224121094 0.77496182918548583984 0.52410554885864257812 1.1770499944686889648 1.2832853794097900391 1.1476762294769287109 1.0823050737380981445 1.0584024190902709961 1.0828020572662353516 1.1055550575256347656 
1.1250431537628173828 1.0718337297439575195 1.0608705282211303711 1.1051636934280395508 1.1572129726409912109 1.1542621850967407227 1.1585866212844848633 1.125418543815612793 1.079326629638671875 1.0788575410842895508 1.1399853229522705078 1.0431138277053833008 1.101094365119934082 0.920948028564453125 1.1371555328369140625 1.2123076915740966797 1.0962866544723510742 0.88161146640777587891 0.86513143777847290039 0.77836769819259643555 1.0076452493667602539 1.0503220558166503906 1.0643488168716430664 1.3084348440170288086 1.0545976161956787109 0.95858997106552124023 1.0506432056427001953 1.2750949859619140625 1.202344059944152832 0.88933873176574707031 1.1720955371856689453 1.2402179241180419922 1.1636217832565307617 1.2192395925521850586 0.94513779878616333008 0.83396506309509277344 1.1323175430297851562 1.0074318647384643555 1.1377798318862915039 1.2541654109954833984 1.2105096578598022461 1.1544010639190673828 1.2217043638229370117 1.2467864751815795898 1.1322542428970336914 0.72022575139999389648 0.76697111129760742188 1.011210322380065918 1.0929051637649536133 1.2584211826324462891 1.1776068210601806641 1.1980515718460083008 1.1860660314559936523 1.0323005914688110352 1.1878286600112915039 1.1882202625274658203 0.87873601913452148438 0.72700822353363037109 0.76417571306228637695 0.97430306673049926758 0.83018296957015991211 0.96880286931991577148 1.1184802055358886719 1.1449270248413085938 1.153359532356262207 1.1642687320709228516 1.0809435844421386719 0.99343091249465942383 1.0461952686309814453 1.0512933731079101562 1.0820125341415405273 1.0829819440841674805 1.1042822599411010742 1.1181070804595947266 1.0938140153884887695 1.1142101287841796875 1.1094202995300292969 1.1056457757949829102 1.1027506589889526367 1.1062743663787841797 1.0977834463119506836 1.0694501399993896484 1.0105265378952026367 1.0250372886657714844 1.0705354213714599609 1.0273331403732299805 0.93563050031661987305 1.0278825759887695312 1.0702004432678222656 1.1105985641479492188 1.0744866132736206055 1.0079621076583862305 0.94765603542327880859 0.95368218421936035156 1.0465806722640991211 0.97282898426055908203 0.86056882143020629883 0.75667297840118408203 1.0264464616775512695 0.92819815874099731445 0.96113008260726928711 0.71192121505737304688 1.0956504344940185547 1.0676704645156860352 0.64942872524261474609 0.7971318364143371582 1.1126024723052978516 1.1999181509017944336 1.2706558704376220703 
1.0549401044845581055 1.0973229408264160156 1.0633090734481811523 1.1303753852844238281 1.1530393362045288086 1.1094456911087036133 1.0706517696380615234 1.0745722055435180664 1.0360021591186523438 1.0399494171142578125 1.2115174531936645508 1.0735794305801391602 1.0877934694290161133 0.94364088773727416992 1.1062520742416381836 1.2164741754531860352 1.1708130836486816406 1.1062031984329223633 1.143571019172668457 0.99918121099472045898 0.84024107456207275391 0.85790902376174926758 0.97615861892700195312 1.2173466682434082031 0.71677517890930175781 0.78995466232299804688 1.2093122005462646484 1.2913200855255126953 1.2078723907470703125 1.1525187492370605469 1.2338765859603881836 1.2025487422943115234 1.1074434518814086914 1.183508753776550293 1.1025016307830810547 1.0267795324325561523 0.93436104059219360352 1.1744993925094604492 0.97055321931838989258 1.0392078161239624023 1.1868298053741455078 1.2273229360580444336 1.2628459930419921875 1.0079665184020996094 0.75644004344940185547 0.64605385065078735352 1.0195633172988891602 1.2892502546310424805 1.2738174200057983398 1.251954197883605957 1.1915825605392456055 1.2068558931350708008 1.1489331722259521484 0.97838252782821655273 1.0928547382354736328 0.85759204626083374023 1.0104336738586425781 1.1008093357086181641 1.1107081174850463867 1.0892856121063232422 1.1235897541046142578 1.0214915275573730469 0.93631476163864135742 1.1706478595733642578 1.1725080013275146484 1.1453775167465209961 1.0345857143402099609 1.0470166206359863281 1.0717633962631225586 1.0524059534072875977 1.0636099576950073242 1.0857682228088378906 1.0288764238357543945 1.0407022237777709961 1.0884717702865600586 1.0445717573165893555 1.0003044605255126953 1.0485792160034179688 1.0694986581802368164 1.1035920381546020508 1.0971667766571044922 1.0990297794342041016 1.051606297492980957 1.0338292121887207031 1.056976318359375 1.0314861536026000977 0.92313295602798461914 1.0381746292114257812 1.1041095256805419922 1.1132019758224487305 1.0980244874954223633 1.0523039102554321289 1.0726022720336914062 0.90722733736038208008 0.64130395650863647461 0.82935678958892822266 1.0523204803466796875 1.0471740961074829102 1.2175862789154052734 1.206034541130065918 1.0920826196670532227 0.86716926097869873047 0.53308498859405517578 0.78966367244720458984 0.86739319562911987305 0.83528226613998413086 1.0988978147506713867 1.1319336891174316406 1.1898868083953857422 
1.0650222301483154297 1.0407491922378540039 1.0991998910903930664 1.14847564697265625 1.1490784883499145508 1.0870785713195800781 1.1105200052261352539 1.0412093400955200195 1.0067285299301147461 0.97289741039276123047 1.1844252347946166992 1.0106964111328125 0.83614981174468994141 1.0063294172286987305 1.1166143417358398438 1.2013297080993652344 1.2215113639831542969 1.1906573772430419922 1.1299782991409301758 1.0326470136642456055 1.0733970403671264648 1.17499542236328125 0.85685181617736816406 1.0058157444000244141 1.0034875869750976562 1.2853448390960693359 1.2608956098556518555 1.2623639106750488281 1.2640150785446166992 1.1728664636611938477 1.2341382503509521484 1.1372634172439575195 1.0411123037338256836 1.1646424531936645508 1.1880702972412109375 1.1429435014724731445 0.95454525947570800781 1.2190037965774536133 1.1424455642700195312 1.046660304069519043 1.1786421537399291992 1.1787674427032470703 1.2593286037445068359 0.96944522857666015625 0.79596006870269775391 0.59566396474838256836 1.2793180942535400391 1.2860178947448730469 1.2624421119689941406 1.2244523763656616211 1.1902827024459838867 1.1803830862045288086 1.0971179008483886719 0.86038696765899658203 0.95749223232269287109 1.1428236961364746094 1.2450479269027709961 1.2026233673095703125 1.2284067869186401367 1.1577641963958740234 1.1614476442337036133 1.167018890380859375 1.1719635725021362305 1.1766004562377929688 1.1690773963928222656 1.0451905727386474609 1.0049294233322143555 1.0938234329223632812 1.0578312873840332031 1.0373553037643432617 1.16327667236328125 1.0459411144256591797 1.0127388238906860352 1.0545973777770996094 1.1432352066040039062 1.020419001579284668 0.95252901315689086914 0.96541124582290649414 1.0284365415573120117 1.0356850624084472656 1.0913993120193481445 1.096594691276550293 1.0948321819305419922 1.0935486555099487305 1.0873742103576660156 1.053019404411315918 0.96764194965362548828 1.0993813276290893555 1.1003803014755249023 1.0582416057586669922 1.0809322595596313477 0.98777306079864501953 1.0072838068008422852 0.79111009836196899414 0.90972512960433959961 1.1542496681213378906 1.1555664539337158203 1.1237343549728393555 1.2456175088882446289 1.0757213830947875977 0.90439593791961669922 1.0166946649551391602 0.67309749126434326172 1.1865469217300415039 1.2735025882720947266 0.78913974761962890625 0.90663945674896240234 1.0724313259124755859 1.2268565893173217773 
