ncols        32
nrows        30
xllcorner    630800.000000000000
yllcorner    5180500.000000000000
cellsize     500.000000000000
0.93185204267501831055 0.88824886083602905273 0.8887202143669128418 0.87978279590606689453 0.88315969705581665039 0.91085863113403320312 0.89759767055511474609 0.86724686622619628906 0.87008357048034667969 0.89263963699340820312 0.89657884836196899414 0.89209711551666259766 0.85421037673950195312 0.81558436155319213867 0.83072906732559204102 0.84764826297760009766 0.83533853292465209961 0.82622522115707397461 0.81713539361953735352 0.86963862180709838867 0.92412799596786499023 0.93651938438415527344 0.89876383543014526367 0.86733412742614746094 0.90796887874603271484 0.95978260040283203125 0.96753388643264770508 0.94480907917022705078 0.87675535678863525391 0.83688968420028686523 0.8495426177978515625 0.87578254938125610352 
0.93081575632095336914 0.90221375226974487305 0.87051129341125488281 0.86104995012283325195 0.86832940578460693359 0.87184631824493408203 0.84922134876251220703 0.83047652244567871094 0.83916258811950683594 0.87183690071105957031 0.85247218608856201172 0.86231338977813720703 0.86407071352005004883 0.84312164783477783203 0.87631940841674804688 0.86492496728897094727 0.83707892894744873047 0.85976642370223999023 0.87024855613708496094 0.94361644983291625977 0.95552808046340942383 0.91553997993469238281 0.89431709051132202148 0.8992016911506652832 0.90383887290954589844 0.94624280929565429688 0.95497179031372070312 0.89099794626235961914 0.86516439914703369141 0.84787952899932861328 0.8465569615364074707 0.85104417800903320312 
0.91482484340667724609 0.91763281822204589844 0.85888880491256713867 0.84694397449493408203 0.87040823698043823242 0.87430286407470703125 0.85656636953353881836 0.84092807769775390625 0.87108093500137329102 0.87930893898010253906 0.84391266107559204102 0.87782955169677734375 0.8731568455696105957 0.87724465131759643555 0.8814385533332824707 0.89021569490432739258 0.92073148488998413086 0.9263655543327331543 0.89723908901214599609 0.92084509134292602539 0.90987235307693481445 0.91553062200546264648 0.89276039600372314453 0.85871326923370361328 0.88747489452362060547 0.90911877155303955078 0.90196883678436279297 0.86475402116775512695 0.85631680488586425781 0.84835577011108398438 0.85479122400283813477 0.8547770380973815918 
0.91715121269226074219 0.90630185604095458984 0.8645915985107421875 0.84271150827407836914 0.85039621591567993164 0.88666301965713500977 0.87242311239242553711 0.8659521937370300293 0.859889984130859375 0.88010603189468383789 0.82834929227828979492 0.84613913297653198242 0.8907260894775390625 0.90895551443099975586 0.93423444032669067383 0.92110812664031982422 0.95358765125274658203 0.93347603082656860352 0.9039821624755859375 0.90706348419189453125 0.865020751953125 0.83242875337600708008 0.82838076353073120117 0.85611200332641601562 0.87697190046310424805 0.89308893680572509766 0.8804327845573425293 0.90260291099548339844 0.87757009267807006836 0.87435203790664672852 0.87138509750366210938 0.88781911134719848633 
0.88788968324661254883 0.87707334756851196289 0.85581094026565551758 0.85107654333114624023 0.84589850902557373047 0.87170690298080444336 0.84909033775329589844 0.85566681623458862305 0.85497379302978515625 0.85427206754684448242 0.81489604711532592773 0.88074260950088500977 0.92325472831726074219 0.90789633989334106445 0.95394444465637207031 0.9602222442626953125 0.96306186914443969727 0.95115327835083007812 0.93404281139373779297 0.89476567506790161133 0.84934002161026000977 0.83706742525100708008 0.83488678932189941406 0.84156656265258789062 0.86078077554702758789 0.86701911687850952148 0.8639265894889831543 0.91112184524536132812 0.90191704034805297852 0.86923450231552124023 0.87720406055450439453 0.89044594764709472656 
0.87424755096435546875 0.88485497236251831055 0.88336890935897827148 0.86133372783660888672 0.84599739313125610352 0.83642917871475219727 0.82908177375793457031 0.84030234813690185547 0.83384031057357788086 0.83247536420822143555 0.84237909317016601562 0.89609509706497192383 0.92026823759078979492 0.92974293231964111328 0.95050424337387084961 0.95553827285766601562 0.96133279800415039062 0.95663553476333618164 0.93584686517715454102 0.88172870874404907227 0.86897122859954833984 0.84637182950973510742 0.88248085975646972656 0.87998199462890625 0.8802998661994934082 0.86411237716674804688 0.8771750330924987793 0.89038777351379394531 0.90042483806610107422 0.88412594795227050781 0.89669740200042724609 0.88721013069152832031 
0.86376672983169555664 0.87411695718765258789 0.88171941041946411133 0.88963210582733154297 0.84818679094314575195 0.81440126895904541016 0.83188927173614501953 0.86054664850234985352 0.85296410322189331055 0.82084119319915771484 0.87263971567153930664 0.89548629522323608398 0.93969255685806274414 0.93075293302536010742 0.92077970504760742188 0.92545473575592041016 0.92205584049224853516 0.91896098852157592773 0.91949516534805297852 0.87692505121231079102 0.87528806924819946289 0.8928692936897277832 0.8983872532844543457 0.905330657958984375 0.90575784444808959961 0.88837987184524536133 0.90004378557205200195 0.91930764913558959961 0.91287279129028320312 0.89617753028869628906 0.87356793880462646484 0.83258599042892456055 
0.88354468345642089844 0.87536275386810302734 0.89203077554702758789 0.89883708953857421875 0.85892140865325927734 0.83793294429779052734 0.91436016559600830078 0.93091422319412231445 0.91986483335494995117 0.83799457550048828125 0.89299720525741577148 0.8833395838737487793 0.90834867954254150391 0.90993368625640869141 0.91119611263275146484 0.91491639614105224609 0.8891480565071105957 0.88882213830947875977 0.89846396446228027344 0.87716627120971679688 0.88872128725051879883 0.91951847076416015625 0.91259783506393432617 0.89831149578094482422 0.89846247434616088867 0.89888286590576171875 0.90060687065124511719 0.92211484909057617188 0.91910225152969360352 0.89045858383178710938 0.85308766365051269531 0.82127690315246582031 
0.89547085762023925781 0.8786799311637878418 0.89592641592025756836 0.8833014369010925293 0.84720337390899658203 0.90826064348220825195 0.97308677434921264648 0.9576549530029296875 0.93425345420837402344 0.88515508174896240234 0.85715496540069580078 0.86028259992599487305 0.87137502431869506836 0.8534743189811706543 0.86519491672515869141 0.87204843759536743164 0.90077191591262817383 0.90885865688323974609 0.90609383583068847656 0.90671950578689575195 0.91016948223114013672 0.90421563386917114258 0.87523782253265380859 0.87132781744003295898 0.87402290105819702148 0.87009781599044799805 0.86700445413589477539 0.85287660360336303711 0.87169927358627319336 0.87082719802856445312 0.84807115793228149414 0.85444444417953491211 
0.88597214221954345703 0.86455810070037841797 0.90469598770141601562 0.93795990943908691406 0.94288235902786254883 0.97988176345825195312 0.97981417179107666016 0.96400558948516845703 0.91370111703872680664 0.85725921392440795898 0.87117499113082885742 0.90678036212921142578 0.90224450826644897461 0.88209289312362670898 0.86716198921203613281 0.88013625144958496094 0.89923501014709472656 0.90853935480117797852 0.89313435554504394531 0.88972228765487670898 0.91521066427230834961 0.89687526226043701172 0.85939866304397583008 0.87470036745071411133 0.86486154794692993164 0.84640985727310180664 0.84445083141326904297 0.84139114618301391602 0.84628558158874511719 0.86310923099517822266 0.84666138887405395508 0.89109325408935546875 
0.8595523834228515625 0.88337600231170654297 0.95060056447982788086 0.97857511043548583984 0.98386925458908081055 0.98372662067413330078 0.97687029838562011719 0.95051133632659912109 0.87336599826812744141 0.86318516731262207031 0.96939325332641601562 0.94696849584579467773 0.91553223133087158203 0.89212340116500854492 0.90538638830184936523 0.92098230123519897461 0.91901302337646484375 0.90661996603012084961 0.89854311943054199219 0.89248102903366088867 0.92245590686798095703 0.90066635608673095703 0.87861263751983642578 0.83873045444488525391 0.81081306934356689453 0.83006441593170166016 0.84645867347717285156 0.85175710916519165039 0.84827977418899536133 0.86419016122817993164 0.82727330923080444336 0.86108791828155517578 
0.90603083372116088867 0.93424779176712036133 0.95968466997146606445 0.97542744874954223633 0.97819864749908447266 0.98138070106506347656 0.97933661937713623047 0.94185549020767211914 0.88036274909973144531 0.91937619447708129883 0.97751992940902709961 0.96106225252151489258 0.90248447656631469727 0.88817143440246582031 0.91143667697906494141 0.92797410488128662109 0.93066328763961791992 0.92169964313507080078 0.89763313531875610352 0.87757259607315063477 0.9117431640625 0.91803640127182006836 0.8396994471549987793 0.78158801794052124023 0.8259322047233581543 0.87188142538070678711 0.87026774883270263672 0.88690614700317382812 0.89732879400253295898 0.86636644601821899414 0.82077890634536743164 0.82487618923187255859 
0.97182792425155639648 0.95683294534683227539 0.95829480886459350586 0.97131693363189697266 0.97755020856857299805 0.97764682769775390625 0.97699463367462158203 0.96781027317047119141 0.94141447544097900391 0.9576568603515625 0.9804356694221496582 0.97341138124465942383 0.92543846368789672852 0.90890413522720336914 0.92706567049026489258 0.9261023402214050293 0.91077214479446411133 0.91159963607788085938 0.91435354948043823242 0.88362622261047363281 0.85573965311050415039 0.83135223388671875 0.77625435590744018555 0.80285996198654174805 0.87713634967803955078 0.85366928577423095703 0.86821675300598144531 0.91839605569839477539 0.90753912925720214844 0.8584734797477722168 0.81669592857360839844 0.82264649868011474609 
0.89686691761016845703 0.98052376508712768555 0.98116141557693481445 0.98352336883544921875 0.98832821846008300781 0.98790705204010009766 0.98504155874252319336 0.98481929302215576172 0.98340272903442382812 0.98345422744750976562 0.95648229122161865234 0.95999413728713989258 0.960865020751953125 0.91409754753112792969 0.87316173315048217773 0.89533454179763793945 0.91598415374755859375 0.93266266584396362305 0.92271375656127929688 0.87814640998840332031 0.84515005350112915039 0.7968915104866027832 0.8024857640266418457 0.85498607158660888672 0.90083110332489013672 0.82252955436706542969 0.87134474515914916992 0.89468735456466674805 0.87852954864501953125 0.8407523036003112793 0.81738078594207763672 0.84333956241607666016 
0.81512546539306640625 0.93055325746536254883 0.98671376705169677734 0.98721241950988769531 0.98938399553298950195 0.99041229486465454102 0.98280560970306396484 0.97948318719863891602 0.97753101587295532227 0.97275346517562866211 0.9204375147819519043 0.93945860862731933594 0.94601106643676757812 0.92390596866607666016 0.87412679195404052734 0.86168175935745239258 0.9175097346305847168 0.93316876888275146484 0.91306281089782714844 0.86119276285171508789 0.83452171087265014648 0.82313811779022216797 0.85183763504028320312 0.89447456598281860352 0.91770774126052856445 0.85252845287322998047 0.85583418607711791992 0.85773980617523193359 0.85782891511917114258 0.81630873680114746094 0.81859761476516723633 0.84098762273788452148 
0.83956551551818847656 0.84078270196914672852 0.90149790048599243164 0.96525084972381591797 0.9751186370849609375 0.97897428274154663086 0.9505812525749206543 0.97292548418045043945 0.97725325822830200195 0.94244581460952758789 0.92171484231948852539 0.91770994663238525391 0.90505450963973999023 0.90477228164672851562 0.88991296291351318359 0.88319325447082519531 0.90841537714004516602 0.90484654903411865234 0.86271530389785766602 0.83773016929626464844 0.83317446708679199219 0.84574520587921142578 0.86268436908721923828 0.92440325021743774414 0.91671651601791381836 0.88448101282119750977 0.84760940074920654297 0.85675376653671264648 0.83747923374176025391 0.79948627948760986328 0.80099618434906005859 0.85873740911483764648 
0.85352492332458496094 0.83413356542587280273 0.79367804527282714844 0.89534896612167358398 0.96034729480743408203 0.95896029472351074219 0.96205216646194458008 0.96249103546142578125 0.92393660545349121094 0.87401741743087768555 0.89238750934600830078 0.9035212397575378418 0.89408433437347412109 0.86087489128112792969 0.84531396627426147461 0.85810136795043945312 0.85948634147644042969 0.86781704425811767578 0.85966116189956665039 0.86047381162643432617 0.86499774456024169922 0.86863875389099121094 0.87736171483993530273 0.89834481477737426758 0.88433402776718139648 0.87349259853363037109 0.86719036102294921875 0.85140824317932128906 0.81331032514572143555 0.77548450231552124023 0.81953716278076171875 0.86370509862899780273 
0.88993042707443237305 0.86712753772735595703 0.85770165920257568359 0.85333979129791259766 0.90596699714660644531 0.95220297574996948242 0.96291083097457885742 0.915821075439453125 0.88900864124298095703 0.899074554443359375 0.91865271329879760742 0.89867454767227172852 0.8667380213737487793 0.83611118793487548828 0.84754085540771484375 0.85993438959121704102 0.85497450828552246094 0.86023354530334472656 0.88344246149063110352 0.90956616401672363281 0.92894661426544189453 0.91589134931564331055 0.87413322925567626953 0.87017172574996948242 0.87123328447341918945 0.8821513056755065918 0.87138372659683227539 0.82982563972473144531 0.80668443441390991211 0.8105869293212890625 0.84381884336471557617 0.87989836931228637695 
0.90400528907775878906 0.88369238376617431641 0.89791643619537353516 0.87862223386764526367 0.82803541421890258789 0.89496493339538574219 0.89534622430801391602 0.87388962507247924805 0.90949839353561401367 0.90910261869430541992 0.89173656702041625977 0.87355381250381469727 0.85771173238754272461 0.86851179599761962891 0.90464246273040771484 0.91682714223861694336 0.90024507045745849609 0.87134790420532226562 0.917266845703125 0.94018793106079101562 0.93831986188888549805 0.90286028385162353516 0.87963140010833740234 0.87837690114974975586 0.89983391761779785156 0.91450583934783935547 0.87827610969543457031 0.81252837181091308594 0.8131745457649230957 0.81649166345596313477 0.83278578519821166992 0.87208902835845947266 
0.87542265653610229492 0.87747490406036376953 0.88757497072219848633 0.89681684970855712891 0.84693551063537597656 0.87584143877029418945 0.88622301816940307617 0.88144189119338989258 0.88440102338790893555 0.88564270734786987305 0.89150041341781616211 0.87947678565979003906 0.88985228538513183594 0.92116367816925048828 0.94553029537200927734 0.92147654294967651367 0.88435566425323486328 0.89639210700988769531 0.93763136863708496094 0.94684922695159912109 0.91122978925704956055 0.88217848539352416992 0.88666671514511108398 0.91019147634506225586 0.91788077354431152344 0.93072122335433959961 0.87046599388122558594 0.81252914667129516602 0.81644642353057861328 0.86131745576858520508 0.85489696264266967773 0.86927980184555053711 
0.83241105079650878906 0.84831279516220092773 0.88830715417861938477 0.88978993892669677734 0.84878128767013549805 0.90464341640472412109 0.90540987253189086914 0.8955364227294921875 0.8936722874641418457 0.91064596176147460938 0.89400124549865722656 0.87847912311553955078 0.90194302797317504883 0.94738692045211791992 0.94545269012451171875 0.90319657325744628906 0.90392124652862548828 0.92479676008224487305 0.95148247480392456055 0.93757331371307373047 0.89943969249725341797 0.87497144937515258789 0.89874082803726196289 0.92457753419876098633 0.93366086483001708984 0.91501528024673461914 0.87394034862518310547 0.83396494388580322266 0.855175018310546875 0.89103025197982788086 0.87168365716934204102 0.85319006443023681641 
0.84659475088119506836 0.83885180950164794922 0.87086987495422363281 0.87714433670043945312 0.89183104038238525391 0.91177278757095336914 0.89456790685653686523 0.88993430137634277344 0.90393620729446411133 0.90768730640411376953 0.90160524845123291016 0.90419840812683105469 0.93490248918533325195 0.95195585489273071289 0.93909740447998046875 0.91268163919448852539 0.92507976293563842773 0.94442170858383178711 0.95353603363037109375 0.92413389682769775391 0.91702282428741455078 0.90275722742080688477 0.90714097023010253906 0.91861307621002197266 0.9126402735710144043 0.89298224449157714844 0.87618327140808105469 0.85505545139312744141 0.85267853736877441406 0.81084293127059936523 0.80032992362976074219 0.81700474023818969727 
0.88376271724700927734 0.85416567325592041016 0.8757578730583190918 0.91520029306411743164 0.91931718587875366211 0.9206129908561706543 0.91271048784255981445 0.90979915857315063477 0.91182750463485717773 0.88643556833267211914 0.89944869279861450195 0.92604917287826538086 0.93037128448486328125 0.95486038923263549805 0.92796272039413452148 0.92187952995300292969 0.93361109495162963867 0.94131165742874145508 0.96006315946578979492 0.93688154220581054688 0.91862761974334716797 0.9058488011360168457 0.90887963771820068359 0.89844888448715209961 0.87942755222320556641 0.86212569475173950195 0.86000615358352661133 0.83371955156326293945 0.85628235340118408203 0.83323937654495239258 0.81892454624176025391 0.83338910341262817383 
0.898555755615234375 0.88927489519119262695 0.87555491924285888672 0.91518867015838623047 0.93536019325256347656 0.94022464752197265625 0.92896425724029541016 0.91353261470794677734 0.87502419948577880859 0.88353294134140014648 0.92546927928924560547 0.94523537158966064453 0.95008695125579833984 0.94425338506698608398 0.91463798284530639648 0.92867273092269897461 0.92864966392517089844 0.93452423810958862305 0.95789009332656860352 0.90426248311996459961 0.90488451719284057617 0.900638580322265625 0.90428692102432250977 0.87609136104583740234 0.85439127683639526367 0.87659358978271484375 0.83464360237121582031 0.83086657524108886719 0.84379428625106811523 0.85044002532958984375 0.84483534097671508789 0.86722278594970703125 
0.82061660289764404297 0.91782510280609130859 0.89116245508193969727 0.92792099714279174805 0.93515348434448242188 0.92626392841339111328 0.91962659358978271484 0.88284254074096679688 0.87833738327026367188 0.90780806541442871094 0.89197897911071777344 0.92432796955108642578 0.94138675928115844727 0.91996264457702636719 0.9355385899543762207 0.92964798212051391602 0.90307521820068359375 0.9457709193229675293 0.95764833688735961914 0.90201973915100097656 0.89934360980987548828 0.89063805341720581055 0.89896613359451293945 0.85918349027633666992 0.86908745765686035156 0.86490172147750854492 0.86051315069198608398 0.85269939899444580078 0.82794767618179321289 0.82318150997161865234 0.85524189472198486328 0.8824755549430847168 
0.84121781587600708008 0.90830349922180175781 0.89781785011291503906 0.87662541866302490234 0.87635958194732666016 0.89080065488815307617 0.90117722749710083008 0.90404844284057617188 0.90886491537094116211 0.90959465503692626953 0.87305867671966552734 0.89334148168563842773 0.93946945667266845703 0.94067931175231933594 0.94133597612380981445 0.91348987817764282227 0.88866913318634033203 0.93020468950271606445 0.92406111955642700195 0.92004626989364624023 0.89001250267028808594 0.91718626022338867188 0.90450763702392578125 0.87402325868606567383 0.87762814760208129883 0.87759935855865478516 0.88395082950592041016 0.86752313375473022461 0.85528558492660522461 0.86912703514099121094 0.88187503814697265625 0.90403866767883300781 
0.88588011264801025391 0.89563798904418945312 0.890117645263671875 0.8972256779670715332 0.90057814121246337891 0.87243324518203735352 0.85134011507034301758 0.88934850692749023438 0.91758859157562255859 0.91240638494491577148 0.86483269929885864258 0.86525952816009521484 0.89661902189254760742 0.92734926939010620117 0.91412073373794555664 0.85765296220779418945 0.87847143411636352539 0.90945059061050415039 0.85904806852340698242 0.89544594287872314453 0.91256964206695556641 0.91066050529479980469 0.90798300504684448242 0.90367674827575683594 0.88552999496459960938 0.88925647735595703125 0.91941863298416137695 0.93426531553268432617 0.92484956979751586914 0.902797698974609375 0.89426136016845703125 0.91434884071350097656 
0.87754511833190917969 0.86638283729553222656 0.85383135080337524414 0.875469207763671875 0.89091950654983520508 0.89888042211532592773 0.86635553836822509766 0.83676862716674804688 0.85686737298965454102 0.90056300163269042969 0.8594977259635925293 0.80887210369110107422 0.86453860998153686523 0.93992769718170166016 0.91042286157608032227 0.87305182218551635742 0.90922349691390991211 0.90112930536270141602 0.83438956737518310547 0.85412418842315673828 0.85821056365966796875 0.90183711051940917969 0.90595108270645141602 0.91641879081726074219 0.92955225706100463867 0.88365036249160766602 0.89753282070159912109 0.87405562400817871094 0.87910759449005126953 0.8912798762321472168 0.86327707767486572266 0.84457737207412719727 
0.89019739627838134766 0.86468863487243652344 0.85798656940460205078 0.855731964111328125 0.84431916475296020508 0.87825757265090942383 0.8743883967399597168 0.85296326875686645508 0.83264410495758056641 0.89014530181884765625 0.85603463649749755859 0.78978824615478515625 0.86865335702896118164 0.91154170036315917969 0.90408104658126831055 0.87009090185165405273 0.86813998222351074219 0.8865935206413269043 0.83932250738143920898 0.86640000343322753906 0.83840024471282958984 0.8445536494255065918 0.90420228242874145508 0.93629592657089233398 0.94580441713333129883 0.85418033599853515625 0.85441660881042480469 0.88901406526565551758 0.8865044713020324707 0.87617194652557373047 0.83633816242218017578 0.85702937841415405273 
0.91568392515182495117 0.86534368991851806641 0.87143892049789428711 0.89091771841049194336 0.87591445446014404297 0.88068479299545288086 0.913410186767578125 0.8617102503776550293 0.83957946300506591797 0.86157912015914916992 0.85688477754592895508 0.81326895952224731445 0.84801286458969116211 0.88271546363830566406 0.88625323772430419922 0.8563092350959777832 0.83713573217391967773 0.86953663825988769531 0.8579037785530090332 0.8691456913948059082 0.86197870969772338867 0.83204692602157592773 0.87801587581634521484 0.90196490287780761719 0.89663463830947875977 0.85698372125625610352 0.89891272783279418945 0.97165459394454956055 0.91912710666656494141 0.85716784000396728516 0.86326992511749267578 0.89279443025588989258 
