ncols        109
nrows        108
xllcorner    625080.348754761741
yllcorner    5174399.999877895229
cellsize     250.000000000000
NODATA_value -9999
0.99398142099380493164 0.94877195358276367188 0.92457497119903564453 0.93914645910263061523 0.93781906366348266602 0.92083877325057983398 0.98496043682098388672 0.99079078435897827148 0.97222250699996948242 0.97000163793563842773 0.94180774688720703125 0.99571311473846435547 0.95943033695220947266 0.91342538595199584961 0.91984230279922485352 0.95851141214370727539 0.96872985363006591797 0.96924263238906860352 0.96781039237976074219 0.94850873947143554688 0.90792179107666015625 0.96750724315643310547 0.9410445094108581543 0.93000090122222900391 0.93426454067230224609 0.91736501455307006836 0.91059041023254394531 0.90463387966156005859 0.89642810821533203125 0.92844998836517333984 0.91728991270065307617 0.92323690652847290039 0.93051421642303466797 0.94350868463516235352 0.96444010734558105469 0.95242190361022949219 0.94301182031631469727 0.91448950767517089844 0.91620713472366333008 0.90016359090805053711 0.90809386968612670898 0.93750160932540893555 0.99932342767715454102 0.96234124898910522461 0.96134638786315917969 0.98648399114608764648 0.99292594194412231445 0.99382674694061279297 0.99525350332260131836 0.97694593667984008789 0.96771222352981567383 0.95169115066528320312 0.95553910732269287109 0.93401241302490234375 0.96740037202835083008 0.98994821310043334961 0.97897982597351074219 0.97889310121536254883 0.9772860407829284668 0.96921133995056152344 0.97046393156051635742 0.95771658420562744141 0.92631775140762329102 0.89664036035537719727 0.89932370185852050781 0.86436170339584350586 0.89108389616012573242 0.90920591354370117188 0.92535924911499023438 0.93779456615447998047 0.9219176173210144043 0.86452543735504150391 0.85623210668563842773 0.86389636993408203125 0.87136077880859375 0.8816331028938293457 0.93428915739059448242 0.94874387979507446289 0.96000432968139648438 0.94903647899627685547 0.94415968656539916992 0.99683630466461181641 0.98114305734634399414 0.93081712722778320312 0.95905065536499023438 0.97009760141372680664 0.98376899957656860352 0.98682075738906860352 0.95121341943740844727 0.95346093177795410156 0.93456661701202392578 0.90179336071014404297 0.88095831871032714844 0.85309433937072753906 0.8577811121940612793 0.89894664287567138672 0.89957982301712036133 0.97291302680969238281 0.93437594175338745117 0.95746189355850219727 0.95700925588607788086 0.94072681665420532227 0.93175017833709716797 0.9466616511344909668 0.94975948333740234375 0.93659454584121704102 0.93057334423065185547 0.92042911052703857422 0.92312610149383544922 
0.99224013090133666992 0.9410406947135925293 0.91332137584686279297 0.91717004776000976562 0.91723984479904174805 0.9013919830322265625 0.9646460413932800293 0.99102818965911865234 0.99069374799728393555 0.98976778984069824219 0.97803872823715209961 0.99945020675659179688 0.99556869268417358398 0.97161334753036499023 0.87824451923370361328 0.90885168313980102539 0.9303900599479675293 0.93359434604644775391 0.94452446699142456055 0.91672843694686889648 0.93262076377868652344 0.99448531866073608398 0.97855460643768310547 0.95496124029159545898 0.94201719760894775391 0.92105853557586669922 0.89600521326065063477 0.89575582742691040039 0.87015318870544433594 0.90514957904815673828 0.87838608026504516602 0.8751633763313293457 0.90970569849014282227 0.92230784893035888672 0.92027050256729125977 0.92501330375671386719 0.95428144931793212891 0.97610926628112792969 0.97979432344436645508 0.96873450279235839844 0.96842628717422485352 0.92346292734146118164 0.99951779842376708984 0.98070120811462402344 0.93559658527374267578 0.97655314207077026367 0.97841167449951171875 0.90654861927032470703 0.92518883943557739258 0.92615491151809692383 0.93008279800415039062 0.93755209445953369141 0.92495441436767578125 0.92087227106094360352 0.98245131969451904297 0.95076227188110351562 0.9362189173698425293 0.94091135263442993164 0.93286663293838500977 0.92062783241271972656 0.92477267980575561523 0.88353204727172851562 0.83630871772766113281 0.83425545692443847656 0.86671644449234008789 0.88159805536270141602 0.90241163969039916992 0.91757714748382568359 0.93579840660095214844 0.9477691650390625 0.93204021453857421875 0.88857609033584594727 0.86241698265075683594 0.83299881219863891602 0.83146679401397705078 0.79774183034896850586 0.82823896408081054688 0.85638356208801269531 0.87073254585266113281 0.89810645580291748047 0.86812233924865722656 0.94906032085418701172 0.98885047435760498047 0.99683731794357299805 0.9926083683967590332 0.99029511213302612305 0.99585229158401489258 0.96112334728240966797 0.92267560958862304688 0.88699370622634887695 0.86924225091934204102 0.85442644357681274414 0.85412347316741943359 0.86913299560546875 0.85560119152069091797 0.92430818080902099609 0.89284998178482055664 0.96339952945709228516 0.98434847593307495117 0.99101305007934570312 0.88319379091262817383 0.88080811500549316406 0.92189222574234008789 0.94831168651580810547 0.9536374211311340332 0.94919210672378540039 0.93362325429916381836 0.92003893852233886719 0.92742371559143066406 
0.99401146173477172852 0.94033300876617431641 0.92172664403915405273 0.91455352306365966797 0.91129255294799804688 0.90417045354843139648 0.9114176630973815918 0.92089492082595825195 0.94710046052932739258 0.95733171701431274414 0.91993349790573120117 0.95337826013565063477 0.97366738319396972656 0.99879956245422363281 0.90960830450057983398 0.90438687801361083984 0.91561245918273925781 0.91957521438598632812 0.89718711376190185547 0.94757705926895141602 0.97604709863662719727 0.99328333139419555664 0.97526377439498901367 0.95531028509140014648 0.94047486782073974609 0.91260188817977905273 0.88905310630798339844 0.88633197546005249023 0.87233781814575195312 0.89204794168472290039 0.8767566680908203125 0.8806483149528503418 0.9040934443473815918 0.91707396507263183594 0.90837943553924560547 0.87856751680374145508 0.90964537858963012695 0.9449736475944519043 0.92285937070846557617 0.87239128351211547852 0.9055697321891784668 0.91165399551391601562 0.99696874618530273438 0.89794981479644775391 0.90438711643218994141 0.95787346363067626953 0.96460729837417602539 0.95768028497695922852 0.95012056827545166016 0.94616228342056274414 0.94807684421539306641 0.93059217929840087891 0.90124857425689697266 0.98254048824310302734 0.95600408315658569336 0.9599393010139465332 0.93859636783599853516 0.911052703857421875 0.91991937160491943359 0.92383557558059692383 0.93622529506683349609 0.90471154451370239258 0.8508751988410949707 0.84145742654800415039 0.87856537103652954102 0.88942223787307739258 0.91353964805603027344 0.93257498741149902344 0.9392020106315612793 0.9732157588005065918 0.94760012626647949219 0.9044043421745300293 0.8847185969352722168 0.84899157285690307617 0.81626754999160766602 0.80471068620681762695 0.79257601499557495117 0.81673461198806762695 0.86977899074554443359 0.89577966928482055664 0.88481068611145019531 0.84379547834396362305 0.86828064918518066406 0.9914951324462890625 0.99629104137420654297 0.97696030139923095703 0.9551747441291809082 0.89595842361450195312 0.90377950668334960938 0.89300519227981567383 0.90101569890975952148 0.90156418085098266602 0.90402519702911376953 0.89442390203475952148 0.92100322246551513672 0.96879827976226806641 0.98320221900939941406 0.95593017339706420898 0.99603557586669921875 0.98256510496139526367 0.84108626842498779297 0.87742322683334350586 0.92293429374694824219 0.9321810603141784668 0.94983452558517456055 0.95194947719573974609 0.9548537135124206543 0.93802887201309204102 0.91985124349594116211 
0.99036991596221923828 0.93991672992706298828 0.90652453899383544922 0.90132200717926025391 0.89875298738479614258 0.91178035736083984375 0.91368043422698974609 0.89231312274932861328 0.89335256814956665039 0.90136468410491943359 0.89487069845199584961 0.90540683269500732422 0.90969264507293701172 0.99463689327239990234 0.92241865396499633789 0.92944049835205078125 0.92316174507141113281 0.91978168487548828125 0.94890177249908447266 0.97802931070327758789 0.90186965465545654297 0.95296066999435424805 0.95181179046630859375 0.93869572877883911133 0.92020887136459350586 0.88865655660629272461 0.87770295143127441406 0.89090299606323242188 0.87853330373764038086 0.88535773754119873047 0.88127231597900390625 0.90230345726013183594 0.91481131315231323242 0.90365296602249145508 0.89274954795837402344 0.87147861719131469727 0.91641759872436523438 0.89140737056732177734 0.88235425949096679688 0.86148810386657714844 0.93980693817138671875 0.98141121864318847656 0.99866509437561035156 0.94372522830963134766 0.93055146932601928711 0.92337459325790405273 0.93251323699951171875 0.94363749027252197266 0.94983041286468505859 0.94867634773254394531 0.93763577938079833984 0.91106575727462768555 0.96406674385070800781 0.99601900577545166016 0.97786873579025268555 0.99241942167282104492 0.96158576011657714844 0.92158067226409912109 0.90686631202697753906 0.91005146503448486328 0.89665710926055908203 0.84822976589202880859 0.8248742222785949707 0.83108121156692504883 0.87835443019866943359 0.87609612941741943359 0.91090863943099975586 0.9462363123893737793 0.94157016277313232422 0.96364521980285644531 0.95358562469482421875 0.92902481555938720703 0.87251567840576171875 0.85455590486526489258 0.81902277469635009766 0.80796408653259277344 0.78791296482086181641 0.79284435510635375977 0.85845571756362915039 0.89429247379302978516 0.87791770696640014648 0.86268442869186401367 0.93230378627777099609 0.98631489276885986328 0.98112219572067260742 0.91705310344696044922 0.93840754032135009766 0.91228109598159790039 0.91796284914016723633 0.92846578359603881836 0.91247069835662841797 0.84773302078247070312 0.89939087629318237305 0.88881993293762207031 0.91706097126007080078 0.93786698579788208008 0.99240446090698242188 0.9731019139289855957 0.99791169166564941406 0.99844765663146972656 0.94732648134231567383 0.95895010232925415039 0.93198496103286743164 0.91216260194778442383 0.94123369455337524414 0.95028990507125854492 0.96308219432830810547 0.96121013164520263672 0.94002294540405273438 
0.96003586053848266602 0.91953939199447631836 0.86939638853073120117 0.87906652688980102539 0.90890443325042724609 0.92697286605834960938 0.93382859230041503906 0.91341120004653930664 0.89659035205841064453 0.94704413414001464844 0.94499301910400390625 0.9198760986328125 0.94998556375503540039 0.99936568737030029297 0.97307467460632324219 0.98645955324172973633 0.99374276399612426758 0.9981327056884765625 0.99229902029037475586 0.91649335622787475586 0.87945097684860229492 0.91458529233932495117 0.91439640522003173828 0.8956248164176940918 0.93339842557907104492 0.92565768957138061523 0.89519602060317993164 0.90081655979156494141 0.89074993133544921875 0.89317506551742553711 0.89947724342346191406 0.90193402767181396484 0.91790926456451416016 0.91842782497406005859 0.88459122180938720703 0.89802002906799316406 0.9109089970588684082 0.89967167377471923828 0.88355946540832519531 0.93242657184600830078 0.97129464149475097656 0.9469534754753112793 0.94032311439514160156 0.97741413116455078125 0.97764301300048828125 0.92750936746597290039 0.87302261590957641602 0.91043609380722045898 0.91949152946472167969 0.92260682582855224609 0.91898119449615478516 0.971637725830078125 0.98354226350784301758 0.93967795372009277344 0.91498178243637084961 0.92624199390411376953 0.91938418149948120117 0.90587115287780761719 0.89942955970764160156 0.90792512893676757812 0.86725693941116333008 0.8330109715461730957 0.84348094463348388672 0.86307388544082641602 0.88852858543395996094 0.89106452465057373047 0.92768728733062744141 0.94611626863479614258 0.92658811807632446289 0.92585241794586181641 0.92798119783401489258 0.91448605060577392578 0.90332484245300292969 0.87204223871231079102 0.84281319379806518555 0.81645250320434570312 0.77154392004013061523 0.77667093276977539062 0.82992368936538696289 0.84458714723587036133 0.89638674259185791016 0.96862238645553588867 0.98748689889907836914 0.97201198339462280273 0.99533903598785400391 0.96925181150436401367 0.92860645055770874023 0.91775202751159667969 0.91954958438873291016 0.91260808706283569336 0.88267624378204345703 0.8243408203125 0.921802520751953125 0.94552212953567504883 0.9663403630256652832 0.99108290672302246094 0.97257840633392333984 0.88276219367980957031 0.8714160919189453125 0.96303451061248779297 0.9843667149543762207 0.94714069366455078125 0.89467567205429077148 0.89402180910110473633 0.92462706565856933594 0.94833028316497802734 0.96406733989715576172 0.97395300865173339844 0.97342950105667114258 
0.99434298276901245117 0.9900080561637878418 0.88582664728164672852 0.84370839595794677734 0.88239616155624389648 0.90633875131607055664 0.92433893680572509766 0.92064267396926879883 0.89487242698669433594 0.90939033031463623047 0.94640237092971801758 0.92820882797241210938 0.94935756921768188477 0.98524671792984008789 0.91762715578079223633 0.97006827592849731445 0.97854697704315185547 0.9894186854362487793 0.98887658119201660156 0.92196929454803466797 0.88447219133377075195 0.9152234196662902832 0.93033826351165771484 0.93551492691040039062 0.92304897308349609375 0.90042936801910400391 0.88452219963073730469 0.88717609643936157227 0.88078737258911132812 0.89197254180908203125 0.89217847585678100586 0.90451669692993164062 0.90297883749008178711 0.91368734836578369141 0.88580632209777832031 0.91593408584594726562 0.91862577199935913086 0.91136622428894042969 0.89941477775573730469 0.95409375429153442383 0.94677865505218505859 0.92316615581512451172 0.90361815690994262695 0.91887873411178588867 0.97854077816009521484 0.99587410688400268555 0.99480724334716796875 0.9247830510139465332 0.88200467824935913086 0.9010626673698425293 0.96182954311370849609 0.95757830142974853516 0.94242155551910400391 0.89947593212127685547 0.86233037710189819336 0.88862878084182739258 0.89601624011993408203 0.88527566194534301758 0.87949103116989135742 0.87030375003814697266 0.82905596494674682617 0.8368282318115234375 0.84569936990737915039 0.86221879720687866211 0.88611960411071777344 0.89985120296478271484 0.90784531831741333008 0.921375274658203125 0.89540326595306396484 0.92127770185470581055 0.94311368465423583984 0.85590505599975585938 0.86746227741241455078 0.86401027441024780273 0.82537704706192016602 0.80119138956069946289 0.80329734086990356445 0.82971864938735961914 0.86269968748092651367 0.91681343317031860352 0.97971034049987792969 0.96686327457427978516 0.94432729482650756836 0.88526755571365356445 0.99268156290054321289 0.98651593923568725586 0.89158982038497924805 0.8937969207763671875 0.87901610136032104492 0.90315860509872436523 0.87160539627075195312 0.81673574447631835938 0.98495918512344360352 0.99948406219482421875 0.9995263218879699707 0.96434062719345092773 0.93771302700042724609 0.88160181045532226562 0.89252257347106933594 0.89919894933700561523 0.88955175876617431641 0.86185956001281738281 0.85029017925262451172 0.86546164751052856445 0.89975309371948242188 0.92356741428375244141 0.95216339826583862305 0.97000873088836669922 0.96831470727920532227 
0.94970273971557617188 0.99258643388748168945 0.96864122152328491211 0.90236425399780273438 0.85818964242935180664 0.85728269815444946289 0.88997644186019897461 0.8896376490592956543 0.87025159597396850586 0.88143503665924072266 0.91239976882934570312 0.97938585281372070312 0.99652493000030517578 0.96997612714767456055 0.92616117000579833984 0.94345456361770629883 0.9387423396110534668 0.94993901252746582031 0.94715493917465209961 0.96608537435531616211 0.94053065776824951172 0.94257622957229614258 0.92641526460647583008 0.95634132623672485352 0.9198207855224609375 0.87754899263381958008 0.90597963333129882812 0.90485674142837524414 0.89751362800598144531 0.89298301935195922852 0.89446401596069335938 0.90935879945755004883 0.90771788358688354492 0.90778338909149169922 0.90040403604507446289 0.89611738920211791992 0.91114473342895507812 0.90243810415267944336 0.94838356971740722656 0.98264741897583007812 0.93472522497177124023 0.92609828710556030273 0.93390840291976928711 0.8676007390022277832 0.90713024139404296875 0.99693381786346435547 0.99644815921783447266 0.99296486377716064453 0.99356681108474731445 0.9950587153434753418 0.94900113344192504883 0.88228040933609008789 0.91609603166580200195 0.9226576685905456543 0.88908773660659790039 0.89901745319366455078 0.89808064699172973633 0.88308888673782348633 0.88452863693237304688 0.85653197765350341797 0.83013421297073364258 0.85333746671676635742 0.83916264772415161133 0.85102814435958862305 0.89225912094116210938 0.88181608915328979492 0.88561791181564331055 0.86497020721435546875 0.88120388984680175781 0.94163334369659423828 0.94287890195846557617 0.84198278188705444336 0.83933871984481811523 0.81851202249526977539 0.79200351238250732422 0.78772622346878051758 0.77979302406311035156 0.8164208531379699707 0.87023437023162841797 0.90829163789749145508 0.94948559999465942383 0.94520407915115356445 0.92714971303939819336 0.89205342531204223633 0.93773126602172851562 0.99002575874328613281 0.95584881305694580078 0.92339289188385009766 0.9143860936164855957 0.94131129980087280273 0.86679494380950927734 0.94873338937759399414 0.99775576591491699219 0.91642367839813232422 0.95181488990783691406 0.93022185564041137695 0.91664260625839233398 0.93496555089950561523 0.93791282176971435547 0.93487763404846191406 0.90308356285095214844 0.89698147773742675781 0.85857129096984863281 0.87242388725280761719 0.90729165077209472656 0.90956056118011474609 0.92565560340881347656 0.93581104278564453125 0.92897206544876098633 
0.88750362396240234375 0.9386196136474609375 0.94256705045700073242 0.93297219276428222656 0.90009200572967529297 0.83271509408950805664 0.87045949697494506836 0.86970931291580200195 0.85526865720748901367 0.93384182453155517578 0.99926418066024780273 0.99930644035339355469 0.99892610311508178711 0.90505445003509521484 0.88662958145141601562 0.94157236814498901367 0.95852816104888916016 0.94628870487213134766 0.9324786067008972168 0.98244357109069824219 0.98762977123260498047 0.98075455427169799805 0.97273749113082885742 0.95165812969207763672 0.8887303471565246582 0.87753427028656005859 0.90117484331130981445 0.90622043609619140625 0.89129799604415893555 0.88884466886520385742 0.87971568107604980469 0.88517898321151733398 0.8943379521369934082 0.87858086824417114258 0.90081286430358886719 0.93130463361740112305 0.9540157318115234375 0.97019463777542114258 0.96073472499847412109 0.95586943626403808594 0.92908918857574462891 0.94058513641357421875 0.90546500682830810547 0.84453177452087402344 0.93428522348403930664 0.91351270675659179688 0.86978423595428466797 0.85330522060394287109 0.87883132696151733398 0.94373869895935058594 0.97495859861373901367 0.99161672592163085938 0.98803293704986572266 0.88635689020156860352 0.89521211385726928711 0.90811151266098022461 0.91198259592056274414 0.85630363225936889648 0.84328705072402954102 0.82575255632400512695 0.84611111879348754883 0.85030663013458251953 0.85596108436584472656 0.87375742197036743164 0.88449281454086303711 0.87963259220123291016 0.87996637821197509766 0.88338702917098999023 0.94541144371032714844 0.99753791093826293945 0.94425868988037109375 0.83877128362655639648 0.81509011983871459961 0.80331987142562866211 0.81794226169586181641 0.84361177682876586914 0.79851776361465454102 0.80036628246307373047 0.81353247165679931641 0.90806853771209716797 0.94896638393402099609 0.93135678768157958984 0.91765034198760986328 0.91693818569183349609 0.88683348894119262695 0.95025217533111572266 0.98498076200485229492 0.98304307460784912109 0.96995043754577636719 0.94443905353546142578 0.96011406183242797852 0.9983615875244140625 0.99141621589660644531 0.9438037872314453125 0.97145944833755493164 0.98616033792495727539 0.96251773834228515625 0.96133607625961303711 0.92682099342346191406 0.94442701339721679688 0.93530637025833129883 0.91534030437469482422 0.87860739231109619141 0.88608306646347045898 0.89945799112319946289 0.8847897648811340332 0.91334384679794311523 0.92306238412857055664 0.87128251791000366211 
0.96171623468399047852 0.90997564792633056641 0.96806168556213378906 0.96917444467544555664 0.91482251882553100586 0.83768409490585327148 0.88051497936248779297 0.85813802480697631836 0.89482098817825317383 0.97642654180526733398 0.99911206960678100586 0.90362489223480224609 0.96779906749725341797 0.96751439571380615234 0.93135178089141845703 0.89261460304260253906 0.94638919830322265625 0.96568816900253295898 0.94671845436096191406 0.92476809024810791016 0.95803737640380859375 0.96078205108642578125 0.96226358413696289062 0.95640456676483154297 0.93223601579666137695 0.87146747112274169922 0.89347255229949951172 0.91103696823120117188 0.89366090297698974609 0.88868027925491333008 0.88199692964553833008 0.85758447647094726562 0.88762241601943969727 0.89633506536483764648 0.92603415250778198242 0.92703539133071899414 0.90976709127426147461 0.90180343389511108398 0.88133782148361206055 0.88669824600219726562 0.92618191242218017578 0.92122739553451538086 0.9042008519172668457 0.92467784881591796875 0.9859663844108581543 0.89885753393173217773 0.8540986180305480957 0.8977820277214050293 0.92250394821166992188 0.92230242490768432617 0.94388592243194580078 0.98994904756546020508 0.95148307085037231445 0.85924673080444335938 0.90781050920486450195 0.9145419001579284668 0.89595019817352294922 0.85684973001480102539 0.83050537109375 0.83189207315444946289 0.8390604853630065918 0.84379273653030395508 0.8496716618537902832 0.86594152450561523438 0.87476575374603271484 0.86392074823379516602 0.87369138002395629883 0.95109146833419799805 0.99323868751525878906 0.99350792169570922852 0.99591284990310668945 0.9703623652458190918 0.89925235509872436523 0.91990572214126586914 0.92088997364044189453 0.92537289857864379883 0.86343717575073242188 0.90562450885772705078 0.89361619949340820312 0.90614366531372070312 0.92146933078765869141 0.88346624374389648438 0.91198313236236572266 0.91500288248062133789 0.88719773292541503906 0.93792891502380371094 0.98104071617126464844 0.97112727165222167969 0.96654540300369262695 0.98492950201034545898 0.99672299623489379883 0.98117792606353759766 0.94359916448593139648 0.9346485137939453125 0.95293831825256347656 0.97114354372024536133 0.94470602273941040039 0.9797427058219909668 0.92684537172317504883 0.90996569395065307617 0.91661238670349121094 0.90653741359710693359 0.89029079675674438477 0.89481425285339355469 0.90195518732070922852 0.89046865701675415039 0.90698796510696411133 0.88431155681610107422 0.83365970849990844727 
0.95428419113159179688 0.90797460079193115234 0.96091556549072265625 0.99631631374359130859 0.97895336151123046875 0.88017749786376953125 0.87260138988494873047 0.8687807917594909668 0.94565409421920776367 0.99788063764572143555 0.97475451231002807617 0.93915027379989624023 0.92587125301361083984 0.90543633699417114258 0.96607381105422973633 0.96616673469543457031 0.93988680839538574219 0.94649934768676757812 0.93631160259246826172 0.94899827241897583008 0.94817727804183959961 0.94776475429534912109 0.94483512639999389648 0.94517427682876586914 0.92755454778671264648 0.87887769937515258789 0.90758109092712402344 0.90911567211151123047 0.87450081110000610352 0.88301557302474975586 0.8738295435905456543 0.82552790641784667969 0.87007898092269897461 0.91287153959274291992 0.91222327947616577148 0.8920281529426574707 0.90896713733673095703 0.923004150390625 0.91943842172622680664 0.92224800586700439453 0.91081857681274414062 0.90311288833618164062 0.89911699295043945312 0.88040661811828613281 0.97901117801666259766 0.99936586618423461914 0.92980015277862548828 0.85549908876419067383 0.90297293663024902344 0.92516076564788818359 0.91083419322967529297 0.95810800790786743164 0.95373320579528808594 0.91112875938415527344 0.91177618503570556641 0.90462660789489746094 0.86141228675842285156 0.82586508989334106445 0.81579720973968505859 0.80455279350280761719 0.81356978416442871094 0.84684920310974121094 0.83226716518402099609 0.82330316305160522461 0.84249979257583618164 0.82659673690795898438 0.85424906015396118164 0.97925055027008056641 0.98776173591613769531 0.93041831254959106445 0.96250081062316894531 0.9876562952995300293 0.99199110269546508789 0.99416875839233398438 0.99388319253921508789 0.98949235677719116211 0.93181765079498291016 0.91109842061996459961 0.89795064926147460938 0.88810044527053833008 0.87144845724105834961 0.88608342409133911133 0.92336571216583251953 0.91552364826202392578 0.90052402019500732422 0.96283930540084838867 0.96773797273635864258 0.94572961330413818359 0.9793618321418762207 0.96596044301986694336 0.96879822015762329102 0.97103208303451538086 0.96851360797882080078 0.95688289403915405273 0.94155853986740112305 0.96616411209106445312 0.96544092893600463867 0.97844564914703369141 0.94973385334014892578 0.89868599176406860352 0.88470768928527832031 0.87895596027374267578 0.88631319999694824219 0.88250792026519775391 0.89465314149856567383 0.87210923433303833008 0.87525182962417602539 0.84380382299423217773 0.87207227945327758789 
0.96739268302917480469 0.95799982547760009766 0.94879841804504394531 0.95440727472305297852 0.99932348728179931641 0.96437942981719970703 0.87432056665420532227 0.86492997407913208008 0.83132994174957275391 0.97017645835876464844 0.91200077533721923828 0.89434540271759033203 0.92688727378845214844 0.91704738140106201172 0.9345257878303527832 0.97685450315475463867 0.97602152824401855469 0.94635021686553955078 0.92494064569473266602 0.94308292865753173828 0.93077945709228515625 0.89359170198440551758 0.8681926727294921875 0.89085942506790161133 0.89861255884170532227 0.91266959905624389648 0.91327190399169921875 0.86800760030746459961 0.8551304936408996582 0.88062202930450439453 0.86562287807464599609 0.82369518280029296875 0.86573463678359985352 0.91231536865234375 0.92984890937805175781 0.90901768207550048828 0.90636777877807617188 0.92117506265640258789 0.91530376672744750977 0.90459144115447998047 0.88572663068771362305 0.88294428586959838867 0.86193269491195678711 0.83422333002090454102 0.94949632883071899414 0.99883389472961425781 0.98578804731369018555 0.91681432723999023438 0.92087018489837646484 0.92713761329650878906 0.92095834016799926758 0.92067331075668334961 0.90099352598190307617 0.88477504253387451172 0.88472580909729003906 0.89218580722808837891 0.83177769184112548828 0.80939793586730957031 0.83809059858322143555 0.80613577365875244141 0.82420504093170166016 0.87622499465942382812 0.84393036365509033203 0.81102192401885986328 0.85523790121078491211 0.87301945686340332031 0.95125782489776611328 0.99568718671798706055 0.96987676620483398438 0.91913741827011108398 0.92419201135635375977 0.90098136663436889648 0.90540313720703125 0.91714990139007568359 0.92811679840087890625 0.93756490945816040039 0.88791674375534057617 0.8950106501579284668 0.90699815750122070312 0.84771573543548583984 0.83590400218963623047 0.93738168478012084961 0.94331431388854980469 0.91250699758529663086 0.9013398289680480957 0.97228521108627319336 0.97635167837142944336 0.99606400728225708008 0.98917907476425170898 0.9564005732536315918 0.95108383893966674805 0.96343404054641723633 0.96619147062301635742 0.92140936851501464844 0.89737039804458618164 0.94655787944793701172 0.97167533636093139648 0.9715563654899597168 0.94010835886001586914 0.89631646871566772461 0.90275329351425170898 0.90318632125854492188 0.88120055198669433594 0.88222956657409667969 0.86422181129455566406 0.82612109184265136719 0.83779633045196533203 0.80781310796737670898 0.89487832784652709961 
0.95665311813354492188 0.97290408611297607422 0.9876194000244140625 0.98156446218490600586 0.99745130538940429688 0.9918124079704284668 0.97707384824752807617 0.94005018472671508789 0.97405588626861572266 0.99931496381759643555 0.97508013248443603516 0.86293178796768188477 0.87133008241653442383 0.90624761581420898438 0.92022299766540527344 0.91961270570755004883 0.93251520395278930664 0.94530922174453735352 0.92276746034622192383 0.92187273502349853516 0.88519853353500366211 0.84938973188400268555 0.85554069280624389648 0.88281637430191040039 0.88337290287017822266 0.90367853641510009766 0.89483726024627685547 0.83926957845687866211 0.86681038141250610352 0.87537652254104614258 0.85574823617935180664 0.84141951799392700195 0.86123198270797729492 0.88797610998153686523 0.94488227367401123047 0.90349984169006347656 0.87789887189865112305 0.89128518104553222656 0.90099364519119262695 0.87853503227233886719 0.86872661113739013672 0.86856085062026977539 0.87663537263870239258 0.83632433414459228516 0.97490561008453369141 0.92853826284408569336 0.93505114316940307617 0.9085953831672668457 0.94929867982864379883 0.94783484935760498047 0.95152115821838378906 0.94848090410232543945 0.89118838310241699219 0.88293278217315673828 0.90174496173858642578 0.87223935127258300781 0.8213647007942199707 0.83575940132141113281 0.83639073371887207031 0.82035243511199951172 0.8771407008171081543 0.87044942378997802734 0.89155083894729614258 0.85153543949127197266 0.86202961206436157227 0.98373705148696899414 0.99103254079818725586 0.98106187582015991211 0.94425427913665771484 0.95951497554779052734 0.96219921112060546875 0.95626682043075561523 0.94759756326675415039 0.94172018766403198242 0.91754573583602905273 0.92234903573989868164 0.90421080589294433594 0.92003232240676879883 0.88899141550064086914 0.81787067651748657227 0.84862232208251953125 0.96420419216156005859 0.9714959263801574707 0.91021305322647094727 0.99773502349853515625 0.99957704544067382812 0.99921357631683349609 0.99553006887435913086 0.95072388648986816406 0.91791421175003051758 0.93871474266052246094 0.94044262170791625977 0.96302086114883422852 0.97023844718933105469 0.93723207712173461914 0.93419998884201049805 0.9601987004280090332 0.94495826959609985352 0.93258726596832275391 0.88912910223007202148 0.91366517543792724609 0.90638244152069091797 0.87911581993103027344 0.84256440401077270508 0.8255208134651184082 0.81453734636306762695 0.828502655029296875 0.81686902046203613281 0.94430315494537353516 
0.99223220348358154297 0.99230635166168212891 0.9908421635627746582 0.959438323974609375 0.90850859880447387695 0.89351236820220947266 0.97808623313903808594 0.99897706508636474609 0.98203819990158081055 0.97388219833374023438 0.99917972087860107422 0.9929676055908203125 0.95235383510589599609 0.95439010858535766602 0.923847198486328125 0.90518176555633544922 0.92967432737350463867 0.90688037872314453125 0.88364040851593017578 0.87367236614227294922 0.86837613582611083984 0.87564170360565185547 0.88739407062530517578 0.89374703168869018555 0.88465547561645507812 0.91474497318267822266 0.87453389167785644531 0.82422822713851928711 0.85400497913360595703 0.86603516340255737305 0.83215928077697753906 0.82623499631881713867 0.86793947219848632812 0.87484282255172729492 0.94061845541000366211 0.93739223480224609375 0.89689004421234130859 0.8502356410026550293 0.87211245298385620117 0.85564500093460083008 0.86184871196746826172 0.87361955642700195312 0.90815675258636474609 0.91350513696670532227 0.96884816884994506836 0.9304491877555847168 0.90139055252075195312 0.84229791164398193359 0.89883732795715332031 0.93273067474365234375 0.93538528680801391602 0.94304555654525756836 0.94909250736236572266 0.89570814371109008789 0.87584286928176879883 0.82234716415405273438 0.80350524187088012695 0.82646566629409790039 0.81006312370300292969 0.85096770524978637695 0.85656225681304931641 0.83712482452392578125 0.84567278623580932617 0.95002120733261108398 0.97350412607192993164 0.96181154251098632812 0.94618773460388183594 0.93656021356582641602 0.95924180746078491211 0.96904367208480834961 0.96358579397201538086 0.952640533447265625 0.95284825563430786133 0.9418684840202331543 0.93783956766128540039 0.92913669347763061523 0.94400048255920410156 0.9344756007194519043 0.88709789514541625977 0.87043142318725585938 0.9115664362907409668 0.99912941455841064453 0.98778671026229858398 0.95568525791168212891 0.99476230144500732422 0.96103721857070922852 0.94093346595764160156 0.9088637232780456543 0.9040241241455078125 0.92235606908798217773 0.95708388090133666992 0.96843355894088745117 0.97041648626327514648 0.97741228342056274414 0.96419835090637207031 0.95389056205749511719 0.96084308624267578125 0.90694123506546020508 0.89778041839599609375 0.90233451128005981445 0.89267140626907348633 0.86571729183197021484 0.85034543275833129883 0.80364805459976196289 0.81124269962310791016 0.81668651103973388672 0.82453209161758422852 0.85118436813354492188 0.95087593793869018555 
0.93006092309951782227 0.8888975977897644043 0.88346654176712036133 0.88372981548309326172 0.88145434856414794922 0.86304628849029541016 0.96526807546615600586 0.9855976104736328125 0.92608118057250976562 0.93874514102935791016 0.95622712373733520508 0.97816932201385498047 0.91879087686538696289 0.9717648625373840332 0.97861891984939575195 0.95597988367080688477 0.88724374771118164062 0.87107390165328979492 0.85341626405715942383 0.86626780033111572266 0.86591482162475585938 0.86694771051406860352 0.87455570697784423828 0.90617167949676513672 0.90885311365127563477 0.93074285984039306641 0.88836961984634399414 0.81691980361938476562 0.8388054966926574707 0.85938215255737304688 0.8317807316780090332 0.85223507881164550781 0.86409670114517211914 0.86785125732421875 0.91901701688766479492 0.97004652023315429688 0.9649588465690612793 0.92439347505569458008 0.93523848056793212891 0.91235458850860595703 0.94331574440002441406 0.95608985424041748047 0.96667200326919555664 0.98352909088134765625 0.91592288017272949219 0.93523609638214111328 0.88668978214263916016 0.84531998634338378906 0.90187060832977294922 0.93128174543380737305 0.94183993339538574219 0.95398473739624023438 0.95337921380996704102 0.91075819730758666992 0.85088264942169189453 0.80606693029403686523 0.81989240646362304688 0.78836232423782348633 0.80899393558502197266 0.82511186599731445312 0.83049386739730834961 0.84918099641799926758 0.88179236650466918945 0.93798828125 0.99720531702041625977 0.99161928892135620117 0.92769056558609008789 0.93046480417251586914 0.95701414346694946289 0.96258056163787841797 0.95226299762725830078 0.942447662353515625 0.95023590326309204102 0.94859164953231811523 0.94421488046646118164 0.94153630733489990234 0.95089334249496459961 0.93986666202545166016 0.89271181821823120117 0.88517898321151733398 0.94046795368194580078 0.99355983734130859375 0.9702701568603515625 0.97401130199432373047 0.9986820220947265625 0.95502650737762451172 0.96118026971817016602 0.95277410745620727539 0.95224899053573608398 0.9597390294075012207 0.9728298187255859375 0.97395104169845581055 0.97461587190628051758 0.98006576299667358398 0.96964490413665771484 0.95613586902618408203 0.96469640731811523438 0.93682056665420532227 0.91247171163558959961 0.89014256000518798828 0.86171877384185791016 0.83778595924377441406 0.79794001579284667969 0.78325414657592773438 0.80353015661239624023 0.79234415292739868164 0.81954836845397949219 0.84918773174285888672 0.94743329286575317383 
0.89713126420974731445 0.86327624320983886719 0.87014532089233398438 0.90549486875534057617 0.88624185323715209961 0.85895627737045288086 0.99782061576843261719 0.96208101511001586914 0.93484777212142944336 0.95250457525253295898 0.94264048337936401367 0.9606869816780090332 0.9424343109130859375 0.93216031789779663086 0.94043976068496704102 0.91280764341354370117 0.85224044322967529297 0.8595688939094543457 0.85584104061126708984 0.85060894489288330078 0.84621316194534301758 0.87313449382781982422 0.93451768159866333008 0.95953804254531860352 0.93227100372314453125 0.90570026636123657227 0.87437987327575683594 0.84704983234405517578 0.84433591365814208984 0.85313189029693603516 0.84735429286956787109 0.88486319780349731445 0.89582163095474243164 0.8967139124870300293 0.91202068328857421875 0.94819277524948120117 0.98015004396438598633 0.95180845260620117188 0.91459459066390991211 0.91326987743377685547 0.95897775888442993164 0.96366071701049804688 0.93903470039367675781 0.99905335903167724609 0.96850919723510742188 0.99158567190170288086 0.94068920612335205078 0.82536703348159790039 0.84784084558486938477 0.90069574117660522461 0.91835576295852661133 0.94549977779388427734 0.9544188380241394043 0.94705981016159057617 0.86493015289306640625 0.8165041804313659668 0.8187878727912902832 0.79350072145462036133 0.86663842201232910156 0.91149342060089111328 0.91013246774673461914 0.90793275833129882812 0.89053797721862792969 0.8406352996826171875 0.95280706882476806641 0.99881720542907714844 0.93601953983306884766 0.94250941276550292969 0.95849210023880004883 0.92801129817962646484 0.91208356618881225586 0.92967742681503295898 0.94224405288696289062 0.94204950332641601562 0.93238735198974609375 0.93226778507232666016 0.9431139826774597168 0.94935321807861328125 0.94402778148651123047 0.90253418684005737305 0.90317445993423461914 0.92376154661178588867 0.90839594602584838867 0.93133193254470825195 0.99590063095092773438 0.9633884429931640625 0.96627908945083618164 0.97192960977554321289 0.96578943729400634766 0.97047853469848632812 0.97146373987197875977 0.96818637847900390625 0.96273982524871826172 0.95528382062911987305 0.94062012434005737305 0.94846934080123901367 0.9719994664192199707 0.96849465370178222656 0.94432210922241210938 0.88791179656982421875 0.83965933322906494141 0.82031959295272827148 0.80228501558303833008 0.80505484342575073242 0.78853809833526611328 0.8135814666748046875 0.82594025135040283203 0.86966919898986816406 0.95722663402557373047 
0.88826078176498413086 0.87628281116485595703 0.90813434123992919922 0.93049818277359008789 0.93504738807678222656 0.93323969841003417969 0.99867296218872070312 0.95851075649261474609 0.9330120086669921875 0.94962161779403686523 0.94116520881652832031 0.95499533414840698242 0.93137377500534057617 0.92941516637802124023 0.90336632728576660156 0.8469079136848449707 0.84521329402923583984 0.84805101156234741211 0.84490209817886352539 0.86616373062133789062 0.88233143091201782227 0.92894858121871948242 0.96907627582550048828 0.90622919797897338867 0.8569609522819519043 0.84854245185852050781 0.84727662801742553711 0.83591163158416748047 0.83298307657241821289 0.84463095664978027344 0.83877050876617431641 0.87905466556549072266 0.88216882944107055664 0.86580121517181396484 0.85964232683181762695 0.87246406078338623047 0.91697698831558227539 0.84571474790573120117 0.83728677034378051758 0.8387476801872253418 0.85518640279769897461 0.91124498844146728516 0.93897420167922973633 0.99960243701934814453 0.96745920181274414062 0.96481126546859741211 0.98199772834777832031 0.94151133298873901367 0.91309386491775512695 0.960193634033203125 0.92216134071350097656 0.9024779200553894043 0.91957992315292358398 0.90196168422698974609 0.80621820688247680664 0.82621109485626220703 0.81921780109405517578 0.80630379915237426758 0.83179169893264770508 0.84856522083282470703 0.86873465776443481445 0.8540134429931640625 0.83711707592010498047 0.85300916433334350586 0.94279813766479492188 0.99783885478973388672 0.94976460933685302734 0.96429389715194702148 0.97495502233505249023 0.92417669296264648438 0.94502288103103637695 0.93428462743759155273 0.95594942569732666016 0.95157378911972045898 0.9251855015754699707 0.91946655511856079102 0.9035460352897644043 0.94202858209609985352 0.94661885499954223633 0.92930179834365844727 0.90628707408905029297 0.89903783798217773438 0.90992140769958496094 0.91270071268081665039 0.99907064437866210938 0.98461562395095825195 0.97087591886520385742 0.97384738922119140625 0.95710867643356323242 0.93812972307205200195 0.93402975797653198242 0.93609881401062011719 0.94608426094055175781 0.94598293304443359375 0.91798734664916992188 0.9138444066047668457 0.93210083246231079102 0.94409775733947753906 0.91464400291442871094 0.86805784702301025391 0.83307498693466186523 0.8108533024787902832 0.81077647209167480469 0.79384481906890869141 0.80961722135543823242 0.84563755989074707031 0.85483461618423461914 0.86464130878448486328 0.95673233270645141602 
0.88292795419692993164 0.86802911758422851562 0.86709970235824584961 0.87245541810989379883 0.86934757232666015625 0.91204804182052612305 0.98054492473602294922 0.89990431070327758789 0.92875331640243530273 0.95410776138305664062 0.9568011164665222168 0.9570897221565246582 0.9270827174186706543 0.90311706066131591797 0.87029159069061279297 0.86334192752838134766 0.84535253047943115234 0.83194398880004882812 0.87265592813491821289 0.97681760787963867188 0.99411004781723022461 0.99709475040435791016 0.96335339546203613281 0.88283401727676391602 0.8585147857666015625 0.84015822410583496094 0.82903051376342773438 0.81541454792022705078 0.83640086650848388672 0.83653700351715087891 0.84506303071975708008 0.88127595186233520508 0.87761682271957397461 0.87679761648178100586 0.87326037883758544922 0.88835465908050537109 0.90677124261856079102 0.85602146387100219727 0.84637027978897094727 0.8314545750617980957 0.8565476536750793457 0.93634384870529174805 0.94603782892227172852 0.98009163141250610352 0.977336883544921875 0.90751707553863525391 0.90384161472320556641 0.95555931329727172852 0.98218053579330444336 0.9815381169319152832 0.92151916027069091797 0.89994221925735473633 0.90550321340560913086 0.86016774177551269531 0.83476597070693969727 0.844394683837890625 0.82166522741317749023 0.82200914621353149414 0.85773068666458129883 0.88661742210388183594 0.88039094209671020508 0.86387753486633300781 0.88074421882629394531 0.97274768352508544922 0.95113974809646606445 0.99673849344253540039 0.99881833791732788086 0.98927921056747436523 0.96226650476455688477 0.93618285655975341797 0.96097761392593383789 0.96751177310943603516 0.96585410833358764648 0.95021390914916992188 0.92539072036743164062 0.93014150857925415039 0.85148024559020996094 0.92382884025573730469 0.95309853553771972656 0.95354676246643066406 0.93973791599273681641 0.89424562454223632812 0.95909512042999267578 0.97635024785995483398 0.97315692901611328125 0.92359739542007446289 0.9624919891357421875 0.99011576175689697266 0.97872066497802734375 0.9255517125129699707 0.92112928628921508789 0.91459298133850097656 0.88973510265350341797 0.91866242885589599609 0.91039890050888061523 0.91073405742645263672 0.88305258750915527344 0.89639794826507568359 0.90562719106674194336 0.84989815950393676758 0.83775144815444946289 0.82748430967330932617 0.81300693750381469727 0.79967319965362548828 0.84524923563003540039 0.83751749992370605469 0.85783916711807250977 0.89847046136856079102 0.99061316251754760742 
0.87761592864990234375 0.90655696392059326172 0.88569080829620361328 0.88188374042510986328 0.87303876876831054688 0.96778714656829833984 0.99564731121063232422 0.91143369674682617188 0.93079107999801635742 0.95039916038513183594 0.9554736018180847168 0.95042651891708374023 0.93229979276657104492 0.89402902126312255859 0.87666583061218261719 0.8443145751953125 0.84230482578277587891 0.93568551540374755859 0.99129605293273925781 0.95410203933715820312 0.91266083717346191406 0.94674497842788696289 0.96734946966171264648 0.94246327877044677734 0.92031967639923095703 0.89737921953201293945 0.86796087026596069336 0.82570683956146240234 0.8181864619255065918 0.82940566539764404297 0.82457655668258666992 0.86794704198837280273 0.86134850978851318359 0.86621987819671630859 0.8782901763916015625 0.88044208288192749023 0.87495315074920654297 0.85100090503692626953 0.83150613307952880859 0.80172109603881835938 0.95248609781265258789 0.98692470788955688477 0.90608489513397216797 0.90807205438613891602 0.97717767953872680664 0.93116748332977294922 0.88038581609725952148 0.8795680999755859375 0.89808577299118041992 0.88304150104522705078 0.86694359779357910156 0.84831589460372924805 0.85877448320388793945 0.87275320291519165039 0.88340467214584350586 0.85181909799575805664 0.8244215846061706543 0.81165969371795654297 0.8380400538444519043 0.87875407934188842773 0.94796967506408691406 0.92671823501586914062 0.97843098640441894531 0.97295051813125610352 0.91317445039749145508 0.89974057674407958984 0.99423903226852416992 0.98006093502044677734 0.94408881664276123047 0.94717425107955932617 0.96649563312530517578 0.96123969554901123047 0.95488417148590087891 0.91871356964111328125 0.96944838762283325195 0.98701822757720947266 0.93323934078216552734 0.92811542749404907227 0.96224516630172729492 0.96388947963714599609 0.95033228397369384766 0.93213784694671630859 0.99415218830108642578 0.9734738469123840332 0.95758479833602905273 0.93877875804901123047 0.93693083524703979492 0.94788247346878051758 0.99291324615478515625 0.97930663824081420898 0.9271494746208190918 0.8751659393310546875 0.87492364645004272461 0.90315687656402587891 0.91031557321548461914 0.90050506591796875 0.86922085285186767578 0.85570639371871948242 0.86302584409713745117 0.84129470586776733398 0.84436339139938354492 0.83852434158325195312 0.81059461832046508789 0.84797191619873046875 0.85464471578598022461 0.82313483953475952148 0.83748102188110351562 0.90784925222396850586 0.99097669124603271484 
0.93516170978546142578 0.94570404291152954102 0.89800435304641723633 0.90686064958572387695 0.88435781002044677734 0.99652665853500366211 0.99678587913513183594 0.91599887609481811523 0.93733084201812744141 0.91290014982223510742 0.93102705478668212891 0.91535180807113647461 0.90562152862548828125 0.89347934722900390625 0.88223898410797119141 0.88227826356887817383 0.90776824951171875 0.9631550908088684082 0.99687707424163818359 0.96013933420181274414 0.91051626205444335938 0.9290866851806640625 0.93017357587814331055 0.93240374326705932617 0.91756302118301391602 0.9208418726921081543 0.85745424032211303711 0.81794220209121704102 0.80820488929748535156 0.82634049654006958008 0.82246994972229003906 0.84546774625778198242 0.87295734882354736328 0.92749166488647460938 0.9615281224250793457 0.92098128795623779297 0.87840932607650756836 0.87050420045852661133 0.85465711355209350586 0.89113724231719970703 0.99906146526336669922 0.91114163398742675781 0.87335568666458129883 0.88188004493713378906 0.92866003513336181641 0.9584547877311706543 0.89616864919662475586 0.9060185551643371582 0.9326146245002746582 0.92361724376678466797 0.87656414508819580078 0.84700119495391845703 0.87586826086044311523 0.91496545076370239258 0.87926197052001953125 0.84928697347640991211 0.83971261978149414062 0.82994544506072998047 0.90199905633926391602 0.92691481113433837891 0.95118618011474609375 0.98968625068664550781 0.99133318662643432617 0.91781407594680786133 0.91883331537246704102 0.876087188720703125 0.98540771007537841797 0.96961832046508789062 0.96623772382736206055 0.96393346786499023438 0.9643300175666809082 0.94839507341384887695 0.92914372682571411133 0.90559023618698120117 0.99419546127319335938 0.97642987966537475586 0.92664575576782226562 0.94787651300430297852 0.96878921985626220703 0.97268837690353393555 0.95993351936340332031 0.91300594806671142578 0.98563516139984130859 0.95579725503921508789 0.93838065862655639648 0.95280367136001586914 0.93922770023345947266 0.93949729204177856445 0.96480202674865722656 0.97305065393447875977 0.94101953506469726562 0.93465656042098999023 0.92766159772872924805 0.92241382598876953125 0.91192078590393066406 0.90430754423141479492 0.86864030361175537109 0.85419076681137084961 0.86073392629623413086 0.85018169879913330078 0.83714240789413452148 0.82839274406433105469 0.83715462684631347656 0.86420875787734985352 0.84957128763198852539 0.82983875274658203125 0.86030942201614379883 0.90548777580261230469 0.98103123903274536133 
0.93516975641250610352 0.96853834390640258789 0.89654761552810668945 0.91746413707733154297 0.90059363842010498047 0.99807685613632202148 0.99368488788604736328 0.93159049749374389648 0.92539948225021362305 0.8940073847770690918 0.91816163063049316406 0.91159749031066894531 0.90347564220428466797 0.89023643732070922852 0.88250625133514404297 0.89298081398010253906 0.9638156890869140625 0.9958388209342956543 0.99452197551727294922 0.98387265205383300781 0.96282899379730224609 0.94482308626174926758 0.93341934680938720703 0.92750430107116699219 0.91847366094589233398 0.92895597219467163086 0.86543154716491699219 0.80733460187911987305 0.79517757892608642578 0.82329422235488891602 0.81195354461669921875 0.80754798650741577148 0.85561913251876831055 0.87420809268951416016 0.95114284753799438477 0.971424102783203125 0.95584189891815185547 0.9233404994010925293 0.90303373336791992188 0.99950939416885375977 0.97670370340347290039 0.83769613504409790039 0.89639925956726074219 0.9054762721061706543 0.90278267860412597656 0.95940512418746948242 0.88418614864349365234 0.90075170993804931641 0.92465263605117797852 0.91118741035461425781 0.8856557011604309082 0.8662388920783996582 0.89519810676574707031 0.92157530784606933594 0.83405882120132446289 0.83243477344512939453 0.85022002458572387695 0.86250627040863037109 0.92115461826324462891 0.93020969629287719727 0.92779588699340820312 0.93443381786346435547 0.94275325536727905273 0.9102357029914855957 0.93010860681533813477 0.87995570898056030273 0.94104051589965820312 0.98821657896041870117 0.97288155555725097656 0.95934808254241943359 0.94878333806991577148 0.92226654291152954102 0.92483294010162353516 0.98288965225219726562 0.9963042140007019043 0.96955621242523193359 0.91511321067810058594 0.95207422971725463867 0.96720892190933227539 0.97578179836273193359 0.97252941131591796875 0.96856749057769775391 0.99666833877563476562 0.99061578512191772461 0.94465357065200805664 0.95501422882080078125 0.94338887929916381836 0.94434821605682373047 0.95120561122894287109 0.96843743324279785156 0.92742919921875 0.94864630699157714844 0.91477113962173461914 0.89248454570770263672 0.88686794042587280273 0.86899095773696899414 0.85850304365158081055 0.85370075702667236328 0.8359997868537902832 0.8162505030632019043 0.83620345592498779297 0.84777182340621948242 0.8527215123176574707 0.86508423089981079102 0.85841071605682373047 0.85192739963531494141 0.87856400012969970703 0.92501908540725708008 0.97660994529724121094 
0.85809683799743652344 0.96404123306274414062 0.98401057720184326172 0.97666954994201660156 0.9847571253776550293 0.99026453495025634766 0.97100180387496948242 0.988494873046875 0.98297965526580810547 0.87980771064758300781 0.9012305140495300293 0.92711013555526733398 0.92295569181442260742 0.87245458364486694336 0.89127117395401000977 0.96159631013870239258 0.95434397459030151367 0.91621559858322143555 0.89199405908584594727 0.91050094366073608398 0.93710851669311523438 0.97458207607269287109 0.98095822334289550781 0.9793872833251953125 0.95896357297897338867 0.94059664011001586914 0.89769065380096435547 0.83826440572738647461 0.80929476022720336914 0.82994556427001953125 0.80569022893905639648 0.81074041128158569336 0.85072809457778930664 0.88723647594451904297 0.92902743816375732422 0.91855984926223754883 0.88279616832733154297 0.87838613986968994141 0.89112114906311035156 0.96611678600311279297 0.99955165386199951172 0.9047451019287109375 0.86450219154357910156 0.90968686342239379883 0.90452247858047485352 0.94459456205368041992 0.90879219770431518555 0.89115631580352783203 0.91438478231430053711 0.89372366666793823242 0.87300646305084228516 0.85181415081024169922 0.8988354802131652832 0.92134803533554077148 0.82880759239196777344 0.84588819742202758789 0.88643032312393188477 0.8922907710075378418 0.91245090961456298828 0.92519778013229370117 0.91803592443466186523 0.90536922216415405273 0.93057143688201904297 0.92918854951858520508 0.92320942878723144531 0.90501195192337036133 0.89234697818756103516 0.92156493663787841797 0.93954634666442871094 0.96588128805160522461 0.96607977151870727539 0.95533508062362670898 0.98597455024719238281 0.98463076353073120117 0.98788470029830932617 0.98061668872833251953 0.9443715214729309082 0.9629738926887512207 0.98046690225601196289 0.98109143972396850586 0.977817535400390625 0.97044295072555541992 0.9736970067024230957 0.88835102319717407227 0.89726603031158447266 0.90432024002075195312 0.93155777454376220703 0.94684517383575439453 0.94598734378814697266 0.95966172218322753906 0.95086199045181274414 0.91082745790481567383 0.87340331077575683594 0.87311565876007080078 0.86257302761077880859 0.85881841182708740234 0.85556554794311523438 0.8277117609977722168 0.82179462909698486328 0.87117022275924682617 0.85342156887054443359 0.85364091396331787109 0.84484815597534179688 0.85146850347518920898 0.85623019933700561523 0.87857890129089355469 0.90985542535781860352 0.92493325471878051758 0.97490751743316650391 
0.88293099403381347656 0.95152270793914794922 0.99701988697052001953 0.97180247306823730469 0.91188508272171020508 0.87132316827774047852 0.88962149620056152344 0.93055611848831176758 0.97583502531051635742 0.9285323023796081543 0.90370136499404907227 0.92871570587158203125 0.89133828878402709961 0.8477916717529296875 0.9329153895378112793 0.99044740200042724609 0.90082216262817382812 0.89900279045104980469 0.89535069465637207031 0.90024584531784057617 0.92340552806854248047 0.9443181157112121582 0.95235753059387207031 0.94096887111663818359 0.90648239850997924805 0.91962778568267822266 0.88736307621002197266 0.85609716176986694336 0.84785497188568115234 0.84198665618896484375 0.81606507301330566406 0.84826987981796264648 0.92566603422164916992 0.92860227823257446289 0.92233550548553466797 0.89726376533508300781 0.89374274015426635742 0.88346970081329345703 0.84460443258285522461 0.86985373497009277344 0.99164927005767822266 0.95565545558929443359 0.89881062507629394531 0.92534816265106201172 0.90945017337799072266 0.92976832389831542969 0.89206022024154663086 0.90634781122207641602 0.89671182632446289062 0.87614047527313232422 0.86995530128479003906 0.86108458042144775391 0.93898975849151611328 0.95966815948486328125 0.88729864358901977539 0.89784216880798339844 0.90188807249069213867 0.88739311695098876953 0.89038586616516113281 0.91513687372207641602 0.92550736665725708008 0.92626917362213134766 0.92962014675140380859 0.93728250265121459961 0.93748062849044799805 0.92576682567596435547 0.93821722269058227539 0.94506394863128662109 0.91452485322952270508 0.89555275440216064453 0.99623906612396240234 0.99428021907806396484 0.98493289947509765625 0.97177642583847045898 0.98276239633560180664 0.98362761735916137695 0.97575414180755615234 0.97822839021682739258 0.98128896951675415039 0.97921884059906005859 0.97346156835556030273 0.98254609107971191406 0.93726056814193725586 0.87114059925079345703 0.90319013595581054688 0.91194856166839599609 0.92211365699768066406 0.9342657923698425293 0.90166717767715454102 0.92160636186599731445 0.93237793445587158203 0.88120430707931518555 0.88558310270309448242 0.87389844655990600586 0.84517854452133178711 0.85357427597045898438 0.8389346003532409668 0.80237048864364624023 0.88709568977355957031 0.89029151201248168945 0.86031073331832885742 0.86392515897750854492 0.82469582557678222656 0.84383875131607055664 0.8706067204475402832 0.88297361135482788086 0.87196600437164306641 0.8654835820198059082 0.98619383573532104492 
0.92628914117813110352 0.95588916540145874023 0.9635664820671081543 0.89593929052352905273 0.88791811466217041016 0.89093297719955444336 0.9103221893310546875 0.91912215948104858398 0.93851047754287719727 0.97880101203918457031 0.88503080606460571289 0.85495513677597045898 0.87444740533828735352 0.91773742437362670898 0.96635031700134277344 0.99856507778167724609 0.97342658042907714844 0.96933412551879882812 0.92891675233840942383 0.90732735395431518555 0.90232890844345092773 0.93442070484161376953 0.92975014448165893555 0.90916275978088378906 0.8854846954345703125 0.8796126246452331543 0.85595780611038208008 0.85230755805969238281 0.87941652536392211914 0.87061011791229248047 0.85611426830291748047 0.89990180730819702148 0.93485212326049804688 0.93086725473403930664 0.91207212209701538086 0.90417653322219848633 0.92284280061721801758 0.92037475109100341797 0.92899084091186523438 0.96663403511047363281 0.97573560476303100586 0.91350358724594116211 0.93537116050720214844 0.94810622930526733398 0.89507025480270385742 0.91847437620162963867 0.92374271154403686523 0.91029328107833862305 0.87274283170700073242 0.86158132553100585938 0.86215174198150634766 0.91761720180511474609 0.96255344152450561523 0.94656038284301757812 0.90980029106140136719 0.90581262111663818359 0.89777952432632446289 0.89542555809020996094 0.88925737142562866211 0.88421028852462768555 0.90985310077667236328 0.90418332815170288086 0.89633882045745849609 0.91722631454467773438 0.91315239667892456055 0.91911959648132324219 0.95703244209289550781 0.9479548335075378418 0.92514681816101074219 0.88499748706817626953 0.99390870332717895508 0.99232375621795654297 0.96517008543014526367 0.96879625320434570312 0.98062396049499511719 0.98520779609680175781 0.9797840118408203125 0.97996419668197631836 0.97877204418182373047 0.97490513324737548828 0.95714592933654785156 0.99107885360717773438 0.97362691164016723633 0.95680606365203857422 0.93686622381210327148 0.92520308494567871094 0.93786829710006713867 0.9383748173713684082 0.92410314083099365234 0.90548670291900634766 0.8814614415168762207 0.88564759492874145508 0.90099161863327026367 0.8880131840705871582 0.85812199115753173828 0.82906073331832885742 0.82537221908569335938 0.82579159736633300781 0.89569342136383056641 0.8906402587890625 0.85801744461059570312 0.84426265954971313477 0.82961881160736083984 0.87751215696334838867 0.91491293907165527344 0.92726218700408935547 0.86848920583724975586 0.80594617128372192383 0.98286163806915283203 
0.88467186689376831055 0.884220123291015625 0.89512449502944946289 0.89052230119705200195 0.90469497442245483398 0.89737397432327270508 0.89058196544647216797 0.9033877253532409668 0.94056314229965209961 0.99834662675857543945 0.98836678266525268555 0.98153454065322875977 0.99185037612915039062 0.99918001890182495117 0.98105514049530029297 0.93321174383163452148 0.96072101593017578125 0.9948062896728515625 0.98389345407485961914 0.94326013326644897461 0.92324441671371459961 0.91549819707870483398 0.9225215911865234375 0.91569721698760986328 0.91827976703643798828 0.91280722618103027344 0.88307118415832519531 0.87445950508117675781 0.88419002294540405273 0.87695938348770141602 0.85673195123672485352 0.88929843902587890625 0.92579025030136108398 0.92591291666030883789 0.90416043996810913086 0.90625655651092529297 0.9340336918830871582 0.95953041315078735352 0.95409321784973144531 0.97502374649047851562 0.9790999293327331543 0.90413415431976318359 0.91750150918960571289 0.93967592716217041016 0.9201189875602722168 0.92413765192031860352 0.91161203384399414062 0.89609450101852416992 0.85621207952499389648 0.83895158767700195312 0.82966506481170654297 0.93245202302932739258 0.88204801082611083984 0.86522716283798217773 0.86590754985809326172 0.88001048564910888672 0.8729527592658996582 0.86947834491729736328 0.85713964700698852539 0.82765001058578491211 0.88234865665435791016 0.91833788156509399414 0.90074229240417480469 0.89889448881149291992 0.91278183460235595703 0.94673025608062744141 0.95127207040786743164 0.93661201000213623047 0.93110865354537963867 0.86354184150695800781 0.96784764528274536133 0.98668128252029418945 0.9389374852180480957 0.97178530693054199219 0.97679722309112548828 0.97836399078369140625 0.97805988788604736328 0.9787552952766418457 0.97371047735214233398 0.95509922504425048828 0.95113408565521240234 0.99001467227935791016 0.915973663330078125 0.87095183134078979492 0.90556693077087402344 0.9198080897331237793 0.93706268072128295898 0.91281628608703613281 0.9015700221061706543 0.90900516510009765625 0.88215267658233642578 0.85711848735809326172 0.86769872903823852539 0.85700815916061401367 0.83465552330017089844 0.82076638936996459961 0.80815404653549194336 0.83266478776931762695 0.86868327856063842773 0.86651635169982910156 0.85473817586898803711 0.85339468717575073242 0.88578653335571289062 0.88735520839691162109 0.90705740451812744141 0.91685354709625244141 0.88387101888656616211 0.89400511980056762695 0.997623443603515625 
0.8740622401237487793 0.85859620571136474609 0.89899051189422607422 0.92099142074584960938 0.90290302038192749023 0.85817778110504150391 0.82837289571762084961 0.92995816469192504883 0.99171519279479980469 0.99087995290756225586 0.9573847651481628418 0.96442139148712158203 0.94618910551071166992 0.96362769603729248047 0.97234565019607543945 0.94237977266311645508 0.92196673154830932617 0.9570420384407043457 0.97921264171600341797 0.90541982650756835938 0.86093747615814208984 0.88617783784866333008 0.91019034385681152344 0.92529022693634033203 0.92790365219116210938 0.90615314245223999023 0.86151921749114990234 0.86369377374649047852 0.87769395112991333008 0.86407238245010375977 0.8498064875602722168 0.8667004704475402832 0.92002332210540771484 0.93576514720916748047 0.94218873977661132812 0.93693715333938598633 0.94584876298904418945 0.90681660175323486328 0.87551063299179077148 0.9050445556640625 0.9813988804817199707 0.95924448966979980469 0.91168200969696044922 0.92184668779373168945 0.92252016067504882812 0.91477286815643310547 0.90013933181762695312 0.8752848505973815918 0.88868677616119384766 0.92966902256011962891 0.9782593846321105957 0.97150188684463500977 0.83711063861846923828 0.85585784912109375 0.84956377744674682617 0.85604071617126464844 0.85133886337280273438 0.85610759258270263672 0.83432674407958984375 0.81389862298965454102 0.87123465538024902344 0.92689573764801025391 0.9738782048225402832 0.95223259925842285156 0.96472364664077758789 0.9622866511344909668 0.95307433605194091797 0.92159467935562133789 0.9239800572395324707 0.89763015508651733398 0.99386835098266601562 0.98080670833587646484 0.94704824686050415039 0.96939760446548461914 0.97069984674453735352 0.97338449954986572266 0.97419154644012451172 0.97112649679183959961 0.9628760218620300293 0.90469819307327270508 0.97343689203262329102 0.91546499729156494141 0.83737403154373168945 0.85292041301727294922 0.86548411846160888672 0.89439678192138671875 0.92746394872665405273 0.91389077901840209961 0.86698353290557861328 0.89512783288955688477 0.89639866352081298828 0.8890972137451171875 0.86588627099990844727 0.84465765953063964844 0.82280200719833374023 0.82335960865020751953 0.79402101039886474609 0.81533282995223999023 0.84445470571517944336 0.87298882007598876953 0.84455782175064086914 0.87865817546844482422 0.91262865066528320312 0.89117723703384399414 0.89022880792617797852 0.86415326595306396484 0.85704249143600463867 0.8989397883415222168 0.98611092567443847656 
0.87564164400100708008 0.85461443662643432617 0.89182835817337036133 0.90470892190933227539 0.88172763586044311523 0.86913341283798217773 0.80489230155944824219 0.89215415716171264648 0.99557662010192871094 0.98201203346252441406 0.9082438349723815918 0.93369042873382568359 0.93968594074249267578 0.94966495037078857422 0.97231453657150268555 0.96454572677612304688 0.95243853330612182617 0.91458022594451904297 0.9860222935676574707 0.9914467930793762207 0.96309167146682739258 0.94413220882415771484 0.93852752447128295898 0.9369551539421081543 0.91853106021881103516 0.90895223617553710938 0.86203712224960327148 0.85637891292572021484 0.87957441806793212891 0.87863928079605102539 0.87731873989105224609 0.89005994796752929688 0.93295127153396606445 0.938930511474609375 0.93146187067031860352 0.91967588663101196289 0.91512435674667358398 0.87427574396133422852 0.87198662757873535156 0.84710210561752319336 0.96337467432022094727 0.98295176029205322266 0.92157649993896484375 0.89626497030258178711 0.89591085910797119141 0.88683182001113891602 0.85882085561752319336 0.90350174903869628906 0.92673248052597045898 0.941738128662109375 0.98032289743423461914 0.98259818553924560547 0.89592194557189941406 0.87356114387512207031 0.83472603559494018555 0.83825564384460449219 0.83299368619918823242 0.86132031679153442383 0.84561437368392944336 0.83907157182693481445 0.87767833471298217773 0.95534718036651611328 0.98790121078491210938 0.97546696662902832031 0.96858125925064086914 0.95939403772354125977 0.93352013826370239258 0.93930852413177490234 0.95748448371887207031 0.93805241584777832031 0.98954141139984130859 0.97303670644760131836 0.95751744508743286133 0.96908456087112426758 0.9706573486328125 0.97880703210830688477 0.97797030210494995117 0.95436710119247436523 0.93865239620208740234 0.90937894582748413086 0.99567341804504394531 0.94564867019653320312 0.89247953891754150391 0.9002361297607421875 0.84465926885604858398 0.86098802089691162109 0.9215914607048034668 0.98807722330093383789 0.9701404571533203125 0.93665218353271484375 0.92917931079864501953 0.89638674259185791016 0.86146688461303710938 0.83702623844146728516 0.81973880529403686523 0.8241297602653503418 0.80553388595581054688 0.81867611408233642578 0.86588037014007568359 0.89742439985275268555 0.87143093347549438477 0.89537835121154785156 0.91113245487213134766 0.89014112949371337891 0.90882086753845214844 0.84687006473541259766 0.88142144680023193359 0.96399480104446411133 0.9751599431037902832 
0.8685633540153503418 0.86571264266967773438 0.92497926950454711914 0.91236758232116699219 0.90031778812408447266 0.84026205539703369141 0.79538798332214355469 0.99345290660858154297 0.97039800882339477539 0.94573587179183959961 0.90303319692611694336 0.93954515457153320312 0.933681488037109375 0.95046836137771606445 0.96111345291137695312 0.94871449470520019531 0.93304073810577392578 0.87578296661376953125 0.93462580442428588867 0.98365026712417602539 0.95493096113204956055 0.95102715492248535156 0.94762063026428222656 0.95124483108520507812 0.9573205113410949707 0.94872659444808959961 0.93329524993896484375 0.92422217130661010742 0.88929849863052368164 0.87853997945785522461 0.86115574836730957031 0.88435214757919311523 0.90821307897567749023 0.88992553949356079102 0.90077304840087890625 0.90218406915664672852 0.87959432601928710938 0.86370903253555297852 0.90744322538375854492 0.84403550624847412109 0.960300445556640625 0.97102618217468261719 0.88570713996887207031 0.89078974723815917969 0.87889826297760009766 0.9196917414665222168 0.91365945339202880859 0.91137140989303588867 0.88984930515289306641 0.87188535928726196289 0.91426384449005126953 0.95449173450469970703 0.93779432773590087891 0.91846776008605957031 0.88085734844207763672 0.86651283502578735352 0.88791608810424804688 0.96899914741516113281 0.96731013059616088867 0.93373519182205200195 0.92330753803253173828 0.99140375852584838867 0.98504120111465454102 0.97655820846557617188 0.96271038055419921875 0.92547088861465454102 0.91734039783477783203 0.94170206785202026367 0.95584022998809814453 0.95565974712371826172 0.96986180543899536133 0.96876317262649536133 0.93130946159362792969 0.95799535512924194336 0.97322815656661987305 0.97918772697448730469 0.98520076274871826172 0.98561698198318481445 0.98308676481246948242 0.97753828763961791992 0.99891954660415649414 0.97856795787811279297 0.98342561721801757812 0.99278825521469116211 0.98668521642684936523 0.98991149663925170898 0.98726278543472290039 0.98481863737106323242 0.9234269261360168457 0.90908008813858032227 0.89441967010498046875 0.80846893787384033203 0.78372305631637573242 0.78345525264739990234 0.79912239313125610352 0.79279369115829467773 0.7939803004264831543 0.81430250406265258789 0.88430935144424438477 0.91689193248748779297 0.91986322402954101562 0.87721616029739379883 0.90913981199264526367 0.87073206901550292969 0.90265429019927978516 0.84887027740478515625 0.91426301002502441406 0.98927569389343261719 0.99678897857666015625 
0.87387257814407348633 0.87544924020767211914 0.92990320920944213867 0.91909939050674438477 0.96911716461181640625 0.95050752162933349609 0.94241118431091308594 0.99964469671249389648 0.96812647581100463867 0.96316474676132202148 0.93353390693664550781 0.91151541471481323242 0.91228091716766357422 0.9411194920539855957 0.95525115728378295898 0.92246782779693603516 0.88328838348388671875 0.86533260345458984375 0.89439356327056884766 0.93233388662338256836 0.92524981498718261719 0.92365312576293945312 0.91516900062561035156 0.94088310003280639648 0.94706869125366210938 0.94170117378234863281 0.93317741155624389648 0.92567199468612670898 0.85730385780334472656 0.86370664834976196289 0.860729217529296875 0.89849644899368286133 0.93301671743392944336 0.92419081926345825195 0.92906755208969116211 0.91567790508270263672 0.84946459531784057617 0.9729315638542175293 0.9932124018669128418 0.99031102657318115234 0.99743694067001342773 0.97983413934707641602 0.95231604576110839844 0.92050397396087646484 0.89189946651458740234 0.9332701563835144043 0.88274413347244262695 0.89854860305786132812 0.88904350996017456055 0.88119715452194213867 0.92443633079528808594 0.90420114994049072266 0.92466682195663452148 0.95141643285751342773 0.97432714700698852539 0.99050182104110717773 0.99786591529846191406 0.99684447050094604492 0.98686838150024414062 0.99030953645706176758 0.99774169921875 0.99366140365600585938 0.9678542017936706543 0.96629327535629272461 0.97659122943878173828 0.97344499826431274414 0.96872001886367797852 0.94863426685333251953 0.95425546169281005859 0.97884392738342285156 0.99861901998519897461 0.98614531755447387695 0.95189362764358520508 0.96455615758895874023 0.96906256675720214844 0.97614210844039916992 0.98531430959701538086 0.95249015092849731445 0.91766536235809326172 0.9883772730827331543 0.96700084209442138672 0.86083465814590454102 0.84589338302612304688 0.87825447320938110352 0.95363575220108032227 0.90971732139587402344 0.88603788614273071289 0.90111768245697021484 0.88279426097869873047 0.88823169469833374023 0.84909862279891967773 0.80651944875717163086 0.8031285405158996582 0.78604876995086669922 0.78376489877700805664 0.79499155282974243164 0.84524524211883544922 0.84539639949798583984 0.81249678134918212891 0.9311695098876953125 0.96974122524261474609 0.90851944684982299805 0.9235966801643371582 0.86582827568054199219 0.89413034915924072266 0.89361345767974853516 0.97339457273483276367 0.99276816844940185547 0.99317330121994018555 
0.87453258037567138672 0.88443738222122192383 0.90285491943359375 0.94171935319900512695 0.97357910871505737305 0.97181570529937744141 0.98749965429306030273 0.94234639406204223633 0.92310369014739990234 0.97094374895095825195 0.98811310529708862305 0.98927843570709228516 0.93607962131500244141 0.89424204826354980469 0.90694224834442138672 0.90934514999389648438 0.90583121776580810547 0.87567555904388427734 0.91213315725326538086 0.9303486943244934082 0.91732650995254516602 0.91674011945724487305 0.91271448135375976562 0.90653777122497558594 0.9028803706169128418 0.91957831382751464844 0.93728345632553100586 0.92223399877548217773 0.85877871513366699219 0.87158280611038208008 0.86696964502334594727 0.90226435661315917969 0.94772696495056152344 0.95260870456695556641 0.95769828557968139648 0.98049253225326538086 0.96577292680740356445 0.97488945722579956055 0.92309862375259399414 0.9880415797233581543 0.95412391424179077148 0.98047900199890136719 0.96400409936904907227 0.96368503570556640625 0.99084085226058959961 0.98743331432342529297 0.94423377513885498047 0.92343384027481079102 0.89898896217346191406 0.96174126863479614258 0.99289739131927490234 0.99396288394927978516 0.9709542393684387207 0.97957623004913330078 0.9853242039680480957 0.98420476913452148438 0.96557843685150146484 0.97313475608825683594 0.97014707326889038086 0.95292174816131591797 0.99787658452987670898 0.99243944883346557617 0.98296958208084106445 0.99716299772262573242 0.96579736471176147461 0.97224760055541992188 0.94769167900085449219 0.97671163082122802734 0.99969542026519775391 0.98278212547302246094 0.909252166748046875 0.92040586471557617188 0.93207108974456787109 0.97252786159515380859 0.98872649669647216797 0.99118524789810180664 0.93646967411041259766 0.90472447872161865234 0.93344014883041381836 0.97569352388381958008 0.91822481155395507812 0.91338044404983520508 0.88757300376892089844 0.892925262451171875 0.89086776971817016602 0.86924391984939575195 0.88556408882141113281 0.90063804388046264648 0.89357393980026245117 0.88224768638610839844 0.85426419973373413086 0.81674420833587646484 0.78099751472473144531 0.78942692279815673828 0.80143696069717407227 0.82774168252944946289 0.86075967550277709961 0.90809494256973266602 0.8669528961181640625 0.85087525844573974609 0.92239767313003540039 0.96228104829788208008 0.96879100799560546875 0.94298058748245239258 0.93767720460891723633 0.97816002368927001953 0.9905878901481628418 0.95660006999969482422 0.9175472259521484375 
0.86787497997283935547 0.90004020929336547852 0.95452868938446044922 0.9379571080207824707 0.89574998617172241211 0.88271313905715942383 0.97722727060317993164 0.95369815826416015625 0.95007663965225219727 0.94497478008270263672 0.95402544736862182617 0.99205124378204345703 0.99168181419372558594 0.90866273641586303711 0.8818137049674987793 0.93348234891891479492 0.94496613740921020508 0.84767162799835205078 0.87115705013275146484 0.90368103981018066406 0.88444668054580688477 0.90706312656402587891 0.90606772899627685547 0.9029343724250793457 0.90881490707397460938 0.9258111119270324707 0.92950582504272460938 0.89551663398742675781 0.85052341222763061523 0.86743485927581787109 0.86381566524505615234 0.90159195661544799805 0.90651696920394897461 0.88897281885147094727 0.89187735319137573242 0.92276281118392944336 0.969692230224609375 0.95358687639236450195 0.86235487461090087891 0.92740976810455322266 0.97383660078048706055 0.95638179779052734375 0.95081979036331176758 0.87200635671615600586 0.92923247814178466797 0.98118090629577636719 0.96610456705093383789 0.94554001092910766602 0.96287882328033447266 0.99594414234161376953 0.99304997920989990234 0.99069994688034057617 0.99656033515930175781 0.9979826807975769043 0.97665488719940185547 0.97098630666732788086 0.96706801652908325195 0.96907353401184082031 0.95941412448883056641 0.95936155319213867188 0.97469681501388549805 0.94379413127899169922 0.98893296718597412109 0.99823218584060668945 0.98942530155181884766 0.98020136356353759766 0.96116793155670166016 0.99700450897216796875 0.99810671806335449219 0.95801091194152832031 0.93413835763931274414 0.92380064725875854492 0.93515133857727050781 0.93939894437789916992 0.98371565341949462891 0.98595738410949707031 0.91407811641693115234 0.92284905910491943359 0.95561861991882324219 0.98479783535003662109 0.88968038558959960938 0.88534891605377197266 0.90571379661560058594 0.89472210407257080078 0.87919700145721435547 0.87726670503616333008 0.9021593928337097168 0.89434999227523803711 0.8867314457893371582 0.85027396678924560547 0.80998265743255615234 0.76539671421051025391 0.78338360786437988281 0.79835242033004760742 0.80921274423599243164 0.8253110051155090332 0.84955143928527832031 0.90045243501663208008 0.91262525320053100586 0.91827607154846191406 0.88148981332778930664 0.86117589473724365234 0.89283728599548339844 0.94753235578536987305 0.95072370767593383789 0.99935734272003173828 0.9994671940803527832 0.98471796512603759766 0.93763905763626098633 
0.87104475498199462891 0.92067790031433105469 0.93442732095718383789 0.88616263866424560547 0.91248738765716552734 0.90206795930862426758 0.99204838275909423828 0.95493566989898681641 0.95875632762908935547 0.94789397716522216797 0.95464938879013061523 0.93676888942718505859 0.97422051429748535156 0.9974333643913269043 0.99087053537368774414 0.99637877941131591797 0.97430509328842163086 0.96169763803482055664 0.88491773605346679688 0.87386029958724975586 0.91105568408966064453 0.92015898227691650391 0.91851568222045898438 0.90992552042007446289 0.91632002592086791992 0.91484189033508300781 0.91557544469833374023 0.888271331787109375 0.86166048049926757812 0.87414497137069702148 0.85386109352111816406 0.86146086454391479492 0.92038589715957641602 0.90671998262405395508 0.89484924077987670898 0.88887375593185424805 0.93861448764801025391 0.92976158857345581055 0.88325780630111694336 0.8943608403205871582 0.96958100795745849609 0.93349689245223999023 0.92960536479949951172 0.89064955711364746094 0.83798611164093017578 0.89910376071929931641 0.97819197177886962891 0.97198152542114257812 0.96825850009918212891 0.95051354169845581055 0.94523954391479492188 0.9627577662467956543 0.96588754653930664062 0.94941258430480957031 0.94528138637542724609 0.97116261720657348633 0.97183269262313842773 0.96912020444869995117 0.9533812403678894043 0.98666453361511230469 0.96748846769332885742 0.94481456279754638672 0.95319098234176635742 0.96303486824035644531 0.87923246622085571289 0.86736971139907836914 0.89466422796249389648 0.93576705455780029297 0.88380336761474609375 0.96298229694366455078 0.98526400327682495117 0.93580961227416992188 0.93916469812393188477 0.95061218738555908203 0.95858490467071533203 0.98026949167251586914 0.9511439204216003418 0.93917167186737060547 0.95732337236404418945 0.93740630149841308594 0.95679372549057006836 0.93688148260116577148 0.9214947819709777832 0.90446436405181884766 0.87957471609115600586 0.90705651044845581055 0.90755754709243774414 0.87758547067642211914 0.87629365921020507812 0.80127054452896118164 0.7555859684944152832 0.76024985313415527344 0.81931257247924804688 0.84404110908508300781 0.81994050741195678711 0.86652588844299316406 0.86016172170639038086 0.94042789936065673828 0.94312578439712524414 0.91799193620681762695 0.87820744514465332031 0.86663591861724853516 0.86640429496765136719 0.82547795772552490234 0.84860175848007202148 0.98918437957763671875 0.95666730403900146484 0.91035038232803344727 0.93215793371200561523 
0.88733649253845214844 0.88204848766326904297 0.89842277765274047852 0.86147683858871459961 0.88383942842483520508 0.88694703578948974609 0.99402368068695068359 0.94817328453063964844 0.95758640766143798828 0.96135187149047851562 0.96114736795425415039 0.92688578367233276367 0.88467031717300415039 0.97981554269790649414 0.99415999650955200195 0.95097398757934570312 0.92983710765838623047 0.97446024417877197266 0.96158003807067871094 0.92725312709808349609 0.94438940286636352539 0.94115525484085083008 0.93257671594619750977 0.91296255588531494141 0.90828800201416015625 0.88934016227722167969 0.90020668506622314453 0.85980784893035888672 0.86875420808792114258 0.87613689899444580078 0.87305772304534912109 0.85525524616241455078 0.90526109933853149414 0.92827737331390380859 0.90683501958847045898 0.89248293638229370117 0.93383228778839111328 0.93170237541198730469 0.90259826183319091797 0.89893537759780883789 0.93918311595916748047 0.91815686225891113281 0.9104442596435546875 0.87939864397048950195 0.80629789829254150391 0.8529154658317565918 0.9994671940803527832 0.99959391355514526367 0.95208835601806640625 0.91852319240570068359 0.95440000295639038086 0.96931701898574829102 0.97106516361236572266 0.96027088165283203125 0.96374541521072387695 0.96645718812942504883 0.97412705421447753906 0.97006553411483764648 0.957981109619140625 0.96227681636810302734 0.95845824480056762695 0.96045684814453125 0.94895946979522705078 0.97885268926620483398 0.86150544881820678711 0.85476040840148925781 0.88983017206192016602 0.88188147544860839844 0.84213727712631225586 0.89113229513168334961 0.97596776485443115234 0.9833984375 0.94353163242340087891 0.93208211660385131836 0.91887873411178588867 0.93612003326416015625 0.9485676884651184082 0.93789678812026977539 0.96464645862579345703 0.91974610090255737305 0.91738861799240112305 0.92500418424606323242 0.90088635683059692383 0.87910318374633789062 0.86254578828811645508 0.88677448034286499023 0.89636701345443725586 0.88004767894744873047 0.81019556522369384766 0.77356868982315063477 0.77271723747253417969 0.79370194673538208008 0.82453060150146484375 0.86535215377807617188 0.86041980981826782227 0.83715510368347167969 0.87935304641723632812 0.95919537544250488281 0.96700334548950195312 0.91930145025253295898 0.92770963907241821289 0.87553489208221435547 0.86343407630920410156 0.81938153505325317383 0.80674839019775390625 0.96656697988510131836 0.86920553445816040039 0.88301116228103637695 0.92785310745239257812 
0.91951453685760498047 0.89989644289016723633 0.92632246017456054688 0.95952868461608886719 0.9643771052360534668 0.96458530426025390625 0.99543613195419311523 0.97545605897903442383 0.95110601186752319336 0.96738415956497192383 0.97064948081970214844 0.96030253171920776367 0.89646506309509277344 0.89208543300628662109 0.94063848257064819336 0.94474607706069946289 0.94618153572082519531 0.96353751420974731445 0.94470953941345214844 0.91350454092025756836 0.92431795597076416016 0.9397074580192565918 0.92116796970367431641 0.90419244766235351562 0.92466902732849121094 0.92199116945266723633 0.91007953882217407227 0.86862045526504516602 0.86458432674407958984 0.86684364080429077148 0.87094265222549438477 0.84012502431869506836 0.88930469751358032227 0.91598218679428100586 0.90793907642364501953 0.87577575445175170898 0.89823132753372192383 0.88731223344802856445 0.88356947898864746094 0.88345438241958618164 0.90360039472579956055 0.90550071001052856445 0.89188390970230102539 0.83731663227081298828 0.79557597637176513672 0.95199829339981079102 0.99962776899337768555 0.99239015579223632812 0.97169262170791625977 0.93491220474243164062 0.95293533802032470703 0.97076845169067382812 0.96894800662994384766 0.96790355443954467773 0.96956962347030639648 0.97330629825592041016 0.97039657831192016602 0.96727609634399414062 0.9619903564453125 0.96999305486679077148 0.96127736568450927734 0.95851016044616699219 0.96898806095123291016 0.98642486333847045898 0.86555898189544677734 0.87324476242065429688 0.89463382959365844727 0.85750728845596313477 0.84556859731674194336 0.85520029067993164062 0.88851493597030639648 0.94095259904861450195 0.96116662025451660156 0.90170282125473022461 0.91122287511825561523 0.92310172319412231445 0.96783673763275146484 0.95797699689865112305 0.959522247314453125 0.93926066160202026367 0.92652833461761474609 0.90202242136001586914 0.8552977442741394043 0.85087293386459350586 0.8709697723388671875 0.88787275552749633789 0.88163912296295166016 0.83962106704711914062 0.76404601335525512695 0.76910895109176635742 0.81231206655502319336 0.81724578142166137695 0.83144581317901611328 0.86928343772888183594 0.89579170942306518555 0.81448256969451904297 0.8836638331413269043 0.93639773130416870117 0.95277875661849975586 0.92482089996337890625 0.92057156562805175781 0.8410580754280090332 0.85948401689529418945 0.86753636598587036133 0.90566587448120117188 0.9937114715576171875 0.91656959056854248047 0.92023885250091552734 0.94051587581634521484 
0.94033223390579223633 0.85883927345275878906 0.8683185577392578125 0.94230163097381591797 0.94749474525451660156 0.93565410375595092773 0.92850756645202636719 0.99357575178146362305 0.95753675699234008789 0.95011293888092041016 0.95947211980819702148 0.96934026479721069336 0.9312610626220703125 0.90378451347351074219 0.88633930683135986328 0.89396053552627563477 0.92207181453704833984 0.92718094587326049805 0.93718343973159790039 0.94680172204971313477 0.93640995025634765625 0.94014179706573486328 0.91786247491836547852 0.88395661115646362305 0.91702175140380859375 0.98609548807144165039 0.97776263952255249023 0.93602800369262695312 0.92845374345779418945 0.88320869207382202148 0.87085556983947753906 0.85248029232025146484 0.86021584272384643555 0.87687444686889648438 0.86329489946365356445 0.83697676658630371094 0.85706996917724609375 0.85708695650100708008 0.87864321470260620117 0.89373314380645751953 0.93365019559860229492 0.92784821987152099609 0.90770524740219116211 0.89685142040252685547 0.97607237100601196289 0.98282772302627563477 0.99598670005798339844 0.98853141069412231445 0.97538089752197265625 0.97066730260848999023 0.9489955902099609375 0.96485757827758789062 0.967632293701171875 0.96638065576553344727 0.97014403343200683594 0.97207540273666381836 0.96939843893051147461 0.96551680564880371094 0.9627520442008972168 0.96693199872970581055 0.95175898075103759766 0.96925067901611328125 0.92458689212799072266 0.99856865406036376953 0.95603120326995849609 0.85451918840408325195 0.87898594141006469727 0.88752526044845581055 0.8951008915901184082 0.8800678253173828125 0.87158757448196411133 0.9308795928955078125 0.92449080944061279297 0.8845946192741394043 0.89823383092880249023 0.88257372379302978516 0.97287768125534057617 0.97955352067947387695 0.93560707569122314453 0.93724954128265380859 0.92851722240447998047 0.90258026123046875 0.88024914264678955078 0.87490826845169067383 0.89081215858459472656 0.89349085092544555664 0.86766022443771362305 0.83328413963317871094 0.79251319169998168945 0.80127364397048950195 0.85165691375732421875 0.85605692863464355469 0.86139535903930664062 0.87478584051132202148 0.90046513080596923828 0.87002354860305786133 0.91487306356430053711 0.90056240558624267578 0.94092035293579101562 0.95871818065643310547 0.95251166820526123047 0.85275286436080932617 0.9027811884880065918 0.98933488130569458008 0.98646241426467895508 0.99010819196701049805 0.96627527475357055664 0.89542484283447265625 0.91768449544906616211 
0.94936805963516235352 0.87488931417465209961 0.91411077976226806641 0.95065534114837646484 0.92955678701400756836 0.95954036712646484375 0.93050968647003173828 0.99758905172348022461 0.99743694067001342773 0.94639337062835693359 0.95523381233215332031 0.95530861616134643555 0.95077848434448242188 0.92673689126968383789 0.91881173849105834961 0.88340687751770019531 0.90699875354766845703 0.89650523662567138672 0.90023475885391235352 0.91213095188140869141 0.92096167802810668945 0.94369453191757202148 0.93119508028030395508 0.89474391937255859375 0.94003820419311523438 0.98134064674377441406 0.92004448175430297852 0.92340010404586791992 0.92903876304626464844 0.8904164433479309082 0.87295937538146972656 0.847888946533203125 0.85832202434539794922 0.8585484623908996582 0.85959112644195556641 0.85684716701507568359 0.8654429316520690918 0.88374251127243041992 0.86815023422241210938 0.86386740207672119141 0.93247568607330322266 0.90444576740264892578 0.84605419635772705078 0.94349694252014160156 0.99771165847778320312 0.96456134319305419922 0.93806636333465576172 0.94449824094772338867 0.9599253535270690918 0.9644858241081237793 0.95677745342254638672 0.96356695890426635742 0.96672368049621582031 0.96502351760864257812 0.96524733304977416992 0.9707736968994140625 0.96965998411178588867 0.96680968999862670898 0.96448522806167602539 0.96196496486663818359 0.94043523073196411133 0.94381344318389892578 0.9054660797119140625 0.99834656715393066406 0.99250578880310058594 0.92363768815994262695 0.90701383352279663086 0.89178097248077392578 0.91055637598037719727 0.89999228715896606445 0.89042603969573974609 0.96512138843536376953 0.93208432197570800781 0.89678817987442016602 0.87901479005813598633 0.90085309743881225586 0.97849249839782714844 0.97516024112701416016 0.92487537860870361328 0.92125624418258666992 0.91632944345474243164 0.89003914594650268555 0.88066804409027099609 0.88737922906875610352 0.89238882064819335938 0.89386236667633056641 0.87956357002258300781 0.84012019634246826172 0.79335093498229980469 0.82680571079254150391 0.84582066535949707031 0.87542861700057983398 0.8692709803581237793 0.87196433544158935547 0.88438206911087036133 0.89969551563262939453 0.9134642481803894043 0.89438557624816894531 0.95644259452819824219 0.96708357334136962891 0.97260677814483642578 0.86780464649200439453 0.93962252140045166016 0.99477106332778930664 0.90787094831466674805 0.88881528377532958984 0.95660382509231567383 0.96826338768005371094 0.94152814149856567383 
0.93901115655899047852 0.92140048742294311523 0.96255701780319213867 0.9579550623893737793 0.92274004220962524414 0.92014139890670776367 0.99386048316955566406 0.99788230657577514648 0.99767118692398071289 0.93037408590316772461 0.93807590007781982422 0.91512346267700195312 0.90602135658264160156 0.91795688867568969727 0.91565144062042236328 0.85804438591003417969 0.86765938997268676758 0.87198293209075927734 0.91170680522918701172 0.93636906147003173828 0.94532644748687744141 0.94667440652847290039 0.93112534284591674805 0.89426851272583007812 0.93687295913696289062 0.97986841201782226562 0.93169999122619628906 0.93033069372177124023 0.92728209495544433594 0.91503214836120605469 0.89987665414810180664 0.86013835668563842773 0.84720855951309204102 0.84570270776748657227 0.83093053102493286133 0.84088808298110961914 0.87296700477600097656 0.88684833049774169922 0.86475914716720581055 0.85966205596923828125 0.86411368846893310547 0.88735240697860717773 0.90688884258270263672 0.96957027912139892578 0.96629261970520019531 0.98867601156234741211 0.95710957050323486328 0.94990396499633789062 0.96265232563018798828 0.95505124330520629883 0.96463799476623535156 0.96681272983551025391 0.96842235326766967773 0.96222281455993652344 0.96138358116149902344 0.96911907196044921875 0.96767216920852661133 0.9633935093879699707 0.9655087590217590332 0.96196573972702026367 0.95344275236129760742 0.94834196567535400391 0.97003728151321411133 0.97649580240249633789 0.98847353458404541016 0.93479216098785400391 0.92516154050827026367 0.91991764307022094727 0.92687183618545532227 0.92148256301879882812 0.9123064875602722168 0.96018469333648681641 0.95328003168106079102 0.88925433158874511719 0.88513654470443725586 0.92315012216567993164 0.95449286699295043945 0.92166239023208618164 0.9048627018928527832 0.92911571264266967773 0.92254692316055297852 0.89575737714767456055 0.8856436610221862793 0.88757503032684326172 0.88345414400100708008 0.87594586610794067383 0.84424787759780883789 0.81095868349075317383 0.80090934038162231445 0.83842140436172485352 0.85794365406036376953 0.87859177589416503906 0.88102108240127563477 0.91665250062942504883 0.95077168941497802734 0.9690532684326171875 0.9924221038818359375 0.9915841221809387207 0.97420352697372436523 0.93967241048812866211 0.94712710380554199219 0.93347716331481933594 0.99245220422744750977 0.99872583150863647461 0.91911911964416503906 0.93534338474273681641 0.92880535125732421875 0.91311001777648925781 0.9271844029426574707 
0.94365048408508300781 0.93037682771682739258 0.91159015893936157227 0.88294452428817749023 0.93008893728256225586 0.99781155586242675781 0.98756456375122070312 0.9223429560661315918 0.99021589756011962891 0.9957186579704284668 0.978298187255859375 0.98546987771987915039 0.87648767232894897461 0.8540776371955871582 0.89102792739868164062 0.9035218358039855957 0.95805788040161132812 0.95386779308319091797 0.96096217632293701172 0.95637053251266479492 0.94105905294418334961 0.90941596031188964844 0.92319697141647338867 0.91245836019515991211 0.89582598209381103516 0.98848962783813476562 0.98297166824340820312 0.97894501686096191406 0.93424630165100097656 0.93993341922760009766 0.91868001222610473633 0.88987147808074951172 0.81781303882598876953 0.83380466699600219727 0.86244547367095947266 0.84005922079086303711 0.94333642721176147461 0.94032812118530273438 0.87905925512313842773 0.8776683807373046875 0.88117402791976928711 0.83075869083404541016 0.91176754236221313477 0.97074139118194580078 0.93452894687652587891 0.98875766992568969727 0.9830525517463684082 0.96204465627670288086 0.96339070796966552734 0.96100288629531860352 0.93517738580703735352 0.92984563112258911133 0.93978631496429443359 0.95447707176208496094 0.95538812875747680664 0.9654445648193359375 0.96245104074478149414 0.95765209197998046875 0.970668792724609375 0.95989805459976196289 0.94630616903305053711 0.93513029813766479492 0.99302881956100463867 0.92120009660720825195 0.94619429111480712891 0.93507838249206542969 0.94296145439147949219 0.92460387945175170898 0.91903805732727050781 0.9271309971809387207 0.91916787624359130859 0.94651013612747192383 0.95626854896545410156 0.91478681564331054688 0.89496839046478271484 0.90843141078948974609 0.95045602321624755859 0.91969156265258789062 0.93479436635971069336 0.93316072225570678711 0.91065835952758789062 0.89750880002975463867 0.89277476072311401367 0.88083720207214355469 0.86468958854675292969 0.83794939517974853516 0.83070212602615356445 0.86399549245834350586 0.84805119037628173828 0.90739405155181884766 0.94180089235305786133 0.94721913337707519531 0.93837594985961914062 0.96132630109786987305 0.98136889934539794922 0.99245703220367431641 0.98597419261932373047 0.96341228485107421875 0.98360449075698852539 0.96522188186645507812 0.98180711269378662109 0.99949258565902709961 0.99951797723770141602 0.98713743686676025391 0.95932775735855102539 0.95640206336975097656 0.91154283285140991211 0.87831437587738037109 0.90493565797805786133 
0.93133282661437988281 0.92164516448974609375 0.91905987262725830078 0.97457766532897949219 0.99863988161087036133 0.97882390022277832031 0.95036846399307250977 0.90621131658554077148 0.93935668468475341797 0.99713897705078125 0.99725687503814697266 0.99615240097045898438 0.9973602294921875 0.99243634939193725586 0.95103162527084350586 0.97651940584182739258 0.97398459911346435547 0.95179289579391479492 0.95784306526184082031 0.94583946466445922852 0.92234605550765991211 0.93305492401123046875 0.95261770486831665039 0.92891013622283935547 0.87787318229675292969 0.98077106475830078125 0.91410481929779052734 0.91078782081604003906 0.91630375385284423828 0.90926212072372436523 0.91998690366744995117 0.89931076765060424805 0.86643683910369873047 0.8653329014778137207 0.87528169155120849609 0.91870135068893432617 0.95803219079971313477 0.91636013984680175781 0.91905194520950317383 0.94006264209747314453 0.92003285884857177734 0.84277647733688354492 0.90230208635330200195 0.94665032625198364258 0.92712390422821044922 0.94319355487823486328 0.98722428083419799805 0.95109665393829345703 0.95956581830978393555 0.95526200532913208008 0.93996071815490722656 0.94528430700302124023 0.94393801689147949219 0.93933218717575073242 0.93671917915344238281 0.94060218334197998047 0.96345859766006469727 0.95664668083190917969 0.97175055742263793945 0.93936675786972045898 0.91735106706619262695 0.91344130039215087891 0.99794375896453857422 0.9613621830940246582 0.93163627386093139648 0.95011055469512939453 0.92886674404144287109 0.93620759248733520508 0.91571414470672607422 0.91570514440536499023 0.92309284210205078125 0.93049418926239013672 0.95682787895202636719 0.93853032588958740234 0.91691577434539794922 0.92136621475219726562 0.94955068826675415039 0.94516658782958984375 0.94511145353317260742 0.92686551809310913086 0.93015944957733154297 0.90980869531631469727 0.89484483003616333008 0.85668951272964477539 0.8566277623176574707 0.83210164308547973633 0.85200905799865722656 0.88413703441619873047 0.83222937583923339844 0.87099176645278930664 0.89622557163238525391 0.90008980035781860352 0.89544284343719482422 0.87862950563430786133 0.8898677825927734375 0.86583942174911499023 0.88797366619110107422 0.91389697790145874023 0.936771392822265625 0.90888631343841552734 0.97617238759994506836 0.99902760982513427734 0.88384145498275756836 0.86068892478942871094 0.91090744733810424805 0.92769759893417358398 0.9002017974853515625 0.88752627372741699219 0.93007111549377441406 
0.92188590764999389648 0.9229100346565246582 0.98378038406372070312 0.97782701253890991211 0.99760270118713378906 0.96861970424652099609 0.94143277406692504883 0.89674788713455200195 0.90996921062469482422 0.90506130456924438477 0.93521064519882202148 0.92445796728134155273 0.99600213766098022461 0.98949378728866577148 0.99740326404571533203 0.99114561080932617188 0.93549960851669311523 0.92258131504058837891 0.92408323287963867188 0.90701693296432495117 0.92482286691665649414 0.96095860004425048828 0.96234440803527832031 0.93140470981597900391 0.90953630208969116211 0.98232948780059814453 0.93030256032943725586 0.91236114501953125 0.92511570453643798828 0.92610007524490356445 0.91856783628463745117 0.88714188337326049805 0.87425339221954345703 0.86428189277648925781 0.98031777143478393555 0.98648142814636230469 0.97370666265487670898 0.97429633140563964844 0.9729239344596862793 0.95895868539810180664 0.93422681093215942383 0.85318529605865478516 0.94846826791763305664 0.94978719949722290039 0.93239033222198486328 0.92964565753936767578 0.98663526773452758789 0.95284932851791381836 0.94431406259536743164 0.94906413555145263672 0.94653785228729248047 0.94600337743759155273 0.9396145939826965332 0.94435358047485351562 0.94179785251617431641 0.92384386062622070312 0.91643315553665161133 0.94864767789840698242 0.9557940363883972168 0.93328613042831420898 0.91572427749633789062 0.93092888593673706055 0.99167776107788085938 0.93065410852432250977 0.92755526304244995117 0.96057265996932983398 0.95374143123626708984 0.96349388360977172852 0.96246093511581420898 0.91327130794525146484 0.91793435811996459961 0.91465097665786743164 0.95009064674377441406 0.93181872367858886719 0.93533986806869506836 0.91994762420654296875 0.94241476058959960938 0.94816410541534423828 0.95160132646560668945 0.93941885232925415039 0.93793433904647827148 0.90832626819610595703 0.89250963926315307617 0.86661934852600097656 0.84944635629653930664 0.83423888683319091797 0.87561410665512084961 0.92372244596481323242 0.86794465780258178711 0.88316589593887329102 0.88222509622573852539 0.86321938037872314453 0.86406904458999633789 0.87558639049530029297 0.89612144231796264648 0.89593619108200073242 0.90111380815505981445 0.93397110700607299805 0.96466004848480224609 0.96390521526336669922 0.97163105010986328125 0.99101299047470092773 0.88240373134613037109 0.88643145561218261719 0.86807209253311157227 0.85230374336242675781 0.90366291999816894531 0.92706966400146484375 0.93829125165939331055 
0.99272835254669189453 0.98881524801254272461 0.99735790491104125977 0.98949897289276123047 0.94251990318298339844 0.94604706764221191406 0.98143535852432250977 0.93841880559921264648 0.95007330179214477539 0.94797700643539428711 0.91167962551116943359 0.88902395963668823242 0.91118597984313964844 0.86097037792205810547 0.96244585514068603516 0.96494603157043457031 0.97291713953018188477 0.95929455757141113281 0.94658148288726806641 0.91601669788360595703 0.95141142606735229492 0.96848464012145996094 0.96250784397125244141 0.941844940185546875 0.92046350240707397461 0.97472119331359863281 0.92971533536911010742 0.93600416183471679688 0.93501931428909301758 0.92218244075775146484 0.91100305318832397461 0.86310297250747680664 0.87024831771850585938 0.8909804224967956543 0.98712784051895141602 0.98529356718063354492 0.97836071252822875977 0.97315442562103271484 0.96734231710433959961 0.95750105381011962891 0.94349902868270874023 0.89502966403961181641 0.94755154848098754883 0.93612921237945556641 0.90496325492858886719 0.91958248615264892578 0.96885186433792114258 0.98053026199340820312 0.9210885167121887207 0.90338838100433349609 0.90045106410980224609 0.90059018135070800781 0.91025185585021972656 0.91136914491653442383 0.93164092302322387695 0.92650079727172851562 0.91177904605865478516 0.9502137303352355957 0.9533398747444152832 0.93595069646835327148 0.90476977825164794922 0.94103884696960449219 0.9909527897834777832 0.91498553752899169922 0.92850500345230102539 0.94754886627197265625 0.95945876836776733398 0.9716694951057434082 0.95368200540542602539 0.93333590030670166016 0.92425763607025146484 0.9056981205940246582 0.91607517004013061523 0.88584089279174804688 0.89937365055084228516 0.89860677719116210938 0.90749222040176391602 0.91613477468490600586 0.93222087621688842773 0.91912770271301269531 0.92925107479095458984 0.8955180048942565918 0.88018333911895751953 0.8585879206657409668 0.83452588319778442383 0.84841686487197875977 0.88240718841552734375 0.91384547948837280273 0.89396685361862182617 0.92283600568771362305 0.92367017269134521484 0.86217111349105834961 0.87685561180114746094 0.87389004230499267578 0.89463031291961669922 0.90856605768203735352 0.91711038351058959961 0.97019410133361816406 0.95790433883666992188 0.92725741863250732422 0.9282004237174987793 0.99686414003372192383 0.95390725135803222656 0.90384489297866821289 0.87858241796493530273 0.89733177423477172852 0.90900075435638427734 0.91919785737991333008 0.92429137229919433594 
0.96631085872650146484 0.9437052607536315918 0.96786576509475708008 0.96134877204895019531 0.95696723461151123047 0.93852752447128295898 0.95259553194046020508 0.90966516733169555664 0.93409752845764160156 0.95848697423934936523 0.93096792697906494141 0.91495835781097412109 0.90414029359817504883 0.86744207143783569336 0.93453693389892578125 0.91098141670227050781 0.99150204658508300781 0.99614220857620239258 0.96390426158905029297 0.97026884555816650391 0.97318696975708007812 0.95707261562347412109 0.95500940084457397461 0.94853925704956054688 0.93583863973617553711 0.97000151872634887695 0.91284477710723876953 0.91886049509048461914 0.91876369714736938477 0.89855682849884033203 0.91908758878707885742 0.86248677968978881836 0.85892760753631591797 0.91877669095993041992 0.9814116358757019043 0.98455780744552612305 0.98302590847015380859 0.97514188289642333984 0.96136391162872314453 0.95415365695953369141 0.94404876232147216797 0.91990411281585693359 0.92583143711090087891 0.91126304864883422852 0.85200154781341552734 0.90177506208419799805 0.98621314764022827148 0.99118363857269287109 0.97527515888214111328 0.98959726095199584961 0.98612505197525024414 0.97686690092086791992 0.97712242603302001953 0.889049530029296875 0.91536337137222290039 0.91496729850769042969 0.922637939453125 0.93013560771942138672 0.94070440530776977539 0.94706267118453979492 0.92339563369750976562 0.97881877422332763672 0.99017959833145141602 0.91635215282440185547 0.93466800451278686523 0.92794829607009887695 0.91017371416091918945 0.92157220840454101562 0.92398715019226074219 0.88817876577377319336 0.87845695018768310547 0.87419605255126953125 0.87744861841201782227 0.87461417913436889648 0.88523602485656738281 0.88792693614959716797 0.86055141687393188477 0.84815275669097900391 0.87192654609680175781 0.88685667514801025391 0.89761936664581298828 0.88604778051376342773 0.86473405361175537109 0.87252908945083618164 0.83366644382476806641 0.87476176023483276367 0.89326453208923339844 0.92508018016815185547 0.92069715261459350586 0.94596618413925170898 0.95426982641220092773 0.91783100366592407227 0.89017099142074584961 0.85154163837432861328 0.86156308650970458984 0.8906504511833190918 0.88755398988723754883 0.9177697300910949707 0.92651849985122680664 0.89106380939483642578 0.90628224611282348633 0.99704790115356445312 0.98646843433380126953 0.97876340150833129883 0.96645903587341308594 0.90136283636093139648 0.88492143154144287109 0.91608250141143798828 0.91792392730712890625 
0.9554240107536315918 0.95085328817367553711 0.98608148097991943359 0.96704775094985961914 0.96910893917083740234 0.95519584417343139648 0.95035469532012939453 0.92464601993560791016 0.93771481513977050781 0.95497649908065795898 0.93848443031311035156 0.92894375324249267578 0.91227191686630249023 0.88656264543533325195 0.92840218544006347656 0.94483035802841186523 0.98962867259979248047 0.95877444744110107422 0.96163058280944824219 0.97196412086486816406 0.95663887262344360352 0.95180606842041015625 0.951015472412109375 0.94592565298080444336 0.93836361169815063477 0.96928423643112182617 0.89651155471801757812 0.89423024654388427734 0.91732007265090942383 0.90558797121047973633 0.94387906789779663086 0.86758184432983398438 0.94023776054382324219 0.98497307300567626953 0.98693805932998657227 0.98610657453536987305 0.9836222529411315918 0.97830766439437866211 0.97125595808029174805 0.95653104782104492188 0.92601633071899414062 0.90153264999389648438 0.89250171184539794922 0.8608303070068359375 0.83947825431823730469 0.96708548069000244141 0.99960243701934814453 0.95787984132766723633 0.89988666772842407227 0.93126457929611206055 0.9811573028564453125 0.99667060375213623047 0.98598515987396240234 0.88971275091171264648 0.88942056894302368164 0.90276747941970825195 0.92011654376983642578 0.93123954534530639648 0.93005394935607910156 0.9266707301139831543 0.94006943702697753906 0.95864403247833251953 0.98914754390716552734 0.94541811943054199219 0.94904345273971557617 0.95334911346435546875 0.9221045374870300293 0.88318598270416259766 0.89234972000122070312 0.88011080026626586914 0.88200068473815917969 0.88292765617370605469 0.88409394025802612305 0.87156546115875244141 0.87004929780960083008 0.87784898281097412109 0.84811621904373168945 0.83666670322418212891 0.84854131937026977539 0.85214877128601074219 0.86926794052124023438 0.87878859043121337891 0.88095116615295410156 0.89367276430130004883 0.87159806489944458008 0.90519541501998901367 0.90832680463790893555 0.90948319435119628906 0.91715353727340698242 0.95540827512741088867 0.95019817352294921875 0.95453542470932006836 0.96968883275985717773 0.94433033466339111328 0.88507980108261108398 0.83432710170745849609 0.87926304340362548828 0.91679590940475463867 0.92421883344650268555 0.90757513046264648438 0.96774852275848388672 0.99646866321563720703 0.98273438215255737305 0.97034949064254760742 0.95824998617172241211 0.93597197532653808594 0.90499848127365112305 0.93015265464782714844 0.92207962274551391602 
0.97609925270080566406 0.97376638650894165039 0.98768085241317749023 0.97941029071807861328 0.96339470148086547852 0.9790064692497253418 0.94989567995071411133 0.92752546072006225586 0.93240898847579956055 0.94594776630401611328 0.92260593175888061523 0.89589929580688476562 0.92016434669494628906 0.9462140202522277832 0.91388314962387084961 0.99587881565093994141 0.99610602855682373047 0.96625435352325439453 0.96376794576644897461 0.94936126470565795898 0.94772291183471679688 0.94475096464157104492 0.93512433767318725586 0.93094307184219360352 0.93498319387435913086 0.94881492853164672852 0.90287405252456665039 0.93278962373733520508 0.98182290792465209961 0.98428475856781005859 0.98076319694519042969 0.96795499324798583984 0.98454970121383666992 0.98807615041732788086 0.98653572797775268555 0.98482275009155273438 0.98087888956069946289 0.9750487208366394043 0.96242254972457885742 0.94819509983062744141 0.91300541162490844727 0.94286584854125976562 0.93404573202133178711 0.9221318364143371582 0.94874167442321777344 0.99955165386199951172 0.99863934516906738281 0.94917458295822143555 0.94588446617126464844 0.93213433027267456055 0.90697419643402099609 0.89236849546432495117 0.98349690437316894531 0.98796457052230834961 0.93624931573867797852 0.92303347587585449219 0.91669100522994995117 0.92169296741485595703 0.92952191829681396484 0.8975970149040222168 0.91046375036239624023 0.92616295814514160156 0.96822601556777954102 0.97134625911712646484 0.95589160919189453125 0.95401263236999511719 0.92131036520004272461 0.88484662771224975586 0.87997645139694213867 0.89107930660247802734 0.89477109909057617188 0.89078605175018310547 0.87211918830871582031 0.85879814624786376953 0.85522913932800292969 0.8524163365364074707 0.84820568561553955078 0.8484039306640625 0.85848850011825561523 0.84692925214767456055 0.86130756139755249023 0.86520171165466308594 0.88835579156875610352 0.88254141807556152344 0.89949887990951538086 0.90705633163452148438 0.90770232677459716797 0.91389197111129760742 0.92259192466735839844 0.95295429229736328125 0.95434463024139404297 0.94203960895538330078 0.97969800233840942383 0.98564535379409790039 0.98174977302551269531 0.90670663118362426758 0.87696099281311035156 0.91731190681457519531 0.91340869665145874023 0.91046541929244995117 0.91704714298248291016 0.98614996671676635742 0.99604254961013793945 0.94577705860137939453 0.95876336097717285156 0.94264245033264160156 0.89845609664916992188 0.90282726287841796875 0.89084333181381225586 
0.95553326606750488281 0.95859104394912719727 0.98856884241104125977 0.98604345321655273438 0.90780824422836303711 0.94903683662414550781 0.93707573413848876953 0.91904008388519287109 0.93164813518524169922 0.92862677574157714844 0.88313412666320800781 0.87418729066848754883 0.91921991109848022461 0.93104463815689086914 0.90084779262542724609 0.95134747028350830078 0.99572283029556274414 0.93445765972137451172 0.94174784421920776367 0.94680017232894897461 0.93933629989624023438 0.92581456899642944336 0.91537141799926757812 0.90941023826599121094 0.88709717988967895508 0.91921907663345336914 0.95817792415618896484 0.97169572114944458008 0.98109894990921020508 0.985530853271484375 0.98648148775100708008 0.98751437664031982422 0.98857003450393676758 0.98787546157836914062 0.98622328042984008789 0.98319846391677856445 0.97869479656219482422 0.97083419561386108398 0.96182519197463989258 0.94047749042510986328 0.91399240493774414062 0.86969137191772460938 0.92529159784317016602 0.99724900722503662109 0.97727292776107788086 0.99155449867248535156 0.97986686229705810547 0.93813204765319824219 0.95177042484283447266 0.94645047187805175781 0.94166958332061767578 0.91487604379653930664 0.9463977813720703125 0.95686060190200805664 0.92918884754180908203 0.92350548505783081055 0.92583733797073364258 0.91487365961074829102 0.91961610317230224609 0.90426158905029296875 0.90606760978698730469 0.90043473243713378906 0.94085794687271118164 0.95051223039627075195 0.93224936723709106445 0.91876894235610961914 0.86442810297012329102 0.86379271745681762695 0.87866985797882080078 0.88715672492980957031 0.88049185276031494141 0.85314375162124633789 0.83921408653259277344 0.82702142000198364258 0.84236818552017211914 0.84321856498718261719 0.81732726097106933594 0.83907043933868408203 0.85338133573532104492 0.82835465669631958008 0.85586708784103393555 0.87039178609848022461 0.89415538311004638672 0.85907077789306640625 0.87553608417510986328 0.90152978897094726562 0.90984243154525756836 0.92111968994140625 0.9317252039909362793 0.94749999046325683594 0.95267206430435180664 0.92097985744476318359 0.90596419572830200195 0.90358704328536987305 0.92371708154678344727 0.95774227380752563477 0.89295285940170288086 0.88015520572662353516 0.89046049118041992188 0.88593155145645141602 0.93265932798385620117 0.98734533786773681641 0.94541585445404052734 0.90640288591384887695 0.92410361766815185547 0.90278011560440063477 0.87659180164337158203 0.85897582769393920898 0.84808772802352905273 
0.966766357421875 0.97264248132705688477 0.96428340673446655273 0.98865985870361328125 0.94270551204681396484 0.93915289640426635742 0.93807578086853027344 0.90380495786666870117 0.91187870502471923828 0.90290355682373046875 0.87454813718795776367 0.92097741365432739258 0.97558480501174926758 0.97040557861328125 0.89450556039810180664 0.99594962596893310547 0.99619936943054199219 0.91631561517715454102 0.93409198522567749023 0.93500173091888427734 0.92111563682556152344 0.89772653579711914062 0.90760636329650878906 0.88640773296356201172 0.87415868043899536133 0.91837638616561889648 0.98760867118835449219 0.96816408634185791016 0.97245484590530395508 0.981349945068359375 0.98425215482711791992 0.9863064885139465332 0.98615467548370361328 0.98629534244537353516 0.98563414812088012695 0.98260974884033203125 0.9757683873176574707 0.96769011020660400391 0.95579439401626586914 0.91085553169250488281 0.86713415384292602539 0.87140166759490966797 0.9965369105339050293 0.99557256698608398438 0.99357342720031738281 0.99494683742523193359 0.99116039276123046875 0.95112144947052001953 0.94884032011032104492 0.95043593645095825195 0.92599940299987792969 0.93553441762924194336 0.95198273658752441406 0.95419251918792724609 0.94774037599563598633 0.9370949864387512207 0.93825674057006835938 0.92519980669021606445 0.91274535655975341797 0.90646374225616455078 0.91648721694946289062 0.91668361425399780273 0.91675496101379394531 0.96098726987838745117 0.93943864107131958008 0.91366595029830932617 0.89377295970916748047 0.89453387260437011719 0.88808286190032958984 0.86583304405212402344 0.85868602991104125977 0.82178503274917602539 0.82954353094100952148 0.84526640176773071289 0.86940628290176391602 0.86327284574508666992 0.84856450557708740234 0.87018883228302001953 0.88059294223785400391 0.84193122386932373047 0.87131822109222412109 0.91586130857467651367 0.88695156574249267578 0.86003327369689941406 0.8588917851448059082 0.89301598072052001953 0.89517813920974731445 0.89992123842239379883 0.91646057367324829102 0.93878954648971557617 0.95150995254516601562 0.94304454326629638672 0.91501241922378540039 0.90552020072937011719 0.89598095417022705078 0.95029711723327636719 0.96414047479629516602 0.87385171651840209961 0.86091315746307373047 0.93420583009719848633 0.99795627593994140625 0.99573802947998046875 0.92159354686737060547 0.89509761333465576172 0.89425063133239746094 0.87025141716003417969 0.89065843820571899414 0.88777077198028564453 0.89974552392959594727 
0.9251931309700012207 0.94363707304000854492 0.92915564775466918945 0.98176711797714233398 0.98080426454544067383 0.95362418889999389648 0.94009643793106079102 0.87550073862075805664 0.86445790529251098633 0.9263299107551574707 0.97083526849746704102 0.97283756732940673828 0.93233728408813476562 0.96392846107482910156 0.90443998575210571289 0.97637975215911865234 0.99601507186889648438 0.98583585023880004883 0.97371715307235717773 0.92963486909866333008 0.88996082544326782227 0.8793995976448059082 0.89725118875503540039 0.87483513355255126953 0.90504550933837890625 0.97894513607025146484 0.98741924762725830078 0.96933579444885253906 0.97189748287200927734 0.97942781448364257812 0.98133689165115356445 0.98364216089248657227 0.98462641239166259766 0.98423653841018676758 0.98400384187698364258 0.98343169689178466797 0.97999209165573120117 0.96979069709777832031 0.93666833639144897461 0.8887812495231628418 0.94511497020721435547 0.99925601482391357422 0.99120897054672241211 0.99270349740982055664 0.99091225862503051758 0.98841786384582519531 0.99297219514846801758 0.99807745218276977539 0.99057823419570922852 0.9275487065315246582 0.90412229299545288086 0.90894484519958496094 0.93451994657516479492 0.94680416584014892578 0.93777167797088623047 0.93844252824783325195 0.94598180055618286133 0.94403159618377685547 0.92408382892608642578 0.90019935369491577148 0.90079206228256225586 0.91657459735870361328 0.90744411945343017578 0.96498149633407592773 0.95699495077133178711 0.92936503887176513672 0.91795748472213745117 0.89477050304412841797 0.8749020695686340332 0.83030456304550170898 0.80033642053604125977 0.84016191959381103516 0.85216516256332397461 0.91846251487731933594 0.90960371494293212891 0.88656455278396606445 0.86294847726821899414 0.89047741889953613281 0.90088325738906860352 0.88888508081436157227 0.92736017704010009766 0.92009466886520385742 0.86581641435623168945 0.84258216619491577148 0.842037200927734375 0.85333043336868286133 0.90839207172393798828 0.9302895665168762207 0.91688007116317749023 0.91548973321914672852 0.93609178066253662109 0.94309592247009277344 0.93049466609954833984 0.90459239482879638672 0.92009347677230834961 0.96918946504592895508 0.9996700286865234375 0.9996700286865234375 0.99547851085662841797 0.98556280136108398438 0.9940929412841796875 0.93508207798004150391 0.95891845226287841797 0.93521231412887573242 0.91681474447250366211 0.914150238037109375 0.90933090448379516602 0.8902752995491027832 0.91430652141571044922 
0.93250072002410888672 0.93990141153335571289 0.94195848703384399414 0.96975278854370117188 0.96741861104965209961 0.9471467137336730957 0.92934840917587280273 0.86815786361694335938 0.85307276248931884766 0.93599563837051391602 0.94316112995147705078 0.92264956235885620117 0.88160175085067749023 0.88892769813537597656 0.85784059762954711914 0.96197593212127685547 0.96642351150512695312 0.89910393953323364258 0.97707545757293701172 0.96133881807327270508 0.92981016635894775391 0.93970137834548950195 0.97365331649780273438 0.95184296369552612305 0.97648781538009643555 0.99204474687576293945 0.97967559099197387695 0.95976585149765014648 0.97632402181625366211 0.98156774044036865234 0.98336231708526611328 0.98098731040954589844 0.98094993829727172852 0.984100341796875 0.98461478948593139648 0.98542284965515136719 0.98127275705337524414 0.9764016270637512207 0.94508635997772216797 0.91064089536666870117 0.95954436063766479492 0.99930661916732788086 0.97722554206848144531 0.99012708663940429688 0.99090057611465454102 0.98412698507308959961 0.96959447860717773438 0.99628174304962158203 0.99659901857376098633 0.96745598316192626953 0.95794540643692016602 0.92478483915328979492 0.93934953212738037109 0.94139474630355834961 0.93967133760452270508 0.94799637794494628906 0.95294594764709472656 0.95739328861236572266 0.94056028127670288086 0.91746687889099121094 0.89249372482299804688 0.8967037200927734375 0.88631194829940795898 0.95724660158157348633 0.96219527721405029297 0.9423624873161315918 0.93048077821731567383 0.91077333688735961914 0.8608716130256652832 0.79028707742691040039 0.81705325841903686523 0.89380186796188354492 0.862354278564453125 0.9227129817008972168 0.90414702892303466797 0.88256353139877319336 0.86627709865570068359 0.89800381660461425781 0.92705291509628295898 0.94998431205749511719 0.93823736906051635742 0.90661334991455078125 0.84646773338317871094 0.84303063154220581055 0.8505318760871887207 0.83557504415512084961 0.8955580592155456543 0.940876007080078125 0.91545706987380981445 0.90210676193237304688 0.90771746635437011719 0.90590131282806396484 0.91208481788635253906 0.89272850751876831055 0.88140779733657836914 0.90652298927307128906 0.94776517152786254883 0.94826978445053100586 0.97939503192901611328 0.93428897857666015625 0.96941959857940673828 0.89938277006149291992 0.91742372512817382812 0.889774322509765625 0.89059364795684814453 0.90038311481475830078 0.89900702238082885742 0.8934409022331237793 0.897762298583984375 
0.94413399696350097656 0.95119386911392211914 0.94820713996887207031 0.94183564186096191406 0.89618623256683349609 0.92623537778854370117 0.93205970525741577148 0.86741352081298828125 0.88897299766540527344 0.93509048223495483398 0.90087515115737915039 0.89588791131973266602 0.89031863212585449219 0.91232991218566894531 0.951923370361328125 0.99054795503616333008 0.97201687097549438477 0.8975588679313659668 0.93881660699844360352 0.98878073692321777344 0.98513013124465942383 0.94056594371795654297 0.9762210845947265625 0.99969542026519775391 0.98649483919143676758 0.96321016550064086914 0.94644641876220703125 0.96363860368728637695 0.97864019870758056641 0.9819704890251159668 0.98291707038879394531 0.98416554927825927734 0.98257011175155639648 0.98130589723587036133 0.9849192500114440918 0.98690062761306762695 0.98514312505722045898 0.98017114400863647461 0.93497890233993530273 0.976291656494140625 0.99256944656372070312 0.99863892793655395508 0.97260659933090209961 0.99020874500274658203 0.99072861671447753906 0.98636400699615478516 0.97591292858123779297 0.97145920991897583008 0.99175190925598144531 0.93799012899398803711 0.95389735698699951172 0.95065742731094360352 0.94625085592269897461 0.95049315690994262695 0.95339620113372802734 0.95915889739990234375 0.95633399486541748047 0.9631519317626953125 0.94243234395980834961 0.93625080585479736328 0.92719912528991699219 0.89807796478271484375 0.87508380413055419922 0.92013162374496459961 0.95765477418899536133 0.95106375217437744141 0.9235852360725402832 0.86092370748519897461 0.78955918550491333008 0.77606761455535888672 0.86253595352172851562 0.93195325136184692383 0.85643416643142700195 0.91772097349166870117 0.9382718205451965332 0.90837782621383666992 0.92952144145965576172 0.96357876062393188477 0.97134566307067871094 0.9601383209228515625 0.90663737058639526367 0.87699198722839355469 0.8516979217529296875 0.84675502777099609375 0.82044458389282226562 0.82783818244934082031 0.87400364875793457031 0.93121170997619628906 0.92664903402328491211 0.90382939577102661133 0.89917355775833129883 0.89754885435104370117 0.89594578742980957031 0.90389955043792724609 0.86904251575469970703 0.85088443756103515625 0.85220229625701904297 0.84720706939697265625 0.96367645263671875 0.97631150484085083008 0.96007543802261352539 0.89012742042541503906 0.91165596246719360352 0.9202187657356262207 0.89528006315231323242 0.90335166454315185547 0.89442914724349975586 0.87907004356384277344 0.90571665763854980469 
0.9401295781135559082 0.90400934219360351562 0.90731519460678100586 0.89975225925445556641 0.84555572271347045898 0.91979581117630004883 0.92512929439544677734 0.89393758773803710938 0.9229895472526550293 0.93480896949768066406 0.94354218244552612305 0.94854789972305297852 0.95195764303207397461 0.99036616086959838867 0.97974246740341186523 0.95144182443618774414 0.88507378101348876953 0.85562956333160400391 0.93055242300033569336 0.92366307973861694336 0.91389769315719604492 0.88509011268615722656 0.96085458993911743164 0.99774748086929321289 0.99123871326446533203 0.98071324825286865234 0.95632398128509521484 0.94949102401733398438 0.97351747751235961914 0.9692287445068359375 0.97791570425033569336 0.98088067770004272461 0.97653782367706298828 0.98125988245010375977 0.98534882068634033203 0.98014026880264282227 0.98351329565048217773 0.98437911272048950195 0.9808304905891418457 0.97419136762619018555 0.96374684572219848633 0.97202211618423461914 0.98635381460189819336 0.9880129694938659668 0.99028176069259643555 0.98868119716644287109 0.98512339591979980469 0.97609990835189819336 0.99061155319213867188 0.97034895420074462891 0.95546448230743408203 0.9512246251106262207 0.94718122482299804688 0.95203411579132080078 0.9398352503776550293 0.94676828384399414062 0.95004683732986450195 0.97483724355697631836 0.93114989995956420898 0.9357020258903503418 0.93765842914581298828 0.92906355857849121094 0.89094972610473632812 0.87607532739639282227 0.93370711803436279297 0.91880339384078979492 0.83279997110366821289 0.78671044111251831055 0.7919724583625793457 0.80489683151245117188 0.90547192096710205078 0.94748747348785400391 0.90952068567276000977 0.90982812643051147461 0.95653390884399414062 0.91812270879745483398 0.96530616283416748047 0.95812577009201049805 0.94998818635940551758 0.93942600488662719727 0.91578090190887451172 0.86755418777465820312 0.85795557498931884766 0.84857648611068725586 0.81641781330108642578 0.85805654525756835938 0.88097381591796875 0.92675834894180297852 0.93197160959243774414 0.94667112827301025391 0.95351165533065795898 0.89823156595230102539 0.88312613964080810547 0.88642400503158569336 0.90142810344696044922 0.89550870656967163086 0.89226043224334716797 0.93952381610870361328 0.99380642175674438477 0.96948742866516113281 0.96198457479476928711 0.88037675619125366211 0.90612185001373291016 0.92663007974624633789 0.89855372905731201172 0.90637201070785522461 0.88178968429565429688 0.8847643733024597168 0.92328482866287231445 
0.93660622835159301758 0.89109665155410766602 0.88621407747268676758 0.88957798480987548828 0.88174659013748168945 0.92600679397583007812 0.91700738668441772461 0.88919901847839355469 0.90724462270736694336 0.95008516311645507812 0.94428712129592895508 0.90496045351028442383 0.96432805061340332031 0.99242705106735229492 0.86324363946914672852 0.85692012310028076172 0.84937679767608642578 0.85000246763229370117 0.91804790496826171875 0.93661296367645263672 0.94922202825546264648 0.93956762552261352539 0.95583438873291015625 0.99654972553253173828 0.99578875303268432617 0.99164700508117675781 0.98105615377426147461 0.98061066865921020508 0.98490279912948608398 0.97809487581253051758 0.98235952854156494141 0.98614227771759033203 0.99094301462173461914 0.99039626121520996094 0.98783648014068603516 0.98246264457702636719 0.98988389968872070312 0.98610043525695800781 0.98914563655853271484 0.98461639881134033203 0.98491954803466796875 0.99037098884582519531 0.99259084463119506836 0.98544180393218994141 0.98535227775573730469 0.98527282476425170898 0.97981256246566772461 0.97921329736709594727 0.9808642268180847168 0.98890399932861328125 0.98990631103515625 0.98954051733016967773 0.98051619529724121094 0.96994799375534057617 0.96059745550155639648 0.94300997257232666016 0.98550170660018920898 0.99288952350616455078 0.94484412670135498047 0.93783235549926757812 0.93067562580108642578 0.91480499505996704102 0.91549134254455566406 0.87517392635345458984 0.86270964145660400391 0.85247510671615600586 0.77944022417068481445 0.78681427240371704102 0.80885785818099975586 0.83853548765182495117 0.92729711532592773438 0.9454600214958190918 0.91226696968078613281 0.85493040084838867188 0.92472177743911743164 0.88672286272048950195 0.96897852420806884766 0.94799178838729858398 0.930431365966796875 0.93118786811828613281 0.9097474217414855957 0.84266519546508789062 0.84596598148345947266 0.84223818778991699219 0.79412370920181274414 0.85090899467468261719 0.87587064504623413086 0.92112195491790771484 0.94642043113708496094 0.96233701705932617188 0.98374634981155395508 0.97173905372619628906 0.87872612476348876953 0.85933899879455566406 0.90402060747146606445 0.91198647022247314453 0.90479296445846557617 0.90330034494400024414 0.98321926593780517578 0.97323137521743774414 0.96877890825271606445 0.87746202945709228516 0.90663790702819824219 0.92085564136505126953 0.88944298028945922852 0.88250291347503662109 0.84324681758880615234 0.9040781855583190918 0.92391377687454223633 
0.92143678665161132812 0.89869296550750732422 0.88612931966781616211 0.89045000076293945312 0.89756536483764648438 0.91228473186492919922 0.91181927919387817383 0.91809439659118652344 0.907123565673828125 0.92160087823867797852 0.91550928354263305664 0.89125221967697143555 0.9600397944450378418 0.98068773746490478516 0.89265531301498413086 0.89194208383560180664 0.87140297889709472656 0.87877130508422851562 0.9295241236686706543 0.90874326229095458984 0.97143930196762084961 0.88367694616317749023 0.85225856304168701172 0.90337711572647094727 0.99662029743194580078 0.99859893321990966797 0.99497282505035400391 0.99261164665222167969 0.99167603254318237305 0.98842716217041015625 0.99007010459899902344 0.99114245176315307617 0.99305492639541625977 0.99202084541320800781 0.9911136627197265625 0.99273699522018432617 0.99263918399810791016 0.98814845085144042969 0.99052882194519042969 0.98881673812866210938 0.99160504341125488281 0.99509990215301513672 0.99500036239624023438 0.99455893039703369141 0.96984541416168212891 0.97337627410888671875 0.97924387454986572266 0.98090445995330810547 0.97780787944793701172 0.96514940261840820312 0.94491505622863769531 0.98249006271362304688 0.99456262588500976562 0.99185723066329956055 0.9961426854133605957 0.99149054288864135742 0.99635237455368041992 0.98046702146530151367 0.96519476175308227539 0.97732806205749511719 0.94335824251174926758 0.88062852621078491211 0.88562381267547607422 0.88696557283401489258 0.84869998693466186523 0.81327402591705322266 0.8218523859977722168 0.81221365928649902344 0.84516578912734985352 0.87917274236679077148 0.93171560764312744141 0.95139324665069580078 0.92229592800140380859 0.83722233772277832031 0.90982508659362792969 0.97442525625228881836 0.94059473276138305664 0.94970786571502685547 0.90889418125152587891 0.89595049619674682617 0.89669436216354370117 0.83132505416870117188 0.84084200859069824219 0.84427398443222045898 0.82853478193283081055 0.87337327003479003906 0.90096867084503173828 0.92648005485534667969 0.95279914140701293945 0.93452787399291992188 0.9384987950325012207 0.96229839324951171875 0.92556339502334594727 0.9100125432014465332 0.89509510993957519531 0.9282086491584777832 0.94026869535446166992 0.92913597822189331055 0.96057832241058349609 0.98036515712738037109 0.95040494203567504883 0.87394243478775024414 0.90821343660354614258 0.90800797939300537109 0.88613051176071166992 0.82951653003692626953 0.81990659236907958984 0.92468094825744628906 0.93759572505950927734 
0.93359762430191040039 0.91551941633224487305 0.91122418642044067383 0.91263717412948608398 0.91334652900695800781 0.88867712020874023438 0.88421797752380371094 0.88576358556747436523 0.89560818672180175781 0.90248465538024902344 0.91349929571151733398 0.90134710073471069336 0.94008821249008178711 0.94320791959762573242 0.90867555141448974609 0.90199017524719238281 0.89711755514144897461 0.9114691615104675293 0.91366636753082275391 0.89027249813079833984 0.96976888179779052734 0.91333484649658203125 0.84042304754257202148 0.85370767116546630859 0.98367422819137573242 0.99830293655395507812 0.99211001396179199219 0.98993057012557983398 0.99191224575042724609 0.99204969406127929688 0.99398511648178100586 0.99324315786361694336 0.99303781986236572266 0.99288702011108398438 0.99296468496322631836 0.99316197633743286133 0.99188017845153808594 0.98780393600463867188 0.99172985553741455078 0.9897492527961730957 0.99094641208648681641 0.99256908893585205078 0.99148601293563842773 0.99582517147064208984 0.96684843301773071289 0.96243995428085327148 0.97336941957473754883 0.97637265920639038086 0.98164546489715576172 0.97681820392608642578 0.96000665426254272461 0.86700147390365600586 0.87238132953643798828 0.88608300685882568359 0.98807662725448608398 0.99572086334228515625 0.99175703525543212891 0.9663187861442565918 0.97599643468856811523 0.976406097412109375 0.95117294788360595703 0.90971833467483520508 0.882747650146484375 0.87457931041717529297 0.84704512357711791992 0.83549427986145019531 0.84088528156280517578 0.87643325328826904297 0.87984985113143920898 0.91316187381744384766 0.96080350875854492188 0.94867843389511108398 0.9233042597770690918 0.87615400552749633789 0.95089209079742431641 0.99265933036804199219 0.93937242031097412109 0.94637858867645263672 0.90805459022521972656 0.89880824089050292969 0.90122646093368530273 0.83824908733367919922 0.83563518524169921875 0.84094035625457763672 0.86836093664169311523 0.88451504707336425781 0.89005094766616821289 0.91739159822463989258 0.95308119058609008789 0.94496375322341918945 0.97588652372360229492 0.98720949888229370117 0.9958648681640625 0.99552190303802490234 0.93146401643753051758 0.89197540283203125 0.89736449718475341797 0.9019272923469543457 0.97157257795333862305 0.95653402805328369141 0.93962174654006958008 0.92315781116485595703 0.92597699165344238281 0.91904401779174804688 0.90020954608917236328 0.83283281326293945312 0.82146739959716796875 0.90519577264785766602 0.94103384017944335938 
0.91227233409881591797 0.8987166285514831543 0.89552742242813110352 0.87392354011535644531 0.89062649011611938477 0.88554137945175170898 0.88375741243362426758 0.884128570556640625 0.88571608066558837891 0.88716101646423339844 0.90199667215347290039 0.89537072181701660156 0.90518552064895629883 0.90017396211624145508 0.89408689737319946289 0.89555644989013671875 0.88877403736114501953 0.88924926519393920898 0.89763087034225463867 0.93959790468215942383 0.9813162684440612793 0.94774627685546875 0.85773265361785888672 0.81431400775909423828 0.87073791027069091797 0.99140340089797973633 0.98537284135818481445 0.98870742321014404297 0.99398505687713623047 0.99370795488357543945 0.99362313747406005859 0.99429404735565185547 0.99349367618560791016 0.99313777685165405273 0.99230378866195678711 0.99077022075653076172 0.98723691701889038086 0.98757350444793701172 0.99075353145599365234 0.98174291849136352539 0.98557871580123901367 0.98926675319671630859 0.98801207542419433594 0.99878293275833129883 0.96084904670715332031 0.9665005803108215332 0.96654552221298217773 0.96790027618408203125 0.9688040614128112793 0.9579518437385559082 0.94316715002059936523 0.90282177925109863281 0.90110105276107788086 0.85853302478790283203 0.90510141849517822266 0.9409783482551574707 0.96303361654281616211 0.97163170576095581055 0.97249293327331542969 0.95419049263000488281 0.93500244617462158203 0.91180300712585449219 0.88254326581954956055 0.85435622930526733398 0.83068144321441650391 0.83847397565841674805 0.86285006999969482422 0.89228028059005737305 0.89557147026062011719 0.96761345863342285156 0.95563536882400512695 0.9459088444709777832 0.93541353940963745117 0.89998465776443481445 0.98475384712219238281 0.99944186210632324219 0.89959812164306640625 0.87995672225952148438 0.87868219614028930664 0.88932067155838012695 0.88309323787689208984 0.81804418563842773438 0.81937545537948608398 0.84921747446060180664 0.84570223093032836914 0.84454369544982910156 0.85387450456619262695 0.88981670141220092773 0.90351885557174682617 0.9130128026008605957 0.92932981252670288086 0.95022487640380859375 0.96406990289688110352 0.9954134821891784668 0.99352633953094482422 0.97257947921752929688 0.98320674896240234375 0.99089312553405761719 0.99191206693649291992 0.94218903779983520508 0.94282817840576171875 0.89993274211883544922 0.91404199600219726562 0.90823864936828613281 0.87686216831207275391 0.83196884393692016602 0.84237873554229736328 0.88828355073928833008 0.97107076644897460938 
0.93436592817306518555 0.92260897159576416016 0.91381740570068359375 0.90837246179580688477 0.87729251384735107422 0.86393845081329345703 0.85494142770767211914 0.86982309818267822266 0.87712979316711425781 0.87988567352294921875 0.8994579315185546875 0.92105007171630859375 0.91038870811462402344 0.89508044719696044922 0.90832787752151489258 0.87195849418640136719 0.89090293645858764648 0.95944970846176147461 0.97048610448837280273 0.98230051994323730469 0.94318467378616333008 0.90455645322799682617 0.89026439189910888672 0.85994964838027954102 0.8045756220817565918 0.9519278407096862793 0.99443781375885009766 0.98790603876113891602 0.99197506904602050781 0.9864139556884765625 0.98819828033447265625 0.99245780706405639648 0.99223631620407104492 0.99173092842102050781 0.99026840925216674805 0.98705631494522094727 0.97663056850433349609 0.99184876680374145508 0.98591643571853637695 0.97997331619262695312 0.99360650777816772461 0.99071675539016723633 0.9937064051628112793 0.9992644190788269043 0.98345112800598144531 0.98859357833862304688 0.99232721328735351562 0.99425071477890014648 0.97649919986724853516 0.95900481939315795898 0.95094877481460571289 0.94559437036514282227 0.90933787822723388672 0.89320063591003417969 0.90290671586990356445 0.93692952394485473633 0.94136369228363037109 0.92902201414108276367 0.94656801223754882812 0.93137049674987792969 0.91547101736068725586 0.88534563779830932617 0.86700546741485595703 0.83710920810699462891 0.82743084430694580078 0.84364861249923706055 0.8559811711311340332 0.86870914697647094727 0.9211317896842956543 0.98466646671295166016 0.95116841793060302734 0.95597672462463378906 0.92925113439559936523 0.91513001918792724609 0.96599346399307250977 0.9892552495002746582 0.89628076553344726562 0.87103623151779174805 0.87271553277969360352 0.87081819772720336914 0.84871351718902587891 0.82498794794082641602 0.81359845399856567383 0.81976813077926635742 0.87046098709106445312 0.89233291149139404297 0.8481903076171875 0.86923259496688842773 0.88885408639907836914 0.86979138851165771484 0.87754237651824951172 0.89450126886367797852 0.87937659025192260742 0.84985685348510742188 0.88210177421569824219 0.95653074979782104492 0.99363511800765991211 0.99899441003799438477 0.92584139108657836914 0.91198211908340454102 0.92527717351913452148 0.88818508386611938477 0.90058410167694091797 0.90896856784820556641 0.88997697830200195312 0.85362040996551513672 0.87469512224197387695 0.89596951007843017578 0.9749100804328918457 
0.9525089263916015625 0.92287909984588623047 0.93381327390670776367 0.95114886760711669922 0.94235998392105102539 0.92652940750122070312 0.87946397066116333008 0.85287034511566162109 0.84474903345108032227 0.87055647373199462891 0.8924109339714050293 0.91129022836685180664 0.92387259006500244141 0.91730439662933349609 0.90740042924880981445 0.89358133077621459961 0.94125521183013916016 0.9528598785400390625 0.91284078359603881836 0.93393886089324951172 0.92261350154876708984 0.92029327154159545898 0.90642952919006347656 0.88666743040084838867 0.83261561393737792969 0.90403246879577636719 0.98357051610946655273 0.959972381591796875 0.98789435625076293945 0.97982203960418701172 0.97240859270095825195 0.97420716285705566406 0.98493176698684692383 0.98724234104156494141 0.98461729288101196289 0.97657817602157592773 0.97283118963241577148 0.98879361152648925781 0.98263680934906005859 0.99302095174789428711 0.99402558803558349609 0.9900379180908203125 0.99859970808029174805 0.97702127695083618164 0.95922696590423583984 0.97333526611328125 0.97076427936553955078 0.9799346923828125 0.96743446588516235352 0.98086494207382202148 0.97995173931121826172 0.95092612504959106445 0.91642194986343383789 0.90161269903182983398 0.90757578611373901367 0.94275140762329101562 0.94465959072113037109 0.92816615104675292969 0.93711447715759277344 0.89768809080123901367 0.85706090927124023438 0.84497904777526855469 0.83144605159759521484 0.85328239202499389648 0.87043488025665283203 0.87721234560012817383 0.86240792274475097656 0.87607854604721069336 0.95923340320587158203 0.99150508642196655273 0.96979695558547973633 0.96188741922378540039 0.93740856647491455078 0.97786223888397216797 0.99590742588043212891 0.97372412681579589844 0.85242134332656860352 0.8588428497314453125 0.86861258745193481445 0.84957319498062133789 0.82925367355346679688 0.81422203779220581055 0.79587316513061523438 0.80033129453659057617 0.87237560749053955078 0.92562532424926757812 0.86550825834274291992 0.88344520330429077148 0.90314060449600219727 0.90956681966781616211 0.91377729177474975586 0.93159896135330200195 0.91804605722427368164 0.91035509109497070312 0.90863269567489624023 0.8707053065299987793 0.89561796188354492188 0.97824966907501220703 0.89962297677993774414 0.92532205581665039062 0.88675236701965332031 0.85762578248977661133 0.89429605007171630859 0.89092588424682617188 0.84048432111740112305 0.84960550069808959961 0.86138093471527099609 0.88825076818466186523 0.97403746843338012695 
0.96411693096160888672 0.95165604352951049805 0.95716267824172973633 0.95383852720260620117 0.9556681513786315918 0.94727605581283569336 0.91256338357925415039 0.86478883028030395508 0.82798945903778076172 0.83739179372787475586 0.83777660131454467773 0.8521944880485534668 0.87064284086227416992 0.90374356508255004883 0.92154467105865478516 0.93321126699447631836 0.93369984626770019531 0.91046673059463500977 0.92100876569747924805 0.91042184829711914062 0.90220355987548828125 0.86731618642807006836 0.89197325706481933594 0.89031296968460083008 0.85613250732421875 0.86098086833953857422 0.85252231359481811523 0.79952543973922729492 0.95344430208206176758 0.9803002476692199707 0.97760599851608276367 0.97635477781295776367 0.97899681329727172852 0.98395144939422607422 0.96908438205718994141 0.97556090354919433594 0.99517679214477539062 0.99103486537933349609 0.99530512094497680664 0.99736726284027099609 0.99642139673233032227 0.99964469671249389648 0.96202814579010009766 0.94604825973510742188 0.96541959047317504883 0.96845948696136474609 0.91492098569869995117 0.93676030635833740234 0.90044313669204711914 0.90000712871551513672 0.91368001699447631836 0.91196560859680175781 0.90737015008926391602 0.89460295438766479492 0.89044654369354248047 0.92437404394149780273 0.93167740106582641602 0.92631095647811889648 0.91836988925933837891 0.87584882974624633789 0.8545786738395690918 0.84499949216842651367 0.84171521663665771484 0.86641168594360351562 0.86335170269012451172 0.88158917427062988281 0.89937549829483032227 0.89617943763732910156 0.94957101345062255859 0.99441921710968017578 0.96445029973983764648 0.9532616734504699707 0.97179877758026123047 0.99907004833221435547 0.99654167890548706055 0.91708344221115112305 0.87878447771072387695 0.86817461252212524414 0.86758363246917724609 0.84316974878311157227 0.81838095188140869141 0.78928697109222412109 0.81312769651412963867 0.84407055377960205078 0.85203975439071655273 0.94014155864715576172 0.92439997196197509766 0.9195563197135925293 0.92915445566177368164 0.91998064517974853516 0.92538523674011230469 0.91715842485427856445 0.90651053190231323242 0.88293516635894775391 0.89228081703186035156 0.87508654594421386719 0.93716943264007568359 0.99022769927978515625 0.91294586658477783203 0.91805231571197509766 0.88375508785247802734 0.86456990242004394531 0.89673686027526855469 0.82109016180038452148 0.86440300941467285156 0.84979760646820068359 0.84481549263000488281 0.85239106416702270508 0.94561612606048583984 
0.97091180086135864258 0.95187997817993164062 0.94384199380874633789 0.94690918922424316406 0.95416873693466186523 0.95158225297927856445 0.93199521303176879883 0.90166145563125610352 0.8734989166259765625 0.85148435831069946289 0.85072851181030273438 0.85540193319320678711 0.86335980892181396484 0.84812080860137939453 0.8822314143180847168 0.89771646261215209961 0.88736104965209960938 0.88037258386611938477 0.90300965309143066406 0.90198987722396850586 0.8873494267463684082 0.85596263408660888672 0.86957716941833496094 0.85850149393081665039 0.86430054903030395508 0.87442022562026977539 0.84749633073806762695 0.80474007129669189453 0.82395750284194946289 0.96682828664779663086 0.97106230258941650391 0.97677659988403320312 0.96235495805740356445 0.98064601421356201172 0.96510815620422363281 0.98744434118270874023 0.99149191379547119141 0.99146002531051635742 0.99398684501647949219 0.99626344442367553711 0.99751400947570800781 0.98721915483474731445 0.93230718374252319336 0.91042435169219970703 0.91598117351531982422 0.91296446323394775391 0.91555869579315185547 0.92598223686218261719 0.90949034690856933594 0.90407049655914306641 0.87953650951385498047 0.85084205865859985352 0.85274565219879150391 0.87814211845397949219 0.86545020341873168945 0.87416195869445800781 0.88265323638916015625 0.88411259651184082031 0.89880162477493286133 0.88111346960067749023 0.85503041744232177734 0.87555485963821411133 0.86897587776184082031 0.89630842208862304688 0.87820470333099365234 0.87412470579147338867 0.92541217803955078125 0.91439813375473022461 0.89158087968826293945 0.99531912803649902344 0.99684321880340576172 0.99218642711639404297 0.99406069517135620117 0.97706407308578491211 0.90318113565444946289 0.92436730861663818359 0.89067983627319335938 0.87863975763320922852 0.86918926239013671875 0.8348553776741027832 0.80572867393493652344 0.77909266948699951172 0.82284295558929443359 0.86702406406402587891 0.85359954833984375 0.93823564052581787109 0.97453445196151733398 0.95025873184204101562 0.93068742752075195312 0.92226159572601318359 0.94076269865036010742 0.95074313879013061523 0.96790832281112670898 0.97875964641571044922 0.96135616302490234375 0.88982003927230834961 0.97672623395919799805 0.98036634922027587891 0.88116359710693359375 0.90968352556228637695 0.88604700565338134766 0.86559319496154785156 0.86898940801620483398 0.8706188201904296875 0.90014743804931640625 0.91120469570159912109 0.88006168603897094727 0.8360201716423034668 0.92418777942657470703 
0.96906858682632446289 0.95063865184783935547 0.91991972923278808594 0.93430906534194946289 0.938053131103515625 0.95040988922119140625 0.93584531545639038086 0.92330437898635864258 0.8993790745735168457 0.88687634468078613281 0.87622183561325073242 0.86948698759078979492 0.86183565855026245117 0.85253006219863891602 0.88239443302154541016 0.89013648033142089844 0.88798600435256958008 0.8718166351318359375 0.87706965208053588867 0.89757788181304931641 0.88566660881042480469 0.85366022586822509766 0.87945449352264404297 0.89579373598098754883 0.89034372568130493164 0.88195663690567016602 0.85695511102676391602 0.82786858081817626953 0.82726508378982543945 0.88965398073196411133 0.96323043107986450195 0.9666461944580078125 0.94445085525512695312 0.97928345203399658203 0.95991843938827514648 0.98990345001220703125 0.98940789699554443359 0.99948406219482421875 0.99964469671249389648 0.93762075901031494141 0.87155538797378540039 0.89212304353713989258 0.89586013555526733398 0.8938166499137878418 0.92121744155883789062 0.92835646867752075195 0.92804133892059326172 0.918544769287109375 0.90148872137069702148 0.8629220128059387207 0.84456473588943481445 0.83565312623977661133 0.85560947656631469727 0.85927045345306396484 0.84158813953399658203 0.85356718301773071289 0.86350154876708984375 0.85670351982116699219 0.86973583698272705078 0.87123876810073852539 0.87957459688186645508 0.90112924575805664062 0.91444444656372070312 0.93378597497940063477 0.93574255704879760742 0.91490405797958374023 0.92812216281890869141 0.91763192415237426758 0.91068869829177856445 0.99479705095291137695 0.96744269132614135742 0.88434934616088867188 0.90531343221664428711 0.89479821920394897461 0.88153785467147827148 0.90459787845611572266 0.90195542573928833008 0.87260288000106811523 0.83687037229537963867 0.81309932470321655273 0.79849588871002197266 0.80718171596527099609 0.84677416086196899414 0.89315527677536010742 0.89366585016250610352 0.96468085050582885742 0.9644972681999206543 0.95812183618545532227 0.91896408796310424805 0.90261894464492797852 0.92599910497665405273 0.91938376426696777344 0.91440623998641967773 0.9482581019401550293 0.95096337795257568359 0.99961930513381958008 0.97350394725799560547 0.90405130386352539062 0.88333779573440551758 0.89382147789001464844 0.85880166292190551758 0.83608430624008178711 0.85570341348648071289 0.90683662891387939453 0.91854691505432128906 0.93417036533355712891 0.96613866090774536133 0.84424573183059692383 0.86034250259399414062 
0.98537224531173706055 0.96781629323959350586 0.90740764141082763672 0.92214697599411010742 0.92410039901733398438 0.96241968870162963867 0.92982465028762817383 0.94255578517913818359 0.93958061933517456055 0.90713465213775634766 0.89871704578399658203 0.88654482364654541016 0.88558137416839599609 0.86349779367446899414 0.86129075288772583008 0.84516656398773193359 0.85578906536102294922 0.85085254907608032227 0.85584825277328491211 0.87568610906600952148 0.83745354413986206055 0.85320448875427246094 0.87685561180114746094 0.91008472442626953125 0.91733586788177490234 0.9105167388916015625 0.89829015731811523438 0.87248855829238891602 0.87077349424362182617 0.86639440059661865234 0.89752519130706787109 0.95716232061386108398 0.94906836748123168945 0.97784584760665893555 0.95837855339050292969 0.98563939332962036133 0.99578058719635009766 0.99757587909698486328 0.94374668598175048828 0.94073688983917236328 0.94021308422088623047 0.93001353740692138672 0.9340336918830871582 0.94333553314208984375 0.95197248458862304688 0.94450289011001586914 0.92571508884429931641 0.89770817756652832031 0.86874532699584960938 0.85036188364028930664 0.84496682882308959961 0.83953815698623657227 0.88399356603622436523 0.88140720129013061523 0.86356866359710693359 0.8700034022331237793 0.88857501745223999023 0.87434232234954833984 0.87823814153671264648 0.88955038785934448242 0.90790355205535888672 0.92834609746932983398 0.93657964468002319336 0.94276505708694458008 0.93979781866073608398 0.93699693679809570312 0.93905234336853027344 0.9130827784538269043 0.85292261838912963867 0.9764556884765625 0.98756778240203857422 0.90947806835174560547 0.89348977804183959961 0.89863497018814086914 0.90119439363479614258 0.89462912082672119141 0.87884318828582763672 0.87795174121856689453 0.84001135826110839844 0.81600588560104370117 0.80333745479583740234 0.83301466703414916992 0.86230927705764770508 0.87246656417846679688 0.89743542671203613281 0.98544466495513916016 0.96715086698532104492 0.95738720893859863281 0.9269549250602722168 0.91050946712493896484 0.92861175537109375 0.93164271116256713867 0.90758013725280761719 0.88320827484130859375 0.8703365325927734375 0.99768739938735961914 0.98678892850875854492 0.9123210906982421875 0.89078795909881591797 0.88730394840240478516 0.85254335403442382812 0.83738970756530761719 0.86498999595642089844 0.88844758272171020508 0.91498386859893798828 0.93472057580947875977 0.98139321804046630859 0.87933671474456787109 0.84100925922393798828 
0.98361980915069580078 0.96492093801498413086 0.89484304189682006836 0.90883404016494750977 0.9255492091178894043 0.96315741539001464844 0.91363477706909179688 0.93620765209197998047 0.94167244434356689453 0.93481945991516113281 0.92785131931304931641 0.90323114395141601562 0.9000180363655090332 0.89082968235015869141 0.8719914555549621582 0.87872314453125 0.88490134477615356445 0.88499695062637329102 0.89529556035995483398 0.88508218526840209961 0.86574894189834594727 0.91211134195327758789 0.92687886953353881836 0.93043565750122070312 0.92757475376129150391 0.90388572216033935547 0.88033491373062133789 0.88683742284774780273 0.89693480730056762695 0.89118081331253051758 0.86299753189086914062 0.89318668842315673828 0.94862818717956542969 0.98274761438369750977 0.96782523393630981445 0.99241751432418823242 0.99957704544067382812 0.98250311613082885742 0.92868316173553466797 0.94268578290939331055 0.94744819402694702148 0.94661873579025268555 0.95071697235107421875 0.94740968942642211914 0.94077360630035400391 0.90820449590682983398 0.88630425930023193359 0.87755787372589111328 0.84685540199279785156 0.8391513824462890625 0.86088997125625610352 0.89593148231506347656 0.9150238037109375 0.91167777776718139648 0.91730260848999023438 0.92540901899337768555 0.95365685224533081055 0.9343433380126953125 0.89241987466812133789 0.91364061832427978516 0.9396451115608215332 0.94510066509246826172 0.94455456733703613281 0.95699775218963623047 0.95868134498596191406 0.93564975261688232422 0.9309571385383605957 0.9270579218864440918 0.87055611610412597656 0.96570581197738647461 0.99964469671249389648 0.96890819072723388672 0.96670699119567871094 0.95394217967987060547 0.92194992303848266602 0.90014016628265380859 0.89693218469619750977 0.85181987285614013672 0.8270251154899597168 0.82143133878707885742 0.83271956443786621094 0.85779994726181030273 0.89359420537948608398 0.8882872462272644043 0.93148523569107055664 0.98281967639923095703 0.91952842473983764648 0.89172899723052978516 0.8833014369010925293 0.90250897407531738281 0.92134493589401245117 0.93627899885177612305 0.92903959751129150391 0.91542851924896240234 0.87644040584564208984 0.91352689266204833984 0.99617815017700195312 0.97060054540634155273 0.92504125833511352539 0.91003715991973876953 0.85925346612930297852 0.84627038240432739258 0.89591085910797119141 0.86852383613586425781 0.88376665115356445312 0.9210637211799621582 0.98490256071090698242 0.96539986133575439453 0.85251283645629882812 
0.95203763246536254883 0.89641565084457397461 0.87547200918197631836 0.88198226690292358398 0.89147889614105224609 0.97480696439743041992 0.91085422039031982422 0.91204506158828735352 0.93156081438064575195 0.93346315622329711914 0.93793839216232299805 0.92617905139923095703 0.92118793725967407227 0.91185134649276733398 0.88656038045883178711 0.8715801239013671875 0.89773869514465332031 0.89498430490493774414 0.88276994228363037109 0.88273805379867553711 0.8793188929557800293 0.9404500126838684082 0.93852818012237548828 0.93237018585205078125 0.92601799964904785156 0.94583052396774291992 0.91824936866760253906 0.91328126192092895508 0.91679936647415161133 0.89810985326766967773 0.88689851760864257812 0.85637736320495605469 0.86029982566833496094 0.99020802974700927734 0.98745775222778320312 0.9933179020881652832 0.97605746984481811523 0.94206666946411132812 0.9379660487174987793 0.93249350786209106445 0.93659394979476928711 0.93158090114593505859 0.93908858299255371094 0.91876262426376342773 0.90269792079925537109 0.86985057592391967773 0.86269128322601318359 0.86878401041030883789 0.84037601947784423828 0.88342320919036865234 0.91982465982437133789 0.91933107376098632812 0.93580073118209838867 0.95945906639099121094 0.98160600662231445312 0.97740232944488525391 0.96333253383636474609 0.92528176307678222656 0.89611911773681640625 0.94331443309783935547 0.95550447702407836914 0.96389698982238769531 0.95893585681915283203 0.95927447080612182617 0.95739781856536865234 0.94709771871566772461 0.96411842107772827148 0.96236628293991088867 0.90557217597961425781 0.9633426666259765625 0.99909633398056030273 0.97782886028289794922 0.98636126518249511719 0.96593296527862548828 0.96146851778030395508 0.94057643413543701172 0.91784685850143432617 0.83536058664321899414 0.81352323293685913086 0.82799041271209716797 0.83423542976379394531 0.82415550947189331055 0.87397181987762451172 0.87704586982727050781 0.92387884855270385742 0.97331118583679199219 0.93495357036590576172 0.93276655673980712891 0.90376436710357666016 0.90472680330276489258 0.89808279275894165039 0.92355656623840332031 0.93777740001678466797 0.9223683476448059082 0.91838985681533813477 0.88014847040176391602 0.94307565689086914062 0.98538321256637573242 0.9626420140266418457 0.89731955528259277344 0.881069183349609375 0.87143629789352416992 0.90801197290420532227 0.88610738515853881836 0.87822365760803222656 0.89385145902633666992 0.97603869438171386719 0.98355448246002197266 0.90459847450256347656 
0.97577005624771118164 0.89664065837860107422 0.85578358173370361328 0.86464428901672363281 0.86642158031463623047 0.97405529022216796875 0.90330684185028076172 0.89125901460647583008 0.93276309967041015625 0.92298072576522827148 0.93333137035369873047 0.92456418275833129883 0.92781531810760498047 0.91876959800720214844 0.91196841001510620117 0.88482004404067993164 0.91294068098068237305 0.89538520574569702148 0.87601369619369506836 0.89769327640533447266 0.94211244583129882812 0.94355732202529907227 0.94104206562042236328 0.92868399620056152344 0.91114759445190429688 0.95622307062149047852 0.92379993200302124023 0.91525667905807495117 0.92121291160583496094 0.90668481588363647461 0.92087376117706298828 0.88305377960205078125 0.85787171125411987305 0.91011404991149902344 0.98634612560272216797 0.92536109685897827148 0.89360523223876953125 0.86645865440368652344 0.93644124269485473633 0.9581248164176940918 0.95730423927307128906 0.93751072883605957031 0.9194164276123046875 0.87920117378234863281 0.88841426372528076172 0.89412587881088256836 0.88198512792587280273 0.87845098972320556641 0.8828004002571105957 0.92248708009719848633 0.93843573331832885742 0.95204865932464599609 0.981433868408203125 0.98946785926818847656 0.97773772478103637695 0.94664210081100463867 0.8904673457145690918 0.88259673118591308594 0.9087550044059753418 0.95181405544281005859 0.96354472637176513672 0.96720981597900390625 0.96329295635223388672 0.9553210139274597168 0.94807964563369750977 0.93246358633041381836 0.92235165834426879883 0.98582088947296142578 0.98191183805465698242 0.98253768682479858398 0.94536811113357543945 0.91800355911254882812 0.95737695693969726562 0.96926277875900268555 0.9661356806755065918 0.94023299217224121094 0.90207707881927490234 0.84908533096313476562 0.80660319328308105469 0.83867549896240234375 0.86088603734970092773 0.85813146829605102539 0.84914869070053100586 0.86802959442138671875 0.90306353569030761719 0.97576808929443359375 0.99943327903747558594 0.98833948373794555664 0.92694067955017089844 0.89469671249389648438 0.9344844818115234375 0.89868980646133422852 0.93393445014953613281 0.9301941990852355957 0.94177675247192382812 0.94359940290451049805 0.95764172077178955078 0.98429596424102783203 0.98050010204315185547 0.8867409825325012207 0.90324884653091430664 0.87236034870147705078 0.91136932373046875 0.91154915094375610352 0.88644385337829589844 0.88271349668502807617 0.95214956998825073242 0.98743653297424316406 0.92391484975814819336 
0.98769372701644897461 0.86323755979537963867 0.80533134937286376953 0.8553435206413269043 0.85357278585433959961 0.97435110807418823242 0.93708658218383789062 0.89529776573181152344 0.91851240396499633789 0.90519875288009643555 0.92792403697967529297 0.92000532150268554688 0.92813956737518310547 0.90974098443984985352 0.90975600481033325195 0.88982880115509033203 0.8991629481315612793 0.90398627519607543945 0.89392310380935668945 0.90130412578582763672 0.93799263238906860352 0.92503821849822998047 0.93768852949142456055 0.92986309528350830078 0.88874065876007080078 0.93815368413925170898 0.90199285745620727539 0.90411615371704101562 0.92793899774551391602 0.91669869422912597656 0.92699235677719116211 0.87674212455749511719 0.92565721273422241211 0.96476835012435913086 0.93397086858749389648 0.91321361064910888672 0.91971218585968017578 0.91126537322998046875 0.91147083044052124023 0.91736710071563720703 0.92697101831436157227 0.92212617397308349609 0.8999093174934387207 0.89960843324661254883 0.90728509426116943359 0.89428871870040893555 0.88572525978088378906 0.91401284933090209961 0.90988844633102416992 0.94365388154983520508 0.96171098947525024414 0.99013924598693847656 0.99238735437393188477 0.98089545965194702148 0.93615734577178955078 0.88785696029663085938 0.88270205259323120117 0.89647734165191650391 0.9287980198860168457 0.94562172889709472656 0.96749609708786010742 0.97608381509780883789 0.96470594406127929688 0.94291758537292480469 0.92652589082717895508 0.92033785581588745117 0.91004413366317749023 0.99029117822647094727 0.99703478813171386719 0.96422815322875976562 0.93826985359191894531 0.92001229524612426758 0.92879462242126464844 0.94157642126083374023 0.95060408115386962891 0.91702520847320556641 0.86519962549209594727 0.83620381355285644531 0.81285953521728515625 0.82790672779083251953 0.88192909955978393555 0.91216838359832763672 0.95759195089340209961 0.94926041364669799805 0.94688636064529418945 0.98156642913818359375 0.9841645359992980957 0.98606377840042114258 0.99105685949325561523 0.98445677757263183594 0.99598473310470581055 0.95944935083389282227 0.9251842498779296875 0.94427949190139770508 0.96702742576599121094 0.96174871921539306641 0.95957511663436889648 0.97932416200637817383 0.95174044370651245117 0.90371561050415039062 0.89476293325424194336 0.85871648788452148438 0.91714799404144287109 0.9365870356559753418 0.93743699789047241211 0.91436022520065307617 0.91491407155990600586 0.98873984813690185547 0.94637125730514526367 
0.99773728847503662109 0.91803574562072753906 0.81851863861083984375 0.85503542423248291016 0.83866643905639648438 0.94219833612442016602 0.9727503657341003418 0.94206845760345458984 0.86075574159622192383 0.88726007938385009766 0.92735141515731811523 0.90594846010208129883 0.9333788752555847168 0.91244161128997802734 0.89736455678939819336 0.88533836603164672852 0.87008953094482421875 0.92927891016006469727 0.90319323539733886719 0.88497686386108398438 0.9600861668586730957 0.93966859579086303711 0.92562478780746459961 0.90638929605484008789 0.84129661321640014648 0.93562203645706176758 0.91491639614105224609 0.92530131340026855469 0.94063574075698852539 0.94129765033721923828 0.92517638206481933594 0.84812587499618530273 0.97844588756561279297 0.97787356376647949219 0.92505830526351928711 0.93308174610137939453 0.93821561336517333984 0.93250191211700439453 0.92269867658615112305 0.92331796884536743164 0.91065931320190429688 0.90563184022903442383 0.92359143495559692383 0.91602611541748046875 0.90068835020065307617 0.89054590463638305664 0.91891080141067504883 0.9207445979118347168 0.90514844655990600586 0.95223855972290039062 0.98930829763412475586 0.99205392599105834961 0.96634107828140258789 0.95270681381225585938 0.91043972969055175781 0.89352279901504516602 0.90350061655044555664 0.92039155960083007812 0.94615846872329711914 0.96424180269241333008 0.97214549779891967773 0.9686037898063659668 0.96910214424133300781 0.97803783416748046875 0.95092439651489257812 0.89935916662216186523 0.92878854274749755859 0.98729652166366577148 0.97518831491470336914 0.92078363895416259766 0.93429547548294067383 0.93084436655044555664 0.95045638084411621094 0.95442169904708862305 0.95428925752639770508 0.91239941120147705078 0.877269744873046875 0.84760636091232299805 0.83440303802490234375 0.84432381391525268555 0.89897227287292480469 0.94174742698669433594 0.96241283416748046875 0.96582710742950439453 0.93127983808517456055 0.91228830814361572266 0.87800431251525878906 0.88711404800415039062 0.9208291172981262207 0.98052996397018432617 0.99743300676345825195 0.99618041515350341797 0.97774338722229003906 0.91368997097015380859 0.9408848881721496582 0.94681811332702636719 0.95266234874725341797 0.99514329433441162109 0.9440657496452331543 0.91807907819747924805 0.90052425861358642578 0.88303208351135253906 0.91682887077331542969 0.93953788280487060547 0.94393521547317504883 0.92808395624160766602 0.92083120346069335938 0.97323191165924072266 0.97795468568801879883 
0.99786448478698730469 0.89406663179397583008 0.83890098333358764648 0.84527266025543212891 0.83119827508926391602 0.88972908258438110352 0.98499947786331176758 0.94181466102600097656 0.85298246145248413086 0.90825289487838745117 0.9393952488899230957 0.89160883426666259766 0.93436038494110107422 0.91817569732666015625 0.86407798528671264648 0.87978667020797729492 0.88239502906799316406 0.93763983249664306641 0.90808939933776855469 0.88950151205062866211 0.96421045064926147461 0.92676144838333129883 0.90307587385177612305 0.8622264862060546875 0.81475144624710083008 0.96970230340957641602 0.95209157466888427734 0.96418780088424682617 0.94191271066665649414 0.92894160747528076172 0.90335679054260253906 0.83086860179901123047 0.98879480361938476562 0.94709157943725585938 0.92394292354583740234 0.96270620822906494141 0.97237473726272583008 0.97616118192672729492 0.94214999675750732422 0.90179932117462158203 0.91051059961318969727 0.92677056789398193359 0.92320591211318969727 0.9012959599494934082 0.89486169815063476562 0.90117621421813964844 0.8923511505126953125 0.92254537343978881836 0.9791342616081237793 0.99242103099822998047 0.98873478174209594727 0.99036270380020141602 0.95660895109176635742 0.92489278316497802734 0.89297878742218017578 0.90197050571441650391 0.915912628173828125 0.928539276123046875 0.95611906051635742188 0.96727770566940307617 0.96886050701141357422 0.95946514606475830078 0.95212793350219726562 0.96073031425476074219 0.95547503232955932617 0.98948901891708374023 0.99824070930480957031 0.94497925043106079102 0.95582634210586547852 0.94699090719223022461 0.94873416423797607422 0.95008397102355957031 0.95869249105453491211 0.95550560951232910156 0.93706500530242919922 0.91258656978607177734 0.88624453544616699219 0.8330523371696472168 0.87421959638595581055 0.89923053979873657227 0.93019503355026245117 0.93969327211380004883 0.9426116943359375 0.94220954179763793945 0.91424775123596191406 0.89497470855712890625 0.87543928623199462891 0.88080191612243652344 0.88767457008361816406 0.89777147769927978516 0.89832156896591186523 0.93220442533493041992 0.99737870693206787109 0.99523365497589111328 0.96744143962860107422 0.97012639045715332031 0.96854341030120849609 0.9981696009635925293 0.95300334692001342773 0.92556130886077880859 0.91976195573806762695 0.88634628057479858398 0.90949666500091552734 0.93837332725524902344 0.9427998661994934082 0.93265402317047119141 0.92213284969329833984 0.94755345582962036133 0.99601244926452636719 
0.99246865510940551758 0.91690897941589355469 0.88521116971969604492 0.86867409944534301758 0.88389128446578979492 0.90482652187347412109 0.98059308528900146484 0.95000314712524414062 0.87398326396942138672 0.90537726879119873047 0.9245312809944152832 0.91333466768264770508 0.93338453769683837891 0.90202766656875610352 0.84309273958206176758 0.86793857812881469727 0.89954626560211181641 0.89854657649993896484 0.90544545650482177734 0.91552734375 0.96128106117248535156 0.92869675159454345703 0.91309499740600585938 0.86811679601669311523 0.83670395612716674805 0.96858078241348266602 0.93024969100952148438 0.95324510335922241211 0.95116579532623291016 0.93309289216995239258 0.9024365544319152832 0.88042157888412475586 0.99887740612030029297 0.98748773336410522461 0.97226983308792114258 0.98557573556900024414 0.96469002962112426758 0.96631950139999389648 0.93342602252960205078 0.89646780490875244141 0.92411452531814575195 0.92911547422409057617 0.91716665029525756836 0.91964101791381835938 0.9091784358024597168 0.92092615365982055664 0.92129778861999511719 0.94939482212066650391 0.99363064765930175781 0.99214518070220947266 0.97924065589904785156 0.97328650951385498047 0.95251423120498657227 0.91952294111251831055 0.9125881195068359375 0.91754072904586791992 0.93490815162658691406 0.94668447971343994141 0.95954394340515136719 0.97499501705169677734 0.97219842672348022461 0.95666986703872680664 0.96106028556823730469 0.95000636577606201172 0.92799067497253417969 0.98822355270385742188 0.99949246644973754883 0.93659520149230957031 0.9295756220817565918 0.93789315223693847656 0.94506108760833740234 0.94044464826583862305 0.94322890043258666992 0.92041426897048950195 0.90873003005981445312 0.90677207708358764648 0.87962561845779418945 0.84759819507598876953 0.88451308012008666992 0.88929724693298339844 0.90978711843490600586 0.89201003313064575195 0.8960971832275390625 0.88196790218353271484 0.81756663322448730469 0.82336080074310302734 0.84739500284194946289 0.85681200027465820312 0.88176405429840087891 0.91386896371841430664 0.92998212575912475586 0.90805906057357788086 0.93026119470596313477 0.99592471122741699219 0.9938036799430847168 0.97651511430740356445 0.94869607686996459961 0.99969542026519775391 0.97255748510360717773 0.87427490949630737305 0.89924961328506469727 0.87292659282684326172 0.90483003854751586914 0.9385960698127746582 0.94670844078063964844 0.94926822185516357422 0.91096228361129760742 0.90326094627380371094 0.99218219518661499023 
0.94527530670166015625 0.99026221036911010742 0.94920927286148071289 0.88887029886245727539 0.90807455778121948242 0.96495479345321655273 0.99854695796966552734 0.99487221240997314453 0.96650987863540649414 0.96969473361968994141 0.90945613384246826172 0.89012467861175537109 0.9412987828254699707 0.88853418827056884766 0.85958111286163330078 0.86927396059036254883 0.88806182146072387695 0.87365955114364624023 0.90095037221908569336 0.94170463085174560547 0.9609610438346862793 0.92278391122817993164 0.91820234060287475586 0.89136576652526855469 0.92201030254364013672 0.98372197151184082031 0.91905474662780761719 0.95713812112808227539 0.94705939292907714844 0.91787058115005493164 0.91316461563110351562 0.97853416204452514648 0.997226715087890625 0.97531580924987792969 0.94556123018264770508 0.93603712320327758789 0.89920186996459960938 0.90505248308181762695 0.90219658613204956055 0.90502208471298217773 0.928470611572265625 0.92280364036560058594 0.91710335016250610352 0.91910701990127563477 0.92046624422073364258 0.96533936262130737305 0.96491026878356933594 0.99174845218658447266 0.98924428224563598633 0.97421765327453613281 0.971591949462890625 0.97085464000701904297 0.9386742711067199707 0.90985089540481567383 0.92165261507034301758 0.93372964859008789062 0.94842070341110229492 0.96878409385681152344 0.97119796276092529297 0.97362768650054931641 0.97870922088623046875 0.98224663734436035156 0.97317802906036376953 0.95244020223617553711 0.95940172672271728516 0.99114716053009033203 0.97701215744018554688 0.93691855669021606445 0.93253695964813232422 0.93234348297119140625 0.9373086094856262207 0.92230492830276489258 0.9217071533203125 0.90971976518630981445 0.90464448928833007812 0.90462207794189453125 0.89052355289459228516 0.85962027311325073242 0.88182407617568969727 0.86529099941253662109 0.84883898496627807617 0.79587423801422119141 0.79585617780685424805 0.78912347555160522461 0.79137748479843139648 0.80340397357940673828 0.81613355875015258789 0.82430344820022583008 0.84387433528900146484 0.8783124089241027832 0.92138874530792236328 0.91687625646591186523 0.88528215885162353516 0.86295622587203979492 0.88335651159286499023 0.8911011815071105957 0.89870458841323852539 0.98877239227294921875 0.99133533239364624023 0.89589768648147583008 0.90873855352401733398 0.86829346418380737305 0.90295350551605224609 0.93816977739334106445 0.95355600118637084961 0.96019512414932250977 0.9430605769157409668 0.91686612367630004883 0.98051720857620239258 
0.94400042295455932617 0.99425101280212402344 0.99241274595260620117 0.93575823307037353516 0.96520876884460449219 0.98780971765518188477 0.97405326366424560547 0.96116387844085693359 0.96072268486022949219 0.99611300230026245117 0.96014195680618286133 0.94482100009918212891 0.93391942977905273438 0.86584043502807617188 0.83870041370391845703 0.82797342538833618164 0.84879165887832641602 0.8995068669319152832 0.90979212522506713867 0.97742176055908203125 0.97471922636032104492 0.9753901362419128418 0.95823061466217041016 0.91868227720260620117 0.98153728246688842773 0.93187981843948364258 0.91528797149658203125 0.96046990156173706055 0.92846626043319702148 0.95195060968399047852 0.98608916997909545898 0.97591489553451538086 0.9543730616569519043 0.9650980830192565918 0.97486835718154907227 0.95280319452285766602 0.94643706083297729492 0.9204800724983215332 0.90139204263687133789 0.92172962427139282227 0.9297249913215637207 0.90949457883834838867 0.9111334681510925293 0.9274533390998840332 0.94538396596908569336 0.95358043909072875977 0.99177861213684082031 0.99685156345367431641 0.98507952690124511719 0.96709161996841430664 0.96435427665710449219 0.96986401081085205078 0.94142967462539672852 0.91659033298492431641 0.93501168489456176758 0.94308334589004516602 0.94332724809646606445 0.962383270263671875 0.97151362895965576172 0.97213131189346313477 0.96853089332580566406 0.96830695867538452148 0.98343569040298461914 0.97930353879928588867 0.99824351072311401367 0.99706351757049560547 0.94163346290588378906 0.94077259302139282227 0.94007664918899536133 0.93930226564407348633 0.92298030853271484375 0.91732209920883178711 0.91720145940780639648 0.90099537372589111328 0.88454586267471313477 0.90272039175033569336 0.8884264826774597168 0.84527242183685302734 0.88817286491394042969 0.87706977128982543945 0.87517476081848144531 0.81883352994918823242 0.8038508296012878418 0.82842564582824707031 0.82920742034912109375 0.84305912256240844727 0.83116692304611206055 0.83341366052627563477 0.82740426063537597656 0.84944528341293334961 0.91539168357849121094 0.93656361103057861328 0.93212181329727172852 0.92220348119735717773 0.92331486940383911133 0.91577184200286865234 0.89877265691757202148 0.92101216316223144531 0.99130570888519287109 0.95279562473297119141 0.94354897737503051758 0.88103491067886352539 0.88973414897918701172 0.93100321292877197266 0.9526774287223815918 0.96116584539413452148 0.96996647119522094727 0.97077298164367675781 0.98376566171646118164 
0.92389380931854248047 0.94002354145050048828 0.96880519390106201172 0.99694782495498657227 0.99741834402084350586 0.94331026077270507812 0.94453531503677368164 0.89515328407287597656 0.81177288293838500977 0.95941954851150512695 0.95639151334762573242 0.98943442106246948242 0.93822389841079711914 0.83562308549880981445 0.82130503654479980469 0.82403111457824707031 0.85295236110687255859 0.88901406526565551758 0.95735514163970947266 0.99418252706527709961 0.9916973114013671875 0.97409206628799438477 0.96645808219909667969 0.97750049829483032227 0.98363167047500610352 0.95718759298324584961 0.9946810603141784668 0.96762901544570922852 0.93250459432601928711 0.96618467569351196289 0.96361410617828369141 0.92497038841247558594 0.92386925220489501953 0.94687229394912719727 0.95076274871826171875 0.96654009819030761719 0.96794307231903076172 0.9593779444694519043 0.93208330869674682617 0.93432247638702392578 0.9242115020751953125 0.90027320384979248047 0.88345217704772949219 0.92879986763000488281 0.95451277494430541992 0.98243945837020874023 0.99584716558456420898 0.95236027240753173828 0.96245986223220825195 0.96650016307830810547 0.97379159927368164062 0.97466117143630981445 0.92801505327224731445 0.92000097036361694336 0.94006335735321044922 0.94964206218719482422 0.93895906209945678711 0.95858728885650634766 0.97099733352661132812 0.97938370704650878906 0.97010511159896850586 0.96495747566223144531 0.95644277334213256836 0.95393902063369750977 0.99839496612548828125 0.9939244389533996582 0.95372039079666137695 0.92597728967666625977 0.9222577214241027832 0.92375242710113525391 0.910549163818359375 0.89927268028259277344 0.8818511962890625 0.87922942638397216797 0.9107373356819152832 0.95449346303939819336 0.91785502433776855469 0.84983038902282714844 0.87191784381866455078 0.88349825143814086914 0.9143231511116027832 0.88366806507110595703 0.84408402442932128906 0.83539998531341552734 0.83729439973831176758 0.89365792274475097656 0.85089576244354248047 0.84394401311874389648 0.85227769613265991211 0.85899311304092407227 0.88646697998046875 0.94234895706176757812 0.9431552886962890625 0.94416791200637817383 0.93764215707778930664 0.94053095579147338867 0.96128141880035400391 0.96805417537689208984 0.99807155132293701172 0.99858146905899047852 0.92592650651931762695 0.85112410783767700195 0.87646561861038208008 0.92876809835433959961 0.95427948236465454102 0.95863109827041625977 0.97022807598114013672 0.97659277915954589844 0.98596143722534179688 
0.93217939138412475586 0.94276088476181030273 0.96436876058578491211 0.99611580371856689453 0.97670495510101318359 0.87280553579330444336 0.92268049716949462891 0.86959195137023925781 0.83452135324478149414 0.86174482107162475586 0.96505707502365112305 0.9961655735969543457 0.98503255844116210938 0.86667764186859130859 0.84849989414215087891 0.84800219535827636719 0.85112094879150390625 0.97330772876739501953 0.99888706207275390625 0.9819240570068359375 0.94239789247512817383 0.9185879826545715332 0.90675538778305053711 0.916316986083984375 0.95480370521545410156 0.89869201183319091797 0.99969542026519775391 0.976093292236328125 0.90807199478149414062 0.93814563751220703125 0.94392454624176025391 0.93859976530075073242 0.94320851564407348633 0.94994550943374633789 0.93939310312271118164 0.93132138252258300781 0.94453203678131103516 0.93835562467575073242 0.93915975093841552734 0.92601448297500610352 0.90619057416915893555 0.88950705528259277344 0.87301295995712280273 0.9824568629264831543 0.99874103069305419922 0.99886733293533325195 0.99689531326293945312 0.94633072614669799805 0.96284633874893188477 0.96660840511322021484 0.96652716398239135742 0.95831000804901123047 0.91619294881820678711 0.93463313579559326172 0.93245214223861694336 0.94383543729782104492 0.95566058158874511719 0.96116501092910766602 0.96251010894775390625 0.97765499353408813477 0.97410315275192260742 0.94443339109420776367 0.95552104711532592773 0.97634178400039672852 0.99480402469635009766 0.93329662084579467773 0.94104343652725219727 0.93993943929672241211 0.92960518598556518555 0.89927703142166137695 0.89124882221221923828 0.86425668001174926758 0.86165916919708251953 0.94775384664535522461 0.96808761358261108398 0.94793599843978881836 0.87382405996322631836 0.83611464500427246094 0.85949176549911499023 0.87874978780746459961 0.89905267953872680664 0.93030881881713867188 0.95439028739929199219 0.9563808441162109375 0.93324083089828491211 0.94877088069915771484 0.88242143392562866211 0.8869978785514831543 0.88142836093902587891 0.88912314176559448242 0.88273978233337402344 0.93348813056945800781 0.95366615056991577148 0.95618242025375366211 0.95615118741989135742 0.97662323713302612305 0.98583298921585083008 0.9655997157096862793 0.92967498302459716797 0.98871773481369018555 0.98804360628128051758 0.87304073572158813477 0.86701369285583496094 0.92904394865036010742 0.95235055685043334961 0.95786690711975097656 0.96570068597793579102 0.97658652067184448242 0.98611032962799072266 
0.97269320487976074219 0.96964615583419799805 0.96297186613082885742 0.99481886625289916992 0.91033178567886352539 0.86933940649032592773 0.88616335391998291016 0.86737400293350219727 0.85679578781127929688 0.89855033159255981445 0.954010009765625 0.96001482009887695312 0.98584192991256713867 0.98676854372024536133 0.97533571720123291016 0.95737081766128540039 0.96868020296096801758 0.99427980184555053711 0.96832114458084106445 0.83652281761169433594 0.82753545045852661133 0.89979898929595947266 0.92932289838790893555 0.94904571771621704102 0.95100480318069458008 0.9299551844596862793 0.99273103475570678711 0.98045891523361206055 0.91928833723068237305 0.95393747091293334961 0.94144362211227416992 0.94679880142211914062 0.9541403651237487793 0.95777100324630737305 0.95065677165985107422 0.94685983657836914062 0.94943243265151977539 0.94670569896697998047 0.92968314886093139648 0.90050578117370605469 0.86833137273788452148 0.90273851156234741211 0.92877244949340820312 0.99657815694808959961 0.98692077398300170898 0.97323429584503173828 0.95953333377838134766 0.97479480504989624023 0.9780909419059753418 0.97877776622772216797 0.97202539443969726562 0.929073333740234375 0.92918127775192260742 0.94111281633377075195 0.93392109870910644531 0.95175778865814208984 0.95558941364288330078 0.94529223442077636719 0.96861898899078369141 0.97645556926727294922 0.97165840864181518555 0.92205792665481567383 0.98879313468933105469 0.99213111400604248047 0.93298834562301635742 0.92479550838470458984 0.92682480812072753906 0.92338919639587402344 0.92222034931182861328 0.89746642112731933594 0.87750542163848876953 0.85492485761642456055 0.9439728856086730957 0.97379773855209350586 0.94002175331115722656 0.86135500669479370117 0.83966976404190063477 0.85325473546981811523 0.86643737554550170898 0.88656473159790039062 0.87819445133209228516 0.8899390101432800293 0.91139751672744750977 0.9402930140495300293 0.98899006843566894531 0.99293863773345947266 0.9079220890998840332 0.89424240589141845703 0.89951324462890625 0.91005527973175048828 0.90957468748092651367 0.92258411645889282227 0.94230151176452636719 0.9399153590202331543 0.93270123004913330078 0.92284536361694335938 0.92913031578063964844 0.93835645914077758789 0.93385428190231323242 0.96365535259246826172 0.99695837497711181641 0.93854242563247680664 0.8667723536491394043 0.92779564857482910156 0.95429044961929321289 0.95646941661834716797 0.95656609535217285156 0.96503537893295288086 0.97912961244583129883 
0.94585412740707397461 0.90303915739059448242 0.9668890833854675293 0.99724340438842773438 0.85407727956771850586 0.87982016801834106445 0.86874067783355712891 0.83525711297988891602 0.81818521022796630859 0.86485773324966430664 0.9091714024543762207 0.90393304824829101562 0.90387094020843505859 0.99458432197570800781 0.99839669466018676758 0.9979432225227355957 0.98038977384567260742 0.8717982172966003418 0.90435200929641723633 0.86755740642547607422 0.8541724085807800293 0.84599661827087402344 0.88136518001556396484 0.8880850672721862793 0.92294770479202270508 0.93603378534317016602 0.98866552114486694336 0.96961426734924316406 0.90430688858032226562 0.96225714683532714844 0.94949299097061157227 0.94761145114898681641 0.95982760190963745117 0.9599406123161315918 0.95500469207763671875 0.94988048076629638672 0.93993467092514038086 0.9152285456657409668 0.89577066898345947266 0.87762022018432617188 0.92863059043884277344 0.9948895573616027832 0.98756563663482666016 0.99485939741134643555 0.98502939939498901367 0.98874676227569580078 0.9749819636344909668 0.97651994228363037109 0.97992902994155883789 0.9695885777473449707 0.93010997772216796875 0.91031914949417114258 0.94732975959777832031 0.94536119699478149414 0.93759584426879882812 0.93952453136444091797 0.92887383699417114258 0.95359361171722412109 0.97327339649200439453 0.97838693857192993164 0.97141462564468383789 0.92429512739181518555 0.98487091064453125 0.98960095643997192383 0.94326889514923095703 0.92835670709609985352 0.92474633455276489258 0.93616271018981933594 0.91226112842559814453 0.88710385560989379883 0.85983073711395263672 0.90835642814636230469 0.9830716252326965332 0.94907915592193603516 0.86906415224075317383 0.86120581626892089844 0.85926771163940429688 0.87621396780014038086 0.8711611628532409668 0.90658646821975708008 0.86750662326812744141 0.85875332355499267578 0.86379903554916381836 0.90556389093399047852 0.97736668586730957031 0.96845239400863647461 0.88287425041198730469 0.87817704677581787109 0.90172564983367919922 0.92195755243301391602 0.92639499902725219727 0.92283850908279418945 0.94091999530792236328 0.94750559329986572266 0.95076143741607666016 0.94570440053939819336 0.9577147364616394043 0.96547937393188476562 0.96411263942718505859 0.96161913871765136719 0.98875796794891357422 0.91560536623001098633 0.84387421607971191406 0.92504668235778808594 0.95424449443817138672 0.9645404815673828125 0.9686635136604309082 0.96140897274017333984 0.97510033845901489258 
0.9066708683967590332 0.87748306989669799805 0.98143720626831054688 0.98123937845230102539 0.85009419918060302734 0.8844229578971862793 0.83376604318618774414 0.82129460573196411133 0.85351097583770751953 0.91666555404663085938 0.92099606990814208984 0.90322244167327880859 0.92235022783279418945 0.94693028926849365234 0.97087264060974121094 0.96317458152770996094 0.9159514307975769043 0.85931545495986938477 0.89373743534088134766 0.92962855100631713867 0.89615398645401000977 0.86648267507553100586 0.83580583333969116211 0.82330977916717529297 0.95007956027984619141 0.96737587451934814453 0.9827982783317565918 0.97966390848159790039 0.94959080219268798828 0.96174275875091552734 0.97744220495223999023 0.9703248143196105957 0.95987689495086669922 0.94340991973876953125 0.94674676656723022461 0.93559932708740234375 0.92158031463623046875 0.90475291013717651367 0.92646420001983642578 0.96334385871887207031 0.99753469228744506836 0.98977577686309814453 0.96848517656326293945 0.94374847412109375 0.92420667409896850586 0.98209798336029052734 0.94980138540267944336 0.96111512184143066406 0.96023911237716674805 0.93179994821548461914 0.91744232177734375 0.94174188375473022461 0.95315313339233398438 0.94315731525421142578 0.9403966069221496582 0.91477543115615844727 0.93771123886108398438 0.97009789943695068359 0.97758924961090087891 0.97828495502471923828 0.96918666362762451172 0.95162975788116455078 0.96505641937255859375 0.99957704544067382812 0.982349395751953125 0.91939496994018554688 0.93207418918609619141 0.93463498353958129883 0.91012012958526611328 0.87884020805358886719 0.85922467708587646484 0.94777721166610717773 0.98144572973251342773 0.90095323324203491211 0.8889262080192565918 0.88297486305236816406 0.90314233303070068359 0.93400037288665771484 0.93764060735702514648 0.95873981714248657227 0.94207137823104858398 0.85463750362396240234 0.84727472066879272461 0.94606035947799682617 0.96476155519485473633 0.91187930107116699219 0.89807152748107910156 0.90160429477691650391 0.90175467729568481445 0.92512166500091552734 0.93770730495452880859 0.9302285313606262207 0.92822384834289550781 0.93232178688049316406 0.95496845245361328125 0.95738339424133300781 0.95172005891799926758 0.94860553741455078125 0.93931615352630615234 0.9504451751708984375 0.972339630126953125 0.88937801122665405273 0.90361845493316650391 0.91704082489013671875 0.94832831621170043945 0.96613478660583496094 0.96520370244979858398 0.96725350618362426758 0.99510526657104492188 
0.93302398920059204102 0.93105864524841308594 0.98249077796936035156 0.98147463798522949219 0.8893947601318359375 0.8795502781867980957 0.8214054107666015625 0.8229427337646484375 0.89081376791000366211 0.9219519495964050293 0.93898153305053710938 0.94735676050186157227 0.96744370460510253906 0.98006570339202880859 0.97884488105773925781 0.89807790517807006836 0.90230739116668701172 0.90200191736221313477 0.90141016244888305664 0.92546802759170532227 0.92320460081100463867 0.88429474830627441406 0.84982770681381225586 0.87474578619003295898 0.97926360368728637695 0.96554464101791381836 0.95563298463821411133 0.99075543880462646484 0.99401581287384033203 0.97147464752197265625 0.9808050990104675293 0.98385250568389892578 0.98731768131256103516 0.98815995454788208008 0.98600125312805175781 0.97615778446197509766 0.98188292980194091797 0.99435204267501831055 0.99491721391677856445 0.99697971343994140625 0.98265910148620605469 0.94402253627777099609 0.90421247482299804688 0.88035380840301513672 0.87494856119155883789 0.96194845438003540039 0.95941066741943359375 0.95408117771148681641 0.94153624773025512695 0.92204594612121582031 0.94358605146408081055 0.95110309123992919922 0.950626373291015625 0.94880270957946777344 0.93265473842620849609 0.91670376062393188477 0.97483777999877929688 0.96787679195404052734 0.98057359457015991211 0.97164666652679443359 0.96802800893783569336 0.95712035894393920898 0.98977297544479370117 0.99153041839599609375 0.96083319187164306641 0.95863258838653564453 0.9639517664909362793 0.94006741046905517578 0.90888828039169311523 0.87629479169845581055 0.90091496706008911133 0.98470568656921386719 0.94965207576751708984 0.86256700754165649414 0.90337187051773071289 0.89628291130065917969 0.91435599327087402344 0.90419816970825195312 0.88331121206283569336 0.87636315822601318359 0.9036922454833984375 0.99039924144744873047 0.96847033500671386719 0.97103863954544067383 0.92265361547470092773 0.90796810388565063477 0.92391926050186157227 0.90447026491165161133 0.8956000208854675293 0.92131882905960083008 0.94020944833755493164 0.95774173736572265625 0.95337677001953125 0.95252120494842529297 0.95753127336502075195 0.95294612646102905273 0.95661449432373046875 0.98271721601486206055 0.98965275287628173828 0.99601691961288452148 0.99957704544067382812 0.90571862459182739258 0.895416259765625 0.91021168231964111328 0.93406790494918823242 0.95957052707672119141 0.96748143434524536133 0.94704240560531616211 0.9755001068115234375 
0.97462457418441772461 0.99613189697265625 0.99561917781829833984 0.95497375726699829102 0.88347482681274414062 0.85655182600021362305 0.8208548426628112793 0.82453203201293945312 0.82120180130004882812 0.85723793506622314453 0.96551418304443359375 0.99455535411834716797 0.99119108915328979492 0.98931896686553955078 0.94350975751876831055 0.87182283401489257812 0.8634503483772277832 0.87977492809295654297 0.90551877021789550781 0.92334103584289550781 0.92710900306701660156 0.90722924470901489258 0.86633956432342529297 0.85946929454803466797 0.93994158506393432617 0.9608262181282043457 0.95984518527984619141 0.9622618556022644043 0.97867131233215332031 0.90775841474533081055 0.90882164239883422852 0.91726225614547729492 0.93797081708908081055 0.97399556636810302734 0.9801578521728515625 0.99004405736923217773 0.99525952339172363281 0.98979604244232177734 0.95369815826416015625 0.95488744974136352539 0.94413560628890991211 0.94390755891799926758 0.92289495468139648438 0.90417814254760742188 0.88284736871719360352 0.9323291778564453125 0.96881490945816040039 0.96200501918792724609 0.95714384317398071289 0.94725096225738525391 0.95404207706451416016 0.95274233818054199219 0.95246398448944091797 0.95180755853652954102 0.93266791105270385742 0.91755044460296630859 0.97767126560211181641 0.96455430984497070312 0.96113061904907226562 0.95193082094192504883 0.94612002372741699219 0.98427683115005493164 0.98106080293655395508 0.91208994388580322266 0.91248691082000732422 0.93664038181304931641 0.95168715715408325195 0.93885529041290283203 0.90958184003829956055 0.90574967861175537109 0.96667718887329101562 0.98897004127502441406 0.91033023595809936523 0.8770567774772644043 0.90779787302017211914 0.8967183232307434082 0.92103213071823120117 0.95014792680740356445 0.94690108299255371094 0.95380687713623046875 0.93119519948959350586 0.99890178442001342773 0.99944210052490234375 0.9970671534538269043 0.95968419313430786133 0.92654025554656982422 0.93093079328536987305 0.90395402908325195312 0.89833152294158935547 0.92155766487121582031 0.93968701362609863281 0.96172064542770385742 0.96940177679061889648 0.97459495067596435547 0.98454487323760986328 0.98720490932464599609 0.98134136199951171875 0.98126810789108276367 0.9701907038688659668 0.96343213319778442383 0.98938739299774169922 0.99396848678588867188 0.91242879629135131836 0.9120591282844543457 0.934314727783203125 0.95487272739410400391 0.96650421619415283203 0.96807461977005004883 0.98470795154571533203 
0.99107474088668823242 0.95034551620483398438 0.94422417879104614258 0.89599263668060302734 0.89875525236129760742 0.84917795658111572266 0.82030385732650756836 0.84682893753051757812 0.88846373558044433594 0.94926035404205322266 0.99946749210357666016 0.99735146760940551758 0.9984543919563293457 0.98745048046112060547 0.91364556550979614258 0.88923919200897216797 0.86293023824691772461 0.88418751955032348633 0.88028675317764282227 0.92155683040618896484 0.92828261852264404297 0.92314815521240234375 0.90858662128448486328 0.91635900735855102539 0.91603887081146240234 0.92682427167892456055 0.95857805013656616211 0.97079497575759887695 0.98092991113662719727 0.91027426719665527344 0.92196798324584960938 0.91797751188278198242 0.88205778598785400391 0.90967285633087158203 0.87460881471633911133 0.91048914194107055664 0.92913079261779785156 0.94315999746322631836 0.96009552478790283203 0.9494813084602355957 0.94064581394195556641 0.94936150312423706055 0.95335549116134643555 0.92134195566177368164 0.88323229551315307617 0.90201491117477416992 0.94511640071868896484 0.95242637395858764648 0.94933795928955078125 0.95034682750701904297 0.95446503162384033203 0.95282274484634399414 0.94083982706069946289 0.9223423004150390625 0.92000406980514526367 0.90839219093322753906 0.96247076988220214844 0.95744282007217407227 0.97888892889022827148 0.9983037114143371582 0.98793423175811767578 0.99126821756362915039 0.95598638057708740234 0.93418997526168823242 0.93273168802261352539 0.92362380027770996094 0.9417158961296081543 0.93354505300521850586 0.91138601303100585938 0.89858710765838623047 0.96245241165161132812 0.98994547128677368164 0.90460246801376342773 0.89149361848831176758 0.91642725467681884766 0.90801328420639038086 0.93085920810699462891 0.95920360088348388672 0.95444303750991821289 0.94875097274780273438 0.96886420249938964844 0.92828440666198730469 0.91175812482833862305 0.95524418354034423828 0.99115169048309326172 0.97277307510375976562 0.94346141815185546875 0.91076165437698364258 0.87760519981384277344 0.92358160018920898438 0.93542951345443725586 0.9407570958137512207 0.95602220296859741211 0.96936851739883422852 0.97953069210052490234 0.9864870905876159668 0.98991131782531738281 0.99041891098022460938 0.98905020952224731445 0.98707526922225952148 0.9869963526725769043 0.99842953681945800781 0.99828606843948364258 0.9020335078239440918 0.93015551567077636719 0.9506638646125793457 0.96318453550338745117 0.97475063800811767578 0.98518002033233642578 
0.97634947299957275391 0.92115116119384765625 0.93838560581207275391 0.90678268671035766602 0.87475568056106567383 0.82868355512619018555 0.84033203125 0.87053322792053222656 0.8817704319953918457 0.93415158987045288086 0.97630733251571655273 0.94465351104736328125 0.91553938388824462891 0.93292224407196044922 0.88074201345443725586 0.89515233039855957031 0.87700897455215454102 0.88305062055587768555 0.86826205253601074219 0.89765715599060058594 0.91524463891983032227 0.91610109806060791016 0.92273694276809692383 0.92500662803649902344 0.92833548784255981445 0.92516529560089111328 0.92583876848220825195 0.97188097238540649414 0.98005950450897216797 0.92125219106674194336 0.93599921464920043945 0.93629819154739379883 0.91388410329818725586 0.90326505899429321289 0.87630480527877807617 0.86636066436767578125 0.89239943027496337891 0.91653919219970703125 0.95958924293518066406 0.96247458457946777344 0.94786930084228515625 0.95340955257415771484 0.95442682504653930664 0.92566823959350585938 0.86463260650634765625 0.91393649578094482422 0.94276267290115356445 0.92590481042861938477 0.90262472629547119141 0.94511443376541137695 0.95619499683380126953 0.95422214269638061523 0.91771847009658813477 0.92430311441421508789 0.93202203512191772461 0.90906071662902832031 0.9346243739128112793 0.97143656015396118164 0.99969542026519775391 0.99488091468811035156 0.92688667774200439453 0.96663606166839599609 0.97679197788238525391 0.98356908559799194336 0.97341769933700561523 0.92766779661178588867 0.92980694770812988281 0.92279320955276489258 0.93180769681930541992 0.94064372777938842773 0.93654495477676391602 0.98179531097412109375 0.91172546148300170898 0.894268035888671875 0.93668425083160400391 0.94329297542572021484 0.95199763774871826172 0.95968556404113769531 0.95878136157989501953 0.94865840673446655273 0.95842850208282470703 0.94963622093200683594 0.94889491796493530273 0.94867235422134399414 0.95962393283843994141 0.9758803248405456543 0.94935375452041625977 0.93832898139953613281 0.87839239835739135742 0.92378038167953491211 0.94797730445861816406 0.95978182554244995117 0.96516251564025878906 0.93200635910034179688 0.93367445468902587891 0.98073941469192504883 0.99013161659240722656 0.99242895841598510742 0.99296551942825317383 0.99315214157104492188 0.98847210407257080078 0.99652993679046630859 0.99653595685958862305 0.87431180477142333984 0.92358040809631347656 0.95124441385269165039 0.95573478937149047852 0.96764492988586425781 0.9808432459831237793 
0.99133080244064331055 0.90870344638824462891 0.92694121599197387695 0.92028748989105224609 0.87092787027359008789 0.85166126489639282227 0.84246045351028442383 0.85917228460311889648 0.88337355852127075195 0.88519197702407836914 0.93930107355117797852 0.9442831873893737793 0.90044349431991577148 0.94894188642501831055 0.94056123495101928711 0.89790636301040649414 0.86327874660491943359 0.84305721521377563477 0.84708690643310546875 0.86111891269683837891 0.90286862850189208984 0.91920113563537597656 0.898960113525390625 0.89528197050094604492 0.98164552450180053711 0.99016904830932617188 0.98358774185180664062 0.99767291545867919922 0.9650834202766418457 0.91959398984909057617 0.9353466033935546875 0.93937933444976806641 0.93331241607666015625 0.91667544841766357422 0.89456993341445922852 0.87141889333724975586 0.86885392665863037109 0.8559843897819519043 0.94314777851104736328 0.96198153495788574219 0.93083751201629638672 0.94586622714996337891 0.92490309476852416992 0.89964044094085693359 0.84858012199401855469 0.89814382791519165039 0.87830644845962524414 0.90033870935440063477 0.9144312739372253418 0.96575886011123657227 0.97119450569152832031 0.9557469487190246582 0.89058709144592285156 0.96715521812438964844 0.94350534677505493164 0.9420922398567199707 0.95247137546539306641 0.97349631786346435547 0.99928116798400878906 0.91052830219268798828 0.83751058578491210938 0.88932049274444580078 0.95555984973907470703 0.98563963174819946289 0.98865586519241333008 0.96848648786544799805 0.93278002738952636719 0.93772655725479125977 0.9423726201057434082 0.95410966873168945312 0.96311855316162109375 0.98864775896072387695 0.96160036325454711914 0.89180934429168701172 0.9301121830940246582 0.94010049104690551758 0.9385783076286315918 0.95253109931945800781 0.95311784744262695312 0.94650787115097045898 0.95151913166046142578 0.94313472509384155273 0.92444509267807006836 0.90907895565032958984 0.94699853658676147461 0.99124473333358764648 0.97974234819412231445 0.98588460683822631836 0.89211583137512207031 0.95170390605926513672 0.9760258793830871582 0.98690199851989746094 0.989166259765625 0.99906229972839355469 0.99124109745025634766 0.98579835891723632812 0.9898592829704284668 0.98975253105163574219 0.99193996191024780273 0.99237471818923950195 0.98812240362167358398 0.98955267667770385742 0.992946624755859375 0.90195757150650024414 0.92520821094512939453 0.95504057407379150391 0.97377496957778930664 0.95394814014434814453 0.97370576858520507812 
0.99399518966674804688 0.95069646835327148438 0.89700400829315185547 0.91796106100082397461 0.8501008152961730957 0.83162689208984375 0.85214406251907348633 0.89584648609161376953 0.87986332178115844727 0.89710092544555664062 0.94698619842529296875 0.95739102363586425781 0.85767549276351928711 0.88242608308792114258 0.92533344030380249023 0.92029041051864624023 0.83671516180038452148 0.82458072900772094727 0.83770632743835449219 0.88281339406967163086 0.88237643241882324219 0.91625964641571044922 0.95285648107528686523 0.97732985019683837891 0.9910945892333984375 0.98209691047668457031 0.96775078773498535156 0.92619472742080688477 0.97449171543121337891 0.93958890438079833984 0.92325204610824584961 0.94567358493804931641 0.94750380516052246094 0.95359873771667480469 0.95070213079452514648 0.90890210866928100586 0.88339239358901977539 0.84799468517303466797 0.86091858148574829102 0.9582278132438659668 0.94431477785110473633 0.92908245325088500977 0.92921727895736694336 0.90218514204025268555 0.85057580471038818359 0.83449995517730712891 0.90289002656936645508 0.93669801950454711914 0.98222905397415161133 0.96902579069137573242 0.9716618657112121582 0.95418143272399902344 0.90711480379104614258 0.97177928686141967773 0.9927310943603515625 0.9988842010498046875 0.99873256683349609375 0.99847233295440673828 0.98926615715026855469 0.87694942951202392578 0.86158621311187744141 0.89421975612640380859 0.85985004901885986328 0.87689942121505737305 0.96592867374420166016 0.98765832185745239258 0.9489199519157409668 0.94378566741943359375 0.92048943042755126953 0.9707196354866027832 0.97086066007614135742 0.98318076133728027344 0.96162450313568115234 0.8857180476188659668 0.92681616544723510742 0.9245452880859375 0.91957515478134155273 0.93446362018585205078 0.92465686798095703125 0.9006907343864440918 0.92184263467788696289 0.92900872230529785156 0.9558289647102355957 0.98624747991561889648 0.99969542026519775391 0.95370239019393920898 0.8990777134895324707 0.99242150783538818359 0.99705040454864501953 0.97935748100280761719 0.98280984163284301758 0.97720324993133544922 0.94099599123001098633 0.94480073451995849609 0.92265146970748901367 0.8460025787353515625 0.91777306795120239258 0.97768926620483398438 0.99802422523498535156 0.99716681241989135742 0.98373103141784667969 0.98900723457336425781 0.9996700286865234375 0.97628253698348999023 0.94268465042114257812 0.95030057430267333984 0.96795320510864257812 0.95096069574356079102 0.94357979297637939453 
0.98288506269454956055 0.97396939992904663086 0.92018240690231323242 0.92601794004440307617 0.85424906015396118164 0.8322613835334777832 0.8531144261360168457 0.92782759666442871094 0.95465230941772460938 0.99435859918594360352 0.99848020076751708984 0.96152848005294799805 0.88351750373840332031 0.89940553903579711914 0.91054290533065795898 0.90792596340179443359 0.85763084888458251953 0.82147496938705444336 0.81106048822402954102 0.91591829061508178711 0.95287114381790161133 0.96456968784332275391 0.98853534460067749023 0.97692078351974487305 0.95245879888534545898 0.93785113096237182617 0.90126639604568481445 0.8951994776725769043 0.99919831752777099609 0.99731326103210449219 0.91878682374954223633 0.92702281475067138672 0.95197594165802001953 0.96445119380950927734 0.96468615531921386719 0.96560496091842651367 0.95425266027450561523 0.91246235370635986328 0.86346083879470825195 0.94562304019927978516 0.97224599123001098633 0.93323612213134765625 0.92894124984741210938 0.89221566915512084961 0.83946639299392700195 0.81133311986923217773 0.92357790470123291016 0.99733245372772216797 0.98779642581939697266 0.95990771055221557617 0.96699053049087524414 0.95695918798446655273 0.9543463587760925293 0.97250252962112426758 0.98082941770553588867 0.96498024463653564453 0.99424827098846435547 0.98680841922760009766 0.88651764392852783203 0.85314261913299560547 0.86478781700134277344 0.89930760860443115234 0.88356184959411621094 0.84789073467254638672 0.86664092540740966797 0.96525073051452636719 0.96917116641998291016 0.94467210769653320312 0.94253402948379516602 0.9864552617073059082 0.98609495162963867188 0.98226058483123779297 0.96796375513076782227 0.88889634609222412109 0.9190661311149597168 0.90513080358505249023 0.90792036056518554688 0.91020286083221435547 0.94063228368759155273 0.87310063838958740234 0.91369748115539550781 0.96089816093444824219 0.99216628074645996094 0.99510020017623901367 0.94426059722900390625 0.83443856239318847656 0.82135885953903198242 0.88549149036407470703 0.95073854923248291016 0.85629296302795410156 0.81628531217575073242 0.83746254444122314453 0.87448334693908691406 0.93754559755325317383 0.92002749443054199219 0.79716581106185913086 0.83609569072723388672 0.87896305322647094727 0.98974740505218505859 0.99624723196029663086 0.88787865638732910156 0.90555685758590698242 0.94180417060852050781 0.98979318141937255859 0.9814154505729675293 0.97400152683258056641 0.98829919099807739258 0.99101471900939941406 0.94230943918228149414 
0.96271252632141113281 0.93184506893157958984 0.89715546369552612305 0.90199035406112670898 0.85602086782455444336 0.86267733573913574219 0.87526178359985351562 0.85064786672592163086 0.83363205194473266602 0.98749101161956787109 0.96337819099426269531 0.94009739160537719727 0.85054898262023925781 0.87798875570297241211 0.87664306163787841797 0.89332246780395507812 0.88884365558624267578 0.82821941375732421875 0.81175053119659423828 0.8389670252799987793 0.93040108680725097656 0.97218841314315795898 0.95087271928787231445 0.95132935047149658203 0.91454005241394042969 0.91548937559127807617 0.88294327259063720703 0.93689441680908203125 0.99770605564117431641 0.98869442939758300781 0.89507132768630981445 0.85342574119567871094 0.89060068130493164062 0.91671460866928100586 0.88443529605865478516 0.90154016017913818359 0.92492771148681640625 0.91984641551971435547 0.88519340753555297852 0.8906707763671875 0.9733943939208984375 0.94099354743957519531 0.9301280975341796875 0.90927457809448242188 0.84484493732452392578 0.80329054594039916992 0.8468850255012512207 0.97472524642944335938 0.99718862771987915039 0.99283957481384277344 0.98762309551239013672 0.99294567108154296875 0.98809391260147094727 0.96503055095672607422 0.92931878566741943359 0.88665020465850830078 0.92715626955032348633 0.9787425994873046875 0.93306523561477661133 0.86679512262344360352 0.89927762746810913086 0.91389518976211547852 0.89956527948379516602 0.87726444005966186523 0.84633326530456542969 0.87081313133239746094 0.96926045417785644531 0.96471989154815673828 0.9528306126594543457 0.9589239954948425293 0.96548086404800415039 0.98007684946060180664 0.97938394546508789062 0.88961732387542724609 0.89515000581741333008 0.89488571882247924805 0.92334806919097900391 0.97550070285797119141 0.99960243701934814453 0.99722856283187866211 0.98051279783248901367 0.99030977487564086914 0.98564386367797851562 0.86963856220245361328 0.90607726573944091797 0.85987895727157592773 0.86371260881423950195 0.92145049571990966797 0.92107617855072021484 0.85255092382431030273 0.85338616371154785156 0.8710568547248840332 0.92819082736968994141 0.97298783063888549805 0.91499823331832885742 0.81661748886108398438 0.84571301937103271484 0.86364030838012695312 0.93476402759552001953 0.87957972288131713867 0.82115828990936279297 0.83333665132522583008 0.8398806452751159668 0.94435787200927734375 0.91933625936508178711 0.96251189708709716797 0.99921423196792602539 0.98432099819183349609 0.9963772892951965332 
0.96075475215911865234 0.91957813501358032227 0.89664316177368164062 0.86862337589263916016 0.85473555326461791992 0.86040258407592773438 0.86957603693008422852 0.84331327676773071289 0.80854821205139160156 0.97933220863342285156 0.96598100662231445312 0.90799480676651000977 0.88152354955673217773 0.90064036846160888672 0.90282833576202392578 0.8931840062141418457 0.88943076133728027344 0.86064881086349487305 0.82170563936233520508 0.8082904815673828125 0.837932586669921875 0.93389463424682617188 0.92071402072906494141 0.90874248743057250977 0.92560327053070068359 0.9056644439697265625 0.8646392822265625 0.98777586221694946289 0.96323609352111816406 0.94013726711273193359 0.94786167144775390625 0.94095879793167114258 0.91395789384841918945 0.91251409053802490234 0.91968542337417602539 0.92159003019332885742 0.92628842592239379883 0.90113818645477294922 0.8942368626594543457 0.86667501926422119141 0.95582652091979980469 0.92180275917053222656 0.88804960250854492188 0.88990110158920288086 0.85438841581344604492 0.79699981212615966797 0.84372889995574951172 0.91948783397674560547 0.99036121368408203125 0.99864840507507324219 0.99579483270645141602 0.99323838949203491211 0.93730187416076660156 0.89011031389236450195 0.89193767309188842773 0.91891002655029296875 0.90128928422927856445 0.98859053850173950195 0.98411023616790771484 0.8861904144287109375 0.87578779458999633789 0.88501119613647460938 0.87764418125152587891 0.86866611242294311523 0.84018242359161376953 0.81633162498474121094 0.85593342781066894531 0.95542740821838378906 0.97420674562454223633 0.99055492877960205078 0.98985660076141357422 0.98796617984771728516 0.97944027185440063477 0.91906708478927612305 0.85921317338943481445 0.89574635028839111328 0.99064069986343383789 0.98910105228424072266 0.98830586671829223633 0.99132359027862548828 0.99903625249862670898 0.99875044822692871094 0.96442455053329467773 0.8629462122917175293 0.90296167135238647461 0.87562525272369384766 0.88081240653991699219 0.94744420051574707031 0.90098279714584350586 0.86978608369827270508 0.86412912607192993164 0.8357079625129699707 0.87289780378341674805 0.95732039213180541992 0.87852346897125244141 0.81806260347366333008 0.84382480382919311523 0.87226915359497070312 0.94681543111801147461 0.85499483346939086914 0.83054482936859130859 0.8207912445068359375 0.86566907167434692383 0.92880398035049438477 0.8283678889274597168 0.84167063236236572266 0.94003033638000488281 0.88055902719497680664 0.97759652137756347656 
0.95496511459350585938 0.91875725984573364258 0.89055740833282470703 0.84327596426010131836 0.84705954790115356445 0.82968223094940185547 0.87397271394729614258 0.85388231277465820312 0.8846333622932434082 0.99925601482391357422 0.99663823843002319336 0.93122589588165283203 0.9373677372932434082 0.94748485088348388672 0.9329471588134765625 0.94696986675262451172 0.92576986551284790039 0.89974588155746459961 0.85519778728485107422 0.81933557987213134766 0.82515376806259155273 0.89934265613555908203 0.92919194698333740234 0.918506622314453125 0.92400032281875610352 0.88981318473815917969 0.90043878555297851562 0.99692082405090332031 0.93423134088516235352 0.91726136207580566406 0.92234200239181518555 0.9488652348518371582 0.94312304258346557617 0.92901211977005004883 0.93444639444351196289 0.93677341938018798828 0.94038528203964233398 0.90422165393829345703 0.8619492650032043457 0.85612899065017700195 0.96220648288726806641 0.90077668428421020508 0.85431981086730957031 0.87330353260040283203 0.86475992202758789062 0.823139190673828125 0.85688406229019165039 0.91560113430023193359 0.91722339391708374023 0.94869726896286010742 0.93005621433258056641 0.93906193971633911133 0.91537302732467651367 0.88512277603149414062 0.85344666242599487305 0.88789039850234985352 0.85373020172119140625 0.96243906021118164062 0.98674756288528442383 0.92845582962036132812 0.87236839532852172852 0.88121163845062255859 0.88304471969604492188 0.87689411640167236328 0.85684162378311157227 0.8533293604850769043 0.86217427253723144531 0.92469292879104614258 0.98907572031021118164 0.99553799629211425781 0.98754620552062988281 0.98664176464080810547 0.98090291023254394531 0.9994671940803527832 0.98613590002059936523 0.9571101069450378418 0.98209375143051147461 0.98840439319610595703 0.98755681514739990234 0.97549188137054443359 0.9490630030632019043 0.8984978795051574707 0.91872453689575195312 0.87675988674163818359 0.89850157499313354492 0.89513957500457763672 0.91087836027145385742 0.92201644182205200195 0.92180240154266357422 0.87742316722869873047 0.86122280359268188477 0.83178871870040893555 0.84437096118927001953 0.94537055492401123047 0.89919203519821166992 0.82686626911163330078 0.85338515043258666992 0.88050544261932373047 0.93222844600677490234 0.87282919883728027344 0.84234583377838134766 0.84606546163558959961 0.90275788307189941406 0.93305706977844238281 0.8438091278076171875 0.85061496496200561523 0.92887187004089355469 0.87514251470565795898 0.93859946727752685547 
0.94050300121307373047 0.89822912216186523438 0.83882218599319458008 0.8339449763298034668 0.83239305019378662109 0.82539260387420654297 0.92890858650207519531 0.97799915075302124023 0.95498877763748168945 0.98434114456176757812 0.98887008428573608398 0.99113106727600097656 0.9935614466667175293 0.98206508159637451172 0.94211244583129882812 0.92157059907913208008 0.92459398508071899414 0.90694779157638549805 0.88276249170303344727 0.8247731328010559082 0.8247553706169128418 0.89523935317993164062 0.92881989479064941406 0.91793239116668701172 0.9089400172233581543 0.86708211898803710938 0.92827039957046508789 0.99621587991714477539 0.9934514164924621582 0.93679058551788330078 0.92261230945587158203 0.92917662858963012695 0.92774564027786254883 0.90741634368896484375 0.93113416433334350586 0.93939256668090820312 0.93424117565155029297 0.88630884885787963867 0.86167997121810913086 0.85774743556976318359 0.93312978744506835938 0.90938013792037963867 0.84518718719482421875 0.84764266014099121094 0.85943233966827392578 0.81217426061630249023 0.86197012662887573242 0.88630682229995727539 0.86398184299468994141 0.97278982400894165039 0.9672654271125793457 0.95744031667709350586 0.93268364667892456055 0.91289025545120239258 0.9019463658332824707 0.8664404749870300293 0.82424449920654296875 0.88403409719467163086 0.98753786087036132812 0.98839819431304931641 0.9119332432746887207 0.87676864862442016602 0.88008660078048706055 0.87471061944961547852 0.85935515165328979492 0.85807454586029052734 0.88303518295288085938 0.92874521017074584961 0.94017964601516723633 0.90077793598175048828 0.82781481742858886719 0.82810044288635253906 0.85136342048645019531 0.99359393119812011719 0.99969542026519775391 0.95757603645324707031 0.98028761148452758789 0.99100935459136962891 0.99529492855072021484 0.92817717790603637695 0.8560269474983215332 0.85946673154830932617 0.86584299802780151367 0.85613971948623657227 0.89606362581253051758 0.91045904159545898438 0.90640491247177124023 0.89709830284118652344 0.94361704587936401367 0.8834431767463684082 0.85365688800811767578 0.8404369354248046875 0.86447060108184814453 0.93013280630111694336 0.89521759748458862305 0.82460993528366088867 0.87067878246307373047 0.87007135152816772461 0.8979428410530090332 0.90263265371322631836 0.84276586771011352539 0.86723458766937255859 0.92593252658843994141 0.93738615512847900391 0.85249596834182739258 0.86243093013763427734 0.8989467620849609375 0.89173173904418945312 0.93826758861541748047 
0.89767885208129882812 0.84826284646987915039 0.86260163784027099609 0.89441269636154174805 0.89015305042266845703 0.88220793008804321289 0.93857347965240478516 0.99074304103851318359 0.95652550458908081055 0.98081666231155395508 0.96749150753021240234 0.98195469379425048828 0.92751163244247436523 0.93066263198852539062 0.89309763908386230469 0.89739561080932617188 0.91708487272262573242 0.90179687738418579102 0.90259343385696411133 0.83633071184158325195 0.81935417652130126953 0.90957498550415039062 0.91987168788909912109 0.88763713836669921875 0.87765103578567504883 0.94667273759841918945 0.97748434543609619141 0.97665363550186157227 0.99413830041885375977 0.97840237617492675781 0.90950763225555419922 0.88472628593444824219 0.88073152303695678711 0.86898386478424072266 0.89023447036743164062 0.90225207805633544922 0.90756869316101074219 0.90731906890869140625 0.88343465328216552734 0.87290072441101074219 0.90503191947937011719 0.90517956018447875977 0.85609704256057739258 0.83700793981552124023 0.8553593754768371582 0.83153265714645385742 0.86553007364273071289 0.86818009614944458008 0.84690910577774047852 0.97212553024291992188 0.97625774145126342773 0.97121125459671020508 0.92870473861694335938 0.92358154058456420898 0.92756223678588867188 0.87566614151000976562 0.83094543218612670898 0.87080222368240356445 0.97972023487091064453 0.98570924997329711914 0.90708649158477783203 0.87136697769165039062 0.87013840675354003906 0.8758837580680847168 0.85748445987701416016 0.84747236967086791992 0.87058603763580322266 0.92500585317611694336 0.90237355232238769531 0.85998356342315673828 0.82178449630737304688 0.81858521699905395508 0.84333908557891845703 0.97598445415496826172 0.95949602127075195312 0.96874147653579711914 0.98307299613952636719 0.98846954107284545898 0.9938290715217590332 0.9009806513786315918 0.84101748466491699219 0.87047201395034790039 0.89080965518951416016 0.86280477046966552734 0.89238303899765014648 0.90099996328353881836 0.90553712844848632812 0.91436976194381713867 0.94842529296875 0.89138209819793701172 0.860118865966796875 0.85131865739822387695 0.90545010566711425781 0.88797116279602050781 0.87690120935440063477 0.83451735973358154297 0.86229461431503295898 0.85771983861923217773 0.8566887974739074707 0.88764309883117675781 0.84617584943771362305 0.81599646806716918945 0.89998710155487060547 0.90214550495147705078 0.85858201980590820312 0.89234393835067749023 0.88728761672973632812 0.9075787663459777832 0.94773954153060913086 
0.89557576179504394531 0.87787038087844848633 0.89510434865951538086 0.90680068731307983398 0.89562755823135375977 0.89688438177108764648 0.9383087158203125 0.98091238737106323242 0.93177461624145507812 0.97858285903930664062 0.95660430192947387695 0.99075931310653686523 0.92773491144180297852 0.94134622812271118164 0.91416752338409423828 0.89027166366577148438 0.90679901838302612305 0.90651881694793701172 0.89774262905120849609 0.84097069501876831055 0.81636005640029907227 0.88266789913177490234 0.88973844051361083984 0.86662441492080688477 0.85609304904937744141 0.96548491716384887695 0.9561595916748046875 0.95666700601577758789 0.98203271627426147461 0.97738969326019287109 0.85929220914840698242 0.84897327423095703125 0.87459856271743774414 0.88823986053466796875 0.89548695087432861328 0.90448409318923950195 0.9154803156852722168 0.91280031204223632812 0.90910017490386962891 0.89659225940704345703 0.89294701814651489258 0.91516596078872680664 0.89842128753662109375 0.85955262184143066406 0.86223202943801879883 0.83922827243804931641 0.84765863418579101562 0.84494131803512573242 0.87691295146942138672 0.93883240222930908203 0.9764468073844909668 0.97359067201614379883 0.96358478069305419922 0.94443732500076293945 0.92682778835296630859 0.89681440591812133789 0.85922759771347045898 0.88073521852493286133 0.98016494512557983398 0.9664700627326965332 0.88552135229110717773 0.85636502504348754883 0.84021669626235961914 0.87000387907028198242 0.86154836416244506836 0.84339851140975952148 0.90520638227462768555 0.93735784292221069336 0.90308678150177001953 0.87456399202346801758 0.83582955598831176758 0.87647134065628051758 0.97608643770217895508 0.99156928062438964844 0.97182458639144897461 0.97338205575942993164 0.98673689365386962891 0.98356544971466064453 0.99805909395217895508 0.97457206249237060547 0.8938019871711730957 0.89420258998870849609 0.89739632606506347656 0.88481527566909790039 0.88105762004852294922 0.90272843837738037109 0.8953908085823059082 0.89255100488662719727 0.8816311955451965332 0.8854020237922668457 0.8665606379508972168 0.87600398063659667969 0.90095096826553344727 0.84889763593673706055 0.84473145008087158203 0.83035814762115478516 0.86237305402755737305 0.84959256649017333984 0.83458089828491210938 0.86710226535797119141 0.85335576534271240234 0.84314393997192382812 0.86137378215789794922 0.86798763275146484375 0.8556118011474609375 0.86554408073425292969 0.85276734828948974609 0.88786303997039794922 0.94146233797073364258 
0.85315501689910888672 0.9021294713020324707 0.9035396575927734375 0.89183384180068969727 0.89505767822265625 0.91125881671905517578 0.92276841402053833008 0.95360296964645385742 0.9446455836296081543 0.96767967939376831055 0.97112900018692016602 0.99751943349838256836 0.97154408693313598633 0.96822017431259155273 0.95861315727233886719 0.94521725177764892578 0.95373857021331787109 0.94231957197189331055 0.90407603979110717773 0.83529096841812133789 0.83087366819381713867 0.8462066650390625 0.84170681238174438477 0.88197320699691772461 0.94165581464767456055 0.98758554458618164062 0.96296477317810058594 0.9246953129768371582 0.98417961597442626953 0.99352514743804931641 0.88515132665634155273 0.86897671222686767578 0.86223250627517700195 0.88094091415405273438 0.90835332870483398438 0.92119079828262329102 0.94926905632019042969 0.91840624809265136719 0.92234814167022705078 0.90693712234497070312 0.90460306406021118164 0.88761186599731445312 0.88648557662963867188 0.87584692239761352539 0.86844366788864135742 0.85815805196762084961 0.83747011423110961914 0.84461754560470581055 0.8841374516487121582 0.91215825080871582031 0.92272639274597167969 0.97595047950744628906 0.90526717901229858398 0.92101532220840454102 0.89381569623947143555 0.87130463123321533203 0.85195440053939819336 0.88481402397155761719 0.97806775569915771484 0.9742133021354675293 0.88585144281387329102 0.86394453048706054688 0.83097612857818603516 0.86556202173233032227 0.85901391506195068359 0.84539997577667236328 0.91868650913238525391 0.93501871824264526367 0.91116577386856079102 0.87894028425216674805 0.91325598955154418945 0.96206271648406982422 0.98146486282348632812 0.98993611335754394531 0.98362481594085693359 0.972408294677734375 0.98260742425918579102 0.96587651968002319336 0.99351346492767333984 0.98331010341644287109 0.9124075770378112793 0.92661213874816894531 0.90687066316604614258 0.86742585897445678711 0.87754058837890625 0.89219850301742553711 0.89762359857559204102 0.86232715845108032227 0.79607278108596801758 0.8291937708854675293 0.82226467132568359375 0.83882069587707519531 0.85415554046630859375 0.83568346500396728516 0.84332549571990966797 0.84249788522720336914 0.86497348546981811523 0.85927140712738037109 0.84587025642395019531 0.86473941802978515625 0.8658339381217956543 0.8371626734733581543 0.84276664257049560547 0.86247229576110839844 0.87018096446990966797 0.84652370214462280273 0.85233223438262939453 0.86042475700378417969 0.9231154322624206543 
0.86977255344390869141 0.96323680877685546875 0.97617644071578979492 0.96052503585815429688 0.93836057186126708984 0.90365743637084960938 0.93263280391693115234 0.9259789586067199707 0.93131357431411743164 0.9803015589714050293 0.97590816020965576172 0.97918802499771118164 0.95170176029205322266 0.96651881933212280273 0.979976654052734375 0.94462424516677856445 0.94013494253158569336 0.91201943159103393555 0.88670980930328369141 0.83797782659530639648 0.82863539457321166992 0.81232678890228271484 0.86222833395004272461 0.94855850934982299805 0.99087888002395629883 0.97258132696151733398 0.9638856053352355957 0.9251626133918762207 0.98148250579833984375 0.99156302213668823242 0.84868979454040527344 0.87339758872985839844 0.87037795782089233398 0.90917909145355224609 0.94524353742599487305 0.9549999237060546875 0.9370479583740234375 0.92565262317657470703 0.93816405534744262695 0.92673581838607788086 0.93102020025253295898 0.9145132899284362793 0.89867633581161499023 0.88143151998519897461 0.87802886962890625 0.87595278024673461914 0.84879308938980102539 0.84732735157012939453 0.88482582569122314453 0.87866240739822387695 0.8863856196403503418 0.9899737238883972168 0.94291186332702636719 0.8685595393180847168 0.85538893938064575195 0.85192662477493286133 0.83237892389297485352 0.84167134761810302734 0.95292478799819946289 0.97616904973983764648 0.88583177328109741211 0.86199980974197387695 0.83678102493286132812 0.86169505119323730469 0.85470360517501831055 0.85020989179611206055 0.89699929952621459961 0.92319369316101074219 0.93516200780868530273 0.96015220880508422852 0.94681966304779052734 0.94409406185150146484 0.90106624364852905273 0.92280149459838867188 0.94917774200439453125 0.95179617404937744141 0.95880168676376342773 0.92907935380935668945 0.95191818475723266602 0.99162256717681884766 0.92100155353546142578 0.88875001668930053711 0.89095824956893920898 0.88795506954193115234 0.86330235004425048828 0.86941254138946533203 0.89208823442459106445 0.89467006921768188477 0.87929874658584594727 0.86896985769271850586 0.85336101055145263672 0.83970081806182861328 0.84415233135223388672 0.83993476629257202148 0.84611409902572631836 0.83462303876876831055 0.83480972051620483398 0.83614087104797363281 0.84070998430252075195 0.84380650520324707031 0.85498088598251342773 0.85598719120025634766 0.8577759861946105957 0.86293357610702514648 0.8703034520149230957 0.85876184701919555664 0.8768558502197265625 0.87284338474273681641 0.92286318540573120117 
0.93860226869583129883 0.91956692934036254883 0.914913177490234375 0.92524439096450805664 0.92339444160461425781 0.88147437572479248047 0.88416343927383422852 0.88634127378463745117 0.95938134193420410156 0.9820842742919921875 0.90533667802810668945 0.96624708175659179688 0.93855088949203491211 0.91625779867172241211 0.96613395214080810547 0.96605169773101806641 0.95198923349380493164 0.90789031982421875 0.87346929311752319336 0.83649045228958129883 0.83071386814117431641 0.83443462848663330078 0.86164802312850952148 0.96936708688735961914 0.98239105939865112305 0.93645614385604858398 0.96288025379180908203 0.95836615562438964844 0.98483180999755859375 0.98126572370529174805 0.88502001762390136719 0.90402352809906005859 0.94010913372039794922 0.96168380975723266602 0.96402323246002197266 0.92372310161590576172 0.91435104608535766602 0.93352603912353515625 0.94310581684112548828 0.9435405731201171875 0.94429618120193481445 0.92243951559066772461 0.88275104761123657227 0.88315165042877197266 0.88010042905807495117 0.87617534399032592773 0.85305547714233398438 0.85425388813018798828 0.86076700687408447266 0.86050045490264892578 0.88072431087493896484 0.99100703001022338867 0.9874057769775390625 0.86802953481674194336 0.82761782407760620117 0.81618702411651611328 0.82105153799057006836 0.85221350193023681641 0.94294059276580810547 0.97979468107223510742 0.91870909929275512695 0.88089150190353393555 0.82944142818450927734 0.85232812166213989258 0.86509239673614501953 0.89230245351791381836 0.89482641220092773438 0.9098250269889831543 0.93929135799407958984 0.93703871965408325195 0.90599071979522705078 0.9054558873176574707 0.88258749246597290039 0.9147129058837890625 0.94800257682800292969 0.9373118281364440918 0.93071335554122924805 0.91933274269104003906 0.89193928241729736328 0.93363970518112182617 0.97922545671463012695 0.94762021303176879883 0.95341289043426513672 0.9568856358528137207 0.87372559309005737305 0.84028971195220947266 0.86327821016311645508 0.87309020757675170898 0.86631530523300170898 0.8796055912971496582 0.89643317461013793945 0.87509846687316894531 0.84448325634002685547 0.82463341951370239258 0.81267088651657104492 0.83120048046112060547 0.81731724739074707031 0.84523737430572509766 0.87222492694854736328 0.81755387783050537109 0.80268770456314086914 0.83455115556716918945 0.85021096467971801758 0.84765833616256713867 0.86838942766189575195 0.83922314643859863281 0.81958305835723876953 0.85512530803680419922 0.91019636392593383789 
0.86286813020706176758 0.86360538005828857422 0.87783008813858032227 0.88390624523162841797 0.92692202329635620117 0.91718626022338867188 0.95291936397552490234 0.99248659610748291016 0.99889284372329711914 0.97809267044067382812 0.86343467235565185547 0.91975963115692138672 0.90871387720108032227 0.90785562992095947266 0.91079467535018920898 0.93071532249450683594 0.92158222198486328125 0.89453029632568359375 0.87818467617034912109 0.83555674552917480469 0.85860049724578857422 0.83494609594345092773 0.85505282878875732422 0.98098343610763549805 0.96012097597122192383 0.93297809362411499023 0.93316441774368286133 0.96441960334777832031 0.91701722145080566406 0.98690044879913330078 0.97566968202590942383 0.94794869422912597656 0.94356685876846313477 0.95177620649337768555 0.92585009336471557617 0.90149062871932983398 0.90060937404632568359 0.91696721315383911133 0.91900706291198730469 0.93015807867050170898 0.92703038454055786133 0.91464084386825561523 0.88739424943923950195 0.87824422121047973633 0.87771660089492797852 0.87827265262603759766 0.86951547861099243164 0.86774802207946777344 0.85656791925430297852 0.88200777769088745117 0.90265351533889770508 0.98723524808883666992 0.98816722631454467773 0.89161914587020874023 0.85025393962860107422 0.82434767484664916992 0.81381934881210327148 0.82949912548065185547 0.92816329002380371094 0.95054382085800170898 0.93268340826034545898 0.89211481809616088867 0.8325703740119934082 0.85758477449417114258 0.8465906977653503418 0.86430853605270385742 0.87993001937866210938 0.93044948577880859375 0.93039339780807495117 0.9014117121696472168 0.90200024843215942383 0.8857402801513671875 0.87241721153259277344 0.89505946636199951172 0.95850986242294311523 0.94053477048873901367 0.926151275634765625 0.93174707889556884766 0.92071568965911865234 0.86654609441757202148 0.95887106657028198242 0.95066350698471069336 0.95579415559768676758 0.98064672946929931641 0.9355837702751159668 0.87967103719711303711 0.88127940893173217773 0.90365302562713623047 0.92664617300033569336 0.92791765928268432617 0.88182759284973144531 0.81397235393524169922 0.79194533824920654297 0.81221592426300048828 0.79410308599472045898 0.88825565576553344727 0.88834208250045776367 0.86138987541198730469 0.92857939004898071289 0.89918357133865356445 0.83912187814712524414 0.8391704559326171875 0.8272978663444519043 0.85781091451644897461 0.90392804145812988281 0.92726212739944458008 0.89023977518081665039 0.87123215198516845703 0.93412148952484130859 
0.88791382312774658203 0.87415826320648193359 0.86459523439407348633 0.88001006841659545898 0.96640795469284057617 0.9972324371337890625 0.99911224842071533203 0.95882982015609741211 0.95316970348358154297 0.96445363759994506836 0.90037846565246582031 0.90376532077789306641 0.90468192100524902344 0.91355425119400024414 0.92550647258758544922 0.93399310111999511719 0.93654644489288330078 0.92136025428771972656 0.89472508430480957031 0.84318143129348754883 0.85218840837478637695 0.84296011924743652344 0.87422347068786621094 0.94527667760848999023 0.94667994976043701172 0.93727803230285644531 0.93448203802108764648 0.92602765560150146484 0.92494368553161621094 0.99422907829284667969 0.99333524703979492188 0.89544391632080078125 0.90753722190856933594 0.92672318220138549805 0.91182941198348999023 0.90882986783981323242 0.88631618022918701172 0.86987954378128051758 0.90650147199630737305 0.92895668745040893555 0.92391800880432128906 0.91142022609710693359 0.86888909339904785156 0.85831838846206665039 0.87561875581741333008 0.87835687398910522461 0.87124985456466674805 0.86681067943572998047 0.84690767526626586914 0.8617827296257019043 0.88749670982360839844 0.95753812789916992188 0.98211455345153808594 0.86345654726028442383 0.82320421934127807617 0.82022494077682495117 0.80836534500122070312 0.82992529869079589844 0.93397045135498046875 0.90228837728500366211 0.89138233661651611328 0.89135187864303588867 0.83158242702484130859 0.85899931192398071289 0.84600663185119628906 0.87065476179122924805 0.91475129127502441406 0.93961894512176513672 0.8947417140007019043 0.85902196168899536133 0.8937047123908996582 0.86974930763244628906 0.87825632095336914062 0.93768131732940673828 0.96736449003219604492 0.93666642904281616211 0.92416143417358398438 0.93602341413497924805 0.92635780572891235352 0.8759625554084777832 0.93276441097259521484 0.98076397180557250977 0.89706879854202270508 0.93570804595947265625 0.97705292701721191406 0.96123081445693969727 0.9559924006462097168 0.93597817420959472656 0.94031184911727905273 0.91244208812713623047 0.79915463924407958984 0.74626088142395019531 0.81021463871002197266 0.86860364675521850586 0.88640892505645751953 0.90135526657104492188 0.87332820892333984375 0.85402339696884155273 0.93393051624298095703 0.91333913803100585938 0.85722517967224121094 0.85080033540725708008 0.88255804777145385742 0.88875740766525268555 0.87629795074462890625 0.9338009953498840332 0.91457700729370117188 0.90253174304962158203 0.95517981052398681641 
0.90952169895172119141 0.90960222482681274414 0.94907766580581665039 0.98621803522109985352 0.99181586503982543945 0.9632943272590637207 0.97668045759201049805 0.92009514570236206055 0.88700020313262939453 0.92080414295196533203 0.92585986852645874023 0.90237909555435180664 0.92316859960556030273 0.93486809730529785156 0.93636190891265869141 0.93836945295333862305 0.93609589338302612305 0.93973559141159057617 0.90752047300338745117 0.83940207958221435547 0.84370553493499755859 0.86339753866195678711 0.87874966859817504883 0.92549628019332885742 0.95524603128433227539 0.93929749727249145508 0.91425436735153198242 0.88705116510391235352 0.86930793523788452148 0.98155492544174194336 0.97307664155960083008 0.86080229282379150391 0.86844545602798461914 0.90902096033096313477 0.90882968902587890625 0.88842892646789550781 0.86733335256576538086 0.87522554397583007812 0.94686269760131835938 0.91557341814041137695 0.88183766603469848633 0.88345801830291748047 0.88721632957458496094 0.8648732304573059082 0.86635321378707885742 0.87870359420776367188 0.86962682008743286133 0.86911469697952270508 0.86777496337890625 0.87001067399978637695 0.88251763582229614258 0.92835497856140136719 0.98363715410232543945 0.91944593191146850586 0.86853694915771484375 0.83275437355041503906 0.82620966434478759766 0.84855955839157104492 0.92800289392471313477 0.87752586603164672852 0.87968713045120239258 0.91690146923065185547 0.852386474609375 0.86259871721267700195 0.85797715187072753906 0.88114410638809204102 0.93948483467102050781 0.91212749481201171875 0.83552271127700805664 0.84425997734069824219 0.8743641972541809082 0.87472212314605712891 0.92556875944137573242 0.97046524286270141602 0.97830885648727416992 0.91606342792510986328 0.91466248035430908203 0.91823875904083251953 0.91259276866912841797 0.90896815061569213867 0.93703830242156982422 0.96661400794982910156 0.89818859100341796875 0.88908171653747558594 0.9604027867317199707 0.91199374198913574219 0.89548414945602416992 0.90128558874130249023 0.86310118436813354492 0.83144158124923706055 0.79016214609146118164 0.74662393331527709961 0.8074347376823425293 0.88581442832946777344 0.96312510967254638672 0.94196367263793945312 0.88247513771057128906 0.87998604774475097656 0.95181143283843994141 0.94939905405044555664 0.88762897253036499023 0.8935686945915222168 0.92014038562774658203 0.91827732324600219727 0.87593102455139160156 0.91343647241592407227 0.92315411567687988281 0.92887449264526367188 0.95587837696075439453 
0.92107218503952026367 0.93020957708358764648 0.96412318944931030273 0.99809306859970092773 0.99315124750137329102 0.93982130289077758789 0.95999473333358764648 0.95669740438461303711 0.91912698745727539062 0.93262249231338500977 0.94995993375778198242 0.93816387653350830078 0.91741883754730224609 0.93347430229187011719 0.93489271402359008789 0.92156696319580078125 0.91417449712753295898 0.93359857797622680664 0.90280044078826904297 0.82567209005355834961 0.83112615346908569336 0.8283443450927734375 0.86314779520034790039 0.90006345510482788086 0.92180734872817993164 0.92364042997360229492 0.92618334293365478516 0.92419826984405517578 0.97040015459060668945 0.98964381217956542969 0.94655299186706542969 0.89335203170776367188 0.84544026851654052734 0.89945226907730102539 0.90694397687911987305 0.87578535079956054688 0.88114386796951293945 0.94222432374954223633 0.98751622438430786133 0.9765472412109375 0.95377397537231445312 0.91092431545257568359 0.87721484899520874023 0.86856913566589355469 0.88617348670959472656 0.86648738384246826172 0.87217092514038085938 0.88112974166870117188 0.8738797307014465332 0.86485522985458374023 0.87642151117324829102 0.90992593765258789062 0.97144031524658203125 0.9388039708137512207 0.90607404708862304688 0.85896033048629760742 0.84720838069915771484 0.88663488626480102539 0.90522158145904541016 0.88215273618698120117 0.86759400367736816406 0.91346919536590576172 0.89285445213317871094 0.87877416610717773438 0.88009512424468994141 0.89482086896896362305 0.90688383579254150391 0.86894178390502929688 0.80918580293655395508 0.79793506860733032227 0.86416339874267578125 0.9195798039436340332 0.95052546262741088867 0.97188246250152587891 0.98322397470474243164 0.911190032958984375 0.88733667135238647461 0.90253442525863647461 0.92675721645355224609 0.93250262737274169922 0.92519402503967285156 0.92269486188888549805 0.87337523698806762695 0.88526016473770141602 0.90931218862533569336 0.90298789739608764648 0.9042606353759765625 0.86485040187835693359 0.83115029335021972656 0.81786394119262695312 0.76702123880386352539 0.74313461780548095703 0.75172263383865356445 0.8423220515251159668 0.9730002284049987793 0.94550919532775878906 0.89940124750137329102 0.90213733911514282227 0.94082039594650268555 0.9828090667724609375 0.91492831707000732422 0.8942171931266784668 0.92909377813339233398 0.93171858787536621094 0.9001331329345703125 0.89459234476089477539 0.94331860542297363281 0.93807303905487060547 0.96938729286193847656 
0.94449102878570556641 0.94620418548583984375 0.98729914426803588867 0.99883377552032470703 0.96749442815780639648 0.92131978273391723633 0.93955576419830322266 0.96616715192794799805 0.93623530864715576172 0.94949054718017578125 0.95543658733367919922 0.94911861419677734375 0.92384678125381469727 0.93266153335571289062 0.93200081586837768555 0.89771592617034912109 0.88094937801361083984 0.88251018524169921875 0.83543747663497924805 0.82943332195281982422 0.84048849344253540039 0.8286711573600769043 0.8661110997200012207 0.8900286555290222168 0.89224040508270263672 0.96193015575408935547 0.95530611276626586914 0.91466122865676879883 0.92560362815856933594 0.93896603584289550781 0.96305125951766967773 0.93937838077545166016 0.89782494306564331055 0.90079134702682495117 0.9277095794677734375 0.95656907558441162109 0.97704488039016723633 0.98654139041900634766 0.98628401756286621094 0.97382330894470214844 0.97962927818298339844 0.93135988712310791016 0.88525527715682983398 0.87765705585479736328 0.9092814326286315918 0.87091267108917236328 0.864627838134765625 0.8732216954231262207 0.86733108758926391602 0.84116804599761962891 0.83358287811279296875 0.85938751697540283203 0.95113128423690795898 0.93828272819519042969 0.89553922414779663086 0.87169659137725830078 0.85962319374084472656 0.87932801246643066406 0.88905948400497436523 0.87449860572814941406 0.86217200756072998047 0.87194257974624633789 0.86749291419982910156 0.89073902368545532227 0.878032684326171875 0.85918319225311279297 0.88990753889083862305 0.84603738784790039062 0.84977585077285766602 0.88004666566848754883 0.89165890216827392578 0.88740324974060058594 0.89419192075729370117 0.96564567089080810547 0.98676210641860961914 0.92706549167633056641 0.87769800424575805664 0.88022381067276000977 0.92420697212219238281 0.92282766103744506836 0.903171539306640625 0.87889742851257324219 0.84322881698608398438 0.84065032005310058594 0.86291581392288208008 0.87526702880859375 0.88337087631225585938 0.81054890155792236328 0.79657924175262451172 0.78337085247039794922 0.77201211452484130859 0.78924125432968139648 0.8051617741584777832 0.78291714191436767578 0.96850824356079101562 0.95047491788864135742 0.9329306483268737793 0.9539318084716796875 0.92915099859237670898 0.9803447723388671875 0.94161224365234375 0.89482665061950683594 0.93848437070846557617 0.93951785564422607422 0.90739166736602783203 0.88749831914901733398 0.95387810468673706055 0.93791508674621582031 0.95743632316589355469 
0.93184906244277954102 0.91128396987915039062 0.9813473820686340332 0.97703748941421508789 0.96201646327972412109 0.95279473066329956055 0.92247062921524047852 0.95925313234329223633 0.97110486030578613281 0.94001096487045288086 0.95291346311569213867 0.95937138795852661133 0.9265232086181640625 0.92880111932754516602 0.90627610683441162109 0.88318145275115966797 0.86776101589202880859 0.84981232881546020508 0.83566087484359741211 0.82167565822601318359 0.83368724584579467773 0.82394987344741821289 0.87126982212066650391 0.89834928512573242188 0.86046165227890014648 0.88413608074188232422 0.93155950307846069336 0.92794388532638549805 0.89907670021057128906 0.99766510725021362305 0.9996700286865234375 0.96456897258758544922 0.94219368696212768555 0.9516156315803527832 0.91998374462127685547 0.93808698654174804688 0.95293277502059936523 0.96411681175231933594 0.94709265232086181641 0.93104374408721923828 0.94575977325439453125 0.94993948936462402344 0.92815947532653808594 0.91330504417419433594 0.914745330810546875 0.89421552419662475586 0.85927122831344604492 0.86402440071105957031 0.86087960004806518555 0.85940039157867431641 0.82369911670684814453 0.80871957540512084961 0.91476202011108398438 0.91369998455047607422 0.84440535306930541992 0.84443390369415283203 0.8371982574462890625 0.84222543239593505859 0.84169638156890869141 0.84855353832244873047 0.86843460798263549805 0.8732382655143737793 0.8644784092903137207 0.87425839900970458984 0.86631023883819580078 0.85057967901229858398 0.87147629261016845703 0.87929898500442504883 0.89181560277938842773 0.87485182285308837891 0.87392973899841308594 0.87204223871231079102 0.85552889108657836914 0.94135171175003051758 0.96697419881820678711 0.95726424455642700195 0.90730500221252441406 0.88143110275268554688 0.87626731395721435547 0.89084929227828979492 0.8760941624641418457 0.83701181411743164062 0.80078166723251342773 0.81151336431503295898 0.8353748321533203125 0.84619629383087158203 0.85396367311477661133 0.81665050983428955078 0.79127013683319091797 0.77524656057357788086 0.81440830230712890625 0.8493442535400390625 0.82937300205230712891 0.81130605936050415039 0.94727075099945068359 0.9528796076774597168 0.92070478200912475586 0.96440178155899047852 0.94237124919891357422 0.96543592214584350586 0.98054033517837524414 0.88463044166564941406 0.93366652727127075195 0.93648898601531982422 0.89059060811996459961 0.89399433135986328125 0.95431447029113769531 0.9600467681884765625 0.94545483589172363281 
0.88232517242431640625 0.89672887325286865234 0.995426177978515625 0.98640954494476318359 0.93175876140594482422 0.94319498538970947266 0.89780956506729125977 0.91705626249313354492 0.96738779544830322266 0.9425194859504699707 0.94015914201736450195 0.95346277952194213867 0.90913021564483642578 0.90792316198348999023 0.89638549089431762695 0.87913739681243896484 0.86480891704559326172 0.83983856439590454102 0.83585768938064575195 0.80687081813812255859 0.88253241777420043945 0.88603419065475463867 0.88673609495162963867 0.86809170246124267578 0.82438898086547851562 0.80601441860198974609 0.84916675090789794922 0.89515638351440429688 0.95122802257537841797 0.99686765670776367188 0.9916858673095703125 0.99344307184219360352 0.96395534276962280273 0.91926735639572143555 0.85697132349014282227 0.86426186561584472656 0.89547741413116455078 0.93338835239410400391 0.96077048778533935547 0.94342690706253051758 0.94662976264953613281 0.94591987133026123047 0.95551878213882446289 0.95336729288101196289 0.94921070337295532227 0.92566901445388793945 0.89687633514404296875 0.86911350488662719727 0.84755170345306396484 0.8519446253776550293 0.85300654172897338867 0.82305544614791870117 0.90381264686584472656 0.89402037858963012695 0.82889020442962646484 0.82603657245635986328 0.83434414863586425781 0.84303253889083862305 0.86201941967010498047 0.86587756872177124023 0.86582422256469726562 0.87468224763870239258 0.8813152313232421875 0.88415807485580444336 0.88327115774154663086 0.88760232925415039062 0.89285749197006225586 0.90022206306457519531 0.88891184329986572266 0.87847125530242919922 0.87927955389022827148 0.8765627741813659668 0.8574021458625793457 0.95248776674270629883 0.98477840423583984375 0.99208593368530273438 0.99112516641616821289 0.95091253519058227539 0.89715617895126342773 0.8847382664680480957 0.88204121589660644531 0.8320662379264831543 0.78736758232116699219 0.7793986201286315918 0.78383213281631469727 0.79441946744918823242 0.80465477705001831055 0.79153800010681152344 0.77701914310455322266 0.80125349760055541992 0.8437868952751159668 0.87354224920272827148 0.90697789192199707031 0.92958873510360717773 0.95401656627655029297 0.96286422014236450195 0.93764966726303100586 0.96214872598648071289 0.95948308706283569336 0.9640356898307800293 0.98798424005508422852 0.90183770656585693359 0.92845648527145385742 0.93574869632720947266 0.88315492868423461914 0.90453588962554931641 0.94338619709014892578 0.97373819351196289062 0.97168117761611938477 
0.97528159618377685547 0.99578875303268432617 0.99299758672714233398 0.93409448862075805664 0.88162648677825927734 0.91605287790298461914 0.9487482905387878418 0.92650407552719116211 0.92922770977020263672 0.96931481361389160156 0.93094921112060546875 0.94268268346786499023 0.88541883230209350586 0.88959449529647827148 0.88742077350616455078 0.8701178431510925293 0.82858717441558837891 0.84632760286331176758 0.8349406123161315918 0.8277441859245300293 0.90036666393280029297 0.8884823918342590332 0.87113046646118164062 0.88790345191955566406 0.85382664203643798828 0.83358031511306762695 0.87892413139343261719 0.90597248077392578125 0.99956017732620239258 0.99129617214202880859 0.98459327220916748047 0.95699876546859741211 0.92218840122222900391 0.94311976432800292969 0.87384116649627685547 0.86779803037643432617 0.88221663236618041992 0.89240282773971557617 0.94829028844833374023 0.94063562154769897461 0.93053966760635375977 0.93530470132827758789 0.94340699911117553711 0.93327862024307250977 0.93474698066711425781 0.93245345354080200195 0.93397569656372070312 0.89272367954254150391 0.85810029506683349609 0.8367487788200378418 0.84114587306976318359 0.82767325639724731445 0.88349205255508422852 0.88933682441711425781 0.83083581924438476562 0.83433288335800170898 0.85044503211975097656 0.85536420345306396484 0.85057973861694335938 0.83887541294097900391 0.8377253413200378418 0.84630537033081054688 0.86121994256973266602 0.877933502197265625 0.88864558935165405273 0.89173066616058349609 0.89698988199234008789 0.90557152032852172852 0.90034490823745727539 0.89045828580856323242 0.88556677103042602539 0.88657224178314208984 0.89011031389236450195 0.94127410650253295898 0.96647030115127563477 0.95804196596145629883 0.94849199056625366211 0.97462165355682373047 0.97556513547897338867 0.95021355152130126953 0.90935128927230834961 0.85613858699798583984 0.76628744602203369141 0.77900528907775878906 0.77823233604431152344 0.79241192340850830078 0.7768395543098449707 0.76216852664947509766 0.75209462642669677734 0.78709483146667480469 0.80880004167556762695 0.8197625279426574707 0.86456823348999023438 0.90754038095474243164 0.97293180227279663086 0.98102259635925292969 0.9776172637939453125 0.9533398747444152832 0.96485674381256103516 0.9412562251091003418 0.98906880617141723633 0.91343891620635986328 0.92771512269973754883 0.93228167295455932617 0.88938921689987182617 0.89687633514404296875 0.97283756732940673828 0.99765306711196899414 0.9967263340950012207 
0.99741268157958984375 0.98515838384628295898 0.92054253816604614258 0.88240474462509155273 0.92576348781585693359 0.93011677265167236328 0.93670284748077392578 0.92118805646896362305 0.91377019882202148438 0.94288289546966552734 0.92825293540954589844 0.95592927932739257812 0.91648495197296142578 0.89989048242568969727 0.89404761791229248047 0.85727035999298095703 0.80579280853271484375 0.86613488197326660156 0.88638788461685180664 0.8738193511962890625 0.90474629402160644531 0.85871446132659912109 0.85181468725204467773 0.89484632015228271484 0.90279406309127807617 0.84528720378875732422 0.87720769643783569336 0.85774099826812744141 0.99892663955688476562 0.98337090015411376953 0.97655189037322998047 0.96908926963806152344 0.96117568016052246094 0.95067495107650756836 0.87302577495574951172 0.83635687828063964844 0.86200559139251708984 0.87282359600067138672 0.9074109196662902832 0.90471500158309936523 0.90299689769744873047 0.90434616804122924805 0.91783720254898071289 0.91878885030746459961 0.92139220237731933594 0.92863088846206665039 0.93704843521118164062 0.92958545684814453125 0.90862488746643066406 0.89350652694702148438 0.85968875885009765625 0.85149407386779785156 0.86860102415084838867 0.87870949506759643555 0.85948157310485839844 0.85233831405639648438 0.84386324882507324219 0.81205916404724121094 0.81127065420150756836 0.79451674222946166992 0.80908960103988647461 0.80560582876205444336 0.79696679115295410156 0.81731438636779785156 0.84650838375091552734 0.87254995107650756836 0.87145459651947021484 0.88809770345687866211 0.90447247028350830078 0.89790821075439453125 0.86026656627655029297 0.898647308349609375 0.91811954975128173828 0.93725597858428955078 0.90063142776489257812 0.90792804956436157227 0.89965337514877319336 0.91344106197357177734 0.94882047176361083984 0.96481400728225708008 0.97401660680770874023 0.96505367755889892578 0.87611228227615356445 0.83152103424072265625 0.80983281135559082031 0.83476650714874267578 0.84925329685211181641 0.83891642093658447266 0.81187665462493896484 0.74844944477081298828 0.78414416313171386719 0.81610274314880371094 0.79279285669326782227 0.80862975120544433594 0.8674996495246887207 0.98435032367706298828 0.98781037330627441406 0.97718441486358642578 0.9803619384765625 0.94057923555374145508 0.99112397432327270508 0.95661145448684692383 0.94504940509796142578 0.9189783930778503418 0.89601606130599975586 0.88364833593368530273 0.99911236763000488281 0.94943726062774658203 0.89033073186874389648 
0.99256426095962524414 0.94497793912887573242 0.89909583330154418945 0.87126272916793823242 0.91907685995101928711 0.92717069387435913086 0.91918867826461791992 0.89235931634902954102 0.86925590038299560547 0.89622598886489868164 0.89687013626098632812 0.93535208702087402344 0.94395864009857177734 0.90873444080352783203 0.87025845050811767578 0.83533775806427001953 0.82053166627883911133 0.87851196527481079102 0.91422539949417114258 0.91125023365020751953 0.90315568447113037109 0.8508269190788269043 0.84003549814224243164 0.85842484235763549805 0.90000760555267333984 0.89542156457901000977 0.88577508926391601562 0.87881678342819213867 0.9423872828483581543 0.99147951602935791016 0.96175622940063476562 0.97266995906829833984 0.97035658359527587891 0.9770386815071105957 0.95631796121597290039 0.89765959978103637695 0.84661948680877685547 0.87524235248565673828 0.89077425003051757812 0.89164555072784423828 0.8800379633903503418 0.88141524791717529297 0.8831691741943359375 0.88728094100952148438 0.90430128574371337891 0.90423953533172607422 0.91438174247741699219 0.92356222867965698242 0.90597891807556152344 0.90509277582168579102 0.88328135013580322266 0.85609233379364013672 0.87296265363693237305 0.8828265070915222168 0.87120538949966430664 0.85684478282928466797 0.82941144704818725586 0.85876858234405517578 0.88504314422607421875 0.87758785486221313477 0.85976397991180419922 0.84944069385528564453 0.84872704744338989258 0.8566430211067199707 0.84520018100738525391 0.8276348114013671875 0.85744976997375488281 0.86434435844421386719 0.88345181941986083984 0.86278629302978515625 0.85678887367248535156 0.89211803674697875977 0.891017913818359375 0.94527387619018554688 0.89240223169326782227 0.90131431818008422852 0.8865604400634765625 0.89177531003952026367 0.9327042698860168457 0.93620455265045166016 0.96062147617340087891 0.96720004081726074219 0.97372972965240478516 0.95860630273818969727 0.95475417375564575195 0.95263677835464477539 0.93644571304321289062 0.88673073053359985352 0.82477897405624389648 0.74558299779891967773 0.78117841482162475586 0.78881955146789550781 0.79442250728607177734 0.80825275182723999023 0.84226173162460327148 0.90280348062515258789 0.93205249309539794922 0.95938992500305175781 0.99478793144226074219 0.98539102077484130859 0.9934253692626953125 0.96905636787414550781 0.93306118249893188477 0.93428647518157958984 0.91746258735656738281 0.86234188079833984375 0.99342870712280273438 0.84057497978210449219 0.90358006954193115234 
0.98140829801559448242 0.91284638643264770508 0.90233767032623291016 0.87916970252990722656 0.91249477863311767578 0.91804778575897216797 0.92331081628799438477 0.90032356977462768555 0.88296580314636230469 0.90601903200149536133 0.9056885838508605957 0.90490603446960449219 0.93299591541290283203 0.86964726448059082031 0.82185775041580200195 0.84832805395126342773 0.82901346683502197266 0.83506232500076293945 0.8757953643798828125 0.9438883662223815918 0.96934407949447631836 0.94244986772537231445 0.9056549072265625 0.93855571746826171875 0.94056737422943115234 0.96474951505661010742 0.96687346696853637695 0.9409878849983215332 0.97761517763137817383 0.998943328857421875 0.95711141824722290039 0.98106682300567626953 0.9735991358757019043 0.89720946550369262695 0.8848870396614074707 0.87071615457534790039 0.84641063213348388672 0.86742496490478515625 0.86267775297164916992 0.85990816354751586914 0.86790692806243896484 0.8834597468376159668 0.8878071904182434082 0.87912762165069580078 0.87033504247665405273 0.85070300102233886719 0.93951964378356933594 0.94632208347320556641 0.92574089765548706055 0.92157673835754394531 0.91834795475006103516 0.86831367015838623047 0.86667954921722412109 0.87939119338989257812 0.8590729832649230957 0.84878653287887573242 0.85613834857940673828 0.87835294008255004883 0.87128037214279174805 0.85341244935989379883 0.84860289096832275391 0.87389403581619262695 0.87631464004516601562 0.88102471828460693359 0.86761683225631713867 0.82496625185012817383 0.82795637845993041992 0.84391379356384277344 0.8501866459846496582 0.84376835823059082031 0.84876555204391479492 0.86078673601150512695 0.90370506048202514648 0.9431508183479309082 0.88608324527740478516 0.8985093235969543457 0.88005584478378295898 0.90262913703918457031 0.91404998302459716797 0.90637022256851196289 0.94444859027862548828 0.95994210243225097656 0.98023301362991333008 0.98265469074249267578 0.9864349365234375 0.97876942157745361328 0.91887670755386352539 0.8634764552116394043 0.7856680750846862793 0.74502611160278320312 0.78746783733367919922 0.81097042560577392578 0.85239332914352416992 0.88578218221664428711 0.87727653980255126953 0.83507001399993896484 0.8231201171875 0.85373502969741821289 0.95702451467514038086 0.98131078481674194336 0.98961985111236572266 0.97003889083862304688 0.95477092266082763672 0.93726193904876708984 0.91240870952606201172 0.92500972747802734375 0.99742037057876586914 0.89920377731323242188 0.95159870386123657227 
0.98755002021789550781 0.92051154375076293945 0.91302353143692016602 0.89824837446212768555 0.91047340631484985352 0.90178525447845458984 0.90995883941650390625 0.90474462509155273438 0.9171053767204284668 0.92006117105484008789 0.91420787572860717773 0.9018542170524597168 0.90666782855987548828 0.84049373865127563477 0.82940274477005004883 0.82086062431335449219 0.82103449106216430664 0.87253743410110473633 0.90308415889739990234 0.95725423097610473633 0.98435264825820922852 0.98265594244003295898 0.96038955450057983398 0.94208216667175292969 0.89551657438278198242 0.93415421247482299805 0.98147463798522949219 0.99272668361663818359 0.9996700286865234375 0.97586804628372192383 0.94352674484252929688 0.97515976428985595703 0.98946535587310791016 0.95735466480255126953 0.88620406389236450195 0.85670185089111328125 0.84451264142990112305 0.84391367435455322266 0.8631808161735534668 0.86386966705322265625 0.84568321704864501953 0.8831145167350769043 0.88916695117950439453 0.89476704597473144531 0.89950162172317504883 0.90179067850112915039 0.95193463563919067383 0.93752741813659667969 0.93573659658432006836 0.93720924854278564453 0.9314644932746887207 0.91359627246856689453 0.88879323005676269531 0.87889784574508666992 0.85967898368835449219 0.87479484081268310547 0.86580383777618408203 0.86458384990692138672 0.86836946010589599609 0.8983275294303894043 0.95258224010467529297 0.94216734170913696289 0.9263763427734375 0.90349143743515014648 0.90466463565826416016 0.83047974109649658203 0.7938219904899597168 0.84129476547241210938 0.85158634185791015625 0.84227228164672851562 0.84226751327514648438 0.86353099346160888672 0.91683566570281982422 0.9394664764404296875 0.88619601726531982422 0.8848673701286315918 0.84921532869338989258 0.89153456687927246094 0.91894662380218505859 0.89681202173233032227 0.90883010625839233398 0.90822249650955200195 0.92940056324005126953 0.96135127544403076172 0.98468643426895141602 0.94173789024353027344 0.90291363000869750977 0.83827549219131469727 0.722179412841796875 0.71299952268600463867 0.75383096933364868164 0.82555490732192993164 0.84326392412185668945 0.8317356109619140625 0.83534109592437744141 0.81394481658935546875 0.82266217470169067383 0.85045897960662841797 0.84556794166564941406 0.8278477787971496582 0.94488584995269775391 0.97431963682174682617 0.98426091670989990234 0.94282710552215576172 0.94909828901290893555 0.99854898452758789062 0.99961930513381958008 0.98922806978225708008 0.96245902776718139648 
0.97539615631103515625 0.92437392473220825195 0.9120464324951171875 0.90555566549301147461 0.89154654741287231445 0.89687913656234741211 0.88827663660049438477 0.89451116323471069336 0.91652017831802368164 0.91826260089874267578 0.90677946805953979492 0.89889883995056152344 0.88125962018966674805 0.84808599948883056641 0.85446876287460327148 0.85483944416046142578 0.86786919832229614258 0.90233367681503295898 0.89677280187606811523 0.90454155206680297852 0.90194076299667358398 0.93333131074905395508 0.94580441713333129883 0.96854197978973388672 0.97793906927108764648 0.96601927280426025391 0.99894422292709350586 0.9915797114372253418 0.97318542003631591797 0.88617074489593505859 0.87893557548522949219 0.87140029668807983398 0.94122183322906494141 0.98960459232330322266 0.93381422758102416992 0.87761384248733520508 0.86541002988815307617 0.87961244583129882812 0.896923065185546875 0.88918548822402954102 0.87079530954360961914 0.90453231334686279297 0.90954691171646118164 0.92564690113067626953 0.90796637535095214844 0.92887800931930541992 0.94468259811401367188 0.91871809959411621094 0.92769324779510498047 0.93414908647537231445 0.93213742971420288086 0.92526590824127197266 0.91171044111251831055 0.90327256917953491211 0.91957581043243408203 0.91715270280838012695 0.90283715724945068359 0.91628479957580566406 0.93565785884857177734 0.97663348913192749023 0.98253571987152099609 0.9618536829948425293 0.94493126869201660156 0.90737938880920410156 0.91277348995208740234 0.87848353385925292969 0.8243033289909362793 0.83995407819747924805 0.85223370790481567383 0.84696173667907714844 0.83787292242050170898 0.85432302951812744141 0.92159110307693481445 0.92706352472305297852 0.89439165592193603516 0.88014847040176391602 0.84917843341827392578 0.88836497068405151367 0.91683369874954223633 0.91036725044250488281 0.905040740966796875 0.89376229047775268555 0.8887793421745300293 0.94209158420562744141 0.96446549892425537109 0.92277848720550537109 0.84243947267532348633 0.75037074089050292969 0.73533672094345092773 0.75849395990371704102 0.7753111720085144043 0.78354501724243164062 0.78427714109420776367 0.80825775861740112305 0.82151901721954345703 0.80412131547927856445 0.80120652914047241211 0.80159401893615722656 0.79388445615768432617 0.79201292991638183594 0.82597905397415161133 0.98100310564041137695 0.99959391355514526367 0.992824554443359375 0.96815598011016845703 0.91755652427673339844 0.87818789482116699219 0.91880548000335693359 0.92101532220840454102 
0.97167634963989257812 0.93608129024505615234 0.89982527494430541992 0.90830814838409423828 0.90023922920227050781 0.8738180994987487793 0.88314872980117797852 0.88318479061126708984 0.88815480470657348633 0.89496606588363647461 0.88881003856658935547 0.87329405546188354492 0.86214071512222290039 0.85477942228317260742 0.83736252784729003906 0.83842074871063232422 0.82742083072662353516 0.8023859858512878418 0.81780987977981567383 0.84472662210464477539 0.8355324864387512207 0.85098659992218017578 0.85814189910888671875 0.90884250402450561523 0.90754896402359008789 0.90181499719619750977 0.99912935495376586914 0.98183906078338623047 0.92813479900360107422 0.9453226923942565918 0.90814286470413208008 0.87311857938766479492 0.86865317821502685547 0.99393117427825927734 0.97427445650100708008 0.95537960529327392578 0.91128844022750854492 0.90134769678115844727 0.92981863021850585938 0.95725488662719726562 0.98695814609527587891 0.99197751283645629883 0.9931182861328125 0.99225836992263793945 0.98499345779418945312 0.98518216609954833984 0.92223769426345825195 0.89397466182708740234 0.91732072830200195312 0.92151254415512084961 0.92962211370468139648 0.9369322657585144043 0.93345350027084350586 0.92180490493774414062 0.91847318410873413086 0.90745538473129272461 0.89391511678695678711 0.89805549383163452148 0.90403527021408081055 0.9856707453727722168 0.9580923914909362793 0.93968558311462402344 0.91942542791366577148 0.91356629133224487305 0.90689456462860107422 0.86359292268753051758 0.83270722627639770508 0.82300525903701782227 0.85461324453353881836 0.84952026605606079102 0.82652747631072998047 0.83261740207672119141 0.92052811384201049805 0.91764879226684570312 0.88838857412338256836 0.86867684125900268555 0.84982967376708984375 0.8801072239875793457 0.90251469612121582031 0.89293521642684936523 0.89756685495376586914 0.88824743032455444336 0.90596252679824829102 0.92683929204940795898 0.94991451501846313477 0.95722311735153198242 0.88759458065032958984 0.78738051652908325195 0.72569751739501953125 0.75782889127731323242 0.79837423563003540039 0.84232509136199951172 0.84808129072189331055 0.81946313381195068359 0.8364703059196472168 0.81641823053359985352 0.81915962696075439453 0.84658640623092651367 0.83117055892944335938 0.90994286537170410156 0.86847293376922607422 0.9623349308967590332 0.99885904788970947266 0.90993672609329223633 0.88301903009414672852 0.88451099395751953125 0.88805067539215087891 0.89811235666275024414 0.91215687990188598633 
0.96201562881469726562 0.93999117612838745117 0.91028368473052978516 0.89799576997756958008 0.88163781166076660156 0.86893308162689208984 0.88889354467391967773 0.87963205575942993164 0.86756837368011474609 0.86979830265045166016 0.85447716712951660156 0.82941073179244995117 0.82453322410583496094 0.83245247602462768555 0.86022132635116577148 0.88571071624755859375 0.84079211950302124023 0.82219642400741577148 0.83180838823318481445 0.84218525886535644531 0.83309167623519897461 0.8082720637321472168 0.8522980809211730957 0.87456226348876953125 0.87118995189666748047 0.88287234306335449219 0.96530640125274658203 0.95293587446212768555 0.9216778874397277832 0.9147650599479675293 0.91316372156143188477 0.89652746915817260742 0.88351392745971679688 0.94078338146209716797 0.99644494056701660156 0.99711722135543823242 0.99551928043365478516 0.98551636934280395508 0.98233455419540405273 0.97914773225784301758 0.98763757944107055664 0.96214520931243896484 0.97130787372589111328 0.99197649955749511719 0.96626907587051391602 0.98586773872375488281 0.91658812761306762695 0.90423065423965454102 0.93148881196975708008 0.92594724893569946289 0.92038762569427490234 0.92974191904067993164 0.92365056276321411133 0.91281163692474365234 0.90652787685394287109 0.87511408329010009766 0.87730085849761962891 0.8704516291618347168 0.86882627010345458984 0.97456020116806030273 0.90854603052139282227 0.91267985105514526367 0.95077669620513916016 0.95748674869537353516 0.93196332454681396484 0.9094206690788269043 0.88129132986068725586 0.83899164199829101562 0.82939535379409790039 0.85787481069564819336 0.83737975358963012695 0.81528013944625854492 0.85537075996398925781 0.88697391748428344727 0.8605563044548034668 0.86232972145080566406 0.85377454757690429688 0.86528718471527099609 0.88708060979843139648 0.87463557720184326172 0.87965691089630126953 0.87951016426086425781 0.8913504481315612793 0.92141634225845336914 0.92288738489151000977 0.92449039220809936523 0.95378053188323974609 0.87372952699661254883 0.78989678621292114258 0.7609004974365234375 0.77713441848754882812 0.85807049274444580078 0.89123070240020751953 0.91961789131164550781 0.93861716985702514648 0.93095695972442626953 0.89917534589767456055 0.93096518516540527344 0.88110554218292236328 0.90952157974243164062 0.89609205722808837891 0.96122854948043823242 0.94551062583923339844 0.93548947572708129883 0.94317889213562011719 0.94101727008819580078 0.9353129267692565918 0.9226582646369934082 0.93733495473861694336 
0.9608510136604309082 0.93787795305252075195 0.90565496683120727539 0.88235723972320556641 0.86714816093444824219 0.86087191104888916016 0.87467414140701293945 0.84820032119750976562 0.83959662914276123047 0.83676987886428833008 0.82366895675659179688 0.83466982841491699219 0.85500293970108032227 0.91365885734558105469 0.86113160848617553711 0.88069140911102294922 0.91897571086883544922 0.91168266534805297852 0.9352696537971496582 0.95538359880447387695 0.88538134098052978516 0.86076223850250244141 0.91772383451461791992 0.88034927845001220703 0.84571951627731323242 0.90985536575317382812 0.97372460365295410156 0.89303064346313476562 0.97119611501693725586 0.95883387327194213867 0.91123044490814208984 0.90575039386749267578 0.89269918203353881836 0.85440140962600708008 0.95985662937164306641 0.99702495336532592773 0.98664182424545288086 0.96031743288040161133 0.91147327423095703125 0.95139408111572265625 0.96264696121215820312 0.8960888981819152832 0.85902106761932373047 0.88214731216430664062 0.88331693410873413086 0.98172068595886230469 0.93716561794281005859 0.93389642238616943359 0.93554025888442993164 0.88806110620498657227 0.89870268106460571289 0.90469664335250854492 0.88063520193099975586 0.90629667043685913086 0.86556607484817504883 0.82156908512115478516 0.90260320901870727539 0.9446392059326171875 0.96273940801620483398 0.99557071924209594727 0.9814173579216003418 0.93121075630187988281 0.91321855783462524414 0.90451699495315551758 0.85747522115707397461 0.84681457281112670898 0.83641380071640014648 0.8506329655647277832 0.82069176435470581055 0.81618410348892211914 0.82814657688140869141 0.84385246038436889648 0.84344756603240966797 0.83910208940505981445 0.83119744062423706055 0.83791112899780273438 0.84853470325469970703 0.86003601551055908203 0.86950266361236572266 0.87505728006362915039 0.87117731571197509766 0.83233940601348876953 0.85956799983978271484 0.90265071392059326172 0.8835620880126953125 0.88343930244445800781 0.92776846885681152344 0.85694372653961181641 0.77278000116348266602 0.72503167390823364258 0.74872314929962158203 0.79289352893829345703 0.78499770164489746094 0.79501020908355712891 0.85907751321792602539 0.93199056386947631836 0.95387572050094604492 0.97955250740051269531 0.96553826332092285156 0.93989419937133789062 0.93935239315032958984 0.99742609262466430664 0.95802581310272216797 0.92997956275939941406 0.95962482690811157227 0.95083117485046386719 0.94864660501480102539 0.94528448581695556641 0.93790197372436523438 
0.96617710590362548828 0.93364304304122924805 0.90391343832015991211 0.86666893959045410156 0.86316126585006713867 0.85644608736038208008 0.83544868230819702148 0.82128864526748657227 0.83610111474990844727 0.84419852495193481445 0.8187319636344909668 0.86931788921356201172 0.86770892143249511719 0.94319730997085571289 0.86477518081665039062 0.82524126768112182617 0.88620626926422119141 0.94739776849746704102 0.96544754505157470703 0.97944480180740356445 0.96024054288864135742 0.95826238393783569336 0.95163923501968383789 0.86577165126800537109 0.93311059474945068359 0.9840488433837890625 0.97457766532897949219 0.88680410385131835938 0.93139302730560302734 0.95826262235641479492 0.9010588526725769043 0.91592884063720703125 0.91670680046081542969 0.88583838939666748047 0.91403985023498535156 0.95912200212478637695 0.91883516311645507812 0.94167417287826538086 0.92068612575531005859 0.90569120645523071289 0.90260255336761474609 0.90615171194076538086 0.88874769210815429688 0.84026449918746948242 0.85009330511093139648 0.98961311578750610352 0.9895572662353515625 0.9412085413932800293 0.9211203455924987793 0.86584424972534179688 0.8961175084114074707 0.87440103292465209961 0.85483598709106445312 0.91090452671051025391 0.84728896617889404297 0.87995791435241699219 0.98135614395141601562 0.99509572982788085938 0.99404978752136230469 0.95976591110229492188 0.94531971216201782227 0.91267156600952148438 0.85849553346633911133 0.83677238225936889648 0.8406779170036315918 0.81264472007751464844 0.87444418668746948242 0.89799571037292480469 0.86145633459091186523 0.85250580310821533203 0.83331120014190673828 0.83422285318374633789 0.83095228672027587891 0.81218433380126953125 0.82281404733657836914 0.80120086669921875 0.78398084640502929688 0.79339277744293212891 0.81493538618087768555 0.83236712217330932617 0.84489649534225463867 0.82621073722839355469 0.86185055971145629883 0.88524508476257324219 0.86053287982940673828 0.88084387779235839844 0.91870594024658203125 0.82881587743759155273 0.78126072883605957031 0.73029148578643798828 0.77373063564300537109 0.85025906562805175781 0.88150417804718017578 0.88820225000381469727 0.88841521739959716797 0.9233710169792175293 0.94202935695648193359 0.97329533100128173828 0.93309837579727172852 0.91226267814636230469 0.87935620546340942383 0.98263025283813476562 0.96538019180297851562 0.98072338104248046875 0.99831211566925048828 0.99466651678085327148 0.96035838127136230469 0.93022894859313964844 0.89933913946151733398 
0.97456604242324829102 0.91436302661895751953 0.90861117839813232422 0.87991535663604736328 0.88229399919509887695 0.853099822998046875 0.85227626562118530273 0.83893275260925292969 0.86464738845825195312 0.87783592939376831055 0.79999488592147827148 0.87265378236770629883 0.90061467885971069336 0.94472599029541015625 0.88242542743682861328 0.85607731342315673828 0.88706976175308227539 0.88836252689361572266 0.86537730693817138672 0.92981535196304321289 0.97880905866622924805 0.98100781440734863281 0.96612000465393066406 0.93197011947631835938 0.99706226587295532227 0.99654656648635864258 0.91398257017135620117 0.88457632064819335938 0.92947864532470703125 0.92476010322570800781 0.91591143608093261719 0.93378305435180664062 0.93657100200653076172 0.91864031553268432617 0.89625144004821777344 0.91786175966262817383 0.94862371683120727539 0.92356771230697631836 0.9500865936279296875 0.94539743661880493164 0.90853846073150634766 0.89977967739105224609 0.86768579483032226562 0.88747072219848632812 0.94823259115219116211 0.99636578559875488281 0.97156447172164916992 0.86645197868347167969 0.84536355733871459961 0.86823046207427978516 0.87263834476470947266 0.85576200485229492188 0.8644301295280456543 0.93182700872421264648 0.93183827400207519531 0.98127514123916625977 0.98071157932281494141 0.9528325200080871582 0.92093098163604736328 0.90791720151901245117 0.8801657557487487793 0.89884054660797119141 0.90601205825805664062 0.83113008737564086914 0.82458996772766113281 0.83013474941253662109 0.89173215627670288086 0.88630086183547973633 0.87373244762420654297 0.87158489227294921875 0.87053126096725463867 0.84708696603775024414 0.85768342018127441406 0.85333025455474853516 0.81488299369812011719 0.83364838361740112305 0.8447539210319519043 0.81280797719955444336 0.82022243738174438477 0.82138919830322265625 0.83795583248138427734 0.83469629287719726562 0.85436028242111206055 0.87368094921112060547 0.85522556304931640625 0.88546299934387207031 0.91281211376190185547 0.82254195213317871094 0.76139551401138305664 0.76101511716842651367 0.77083027362823486328 0.83196789026260375977 0.84327369928359985352 0.91071379184722900391 0.97184902429580688477 0.94228202104568481445 0.88227498531341552734 0.87173330783843994141 0.80004906654357910156 0.80873304605484008789 0.82414925098419189453 0.91949141025543212891 0.99637770652770996094 0.99081259965896606445 0.98724168539047241211 0.98513948917388916016 0.96761417388916015625 0.95680469274520874023 0.93788665533065795898 
0.97027337551116943359 0.93083935976028442383 0.91397875547409057617 0.91218191385269165039 0.92936921119689941406 0.93740224838256835938 0.94506680965423583984 0.9650058746337890625 0.98365551233291625977 0.98661059141159057617 0.96650958061218261719 0.96569079160690307617 0.99133950471878051758 0.98838853836059570312 0.95081692934036254883 0.93712544441223144531 0.91100955009460449219 0.89391958713531494141 0.8909320831298828125 0.92197954654693603516 0.90962702035903930664 0.91493469476699829102 0.98737657070159912109 0.99050164222717285156 0.99732315540313720703 0.95306402444839477539 0.91742396354675292969 0.9326598048210144043 0.94166982173919677734 0.94813269376754760742 0.94555038213729858398 0.94764536619186401367 0.94926363229751586914 0.92082667350769042969 0.88178104162216186523 0.89248204231262207031 0.94712626934051513672 0.90081590414047241211 0.93034940958023071289 0.94674700498580932617 0.91262322664260864258 0.92030292749404907227 0.88253635168075561523 0.91376680135726928711 0.96263790130615234375 0.99865645170211791992 0.94572776556015014648 0.95431423187255859375 0.96856236457824707031 0.97948658466339111328 0.98289084434509277344 0.98397094011306762695 0.98212379217147827148 0.99804830551147460938 0.99563997983932495117 0.9717038273811340332 0.94335818290710449219 0.93755823373794555664 0.92789816856384277344 0.9350433349609375 0.89753872156143188477 0.87280112504959106445 0.83658558130264282227 0.87557905912399291992 0.91546529531478881836 0.96613097190856933594 0.979949951171875 0.97847098112106323242 0.97653305530548095703 0.96853965520858764648 0.94355738162994384766 0.97244805097579956055 0.97467201948165893555 0.97097629308700561523 0.96136319637298583984 0.97113561630249023438 0.97074431180953979492 0.95395857095718383789 0.92963182926177978516 0.93232864141464233398 0.91143053770065307617 0.89689534902572631836 0.89328163862228393555 0.87537872791290283203 0.85843324661254882812 0.8725337982177734375 0.8966338038444519043 0.82667446136474609375 0.84969270229339599609 0.8844585418701171875 0.86640638113021850586 0.90605449676513671875 0.88867962360382080078 0.92014312744140625 0.91545093059539794922 0.82997971773147583008 0.84373193979263305664 0.86187380552291870117 0.80238401889801025391 0.84152400493621826172 0.87282681465148925781 0.84983688592910766602 0.9691861271858215332 0.90462589263916015625 0.8407809138298034668 0.98018872737884521484 0.99143064022064208984 0.98305088281631469727 0.968212127685546875 
